( Made using CamBam - http://www.cambam.co.uk )
( Carcasse axe XZ avant 1/28/2016 5:22:27 PM )
( T0 : 1.5 )
G21 G90 G64 G40
G0 Z3.0
( T0 : 1.5 )
T0 M6
( Contour1 )
G17
M3 S1000
G0 X44.25 Y186.0
G1 F300.0 Z-1.0
G2 F800.0 X43.125 Y185.3505 I-0.75 J0.0
G2 Y186.6495 I0.375 J0.6495
G2 X44.25 Y186.0 I0.375 J-0.6495
G1 F300.0 Z-2.0
G2 F800.0 X43.125 Y185.3505 I-0.75 J0.0
G2 Y186.6495 I0.375 J0.6495
G2 X44.25 Y186.0 I0.375 J-0.6495
G1 F300.0 Z-3.0
G2 F800.0 X43.125 Y185.3505 I-0.75 J0.0
G2 Y186.6495 I0.375 J0.6495
G2 X44.25 Y186.0 I0.375 J-0.6495
G1 F300.0 Z-4.0
G2 F800.0 X43.125 Y185.3505 I-0.75 J0.0
G2 Y186.6495 I0.375 J0.6495
G2 X44.25 Y186.0 I0.375 J-0.6495
G1 F300.0 Z-5.0
G2 F800.0 X43.125 Y185.3505 I-0.75 J0.0
G2 Y186.6495 I0.375 J0.6495
G2 X44.25 Y186.0 I0.375 J-0.6495
G1 F300.0 Z-6.0
G2 F800.0 X43.125 Y185.3505 I-0.75 J0.0
G2 Y186.6495 I0.375 J0.6495
G2 X44.25 Y186.0 I0.375 J-0.6495
G0 Z3.0
G0 X72.75
G1 F300.0 Z-1.0
G2 F800.0 X73.125 Y186.6495 I0.75 J0.0
G2 X74.25 Y186.0 I0.375 J-0.6495
G2 X73.125 Y185.3505 I-0.75 J0.0
G2 X72.75 Y186.0 I0.375 J0.6495
G1 F300.0 Z-2.0
G2 F800.0 X73.125 Y186.6495 I0.75 J0.0
G2 X74.25 Y186.0 I0.375 J-0.6495
G2 X73.125 Y185.3505 I-0.75 J0.0
G2 X72.75 Y186.0 I0.375 J0.6495
G1 F300.0 Z-3.0
G2 F800.0 X73.125 Y186.6495 I0.75 J0.0
G2 X74.25 Y186.0 I0.375 J-0.6495
G2 X73.125 Y185.3505 I-0.75 J0.0
G2 X72.75 Y186.0 I0.375 J0.6495
G1 F300.0 Z-4.0
G2 F800.0 X73.125 Y186.6495 I0.75 J0.0
G2 X74.25 Y186.0 I0.375 J-0.6495
G2 X73.125 Y185.3505 I-0.75 J0.0
G2 X72.75 Y186.0 I0.375 J0.6495
G1 F300.0 Z-5.0
G2 F800.0 X73.125 Y186.6495 I0.75 J0.0
G2 X74.25 Y186.0 I0.375 J-0.6495
G2 X73.125 Y185.3505 I-0.75 J0.0
G2 X72.75 Y186.0 I0.375 J0.6495
G1 F300.0 Z-6.0
G2 F800.0 X73.125 Y186.6495 I0.75 J0.0
G2 X74.25 Y186.0 I0.375 J-0.6495
G2 X73.125 Y185.3505 I-0.75 J0.0
G2 X72.75 Y186.0 I0.375 J0.6495
G0 Z3.0
G0 X82.9556 Y13.7487
G1 F300.0 Z-1.0
G2 F800.0 X83.75 Y13.0 I0.0444 J-0.7487
G2 X82.625 Y12.3505 I-0.75 J0.0
G2 Y13.6495 I0.375 J0.6495
G2 X82.9556 Y13.7487 I0.375 J-0.6495
G1 F300.0 Z-2.0
G2 F800.0 X83.75 Y13.0 I0.0444 J-0.7487
G2 X82.625 Y12.3505 I-0.75 J0.0
G2 Y13.6495 I0.375 J0.6495
G2 X82.9556 Y13.7487 I0.375 J-0.6495
G1 F300.0 Z-3.0
G2 F800.0 X83.75 Y13.0 I0.0444 J-0.7487
G2 X82.625 Y12.3505 I-0.75 J0.0
G2 Y13.6495 I0.375 J0.6495
G2 X82.9556 Y13.7487 I0.375 J-0.6495
G1 F300.0 Z-4.0
G2 F800.0 X83.75 Y13.0 I0.0444 J-0.7487
G2 X82.625 Y12.3505 I-0.75 J0.0
G2 Y13.6495 I0.375 J0.6495
G2 X82.9556 Y13.7487 I0.375 J-0.6495
G1 F300.0 Z-5.0
G2 F800.0 X83.75 Y13.0 I0.0444 J-0.7487
G2 X82.625 Y12.3505 I-0.75 J0.0
G2 Y13.6495 I0.375 J0.6495
G2 X82.9556 Y13.7487 I0.375 J-0.6495
G1 F300.0 Z-6.0
G2 F800.0 X83.75 Y13.0 I0.0444 J-0.7487
G2 X82.625 Y12.3505 I-0.75 J0.0
G2 Y13.6495 I0.375 J0.6495
G2 X82.9556 Y13.7487 I0.375 J-0.6495
G0 Z3.0
G0 X34.7499 Y13.0115
G1 F300.0 Z-1.0
G2 F800.0 X34.75 Y13.0 I-0.7499 J-0.0115
G2 X33.625 Y12.3505 I-0.75 J0.0
G2 Y13.6495 I0.375 J0.6495
G2 X34.7499 Y13.0115 I0.375 J-0.6495
G1 F300.0 Z-2.0
G2 F800.0 X34.75 Y13.0 I-0.7499 J-0.0115
G2 X33.625 Y12.3505 I-0.75 J0.0
G2 Y13.6495 I0.375 J0.6495
G2 X34.7499 Y13.0115 I0.375 J-0.6495
G1 F300.0 Z-3.0
G2 F800.0 X34.75 Y13.0 I-0.7499 J-0.0115
G2 X33.625 Y12.3505 I-0.75 J0.0
G2 Y13.6495 I0.375 J0.6495
G2 X34.7499 Y13.0115 I0.375 J-0.6495
G1 F300.0 Z-4.0
G2 F800.0 X34.75 Y13.0 I-0.7499 J-0.0115
G2 X33.625 Y12.3505 I-0.75 J0.0
G2 Y13.6495 I0.375 J0.6495
G2 X34.7499 Y13.0115 I0.375 J-0.6495
G1 F300.0 Z-5.0
G2 F800.0 X34.75 Y13.0 I-0.7499 J-0.0115
G2 X33.625 Y12.3505 I-0.75 J0.0
G2 Y13.6495 I0.375 J0.6495
G2 X34.7499 Y13.0115 I0.375 J-0.6495
G1 F300.0 Z-6.0
G2 F800.0 X34.75 Y13.0 I-0.7499 J-0.0115
G2 X33.625 Y12.3505 I-0.75 J0.0
G2 Y13.6495 I0.375 J0.6495
G2 X34.7499 Y13.0115 I0.375 J-0.6495
( Contour2 )
S1000
G0 Z3.0
G0 X45.75 Y186.0
G1 F300.0 Z-1.0
G3 F800.0 X42.375 Y187.9486 I-2.25 J0.0
G3 Y184.0514 I1.125 J-1.9486
G3 X45.75 Y186.0 I1.125 J1.9486
G1 F300.0 Z-2.0
G3 F800.0 X42.375 Y187.9486 I-2.25 J0.0
G3 Y184.0514 I1.125 J-1.9486
G3 X45.75 Y186.0 I1.125 J1.9486
G1 F300.0 Z-3.0
G3 F800.0 X42.375 Y187.9486 I-2.25 J0.0
G3 Y184.0514 I1.125 J-1.9486
G3 X45.75 Y186.0 I1.125 J1.9486
G0 Z3.0
G0 X71.25
G1 F300.0 Z-1.0
G3 F800.0 X72.375 Y184.0514 I2.25 J0.0
G3 X75.75 Y186.0 I1.125 J1.9486
G3 X72.375 Y187.9486 I-2.25 J0.0
G3 X71.25 Y186.0 I1.125 J-1.9486
G1 F300.0 Z-2.0
G3 F800.0 X72.375 Y184.0514 I2.25 J0.0
G3 X75.75 Y186.0 I1.125 J1.9486
G3 X72.375 Y187.9486 I-2.25 J0.0
G3 X71.25 Y186.0 I1.125 J-1.9486
G1 F300.0 Z-3.0
G3 F800.0 X72.375 Y184.0514 I2.25 J0.0
G3 X75.75 Y186.0 I1.125 J1.9486
G3 X72.375 Y187.9486 I-2.25 J0.0
G3 X71.25 Y186.0 I1.125 J-1.9486
G0 Z3.0
G0 X82.8475 Y15.2448
G1 F300.0 Z-1.0
G3 F800.0 X81.875 Y14.9486 I0.1525 J-2.2448
G3 Y11.0514 I1.125 J-1.9486
G3 X85.25 Y13.0 I1.125 J1.9486
G3 X82.8475 Y15.2448 I-2.25 J0.0
G1 F300.0 Z-2.0
G3 F800.0 X81.875 Y14.9486 I0.1525 J-2.2448
G3 Y11.0514 I1.125 J-1.9486
G3 X85.25 Y13.0 I1.125 J1.9486
G3 X82.8475 Y15.2448 I-2.25 J0.0
G1 F300.0 Z-3.0
G3 F800.0 X81.875 Y14.9486 I0.1525 J-2.2448
G3 Y11.0514 I1.125 J-1.9486
G3 X85.25 Y13.0 I1.125 J1.9486
G3 X82.8475 Y15.2448 I-2.25 J0.0
G0 Z3.0
G0 X36.2476 Y13.1033
G1 F300.0 Z-1.0
G3 F800.0 X32.875 Y14.9486 I-2.2476 J-0.1033
G3 Y11.0514 I1.125 J-1.9486
G3 X36.25 Y13.0 I1.125 J1.9486
G3 X36.2476 Y13.1033 I-2.25 J0.0
G1 F300.0 Z-2.0
G3 F800.0 X32.875 Y14.9486 I-2.2476 J-0.1033
G3 Y11.0514 I1.125 J-1.9486
G3 X36.25 Y13.0 I1.125 J1.9486
G3 X36.2476 Y13.1033 I-2.25 J0.0
G1 F300.0 Z-3.0
G3 F800.0 X32.875 Y14.9486 I-2.2476 J-0.1033
G3 Y11.0514 I1.125 J-1.9486
G3 X36.25 Y13.0 I1.125 J1.9486
G3 X36.2476 Y13.1033 I-2.25 J0.0
( Contour3 )
S1000
G0 Z3.0
G0 X19.25 Y76.75
G1 F300.0 Z-1.0
G1 F800.0 Y85.25
G1 X37.75
G1 Y76.75
G1 X19.25
G1 F300.0 Z-2.0
G1 F800.0 Y85.25
G1 X37.75
G1 Y76.75
G1 X19.25
G1 F300.0 Z-3.0
G1 F800.0 Y85.25
G1 X37.75
G1 Y76.75
G1 X19.25
G1 F300.0 Z-4.0
G1 F800.0 Y85.25
G1 X37.75
G1 Y76.75
G1 X19.25
G1 F300.0 Z-5.0
G1 F800.0 Y85.25
G1 X37.75
G1 Y76.75
G1 X19.25
G1 F300.0 Z-6.0
G1 F800.0 Y85.25
G1 X37.75
G1 Y76.75
G1 X19.25
G0 Z3.0
G0 X79.25
G1 F300.0 Z-1.0
G1 F800.0 Y85.25
G1 X97.75
G1 Y76.75
G1 X79.25
G1 F300.0 Z-2.0
G1 F800.0 Y85.25
G1 X97.75
G1 Y76.75
G1 X79.25
G1 F300.0 Z-3.0
G1 F800.0 Y85.25
G1 X97.75
G1 Y76.75
G1 X79.25
G1 F300.0 Z-4.0
G1 F800.0 Y85.25
G1 X97.75
G1 Y76.75
G1 X79.25
G1 F300.0 Z-5.0
G1 F800.0 Y85.25
G1 X97.75
G1 Y76.75
G1 X79.25
G1 F300.0 Z-6.0
G1 F800.0 Y85.25
G1 X97.75
G1 Y76.75
G1 X79.25
( Contour4 )
S1000
G0 Z3.0
G0 X77.25 Y15.25
G1 F300.0 Z-1.0
G1 F800.0 Y10.0
G3 X78.0 Y9.25 I0.75 J0.0
G1 X88.0
G3 X88.75 Y10.0 I0.0 J0.75
G1 Y15.25
G1 X107.5
G3 X108.25 Y16.0 I0.0 J0.75
G1 Y189.0
G3 X107.5 Y189.75 I-0.75 J0.0
G1 X68.5
G3 X67.75 Y189.0 I0.0 J-0.75
G1 Y183.75
G1 X49.25
G1 Y189.0
G3 X48.5 Y189.75 I-0.75 J0.0
G1 X9.5
G3 X8.75 Y189.0 I0.0 J-0.75
G1 Y16.0
G3 X9.5 Y15.25 I0.75 J0.0
G1 X28.25
G1 Y10.0
G3 X29.0 Y9.25 I0.75 J0.0
G1 X39.0
G3 X39.75 Y10.0 I0.0 J0.75
G1 Y15.25
G1 X44.5
G3 X45.25 Y16.0 I0.0 J0.75
G1 Y25.25
G1 X71.75
G1 Y16.0
G3 X72.5 Y15.25 I0.75 J0.0
G1 X77.25
G1 F300.0 Z-2.0
G1 F800.0 Y10.0
G3 X78.0 Y9.25 I0.75 J0.0
G1 X88.0
G3 X88.75 Y10.0 I0.0 J0.75
G1 Y15.25
G1 X107.5
G3 X108.25 Y16.0 I0.0 J0.75
G1 Y189.0
G3 X107.5 Y189.75 I-0.75 J0.0
G1 X68.5
G3 X67.75 Y189.0 I0.0 J-0.75
G1 Y183.75
G1 X49.25
G1 Y189.0
G3 X48.5 Y189.75 I-0.75 J0.0
G1 X9.5
G3 X8.75 Y189.0 I0.0 J-0.75
G1 Y16.0
G3 X9.5 Y15.25 I0.75 J0.0
G1 X28.25
G1 Y10.0
G3 X29.0 Y9.25 I0.75 J0.0
G1 X39.0
G3 X39.75 Y10.0 I0.0 J0.75
G1 Y15.25
G1 X44.5
G3 X45.25 Y16.0 I0.0 J0.75
G1 Y25.25
G1 X71.75
G1 Y16.0
G3 X72.5 Y15.25 I0.75 J0.0
G1 X77.25
G1 F300.0 Z-3.0
G1 F800.0 Y10.0
G3 X78.0 Y9.25 I0.75 J0.0
G1 X88.0
G3 X88.75 Y10.0 I0.0 J0.75
G1 Y15.25
G1 X107.5
G3 X108.25 Y16.0 I0.0 J0.75
G1 Y189.0
G3 X107.5 Y189.75 I-0.75 J0.0
G1 X68.5
G3 X67.75 Y189.0 I0.0 J-0.75
G1 Y183.75
G1 X49.25
G1 Y189.0
G3 X48.5 Y189.75 I-0.75 J0.0
G1 X9.5
G3 X8.75 Y189.0 I0.0 J-0.75
G1 Y16.0
G3 X9.5 Y15.25 I0.75 J0.0
G1 X28.25
G1 Y10.0
G3 X29.0 Y9.25 I0.75 J0.0
G1 X39.0
G3 X39.75 Y10.0 I0.0 J0.75
G1 Y15.25
G1 X44.5
G3 X45.25 Y16.0 I0.0 J0.75
G1 Y25.25
G1 X71.75
G1 Y16.0
G3 X72.5 Y15.25 I0.75 J0.0
G1 X77.25
G1 F300.0 Z-4.0
G1 F800.0 Y10.0
G3 X78.0 Y9.25 I0.75 J0.0
G1 X88.0
G3 X88.75 Y10.0 I0.0 J0.75
G1 Y15.25
G1 X107.5
G3 X108.25 Y16.0 I0.0 J0.75
G1 Y189.0
G3 X107.5 Y189.75 I-0.75 J0.0
G1 X68.5
G3 X67.75 Y189.0 I0.0 J-0.75
G1 Y183.75
G1 X49.25
G1 Y189.0
G3 X48.5 Y189.75 I-0.75 J0.0
G1 X9.5
G3 X8.75 Y189.0 I0.0 J-0.75
G1 Y16.0
G3 X9.5 Y15.25 I0.75 J0.0
G1 X28.25
G1 Y10.0
G3 X29.0 Y9.25 I0.75 J0.0
G1 X39.0
G3 X39.75 Y10.0 I0.0 J0.75
G1 Y15.25
G1 X44.5
G3 X45.25 Y16.0 I0.0 J0.75
G1 Y25.25
G1 X71.75
G1 Y16.0
G3 X72.5 Y15.25 I0.75 J0.0
G1 X77.25
G1 F300.0 Z-5.0
G1 F800.0 Y10.0
G3 X78.0 Y9.25 I0.75 J0.0
G1 X88.0
G3 X88.75 Y10.0 I0.0 J0.75
G1 Y15.25
G1 X93.25
G0 Z-4.0
G1 X98.75
G1 F300.0 Z-5.0
G1 F800.0 X107.5
G3 X108.25 Y16.0 I0.0 J0.75
G1 Y156.25
G0 Z-4.0
G1 Y161.75
G1 F300.0 Z-5.0
G1 F800.0 Y189.0
G3 X107.5 Y189.75 I-0.75 J0.0
G1 X68.5
G3 X67.75 Y189.0 I0.0 J-0.75
G1 Y183.75
G1 X49.25
G1 Y189.0
G3 X48.5 Y189.75 I-0.75 J0.0
G1 X27.75
G0 Z-4.0
G1 X22.25
G1 F300.0 Z-5.0
G1 F800.0 X9.5
G3 X8.75 Y189.0 I0.0 J-0.75
G1 Y66.75
G0 Z-4.0
G1 Y61.25
G1 F300.0 Z-5.0
G1 F800.0 Y16.0
G3 X9.5 Y15.25 I0.75 J0.0
G1 X15.25
G0 Z-4.0
G1 X20.75
G1 F300.0 Z-5.0
G1 F800.0 X28.25
G1 Y10.0
G3 X29.0 Y9.25 I0.75 J0.0
G1 X39.0
G3 X39.75 Y10.0 I0.0 J0.75
G1 Y15.25
G1 X44.5
G3 X45.25 Y16.0 I0.0 J0.75
G1 Y25.25
G1 X71.75
G1 Y16.0
G3 X72.5 Y15.25 I0.75 J0.0
G1 X77.25
G1 F300.0 Z-6.0
G1 F800.0 Y10.0
G3 X78.0 Y9.25 I0.75 J0.0
G1 X88.0
G3 X88.75 Y10.0 I0.0 J0.75
G1 Y15.25
G1 X93.25
G0 Z-4.0
G1 X98.75
G1 F300.0 Z-6.0
G1 F800.0 X107.5
G3 X108.25 Y16.0 I0.0 J0.75
G1 Y156.25
G0 Z-4.0
G1 Y161.75
G1 F300.0 Z-6.0
G1 F800.0 Y189.0
G3 X107.5 Y189.75 I-0.75 J0.0
G1 X68.5
G3 X67.75 Y189.0 I0.0 J-0.75
G1 Y183.75
G1 X49.25
G1 Y189.0
G3 X48.5 Y189.75 I-0.75 J0.0
G1 X27.75
G0 Z-4.0
G1 X22.25
G1 F300.0 Z-6.0
G1 F800.0 X9.5
G3 X8.75 Y189.0 I0.0 J-0.75
G1 Y66.75
G0 Z-4.0
G1 Y61.25
G1 F300.0 Z-6.0
G1 F800.0 Y16.0
G3 X9.5 Y15.25 I0.75 J0.0
G1 X15.25
G0 Z-4.0
G1 X20.75
G1 F300.0 Z-6.0
G1 F800.0 X28.25
G1 Y10.0
G3 X29.0 Y9.25 I0.75 J0.0
G1 X39.0
G3 X39.75 Y10.0 I0.0 J0.75
G1 Y15.25
G1 X44.5
G3 X45.25 Y16.0 I0.0 J0.75
G1 Y25.25
G1 X71.75
G1 Y16.0
G3 X72.5 Y15.25 I0.75 J0.0
G1 X77.25
G0 Z3.0
M5
M30
