( Made using CamBam - http://www.cambam.co.uk )
( Carcasse axe XZ arrière bas 1/28/2016 5:18:32 PM )
( T0 : 1.5 )
G21 G90 G64 G40
G0 Z3.0
( T0 : 1.5 )
T0 M6
( Contour1 )
G17
M3 S1000
G0 X14.75 Y13.0
G1 F300.0 Z-1.0
G2 F800.0 X13.625 Y12.3505 I-0.75 J0.0
G2 Y13.6495 I0.375 J0.6495
G2 X14.75 Y13.0 I0.375 J-0.6495
G1 F300.0 Z-2.0
G2 F800.0 X13.625 Y12.3505 I-0.75 J0.0
G2 Y13.6495 I0.375 J0.6495
G2 X14.75 Y13.0 I0.375 J-0.6495
G1 F300.0 Z-3.0
G2 F800.0 X13.625 Y12.3505 I-0.75 J0.0
G2 Y13.6495 I0.375 J0.6495
G2 X14.75 Y13.0 I0.375 J-0.6495
G1 F300.0 Z-4.0
G2 F800.0 X13.625 Y12.3505 I-0.75 J0.0
G2 Y13.6495 I0.375 J0.6495
G2 X14.75 Y13.0 I0.375 J-0.6495
G1 F300.0 Z-5.0
G2 F800.0 X13.625 Y12.3505 I-0.75 J0.0
G2 Y13.6495 I0.375 J0.6495
G2 X14.75 Y13.0 I0.375 J-0.6495
G1 F300.0 Z-6.0
G2 F800.0 X13.625 Y12.3505 I-0.75 J0.0
G2 Y13.6495 I0.375 J0.6495
G2 X14.75 Y13.0 I0.375 J-0.6495
G0 Z3.0
G0 X43.25
G1 F300.0 Z-1.0
G2 F800.0 X43.625 Y13.6495 I0.75 J0.0
G2 X44.75 Y13.0 I0.375 J-0.6495
G2 X43.625 Y12.3505 I-0.75 J0.0
G2 X43.25 Y13.0 I0.375 J0.6495
G1 F300.0 Z-2.0
G2 F800.0 X43.625 Y13.6495 I0.75 J0.0
G2 X44.75 Y13.0 I0.375 J-0.6495
G2 X43.625 Y12.3505 I-0.75 J0.0
G2 X43.25 Y13.0 I0.375 J0.6495
G1 F300.0 Z-3.0
G2 F800.0 X43.625 Y13.6495 I0.75 J0.0
G2 X44.75 Y13.0 I0.375 J-0.6495
G2 X43.625 Y12.3505 I-0.75 J0.0
G2 X43.25 Y13.0 I0.375 J0.6495
G1 F300.0 Z-4.0
G2 F800.0 X43.625 Y13.6495 I0.75 J0.0
G2 X44.75 Y13.0 I0.375 J-0.6495
G2 X43.625 Y12.3505 I-0.75 J0.0
G2 X43.25 Y13.0 I0.375 J0.6495
G1 F300.0 Z-5.0
G2 F800.0 X43.625 Y13.6495 I0.75 J0.0
G2 X44.75 Y13.0 I0.375 J-0.6495
G2 X43.625 Y12.3505 I-0.75 J0.0
G2 X43.25 Y13.0 I0.375 J0.6495
G1 F300.0 Z-6.0
G2 F800.0 X43.625 Y13.6495 I0.75 J0.0
G2 X44.75 Y13.0 I0.375 J-0.6495
G2 X43.625 Y12.3505 I-0.75 J0.0
G2 X43.25 Y13.0 I0.375 J0.6495
G0 Z3.0
G0 X73.25
G1 F300.0 Z-1.0
G2 F800.0 X73.625 Y13.6495 I0.75 J0.0
G2 X74.75 Y13.0 I0.375 J-0.6495
G2 X73.625 Y12.3505 I-0.75 J0.0
G2 X73.25 Y13.0 I0.375 J0.6495
G1 F300.0 Z-2.0
G2 F800.0 X73.625 Y13.6495 I0.75 J0.0
G2 X74.75 Y13.0 I0.375 J-0.6495
G2 X73.625 Y12.3505 I-0.75 J0.0
G2 X73.25 Y13.0 I0.375 J0.6495
G1 F300.0 Z-3.0
G2 F800.0 X73.625 Y13.6495 I0.75 J0.0
G2 X74.75 Y13.0 I0.375 J-0.6495
G2 X73.625 Y12.3505 I-0.75 J0.0
G2 X73.25 Y13.0 I0.375 J0.6495
G1 F300.0 Z-4.0
G2 F800.0 X73.625 Y13.6495 I0.75 J0.0
G2 X74.75 Y13.0 I0.375 J-0.6495
G2 X73.625 Y12.3505 I-0.75 J0.0
G2 X73.25 Y13.0 I0.375 J0.6495
G1 F300.0 Z-5.0
G2 F800.0 X73.625 Y13.6495 I0.75 J0.0
G2 X74.75 Y13.0 I0.375 J-0.6495
G2 X73.625 Y12.3505 I-0.75 J0.0
G2 X73.25 Y13.0 I0.375 J0.6495
G1 F300.0 Z-6.0
G2 F800.0 X73.625 Y13.6495 I0.75 J0.0
G2 X74.75 Y13.0 I0.375 J-0.6495
G2 X73.625 Y12.3505 I-0.75 J0.0
G2 X73.25 Y13.0 I0.375 J0.6495
G0 Z3.0
G0 X103.25
G1 F300.0 Z-1.0
G2 F800.0 X103.625 Y13.6495 I0.75 J0.0
G2 X104.75 Y13.0 I0.375 J-0.6495
G2 X103.625 Y12.3505 I-0.75 J0.0
G2 X103.25 Y13.0 I0.375 J0.6495
G1 F300.0 Z-2.0
G2 F800.0 X103.625 Y13.6495 I0.75 J0.0
G2 X104.75 Y13.0 I0.375 J-0.6495
G2 X103.625 Y12.3505 I-0.75 J0.0
G2 X103.25 Y13.0 I0.375 J0.6495
G1 F300.0 Z-3.0
G2 F800.0 X103.625 Y13.6495 I0.75 J0.0
G2 X104.75 Y13.0 I0.375 J-0.6495
G2 X103.625 Y12.3505 I-0.75 J0.0
G2 X103.25 Y13.0 I0.375 J0.6495
G1 F300.0 Z-4.0
G2 F800.0 X103.625 Y13.6495 I0.75 J0.0
G2 X104.75 Y13.0 I0.375 J-0.6495
G2 X103.625 Y12.3505 I-0.75 J0.0
G2 X103.25 Y13.0 I0.375 J0.6495
G1 F300.0 Z-5.0
G2 F800.0 X103.625 Y13.6495 I0.75 J0.0
G2 X104.75 Y13.0 I0.375 J-0.6495
G2 X103.625 Y12.3505 I-0.75 J0.0
G2 X103.25 Y13.0 I0.375 J0.6495
G1 F300.0 Z-6.0
G2 F800.0 X103.625 Y13.6495 I0.75 J0.0
G2 X104.75 Y13.0 I0.375 J-0.6495
G2 X103.625 Y12.3505 I-0.75 J0.0
G2 X103.25 Y13.0 I0.375 J0.6495
G0 Z3.0
G0 X131.6501 Y66.8366
G1 F300.0 Z-1.0
G2 F800.0 X131.625 Y66.8505 I0.3499 J0.6634
G2 Y68.1495 I0.375 J0.6495
G2 X132.75 Y67.5 I0.375 J-0.6495
G2 X131.6501 Y66.8366 I-0.75 J0.0
G1 F300.0 Z-2.0
G2 F800.0 X131.625 Y66.8505 I0.3499 J0.6634
G2 Y68.1495 I0.375 J0.6495
G2 X132.75 Y67.5 I0.375 J-0.6495
G2 X131.6501 Y66.8366 I-0.75 J0.0
G1 F300.0 Z-3.0
G2 F800.0 X131.625 Y66.8505 I0.3499 J0.6634
G2 Y68.1495 I0.375 J0.6495
G2 X132.75 Y67.5 I0.375 J-0.6495
G2 X131.6501 Y66.8366 I-0.75 J0.0
G1 F300.0 Z-4.0
G2 F800.0 X131.625 Y66.8505 I0.3499 J0.6634
G2 Y68.1495 I0.375 J0.6495
G2 X132.75 Y67.5 I0.375 J-0.6495
G2 X131.6501 Y66.8366 I-0.75 J0.0
G1 F300.0 Z-5.0
G2 F800.0 X131.625 Y66.8505 I0.3499 J0.6634
G2 Y68.1495 I0.375 J0.6495
G2 X132.75 Y67.5 I0.375 J-0.6495
G2 X131.6501 Y66.8366 I-0.75 J0.0
G1 F300.0 Z-6.0
G2 F800.0 X131.625 Y66.8505 I0.3499 J0.6634
G2 Y68.1495 I0.375 J0.6495
G2 X132.75 Y67.5 I0.375 J-0.6495
G2 X131.6501 Y66.8366 I-0.75 J0.0
G0 Z3.0
G0 X131.996 Y131.75
G1 F300.0 Z-1.0
G2 F800.0 X131.625 Y131.8505 I0.004 J0.75
G2 Y133.1495 I0.375 J0.6495
G2 X132.75 Y132.5 I0.375 J-0.6495
G2 X131.996 Y131.75 I-0.75 J0.0
G1 F300.0 Z-2.0
G2 F800.0 X131.625 Y131.8505 I0.004 J0.75
G2 Y133.1495 I0.375 J0.6495
G2 X132.75 Y132.5 I0.375 J-0.6495
G2 X131.996 Y131.75 I-0.75 J0.0
G1 F300.0 Z-3.0
G2 F800.0 X131.625 Y131.8505 I0.004 J0.75
G2 Y133.1495 I0.375 J0.6495
G2 X132.75 Y132.5 I0.375 J-0.6495
G2 X131.996 Y131.75 I-0.75 J0.0
G1 F300.0 Z-4.0
G2 F800.0 X131.625 Y131.8505 I0.004 J0.75
G2 Y133.1495 I0.375 J0.6495
G2 X132.75 Y132.5 I0.375 J-0.6495
G2 X131.996 Y131.75 I-0.75 J0.0
G1 F300.0 Z-5.0
G2 F800.0 X131.625 Y131.8505 I0.004 J0.75
G2 Y133.1495 I0.375 J0.6495
G2 X132.75 Y132.5 I0.375 J-0.6495
G2 X131.996 Y131.75 I-0.75 J0.0
G1 F300.0 Z-6.0
G2 F800.0 X131.625 Y131.8505 I0.004 J0.75
G2 Y133.1495 I0.375 J0.6495
G2 X132.75 Y132.5 I0.375 J-0.6495
G2 X131.996 Y131.75 I-0.75 J0.0
G0 Z3.0
G0 X132.0 Y216.75
G1 F300.0 Z-1.0
G2 F800.0 X131.625 Y216.8505 I0.0 J0.75
G2 Y218.1495 I0.375 J0.6495
G2 X132.75 Y217.5 I0.375 J-0.6495
G2 X132.0 Y216.75 I-0.75 J0.0
G1 F300.0 Z-2.0
G2 F800.0 X131.625 Y216.8505 I0.0 J0.75
G2 Y218.1495 I0.375 J0.6495
G2 X132.75 Y217.5 I0.375 J-0.6495
G2 X132.0 Y216.75 I-0.75 J0.0
G1 F300.0 Z-3.0
G2 F800.0 X131.625 Y216.8505 I0.0 J0.75
G2 Y218.1495 I0.375 J0.6495
G2 X132.75 Y217.5 I0.375 J-0.6495
G2 X132.0 Y216.75 I-0.75 J0.0
G1 F300.0 Z-4.0
G2 F800.0 X131.625 Y216.8505 I0.0 J0.75
G2 Y218.1495 I0.375 J0.6495
G2 X132.75 Y217.5 I0.375 J-0.6495
G2 X132.0 Y216.75 I-0.75 J0.0
G1 F300.0 Z-5.0
G2 F800.0 X131.625 Y216.8505 I0.0 J0.75
G2 Y218.1495 I0.375 J0.6495
G2 X132.75 Y217.5 I0.375 J-0.6495
G2 X132.0 Y216.75 I-0.75 J0.0
G1 F300.0 Z-6.0
G2 F800.0 X131.625 Y216.8505 I0.0 J0.75
G2 Y218.1495 I0.375 J0.6495
G2 X132.75 Y217.5 I0.375 J-0.6495
G2 X132.0 Y216.75 I-0.75 J0.0
G0 Z3.0
G0 Y281.75
G1 F300.0 Z-1.0
G2 F800.0 X131.625 Y281.8505 I0.0 J0.75
G2 Y283.1495 I0.375 J0.6495
G2 X132.75 Y282.5 I0.375 J-0.6495
G2 X132.0 Y281.75 I-0.75 J0.0
G1 F300.0 Z-2.0
G2 F800.0 X131.625 Y281.8505 I0.0 J0.75
G2 Y283.1495 I0.375 J0.6495
G2 X132.75 Y282.5 I0.375 J-0.6495
G2 X132.0 Y281.75 I-0.75 J0.0
G1 F300.0 Z-3.0
G2 F800.0 X131.625 Y281.8505 I0.0 J0.75
G2 Y283.1495 I0.375 J0.6495
G2 X132.75 Y282.5 I0.375 J-0.6495
G2 X132.0 Y281.75 I-0.75 J0.0
G1 F300.0 Z-4.0
G2 F800.0 X131.625 Y281.8505 I0.0 J0.75
G2 Y283.1495 I0.375 J0.6495
G2 X132.75 Y282.5 I0.375 J-0.6495
G2 X132.0 Y281.75 I-0.75 J0.0
G1 F300.0 Z-5.0
G2 F800.0 X131.625 Y281.8505 I0.0 J0.75
G2 Y283.1495 I0.375 J0.6495
G2 X132.75 Y282.5 I0.375 J-0.6495
G2 X132.0 Y281.75 I-0.75 J0.0
G1 F300.0 Z-6.0
G2 F800.0 X131.625 Y281.8505 I0.0 J0.75
G2 Y283.1495 I0.375 J0.6495
G2 X132.75 Y282.5 I0.375 J-0.6495
G2 X132.0 Y281.75 I-0.75 J0.0
G0 Z3.0
G0 X104.339 Y336.331
G1 F300.0 Z-1.0
G2 F800.0 X103.625 Y336.3505 I-0.339 J0.669
G2 Y337.6495 I0.375 J0.6495
G2 X104.75 Y337.0 I0.375 J-0.6495
G2 X104.339 Y336.331 I-0.75 J0.0
G1 F300.0 Z-2.0
G2 F800.0 X103.625 Y336.3505 I-0.339 J0.669
G2 Y337.6495 I0.375 J0.6495
G2 X104.75 Y337.0 I0.375 J-0.6495
G2 X104.339 Y336.331 I-0.75 J0.0
G1 F300.0 Z-3.0
G2 F800.0 X103.625 Y336.3505 I-0.339 J0.669
G2 Y337.6495 I0.375 J0.6495
G2 X104.75 Y337.0 I0.375 J-0.6495
G2 X104.339 Y336.331 I-0.75 J0.0
G1 F300.0 Z-4.0
G2 F800.0 X103.625 Y336.3505 I-0.339 J0.669
G2 Y337.6495 I0.375 J0.6495
G2 X104.75 Y337.0 I0.375 J-0.6495
G2 X104.339 Y336.331 I-0.75 J0.0
G1 F300.0 Z-5.0
G2 F800.0 X103.625 Y336.3505 I-0.339 J0.669
G2 Y337.6495 I0.375 J0.6495
G2 X104.75 Y337.0 I0.375 J-0.6495
G2 X104.339 Y336.331 I-0.75 J0.0
G1 F300.0 Z-6.0
G2 F800.0 X103.625 Y336.3505 I-0.339 J0.669
G2 Y337.6495 I0.375 J0.6495
G2 X104.75 Y337.0 I0.375 J-0.6495
G2 X104.339 Y336.331 I-0.75 J0.0
G0 Z3.0
G0 X74.7498 Y336.9835
G1 F300.0 Z-1.0
G2 F800.0 X73.625 Y336.3505 I-0.7498 J0.0165
G2 Y337.6495 I0.375 J0.6495
G2 X74.75 Y337.0 I0.375 J-0.6495
G2 X74.7498 Y336.9835 I-0.75 J0.0
G1 F300.0 Z-2.0
G2 F800.0 X73.625 Y336.3505 I-0.7498 J0.0165
G2 Y337.6495 I0.375 J0.6495
G2 X74.75 Y337.0 I0.375 J-0.6495
G2 X74.7498 Y336.9835 I-0.75 J0.0
G1 F300.0 Z-3.0
G2 F800.0 X73.625 Y336.3505 I-0.7498 J0.0165
G2 Y337.6495 I0.375 J0.6495
G2 X74.75 Y337.0 I0.375 J-0.6495
G2 X74.7498 Y336.9835 I-0.75 J0.0
G1 F300.0 Z-4.0
G2 F800.0 X73.625 Y336.3505 I-0.7498 J0.0165
G2 Y337.6495 I0.375 J0.6495
G2 X74.75 Y337.0 I0.375 J-0.6495
G2 X74.7498 Y336.9835 I-0.75 J0.0
G1 F300.0 Z-5.0
G2 F800.0 X73.625 Y336.3505 I-0.7498 J0.0165
G2 Y337.6495 I0.375 J0.6495
G2 X74.75 Y337.0 I0.375 J-0.6495
G2 X74.7498 Y336.9835 I-0.75 J0.0
G1 F300.0 Z-6.0
G2 F800.0 X73.625 Y336.3505 I-0.7498 J0.0165
G2 Y337.6495 I0.375 J0.6495
G2 X74.75 Y337.0 I0.375 J-0.6495
G2 X74.7498 Y336.9835 I-0.75 J0.0
G0 Z3.0
G0 X44.75 Y336.9996
G1 F300.0 Z-1.0
G2 F800.0 X43.625 Y336.3505 I-0.75 J0.0004
G2 Y337.6495 I0.375 J0.6495
G2 X44.75 Y337.0 I0.375 J-0.6495
G2 Y336.9996 I-0.75 J0.0
G1 F300.0 Z-2.0
G2 F800.0 X43.625 Y336.3505 I-0.75 J0.0004
G2 Y337.6495 I0.375 J0.6495
G2 X44.75 Y337.0 I0.375 J-0.6495
G2 Y336.9996 I-0.75 J0.0
G1 F300.0 Z-3.0
G2 F800.0 X43.625 Y336.3505 I-0.75 J0.0004
G2 Y337.6495 I0.375 J0.6495
G2 X44.75 Y337.0 I0.375 J-0.6495
G2 Y336.9996 I-0.75 J0.0
G1 F300.0 Z-4.0
G2 F800.0 X43.625 Y336.3505 I-0.75 J0.0004
G2 Y337.6495 I0.375 J0.6495
G2 X44.75 Y337.0 I0.375 J-0.6495
G2 Y336.9996 I-0.75 J0.0
G1 F300.0 Z-5.0
G2 F800.0 X43.625 Y336.3505 I-0.75 J0.0004
G2 Y337.6495 I0.375 J0.6495
G2 X44.75 Y337.0 I0.375 J-0.6495
G2 Y336.9996 I-0.75 J0.0
G1 F300.0 Z-6.0
G2 F800.0 X43.625 Y336.3505 I-0.75 J0.0004
G2 Y337.6495 I0.375 J0.6495
G2 X44.75 Y337.0 I0.375 J-0.6495
G2 Y336.9996 I-0.75 J0.0
G0 Z3.0
G0 X14.75 Y337.0
G1 F300.0 Z-1.0
G2 F800.0 X13.625 Y336.3505 I-0.75 J0.0
G2 Y337.6495 I0.375 J0.6495
G2 X14.75 Y337.0 I0.375 J-0.6495
G1 F300.0 Z-2.0
G2 F800.0 X13.625 Y336.3505 I-0.75 J0.0
G2 Y337.6495 I0.375 J0.6495
G2 X14.75 Y337.0 I0.375 J-0.6495
G1 F300.0 Z-3.0
G2 F800.0 X13.625 Y336.3505 I-0.75 J0.0
G2 Y337.6495 I0.375 J0.6495
G2 X14.75 Y337.0 I0.375 J-0.6495
G1 F300.0 Z-4.0
G2 F800.0 X13.625 Y336.3505 I-0.75 J0.0
G2 Y337.6495 I0.375 J0.6495
G2 X14.75 Y337.0 I0.375 J-0.6495
G1 F300.0 Z-5.0
G2 F800.0 X13.625 Y336.3505 I-0.75 J0.0
G2 Y337.6495 I0.375 J0.6495
G2 X14.75 Y337.0 I0.375 J-0.6495
G1 F300.0 Z-6.0
G2 F800.0 X13.625 Y336.3505 I-0.75 J0.0
G2 Y337.6495 I0.375 J0.6495
G2 X14.75 Y337.0 I0.375 J-0.6495
G0 Z3.0
G0 X22.9312 Y248.2468
G1 F300.0 Z-1.0
G2 F800.0 X23.75 Y247.5 I0.0688 J-0.7468
G2 X22.625 Y246.8505 I-0.75 J0.0
G2 Y248.1495 I0.375 J0.6495
G2 X22.9312 Y248.2468 I0.375 J-0.6495
G1 F300.0 Z-2.0
G2 F800.0 X23.75 Y247.5 I0.0688 J-0.7468
G2 X22.625 Y246.8505 I-0.75 J0.0
G2 Y248.1495 I0.375 J0.6495
G2 X22.9312 Y248.2468 I0.375 J-0.6495
G1 F300.0 Z-3.0
G2 F800.0 X23.75 Y247.5 I0.0688 J-0.7468
G2 X22.625 Y246.8505 I-0.75 J0.0
G2 Y248.1495 I0.375 J0.6495
G2 X22.9312 Y248.2468 I0.375 J-0.6495
G1 F300.0 Z-4.0
G2 F800.0 X23.75 Y247.5 I0.0688 J-0.7468
G2 X22.625 Y246.8505 I-0.75 J0.0
G2 Y248.1495 I0.375 J0.6495
G2 X22.9312 Y248.2468 I0.375 J-0.6495
G1 F300.0 Z-5.0
G2 F800.0 X23.75 Y247.5 I0.0688 J-0.7468
G2 X22.625 Y246.8505 I-0.75 J0.0
G2 Y248.1495 I0.375 J0.6495
G2 X22.9312 Y248.2468 I0.375 J-0.6495
G1 F300.0 Z-6.0
G2 F800.0 X23.75 Y247.5 I0.0688 J-0.7468
G2 X22.625 Y246.8505 I-0.75 J0.0
G2 Y248.1495 I0.375 J0.6495
G2 X22.9312 Y248.2468 I0.375 J-0.6495
G0 Z3.0
G0 X22.9992 Y188.25
G1 F300.0 Z-1.0
G2 F800.0 X23.75 Y187.5 I0.0008 J-0.75
G2 X22.625 Y186.8505 I-0.75 J0.0
G2 Y188.1495 I0.375 J0.6495
G2 X22.9992 Y188.25 I0.375 J-0.6495
G1 F300.0 Z-2.0
G2 F800.0 X23.75 Y187.5 I0.0008 J-0.75
G2 X22.625 Y186.8505 I-0.75 J0.0
G2 Y188.1495 I0.375 J0.6495
G2 X22.9992 Y188.25 I0.375 J-0.6495
G1 F300.0 Z-3.0
G2 F800.0 X23.75 Y187.5 I0.0008 J-0.75
G2 X22.625 Y186.8505 I-0.75 J0.0
G2 Y188.1495 I0.375 J0.6495
G2 X22.9992 Y188.25 I0.375 J-0.6495
G1 F300.0 Z-4.0
G2 F800.0 X23.75 Y187.5 I0.0008 J-0.75
G2 X22.625 Y186.8505 I-0.75 J0.0
G2 Y188.1495 I0.375 J0.6495
G2 X22.9992 Y188.25 I0.375 J-0.6495
G1 F300.0 Z-5.0
G2 F800.0 X23.75 Y187.5 I0.0008 J-0.75
G2 X22.625 Y186.8505 I-0.75 J0.0
G2 Y188.1495 I0.375 J0.6495
G2 X22.9992 Y188.25 I0.375 J-0.6495
G1 F300.0 Z-6.0
G2 F800.0 X23.75 Y187.5 I0.0008 J-0.75
G2 X22.625 Y186.8505 I-0.75 J0.0
G2 Y188.1495 I0.375 J0.6495
G2 X22.9992 Y188.25 I0.375 J-0.6495
G0 Z3.0
G0 X23.0 Y163.25
G1 F300.0 Z-1.0
G2 F800.0 X23.75 Y162.5 I0.0 J-0.75
G2 X22.625 Y161.8505 I-0.75 J0.0
G2 Y163.1495 I0.375 J0.6495
G2 X23.0 Y163.25 I0.375 J-0.6495
G1 F300.0 Z-2.0
G2 F800.0 X23.75 Y162.5 I0.0 J-0.75
G2 X22.625 Y161.8505 I-0.75 J0.0
G2 Y163.1495 I0.375 J0.6495
G2 X23.0 Y163.25 I0.375 J-0.6495
G1 F300.0 Z-3.0
G2 F800.0 X23.75 Y162.5 I0.0 J-0.75
G2 X22.625 Y161.8505 I-0.75 J0.0
G2 Y163.1495 I0.375 J0.6495
G2 X23.0 Y163.25 I0.375 J-0.6495
G1 F300.0 Z-4.0
G2 F800.0 X23.75 Y162.5 I0.0 J-0.75
G2 X22.625 Y161.8505 I-0.75 J0.0
G2 Y163.1495 I0.375 J0.6495
G2 X23.0 Y163.25 I0.375 J-0.6495
G1 F300.0 Z-5.0
G2 F800.0 X23.75 Y162.5 I0.0 J-0.75
G2 X22.625 Y161.8505 I-0.75 J0.0
G2 Y163.1495 I0.375 J0.6495
G2 X23.0 Y163.25 I0.375 J-0.6495
G1 F300.0 Z-6.0
G2 F800.0 X23.75 Y162.5 I0.0 J-0.75
G2 X22.625 Y161.8505 I-0.75 J0.0
G2 Y163.1495 I0.375 J0.6495
G2 X23.0 Y163.25 I0.375 J-0.6495
G0 Z3.0
G0 Y103.25
G1 F300.0 Z-1.0
G2 F800.0 X23.75 Y102.5 I0.0 J-0.75
G2 X22.625 Y101.8505 I-0.75 J0.0
G2 Y103.1495 I0.375 J0.6495
G2 X23.0 Y103.25 I0.375 J-0.6495
G1 F300.0 Z-2.0
G2 F800.0 X23.75 Y102.5 I0.0 J-0.75
G2 X22.625 Y101.8505 I-0.75 J0.0
G2 Y103.1495 I0.375 J0.6495
G2 X23.0 Y103.25 I0.375 J-0.6495
G1 F300.0 Z-3.0
G2 F800.0 X23.75 Y102.5 I0.0 J-0.75
G2 X22.625 Y101.8505 I-0.75 J0.0
G2 Y103.1495 I0.375 J0.6495
G2 X23.0 Y103.25 I0.375 J-0.6495
G1 F300.0 Z-4.0
G2 F800.0 X23.75 Y102.5 I0.0 J-0.75
G2 X22.625 Y101.8505 I-0.75 J0.0
G2 Y103.1495 I0.375 J0.6495
G2 X23.0 Y103.25 I0.375 J-0.6495
G1 F300.0 Z-5.0
G2 F800.0 X23.75 Y102.5 I0.0 J-0.75
G2 X22.625 Y101.8505 I-0.75 J0.0
G2 Y103.1495 I0.375 J0.6495
G2 X23.0 Y103.25 I0.375 J-0.6495
G1 F300.0 Z-6.0
G2 F800.0 X23.75 Y102.5 I0.0 J-0.75
G2 X22.625 Y101.8505 I-0.75 J0.0
G2 Y103.1495 I0.375 J0.6495
G2 X23.0 Y103.25 I0.375 J-0.6495
( Contour2 )
S1000
G0 Z3.0
G0 X134.25 Y282.5
G1 F300.0 Z-1.0
G3 F800.0 X130.875 Y284.4486 I-2.25 J0.0
G3 Y280.5514 I1.125 J-1.9486
G3 X134.25 Y282.5 I1.125 J1.9486
G1 F300.0 Z-2.0
G3 F800.0 X130.875 Y284.4486 I-2.25 J0.0
G3 Y280.5514 I1.125 J-1.9486
G3 X134.25 Y282.5 I1.125 J1.9486
G1 F300.0 Z-3.0
G3 F800.0 X130.875 Y284.4486 I-2.25 J0.0
G3 Y280.5514 I1.125 J-1.9486
G3 X134.25 Y282.5 I1.125 J1.9486
G0 Z3.0
G0 X105.0919 Y335.0327
G1 F300.0 Z-1.0
G3 F800.0 X106.25 Y337.0 I-1.0919 J1.9673
G3 X102.875 Y338.9486 I-2.25 J0.0
G3 Y335.0514 I1.125 J-1.9486
G3 X105.0919 Y335.0327 I1.125 J1.9486
G1 F300.0 Z-2.0
G3 F800.0 X106.25 Y337.0 I-1.0919 J1.9673
G3 X102.875 Y338.9486 I-2.25 J0.0
G3 Y335.0514 I1.125 J-1.9486
G3 X105.0919 Y335.0327 I1.125 J1.9486
G1 F300.0 Z-3.0
G3 F800.0 X106.25 Y337.0 I-1.0919 J1.9673
G3 X102.875 Y338.9486 I-2.25 J0.0
G3 Y335.0514 I1.125 J-1.9486
G3 X105.0919 Y335.0327 I1.125 J1.9486
G0 Z3.0
G0 X76.2455 Y336.8579
G1 F300.0 Z-1.0
G3 F800.0 X76.25 Y337.0 I-2.2455 J0.1421
G3 X72.875 Y338.9486 I-2.25 J0.0
G3 Y335.0514 I1.125 J-1.9486
G3 X76.2455 Y336.8579 I1.125 J1.9486
G1 F300.0 Z-2.0
G3 F800.0 X76.25 Y337.0 I-2.2455 J0.1421
G3 X72.875 Y338.9486 I-2.25 J0.0
G3 Y335.0514 I1.125 J-1.9486
G3 X76.2455 Y336.8579 I1.125 J1.9486
G1 F300.0 Z-3.0
G3 F800.0 X76.25 Y337.0 I-2.2455 J0.1421
G3 X72.875 Y338.9486 I-2.25 J0.0
G3 Y335.0514 I1.125 J-1.9486
G3 X76.2455 Y336.8579 I1.125 J1.9486
G0 Z3.0
G0 X46.25 Y336.9901
G1 F300.0 Z-1.0
G3 F800.0 Y337.0 I-2.25 J0.0099
G3 X42.875 Y338.9486 I-2.25 J0.0
G3 Y335.0514 I1.125 J-1.9486
G3 X46.25 Y336.9901 I1.125 J1.9486
G1 F300.0 Z-2.0
G3 F800.0 Y337.0 I-2.25 J0.0099
G3 X42.875 Y338.9486 I-2.25 J0.0
G3 Y335.0514 I1.125 J-1.9486
G3 X46.25 Y336.9901 I1.125 J1.9486
G1 F300.0 Z-3.0
G3 F800.0 Y337.0 I-2.25 J0.0099
G3 X42.875 Y338.9486 I-2.25 J0.0
G3 Y335.0514 I1.125 J-1.9486
G3 X46.25 Y336.9901 I1.125 J1.9486
G0 Z3.0
G0 X16.25 Y336.9993
G1 F300.0 Z-1.0
G3 F800.0 Y337.0 I-2.25 J0.0007
G3 X12.875 Y338.9486 I-2.25 J0.0
G3 Y335.0514 I1.125 J-1.9486
G3 X16.25 Y336.9993 I1.125 J1.9486
G1 F300.0 Z-2.0
G3 F800.0 Y337.0 I-2.25 J0.0007
G3 X12.875 Y338.9486 I-2.25 J0.0
G3 Y335.0514 I1.125 J-1.9486
G3 X16.25 Y336.9993 I1.125 J1.9486
G1 F300.0 Z-3.0
G3 F800.0 Y337.0 I-2.25 J0.0007
G3 X12.875 Y338.9486 I-2.25 J0.0
G3 Y335.0514 I1.125 J-1.9486
G3 X16.25 Y336.9993 I1.125 J1.9486
G0 Z3.0
G0 X22.8308 Y249.7436
G1 F300.0 Z-1.0
G3 F800.0 X21.875 Y249.4486 I0.1692 J-2.2436
G3 Y245.5514 I1.125 J-1.9486
G3 X25.25 Y247.5 I1.125 J1.9486
G3 X22.8308 Y249.7436 I-2.25 J0.0
G1 F300.0 Z-2.0
G3 F800.0 X21.875 Y249.4486 I0.1692 J-2.2436
G3 Y245.5514 I1.125 J-1.9486
G3 X25.25 Y247.5 I1.125 J1.9486
G3 X22.8308 Y249.7436 I-2.25 J0.0
G1 F300.0 Z-3.0
G3 F800.0 X21.875 Y249.4486 I0.1692 J-2.2436
G3 Y245.5514 I1.125 J-1.9486
G3 X25.25 Y247.5 I1.125 J1.9486
G3 X22.8308 Y249.7436 I-2.25 J0.0
G0 Z3.0
G0 X22.9939 Y189.75
G1 F300.0 Z-1.0
G3 F800.0 X21.875 Y189.4486 I0.0061 J-2.25
G3 Y185.5514 I1.125 J-1.9486
G3 X25.25 Y187.5 I1.125 J1.9486
G3 X22.9939 Y189.75 I-2.25 J0.0
G1 F300.0 Z-2.0
G3 F800.0 X21.875 Y189.4486 I0.0061 J-2.25
G3 Y185.5514 I1.125 J-1.9486
G3 X25.25 Y187.5 I1.125 J1.9486
G3 X22.9939 Y189.75 I-2.25 J0.0
G1 F300.0 Z-3.0
G3 F800.0 X21.875 Y189.4486 I0.0061 J-2.25
G3 Y185.5514 I1.125 J-1.9486
G3 X25.25 Y187.5 I1.125 J1.9486
G3 X22.9939 Y189.75 I-2.25 J0.0
G0 Z3.0
G0 X22.9995 Y164.75
G1 F300.0 Z-1.0
G3 F800.0 X21.875 Y164.4486 I0.0005 J-2.25
G3 Y160.5514 I1.125 J-1.9486
G3 X25.25 Y162.5 I1.125 J1.9486
G3 X22.9995 Y164.75 I-2.25 J0.0
G1 F300.0 Z-2.0
G3 F800.0 X21.875 Y164.4486 I0.0005 J-2.25
G3 Y160.5514 I1.125 J-1.9486
G3 X25.25 Y162.5 I1.125 J1.9486
G3 X22.9995 Y164.75 I-2.25 J0.0
G1 F300.0 Z-3.0
G3 F800.0 X21.875 Y164.4486 I0.0005 J-2.25
G3 Y160.5514 I1.125 J-1.9486
G3 X25.25 Y162.5 I1.125 J1.9486
G3 X22.9995 Y164.75 I-2.25 J0.0
G0 Z3.0
G0 X23.0 Y104.75
G1 F300.0 Z-1.0
G3 F800.0 X21.875 Y104.4486 I0.0 J-2.25
G3 Y100.5514 I1.125 J-1.9486
G3 X25.25 Y102.5 I1.125 J1.9486
G3 X23.0 Y104.75 I-2.25 J0.0
G1 F300.0 Z-2.0
G3 F800.0 X21.875 Y104.4486 I0.0 J-2.25
G3 Y100.5514 I1.125 J-1.9486
G3 X25.25 Y102.5 I1.125 J1.9486
G3 X23.0 Y104.75 I-2.25 J0.0
G1 F300.0 Z-3.0
G3 F800.0 X21.875 Y104.4486 I0.0 J-2.25
G3 Y100.5514 I1.125 J-1.9486
G3 X25.25 Y102.5 I1.125 J1.9486
G3 X23.0 Y104.75 I-2.25 J0.0
G0 Z3.0
G0 X14.2197 Y15.2393
G1 F300.0 Z-1.0
G3 F800.0 X12.875 Y14.9486 I-0.2197 J-2.2393
G3 Y11.0514 I1.125 J-1.9486
G3 X16.25 Y13.0 I1.125 J1.9486
G3 X14.2197 Y15.2393 I-2.25 J0.0
G1 F300.0 Z-2.0
G3 F800.0 X12.875 Y14.9486 I-0.2197 J-2.2393
G3 Y11.0514 I1.125 J-1.9486
G3 X16.25 Y13.0 I1.125 J1.9486
G3 X14.2197 Y15.2393 I-2.25 J0.0
G1 F300.0 Z-3.0
G3 F800.0 X12.875 Y14.9486 I-0.2197 J-2.2393
G3 Y11.0514 I1.125 J-1.9486
G3 X16.25 Y13.0 I1.125 J1.9486
G3 X14.2197 Y15.2393 I-2.25 J0.0
G0 Z3.0
G0 X41.7563 Y13.1687
G1 F300.0 Z-1.0
G3 F800.0 X42.875 Y11.0514 I2.2437 J-0.1687
G3 X46.25 Y13.0 I1.125 J1.9486
G3 X42.875 Y14.9486 I-2.25 J0.0
G3 X41.7563 Y13.1687 I1.125 J-1.9486
G1 F300.0 Z-2.0
G3 F800.0 X42.875 Y11.0514 I2.2437 J-0.1687
G3 X46.25 Y13.0 I1.125 J1.9486
G3 X42.875 Y14.9486 I-2.25 J0.0
G3 X41.7563 Y13.1687 I1.125 J-1.9486
G1 F300.0 Z-3.0
G3 F800.0 X42.875 Y11.0514 I2.2437 J-0.1687
G3 X46.25 Y13.0 I1.125 J1.9486
G3 X42.875 Y14.9486 I-2.25 J0.0
G3 X41.7563 Y13.1687 I1.125 J-1.9486
G0 Z3.0
G0 X71.75 Y13.0118
G1 F300.0 Z-1.0
G3 F800.0 X72.875 Y11.0514 I2.25 J-0.0118
G3 X76.25 Y13.0 I1.125 J1.9486
G3 X72.875 Y14.9486 I-2.25 J0.0
G3 X71.75 Y13.0118 I1.125 J-1.9486
G1 F300.0 Z-2.0
G3 F800.0 X72.875 Y11.0514 I2.25 J-0.0118
G3 X76.25 Y13.0 I1.125 J1.9486
G3 X72.875 Y14.9486 I-2.25 J0.0
G3 X71.75 Y13.0118 I1.125 J-1.9486
G1 F300.0 Z-3.0
G3 F800.0 X72.875 Y11.0514 I2.25 J-0.0118
G3 X76.25 Y13.0 I1.125 J1.9486
G3 X72.875 Y14.9486 I-2.25 J0.0
G3 X71.75 Y13.0118 I1.125 J-1.9486
G0 Z3.0
G0 X101.75 Y13.0008
G1 F300.0 Z-1.0
G3 F800.0 X102.875 Y11.0514 I2.25 J-0.0008
G3 X106.25 Y13.0 I1.125 J1.9486
G3 X102.875 Y14.9486 I-2.25 J0.0
G3 X101.75 Y13.0008 I1.125 J-1.9486
G1 F300.0 Z-2.0
G3 F800.0 X102.875 Y11.0514 I2.25 J-0.0008
G3 X106.25 Y13.0 I1.125 J1.9486
G3 X102.875 Y14.9486 I-2.25 J0.0
G3 X101.75 Y13.0008 I1.125 J-1.9486
G1 F300.0 Z-3.0
G3 F800.0 X102.875 Y11.0514 I2.25 J-0.0008
G3 X106.25 Y13.0 I1.125 J1.9486
G3 X102.875 Y14.9486 I-2.25 J0.0
G3 X101.75 Y13.0008 I1.125 J-1.9486
G0 Z3.0
G0 X130.9081 Y65.5327
G1 F300.0 Z-1.0
G3 F800.0 X134.25 Y67.5 I1.0919 J1.9673
G3 X130.875 Y69.4486 I-2.25 J0.0
G3 Y65.5514 I1.125 J-1.9486
G3 X130.9081 Y65.5327 I1.125 J1.9486
G1 F300.0 Z-2.0
G3 F800.0 X134.25 Y67.5 I1.0919 J1.9673
G3 X130.875 Y69.4486 I-2.25 J0.0
G3 Y65.5514 I1.125 J-1.9486
G3 X130.9081 Y65.5327 I1.125 J1.9486
G1 F300.0 Z-3.0
G3 F800.0 X134.25 Y67.5 I1.0919 J1.9673
G3 X130.875 Y69.4486 I-2.25 J0.0
G3 Y65.5514 I1.125 J-1.9486
G3 X130.9081 Y65.5327 I1.125 J1.9486
G0 Z3.0
G0 X131.9633 Y130.2503
G1 F300.0 Z-1.0
G3 F800.0 X134.25 Y132.5 I0.0367 J2.2497
G3 X130.875 Y134.4486 I-2.25 J0.0
G3 Y130.5514 I1.125 J-1.9486
G3 X131.9633 Y130.2503 I1.125 J1.9486
G1 F300.0 Z-2.0
G3 F800.0 X134.25 Y132.5 I0.0367 J2.2497
G3 X130.875 Y134.4486 I-2.25 J0.0
G3 Y130.5514 I1.125 J-1.9486
G3 X131.9633 Y130.2503 I1.125 J1.9486
G1 F300.0 Z-3.0
G3 F800.0 X134.25 Y132.5 I0.0367 J2.2497
G3 X130.875 Y134.4486 I-2.25 J0.0
G3 Y130.5514 I1.125 J-1.9486
G3 X131.9633 Y130.2503 I1.125 J1.9486
G0 Z3.0
G0 X131.9991 Y215.25
G1 F300.0 Z-1.0
G3 F800.0 X134.25 Y217.5 I0.0009 J2.25
G3 X130.875 Y219.4486 I-2.25 J0.0
G3 Y215.5514 I1.125 J-1.9486
G3 X131.9991 Y215.25 I1.125 J1.9486
G1 F300.0 Z-2.0
G3 F800.0 X134.25 Y217.5 I0.0009 J2.25
G3 X130.875 Y219.4486 I-2.25 J0.0
G3 Y215.5514 I1.125 J-1.9486
G3 X131.9991 Y215.25 I1.125 J1.9486
G1 F300.0 Z-3.0
G3 F800.0 X134.25 Y217.5 I0.0009 J2.25
G3 X130.875 Y219.4486 I-2.25 J0.0
G3 Y215.5514 I1.125 J-1.9486
G3 X131.9991 Y215.25 I1.125 J1.9486
( Contour3 )
S1000
G0 Z3.0
G0 X42.4017 Y130.3533
G1 F300.0 Z-1.0
G1 F800.0 X42.4525
G1 Y126.968
G3 X43.2025 Y126.218 I0.75 J0.0
G1 X45.9593
G3 X46.7093 Y126.968 I0.0 J0.75
G1 Y133.1102
G1 X46.7601
G1 Y125.8227
G1 X38.4387
G1 Y133.1102
G1 X38.4895
G1 Y126.968
G3 X39.2395 Y126.218 I0.75 J0.0
G1 X41.6517
G3 X42.4017 Y126.968 I0.0 J0.75
G1 Y130.3533
G1 F300.0 Z-2.0
G1 F800.0 X42.4525
G1 Y126.968
G3 X43.2025 Y126.218 I0.75 J0.0
G1 X45.9593
G3 X46.7093 Y126.968 I0.0 J0.75
G1 Y133.1102
G1 X46.7601
G1 Y125.8227
G1 X38.4387
G1 Y133.1102
G1 X38.4895
G1 Y126.968
G3 X39.2395 Y126.218 I0.75 J0.0
G1 X41.6517
G3 X42.4017 Y126.968 I0.0 J0.75
G1 Y130.3533
G1 F300.0 Z-3.0
G1 F800.0 X42.4525
G1 Y126.968
G3 X43.2025 Y126.218 I0.75 J0.0
G1 X45.9593
G3 X46.7093 Y126.968 I0.0 J0.75
G1 Y133.1102
G1 X46.7601
G1 Y125.8227
G1 X38.4387
G1 Y133.1102
G1 X38.4895
G1 Y126.968
G3 X39.2395 Y126.218 I0.75 J0.0
G1 X41.6517
G3 X42.4017 Y126.968 I0.0 J0.75
G1 Y130.3533
G1 F300.0 Z-4.0
G1 F800.0 X42.4525
G1 Y126.968
G3 X43.2025 Y126.218 I0.75 J0.0
G1 X45.9593
G3 X46.7093 Y126.968 I0.0 J0.75
G1 Y133.1102
G1 X46.7601
G1 Y125.8227
G1 X38.4387
G1 Y133.1102
G1 X38.4895
G1 Y126.968
G3 X39.2395 Y126.218 I0.75 J0.0
G1 X41.6517
G3 X42.4017 Y126.968 I0.0 J0.75
G1 Y130.3533
G1 F300.0 Z-5.0
G1 F800.0 X42.4525
G1 Y126.968
G3 X43.2025 Y126.218 I0.75 J0.0
G1 X45.9593
G3 X46.7093 Y126.968 I0.0 J0.75
G1 Y133.1102
G1 X46.7601
G1 Y125.8227
G1 X38.4387
G1 Y133.1102
G1 X38.4895
G1 Y126.968
G3 X39.2395 Y126.218 I0.75 J0.0
G1 X41.6517
G3 X42.4017 Y126.968 I0.0 J0.75
G1 Y130.3533
G1 F300.0 Z-6.0
G1 F800.0 X42.4525
G1 Y126.968
G3 X43.2025 Y126.218 I0.75 J0.0
G1 X45.9593
G3 X46.7093 Y126.968 I0.0 J0.75
G1 Y133.1102
G1 X46.7601
G1 Y125.8227
G1 X38.4387
G1 Y133.1102
G1 X38.4895
G1 Y126.968
G3 X39.2395 Y126.218 I0.75 J0.0
G1 X41.6517
G3 X42.4017 Y126.968 I0.0 J0.75
G1 Y130.3533
G0 Z3.0
G0 X41.6159 Y136.7477
G1 F300.0 Z-1.0
G1 F800.0 X41.742 Y136.7659
G3 X41.9197 Y136.8024 I-0.3091 J1.9561
G2 X41.9293 Y136.8048 I0.1843 J-0.727
G3 X42.1029 Y136.8521 I-0.6739 J2.8137
G3 X42.2305 Y136.9005 I-0.4906 J1.4836
G3 X42.3001 Y136.9376 I-0.2106 J0.4792
G3 X42.336 Y136.9613 I-0.6483 J1.0217
G3 X42.3719 Y136.9895 I-1.0537 J1.3796
G3 X42.392 Y137.0099 I-0.1027 J0.1216
G2 X42.3942 Y137.0126 I0.5789 J-0.4768
G3 X42.417 Y137.0409 I-0.8434 J0.7013
G1 X42.4469 Y137.0857
G3 X42.4515 Y137.0944 I-0.1248 J0.0718
G2 X42.4666 Y137.1237 I0.6743 J-0.3284
G3 X42.4743 Y137.1399 I-0.1495 J0.0812
G2 X42.4906 Y137.1764 I0.6932 J-0.2864
G3 X42.5256 Y137.2665 I-0.5878 J0.2804
G2 X42.5345 Y137.2938 I0.7172 J-0.2192
G3 X42.5415 Y137.3185 I-0.2055 J0.0715
G2 X42.5503 Y137.354 I0.7324 J-0.1615
G3 X42.5622 Y137.406 I-0.6375 J0.1736
G2 X42.5635 Y137.4129 I0.7372 J-0.138
G1 X42.5846 Y137.5202
G1 X42.6015 Y137.6265
G3 X42.6091 Y137.6955 I-0.8069 J0.1242
G2 X42.6101 Y137.7077 I0.7483 J-0.0508
G3 X42.6175 Y137.8139 I-3.6068 J0.304
G3 X42.6248 Y138.077 I-13.5238 J0.5076
G1 Y143.5437
G2 X42.6263 Y143.5909 I0.75 J0.0
G3 X42.602 Y143.4174 I3.0891 J-0.5202
G3 X42.5811 Y143.1543 I5.266 J-0.5514
G3 X42.5766 Y143.017 I3.8396 J-0.1946
G2 X42.5762 Y143.002 I-0.7499 J0.0112
G3 X42.574 Y142.865 I3.5894 J-0.1254
G2 Y142.8626 I-0.75 J-0.0024
G1 Y137.6854
G2 X41.824 Y136.9354 I-0.75 J0.0
G1 X39.2395
G2 X38.4895 Y137.6854 I0.0 J0.75
G1 Y143.3714
G2 X38.4947 Y143.4597 I0.75 J0.0
G3 X38.4657 Y143.2632 I5.6099 J-0.9271
G3 X38.4458 Y143.0194 I4.3151 J-0.4761
G3 X38.4412 Y142.8869 I3.6673 J-0.1915
G2 X38.4409 Y142.8719 I-0.7499 J0.012
G3 X38.4387 Y142.7414 I3.2992 J-0.1189
G2 Y142.7387 I-0.75 J-0.0027
G1 Y138.0771
G1 X38.4412 Y137.9419
G3 X38.4459 Y137.8171 I6.1942 J0.1713
G3 X38.4648 Y137.6098 I2.7105 J0.1426
G2 X38.4662 Y137.5984 I-0.7437 J-0.0967
G3 X38.4942 Y137.4279 I1.759 J0.2016
G1 X38.514 Y137.3382
G1 X38.5371 Y137.2538
G3 X38.547 Y137.225 I0.3455 J0.1031
G2 X38.559 Y137.1922 I-0.698 J-0.2743
G3 X38.5682 Y137.1694 I0.2167 J0.0737
G2 X38.584 Y137.1328 I-0.6802 J-0.316
G3 X38.6125 Y137.075 I0.3961 J0.159
G3 X38.6661 Y137.0 I0.7555 J0.4833
G2 X38.6667 Y136.9992 I-0.587 J-0.4669
G3 X38.6893 Y136.9755 I0.1388 J0.1101
G2 X38.7033 Y136.9631 I-0.4917 J-0.5663
G2 X38.7209 Y136.95 I-0.4377 J-0.609
G3 X38.7316 Y136.9425 I0.1108 J0.1451
G1 X38.7884 Y136.9084
G3 X38.8306 Y136.8868 I0.8035 J1.5206
G3 X38.919 Y136.8516 I0.2981 J0.6199
G2 X38.9293 Y136.8482 I-0.2287 J-0.7143
G3 X39.0794 Y136.805 I0.5648 J1.6797
G3 X39.2821 Y136.7622 I1.0215 J4.3326
G3 X39.4785 Y136.7365 I0.387 J2.1983
G2 X39.4819 Y136.7362 I-0.064 J-0.7473
G3 X39.7348 Y136.7198 I0.4502 J4.9862
G2 X39.7366 Y136.7197 I-0.0296 J-0.7494
G3 X40.0264 Y136.7123 I0.3736 J8.9273
G1 X40.9291
G1 X41.2488 Y136.7201
G3 X41.5038 Y136.736 I-0.1272 J4.1026
G2 X41.5055 Y136.7361 I0.0698 J-0.7467
G3 X41.6159 Y136.7477 I-0.3708 J4.0653
G0 Z3.0
G0 X45.3475 Y136.5907
G1 F300.0 Z-1.0
G1 F800.0 X45.9593
G3 X46.7093 Y137.3407 I0.0 J0.75
G1 Y143.5437
G3 X46.706 Y143.6141 I-0.75 J0.0
G1 X46.7179 Y143.542
G1 X46.7335 Y143.4164
G3 Y143.4161 I0.7443 J0.0923
G2 X46.7437 Y143.3069 I-1.7868 J-0.2223
G3 X46.7453 Y143.2858 I0.7485 J0.0471
G2 X46.7524 Y143.1738 I-1.986 J-0.1816
G1 X46.7577 Y143.0129
G1 X46.7601 Y142.8568
G1 Y137.7473
G3 Y137.7377 I0.75 J0.0
G2 X46.7584 Y137.6349 I-1.7489 J-0.0224
G3 X46.7576 Y137.602 I0.7492 J-0.0344
G2 X46.7541 Y137.5101 I-1.2632 J0.0026
G1 X46.7449 Y137.3883
G1 X46.7323 Y137.2697
G2 X46.7051 Y137.0917 I-2.4179 J0.2788
G2 X46.6653 Y136.9374 I-1.9638 J0.4241
G3 X46.6597 Y136.918 I0.7182 J-0.2159
G2 X46.6484 Y136.8829 I-0.3894 J0.1057
G3 X46.6361 Y136.847 I0.7028 J-0.2619
G2 X46.6298 Y136.8306 I-0.1427 J0.0451
G3 X46.6193 Y136.806 I0.6837 J-0.3083
G2 X46.5838 Y136.7352 I-0.4851 J0.1982
G3 X46.5758 Y136.7214 I0.6435 J-0.3852
G2 X46.5329 Y136.656 I-0.5419 J0.3089
G2 X46.5126 Y136.6346 I-0.1322 J0.1052
G3 X46.4917 Y136.6154 I0.4967 J-0.5619
G3 X46.4698 Y136.5983 I0.451 J-0.5992
G2 X46.4694 Y136.598 I-0.0228 J0.028
G1 X46.4187 Y136.5673
G2 X46.3872 Y136.5515 I-0.3814 J0.7215
G2 X46.2704 Y136.5038 I-0.5078 J1.0772
G3 X46.2581 Y136.4994 I0.2463 J-0.7084
G2 X46.1318 Y136.4608 I-0.4144 J1.1287
G2 X46.0331 Y136.4386 I-5.1241 J22.5703
G2 X45.9398 Y136.4219 I-0.8798 J4.6476
G2 X45.7269 Y136.394 I-0.4955 J2.9492
G3 X45.7182 Y136.3931 I0.0709 J-0.7466
G2 X45.4777 Y136.3752 I-0.3988 J3.7386
G2 X45.397 Y136.3724 I-0.8912 J24.5914
G1 X45.3475 Y136.5907
G0 Z3.0
G0 X46.6748 Y143.7687
G1 F300.0 Z-1.0
G3 F800.0 X46.6588 Y143.8267 I-1.5506 J-0.395
G2 X46.6547 Y143.8412 I0.7193 J0.2123
G3 X46.6064 Y143.9907 I-1.6634 J-0.455
G3 X46.5673 Y144.082 I-2.0896 J-0.8417
G1 X46.5514 Y144.1127
G3 X46.5205 Y144.161 I-0.2956 J-0.1554
G1 X46.4777 Y144.2143
G3 X46.458 Y144.2351 I-0.5093 J-0.4627
G3 X46.4191 Y144.2672 I-0.2066 J-0.211
G2 X46.4127 Y144.2716 I0.426 J0.6173
G3 X46.3441 Y144.3125 I-0.3016 J-0.4275
G2 X46.3375 Y144.3159 I0.3341 J0.6715
G3 X46.2107 Y144.374 I-0.7625 J-1.4957
G3 X46.0685 Y144.4225 I-0.6008 J-1.5307
G3 X45.9163 Y144.457 I-0.376 J-1.3035
G2 X45.9069 Y144.4586 I0.1238 J0.7397
G3 X45.6994 Y144.489 I-0.5557 J-3.0802
G3 X45.579 Y144.5012 I-0.9593 J-8.8067
G1 X45.4497 Y144.5103
G3 X45.3381 Y144.5142 I-0.1336 J-2.1866
G2 X45.3154 Y144.5148 I0.0075 J0.75
G3 X45.1975 Y144.5168 I-0.1 J-2.483
G2 X45.192 Y144.5167 I-0.0054 J0.75
G1 X44.1029
G1 X43.9658 Y144.5143
G3 X43.8299 Y144.5094 I0.6493 J-19.6695
G3 X43.616 Y144.4906 I0.1239 J-2.6389
G2 X43.6078 Y144.4896 I-0.0959 J0.7438
G3 X43.4156 Y144.4589 I0.277 J-2.3536
G2 X43.4154 I-0.1485 J0.7352
G3 X43.3341 Y144.4412 I0.5434 J-2.6928
G1 X43.237 Y144.415
G3 X43.1883 Y144.399 I0.2205 J-0.7537
G2 X43.1613 Y144.3897 I-0.2572 J0.7045
G3 X43.1262 Y144.3766 I0.1188 J-0.3686
G2 X43.123 Y144.3752 I-0.298 J0.6883
G1 X43.0498 Y144.3439
G1 X42.9874 Y144.3126
G3 X42.9833 Y144.31 I0.0331 J-0.0571
G2 X42.9595 Y144.2944 I-0.4234 J0.6191
G3 X42.9449 Y144.2843 I0.1144 J-0.1817
G1 X42.8965 Y144.2454
G3 X42.8636 Y144.2146 I1.5316 J-1.6685
G3 X42.8338 Y144.1791 I0.1887 J-0.1888
G2 X42.8313 Y144.1755 I-0.614 J0.4307
G3 X42.7719 Y144.0813 I0.8223 J-0.5841
G3 X42.7309 Y143.9904 I0.5839 J-0.3178
G2 X42.7289 Y143.9848 I-0.705 J0.2559
G3 X42.6759 Y143.8222 I1.9367 J-0.7207
G3 X42.67 Y143.8001 I1.9059 J-0.5244
G2 X43.3748 Y144.2937 I0.7048 J-0.2564
G1 X45.9593
G2 X46.6748 Y143.7687 I0.0 J-0.75
G1 F300.0 Z-2.0
G3 F800.0 X46.6588 Y143.8267 I-1.5506 J-0.395
G2 X46.6547 Y143.8412 I0.7193 J0.2123
G3 X46.6064 Y143.9907 I-1.6634 J-0.455
G3 X46.5673 Y144.082 I-2.0896 J-0.8417
G1 X46.5514 Y144.1127
G3 X46.5205 Y144.161 I-0.2956 J-0.1554
G1 X46.4777 Y144.2143
G3 X46.458 Y144.2351 I-0.5093 J-0.4627
G3 X46.4191 Y144.2672 I-0.2066 J-0.211
G2 X46.4127 Y144.2716 I0.426 J0.6173
G3 X46.3441 Y144.3125 I-0.3016 J-0.4275
G2 X46.3375 Y144.3159 I0.3341 J0.6715
G3 X46.2107 Y144.374 I-0.7625 J-1.4957
G3 X46.0685 Y144.4225 I-0.6008 J-1.5307
G3 X45.9163 Y144.457 I-0.376 J-1.3035
G2 X45.9069 Y144.4586 I0.1238 J0.7397
G3 X45.6994 Y144.489 I-0.5557 J-3.0802
G3 X45.579 Y144.5012 I-0.9593 J-8.8067
G1 X45.4497 Y144.5103
G3 X45.3381 Y144.5142 I-0.1336 J-2.1866
G2 X45.3154 Y144.5148 I0.0075 J0.75
G3 X45.1975 Y144.5168 I-0.1 J-2.483
G2 X45.192 Y144.5167 I-0.0054 J0.75
G1 X44.1029
G1 X43.9658 Y144.5143
G3 X43.8299 Y144.5094 I0.6493 J-19.6695
G3 X43.616 Y144.4906 I0.1239 J-2.6389
G2 X43.6078 Y144.4896 I-0.0959 J0.7438
G3 X43.4156 Y144.4589 I0.277 J-2.3536
G2 X43.4154 I-0.1485 J0.7352
G3 X43.3341 Y144.4412 I0.5434 J-2.6928
G1 X43.237 Y144.415
G3 X43.1883 Y144.399 I0.2205 J-0.7537
G2 X43.1613 Y144.3897 I-0.2572 J0.7045
G3 X43.1262 Y144.3766 I0.1188 J-0.3686
G2 X43.123 Y144.3752 I-0.298 J0.6883
G1 X43.0498 Y144.3439
G1 X42.9874 Y144.3126
G3 X42.9833 Y144.31 I0.0331 J-0.0571
G2 X42.9595 Y144.2944 I-0.4234 J0.6191
G3 X42.9449 Y144.2843 I0.1144 J-0.1817
G1 X42.8965 Y144.2454
G3 X42.8636 Y144.2146 I1.5316 J-1.6685
G3 X42.8338 Y144.1791 I0.1887 J-0.1888
G2 X42.8313 Y144.1755 I-0.614 J0.4307
G3 X42.7719 Y144.0813 I0.8223 J-0.5841
G3 X42.7309 Y143.9904 I0.5839 J-0.3178
G2 X42.7289 Y143.9848 I-0.705 J0.2559
G3 X42.6759 Y143.8222 I1.9367 J-0.7207
G3 X42.67 Y143.8001 I1.9059 J-0.5244
G2 X43.3748 Y144.2937 I0.7048 J-0.2564
G1 X45.9593
G2 X46.6748 Y143.7687 I0.0 J-0.75
G1 F300.0 X46.706 Y143.6141
G1 F800.0 X46.7179 Y143.542
G1 X46.7335 Y143.4164
G3 Y143.4161 I0.7443 J0.0923
G2 X46.7437 Y143.3069 I-1.7868 J-0.2223
G3 X46.7453 Y143.2858 I0.7485 J0.0471
G2 X46.7524 Y143.1738 I-1.986 J-0.1816
G1 X46.7577 Y143.0129
G1 X46.7601 Y142.8568
G1 Y137.7473
G3 Y137.7377 I0.75 J0.0
G2 X46.7584 Y137.6349 I-1.7489 J-0.0224
G3 X46.7576 Y137.602 I0.7492 J-0.0344
G2 X46.7541 Y137.5101 I-1.2632 J0.0026
G1 X46.7449 Y137.3883
G1 X46.7323 Y137.2697
G2 X46.7051 Y137.0917 I-2.4179 J0.2788
G2 X46.6653 Y136.9374 I-1.9638 J0.4241
G3 X46.6597 Y136.918 I0.7182 J-0.2159
G2 X46.6484 Y136.8829 I-0.3894 J0.1057
G3 X46.6361 Y136.847 I0.7028 J-0.2619
G2 X46.6298 Y136.8306 I-0.1427 J0.0451
G3 X46.6193 Y136.806 I0.6837 J-0.3083
G2 X46.5838 Y136.7352 I-0.4851 J0.1982
G3 X46.5758 Y136.7214 I0.6435 J-0.3852
G2 X46.5329 Y136.656 I-0.5419 J0.3089
G2 X46.5126 Y136.6346 I-0.1322 J0.1052
G3 X46.4917 Y136.6154 I0.4967 J-0.5619
G3 X46.4698 Y136.5983 I0.451 J-0.5992
G2 X46.4694 Y136.598 I-0.0228 J0.028
G1 X46.4187 Y136.5673
G2 X46.3872 Y136.5515 I-0.3814 J0.7215
G2 X46.2704 Y136.5038 I-0.5078 J1.0772
G3 X46.2581 Y136.4994 I0.2463 J-0.7084
G2 X46.1318 Y136.4608 I-0.4144 J1.1287
G2 X46.0331 Y136.4386 I-5.1241 J22.5703
G2 X45.9398 Y136.4219 I-0.8798 J4.6476
G2 X45.7269 Y136.394 I-0.4955 J2.9492
G3 X45.7182 Y136.3931 I0.0709 J-0.7466
G2 X45.4777 Y136.3752 I-0.3988 J3.7386
G2 X45.397 Y136.3724 I-0.8912 J24.5914
G1 X45.3475 Y136.5907
G1 X45.9593
G3 X46.7093 Y137.3407 I0.0 J0.75
G1 Y143.5437
G3 X46.706 Y143.6141 I-0.75 J0.0
G1 F300.0 Z-3.0
G1 F800.0 X46.7179 Y143.542
G1 X46.7335 Y143.4164
G3 Y143.4161 I0.7443 J0.0923
G2 X46.7437 Y143.3069 I-1.7868 J-0.2223
G3 X46.7453 Y143.2858 I0.7485 J0.0471
G2 X46.7524 Y143.1738 I-1.986 J-0.1816
G1 X46.7577 Y143.0129
G1 X46.7601 Y142.8568
G1 Y137.7473
G3 Y137.7377 I0.75 J0.0
G2 X46.7584 Y137.6349 I-1.7489 J-0.0224
G3 X46.7576 Y137.602 I0.7492 J-0.0344
G2 X46.7541 Y137.5101 I-1.2632 J0.0026
G1 X46.7449 Y137.3883
G1 X46.7323 Y137.2697
G2 X46.7051 Y137.0917 I-2.4179 J0.2788
G2 X46.6653 Y136.9374 I-1.9638 J0.4241
G3 X46.6597 Y136.918 I0.7182 J-0.2159
G2 X46.6484 Y136.8829 I-0.3894 J0.1057
G3 X46.6361 Y136.847 I0.7028 J-0.2619
G2 X46.6298 Y136.8306 I-0.1427 J0.0451
G3 X46.6193 Y136.806 I0.6837 J-0.3083
G2 X46.5838 Y136.7352 I-0.4851 J0.1982
G3 X46.5758 Y136.7214 I0.6435 J-0.3852
G2 X46.5329 Y136.656 I-0.5419 J0.3089
G2 X46.5126 Y136.6346 I-0.1322 J0.1052
G3 X46.4917 Y136.6154 I0.4967 J-0.5619
G3 X46.4698 Y136.5983 I0.451 J-0.5992
G2 X46.4694 Y136.598 I-0.0228 J0.028
G1 X46.4187 Y136.5673
G2 X46.3872 Y136.5515 I-0.3814 J0.7215
G2 X46.2704 Y136.5038 I-0.5078 J1.0772
G3 X46.2581 Y136.4994 I0.2463 J-0.7084
G2 X46.1318 Y136.4608 I-0.4144 J1.1287
G2 X46.0331 Y136.4386 I-5.1241 J22.5703
G2 X45.9398 Y136.4219 I-0.8798 J4.6476
G2 X45.7269 Y136.394 I-0.4955 J2.9492
G3 X45.7182 Y136.3931 I0.0709 J-0.7466
G2 X45.4777 Y136.3752 I-0.3988 J3.7386
G2 X45.397 Y136.3724 I-0.8912 J24.5914
G1 X45.3475 Y136.5907
G1 X45.9593
G3 X46.7093 Y137.3407 I0.0 J0.75
G1 Y143.5437
G3 X46.706 Y143.6141 I-0.75 J0.0
G0 Z3.0
G0 Y148.8081
G1 F300.0 Z-1.0
G1 F800.0 X38.4387
G1 Y149.2034
G1 X46.7601
G1 Y148.8081
G1 X46.706
G1 F300.0 Z-2.0
G1 F800.0 X38.4387
G1 Y149.2034
G1 X46.7601
G1 Y148.8081
G1 X46.706
G1 F300.0 Z-3.0
G1 F800.0 X38.4387
G1 Y149.2034
G1 X46.7601
G1 Y148.8081
G1 X46.706
G1 F300.0 Z-4.0
G1 F800.0 X38.4387
G1 Y149.2034
G1 X46.7601
G1 Y148.8081
G1 X46.706
G1 F300.0 Z-5.0
G1 F800.0 X38.4387
G1 Y149.2034
G1 X46.7601
G1 Y148.8081
G1 X46.706
G1 F300.0 Z-6.0
G1 F800.0 X38.4387
G1 Y149.2034
G1 X46.7601
G1 Y148.8081
G1 X46.706
G0 Z3.0
G0 X45.8999 Y153.8915
G1 F300.0 Z-1.0
G2 F800.0 X45.6967 Y153.8653 I-0.5521 J3.4814
G3 X45.6914 Y153.8647 I0.0742 J-0.7463
G2 X45.4485 Y153.8469 I-0.3948 J3.7062
G2 X45.3009 Y153.842 I-0.7405 J20.2551
G1 X45.153 Y153.8393
G1 X40.0095
G3 X40.0075 I0.0 J-0.75
G2 X39.8823 Y153.8416 I-0.0078 J3.0328
G3 X39.8594 Y153.8421 I-0.0291 J-0.7494
G2 X39.742 Y153.8461 I0.019 J2.3213
G1 X39.6071 Y153.8543
G1 X39.4717 Y153.8661
G3 X39.47 Y153.8662 I-0.0653 J-0.7471
G2 X39.3799 Y153.8765 I0.1359 J1.5964
G3 X39.3523 Y153.8799 I-0.1058 J-0.7425
G2 X39.2892 Y153.8895 I0.0721 J0.6879
G3 X39.277 Y153.8918 I-0.1466 J-0.7355
G2 X39.0876 Y153.9327 I0.5353 J2.9381
G3 X39.0635 Y153.9383 I-0.182 J-0.7276
G2 X39.0173 Y153.9503 I0.1169 J0.5432
G3 X38.9776 Y153.9613 I-0.2201 J-0.717
G2 X38.9593 Y153.9671 I0.0371 J0.1499
G3 X38.9334 Y153.9765 I-0.2691 J-0.7001
G2 X38.8479 Y154.0132 I0.202 J0.5894
G3 X38.8116 Y154.0308 I-0.3461 J-0.6654
G2 X38.7987 Y154.0375 I0.0566 J0.1247
G3 X38.7798 Y154.0483 I-0.3804 J-0.6464
G2 X38.7444 Y154.0694 I0.282 J0.5125
G3 X38.7431 Y154.0702 I-0.4069 J-0.6301
G2 X38.7052 Y154.0991 I0.1612 J0.2507
G2 X38.6899 Y154.114 I0.3755 J0.4006
G1 X38.6518 Y154.158
G2 X38.6446 Y154.1678 I0.1259 J0.1
G3 X38.629 Y154.1898 I-0.6208 J-0.4209
G3 X38.6197 Y154.206 I-0.6549 J-0.3655
G2 X38.5842 Y154.2782 I0.4532 J0.268
G3 X38.5678 Y154.3161 I-0.6962 J-0.2789
G2 X38.5594 Y154.3371 I0.1875 J0.0874
G3 X38.5448 Y154.3765 I-0.7104 J-0.2405
G2 X38.5384 Y154.395 I0.1843 J0.0741
G1 X38.5149 Y154.4827
G1 X38.4948 Y154.5766
G3 X38.4925 Y154.5868 I-0.7333 J-0.1573
G2 X38.4824 Y154.642 I0.6029 J0.1381
G3 X38.4783 Y154.6689 I-0.7432 J-0.1005
G2 X38.4656 Y154.7544 I1.8255 J0.3147
G2 X38.4456 Y154.9797 I3.9721 J0.4672
G2 X38.4413 Y155.096 I3.0652 J0.17
G3 Y155.0966 I-0.7499 J-0.0131
G1 X38.4387 Y155.2365
G1 Y160.9238
G3 Y160.9267 I-0.75 J0.0
G2 X38.4409 Y161.0565 I3.1999 J0.0123
G3 X38.4413 Y161.0741 I-0.7495 J0.0276
G2 X38.4455 Y161.1995 I3.1082 J-0.041
G1 X38.4541 Y161.3313
G1 X38.4673 Y161.4655
G2 X38.4964 Y161.6575 I1.9891 J-0.2033
G2 X38.5172 Y161.7557 I7.5541 J-1.5455
G1 X38.5434 Y161.8587
G2 X38.582 Y161.9759 I1.151 J-0.3138
G1 X38.6085 Y162.035
G1 X38.6458 Y162.1063
G2 X38.6568 Y162.1247 I0.1943 J-0.1033
G3 X38.668 Y162.1421 I-0.6248 J0.4149
G2 X38.6864 Y162.1688 I0.3174 J-0.1983
G3 X38.687 Y162.1697 I-0.5992 J0.4511
G2 X38.7253 Y162.2137 I0.3264 J-0.2449
G2 X38.7908 Y162.2674 I0.5237 J-0.5724
G2 X38.8685 Y162.3166 I0.4123 J-0.5653
G3 X38.8717 Y162.3183 I-0.3586 J0.6587
G2 X38.9703 Y162.3656 I0.473 J-0.859
G2 X39.107 Y162.4128 I0.6299 J-1.6028
G3 X39.1093 Y162.4135 I-0.2148 J0.7186
G2 X39.2499 Y162.4479 I0.3871 J-1.2798
G2 X39.3456 Y162.4646 I0.9634 J-5.2266
G1 X39.4571 Y162.4799
G3 X39.4573 I-0.1019 J0.743
G2 X39.5465 Y162.4896 I0.2136 J-1.5543
G3 X39.5691 Y162.4918 I-0.0595 J0.7476
G2 X39.6272 Y162.4967 I0.1278 J-1.1604
G1 X39.7041 Y162.1099
G1 X39.2395
G3 X38.4895 Y161.3599 I0.0 J-0.75
G1 Y154.9847
G3 X39.2395 Y154.2347 I0.75 J0.0
G1 X45.9593
G3 X46.7093 Y154.9847 I0.0 J0.75
G1 Y161.3599
G3 X45.9593 Y162.1099 I-0.75 J0.0
G1 X43.3748
G3 X42.6248 Y161.3599 I0.0 J-0.75
G1 Y158.4915
G1 X42.574
G1 Y162.5053
G1 X45.1589
G2 X45.4318 Y162.4981 I-0.0123 J-5.6895
G3 X45.4365 Y162.4979 I0.0376 J0.7491
G2 X45.6726 Y162.4802 I-0.1656 J-3.7812
G2 X45.8858 Y162.4493 I-0.3964 J-3.4934
G3 X45.8906 Y162.4485 I0.13 J0.7386
G2 X46.0494 Y162.413 I-0.2606 J-1.5378
G2 X46.2167 Y162.3585 I-0.7989 J-2.7374
G3 X46.2204 Y162.3572 I0.2541 J0.7056
G2 X46.3112 Y162.3177 I-0.2393 J-0.6755
G2 X46.3661 Y162.2878 I-2.3231 J-4.3284
G1 X46.4163 Y162.2562
G2 X46.478 Y162.208 I-0.5209 J-0.7288
G2 X46.5046 Y162.1783 I-0.1697 J-0.1795
G3 X46.5242 Y162.1538 I0.5962 J0.455
G2 X46.5312 Y162.1444 I-0.0786 J-0.0653
G3 X46.5468 Y162.1214 I0.6279 J0.4102
G2 X46.5557 Y162.1074 I-0.1405 J-0.0994
G1 X46.5714 Y162.0788
G2 X46.6083 Y161.9973 I-1.4407 J-0.7016
G2 X46.6527 Y161.8651 I-1.2142 J-0.4808
G3 X46.6542 Y161.8597 I0.7228 J0.2002
G2 X46.6991 Y161.6741 I-2.2725 J-0.6478
G2 X46.733 Y161.4599 I-2.7589 J-0.5467
G2 X46.7527 Y161.2168 I-3.256 J-0.3863
G3 X46.7528 Y161.215 I0.7493 J0.0328
G2 X46.7575 Y161.073 I-5.4978 J-0.2538
G1 X46.7601 Y160.9176
G1 Y155.2297
G3 Y155.2248 I0.75 J0.0
G2 X46.7581 Y155.1122 I-2.378 J-0.0153
G3 X46.7576 Y155.0907 I0.7494 J-0.0307
G2 X46.7537 Y154.9836 I-2.2083 J0.0271
G1 X46.7451 Y154.8658
G2 X46.7325 Y154.7481 I-120.5525 J12.9429
G2 X46.7035 Y154.5713 I-1.9564 J0.2295
G3 X46.7019 Y154.5636 I0.7339 J-0.1547
G2 X46.6654 Y154.4208 I-1.3555 J0.2709
G2 X46.6446 Y154.3586 I-1.8141 J0.5719
G1 X46.6102 Y154.2712
G2 X46.5787 Y154.2072 I-0.4036 J0.159
G3 X46.5769 Y154.2042 I0.6433 J-0.3856
G2 X46.5369 Y154.1463 I-0.4381 J0.2599
G2 X46.4928 Y154.1006 I-0.3574 J0.3009
G3 X46.4872 Y154.0955 I0.503 J-0.5563
G2 X46.4561 Y154.0713 I-0.1604 J0.1737
G2 X46.4141 Y154.0462 I-0.8934 J1.4496
G2 X46.3624 Y154.0203 I-0.9885 J1.9082
G2 X46.258 Y153.9777 I-0.3938 J0.8155
G3 X46.252 Y153.9756 I0.2397 J-0.7106
G2 X46.1037 Y153.9315 I-0.5687 J1.6399
G2 X45.9158 Y153.894 I-0.6654 J2.848
G2 X45.8999 Y153.8915 I-0.5679 J3.4788
G1 F300.0 Z-2.0
G2 F800.0 X45.6967 Y153.8653 I-0.5521 J3.4814
G3 X45.6914 Y153.8647 I0.0742 J-0.7463
G2 X45.4485 Y153.8469 I-0.3948 J3.7062
G2 X45.3009 Y153.842 I-0.7405 J20.2551
G1 X45.153 Y153.8393
G1 X40.0095
G3 X40.0075 I0.0 J-0.75
G2 X39.8823 Y153.8416 I-0.0078 J3.0328
G3 X39.8594 Y153.8421 I-0.0291 J-0.7494
G2 X39.742 Y153.8461 I0.019 J2.3213
G1 X39.6071 Y153.8543
G1 X39.4717 Y153.8661
G3 X39.47 Y153.8662 I-0.0653 J-0.7471
G2 X39.3799 Y153.8765 I0.1359 J1.5964
G3 X39.3523 Y153.8799 I-0.1058 J-0.7425
G2 X39.2892 Y153.8895 I0.0721 J0.6879
G3 X39.277 Y153.8918 I-0.1466 J-0.7355
G2 X39.0876 Y153.9327 I0.5353 J2.9381
G3 X39.0635 Y153.9383 I-0.182 J-0.7276
G2 X39.0173 Y153.9503 I0.1169 J0.5432
G3 X38.9776 Y153.9613 I-0.2201 J-0.717
G2 X38.9593 Y153.9671 I0.0371 J0.1499
G3 X38.9334 Y153.9765 I-0.2691 J-0.7001
G2 X38.8479 Y154.0132 I0.202 J0.5894
G3 X38.8116 Y154.0308 I-0.3461 J-0.6654
G2 X38.7987 Y154.0375 I0.0566 J0.1247
G3 X38.7798 Y154.0483 I-0.3804 J-0.6464
G2 X38.7444 Y154.0694 I0.282 J0.5125
G3 X38.7431 Y154.0702 I-0.4069 J-0.6301
G2 X38.7052 Y154.0991 I0.1612 J0.2507
G2 X38.6899 Y154.114 I0.3755 J0.4006
G1 X38.6518 Y154.158
G2 X38.6446 Y154.1678 I0.1259 J0.1
G3 X38.629 Y154.1898 I-0.6208 J-0.4209
G3 X38.6197 Y154.206 I-0.6549 J-0.3655
G2 X38.5842 Y154.2782 I0.4532 J0.268
G3 X38.5678 Y154.3161 I-0.6962 J-0.2789
G2 X38.5594 Y154.3371 I0.1875 J0.0874
G3 X38.5448 Y154.3765 I-0.7104 J-0.2405
G2 X38.5384 Y154.395 I0.1843 J0.0741
G1 X38.5149 Y154.4827
G1 X38.4948 Y154.5766
G3 X38.4925 Y154.5868 I-0.7333 J-0.1573
G2 X38.4824 Y154.642 I0.6029 J0.1381
G3 X38.4783 Y154.6689 I-0.7432 J-0.1005
G2 X38.4656 Y154.7544 I1.8255 J0.3147
G2 X38.4456 Y154.9797 I3.9721 J0.4672
G2 X38.4413 Y155.096 I3.0652 J0.17
G3 Y155.0966 I-0.7499 J-0.0131
G1 X38.4387 Y155.2365
G1 Y160.9238
G3 Y160.9267 I-0.75 J0.0
G2 X38.4409 Y161.0565 I3.1999 J0.0123
G3 X38.4413 Y161.0741 I-0.7495 J0.0276
G2 X38.4455 Y161.1995 I3.1082 J-0.041
G1 X38.4541 Y161.3313
G1 X38.4673 Y161.4655
G2 X38.4964 Y161.6575 I1.9891 J-0.2033
G2 X38.5172 Y161.7557 I7.5541 J-1.5455
G1 X38.5434 Y161.8587
G2 X38.582 Y161.9759 I1.151 J-0.3138
G1 X38.6085 Y162.035
G1 X38.6458 Y162.1063
G2 X38.6568 Y162.1247 I0.1943 J-0.1033
G3 X38.668 Y162.1421 I-0.6248 J0.4149
G2 X38.6864 Y162.1688 I0.3174 J-0.1983
G3 X38.687 Y162.1697 I-0.5992 J0.4511
G2 X38.7253 Y162.2137 I0.3264 J-0.2449
G2 X38.7908 Y162.2674 I0.5237 J-0.5724
G2 X38.8685 Y162.3166 I0.4123 J-0.5653
G3 X38.8717 Y162.3183 I-0.3586 J0.6587
G2 X38.9703 Y162.3656 I0.473 J-0.859
G2 X39.107 Y162.4128 I0.6299 J-1.6028
G3 X39.1093 Y162.4135 I-0.2148 J0.7186
G2 X39.2499 Y162.4479 I0.3871 J-1.2798
G2 X39.3456 Y162.4646 I0.9634 J-5.2266
G1 X39.4571 Y162.4799
G3 X39.4573 I-0.1019 J0.743
G2 X39.5465 Y162.4896 I0.2136 J-1.5543
G3 X39.5691 Y162.4918 I-0.0595 J0.7476
G2 X39.6272 Y162.4967 I0.1278 J-1.1604
G1 X39.7041 Y162.1099
G1 X39.2395
G3 X38.4895 Y161.3599 I0.0 J-0.75
G1 Y154.9847
G3 X39.2395 Y154.2347 I0.75 J0.0
G1 X45.9593
G3 X46.7093 Y154.9847 I0.0 J0.75
G1 Y161.3599
G3 X45.9593 Y162.1099 I-0.75 J0.0
G1 X43.3748
G3 X42.6248 Y161.3599 I0.0 J-0.75
G1 Y158.4915
G1 X42.574
G1 Y162.5053
G1 X45.1589
G2 X45.4318 Y162.4981 I-0.0123 J-5.6895
G3 X45.4365 Y162.4979 I0.0376 J0.7491
G2 X45.6726 Y162.4802 I-0.1656 J-3.7812
G2 X45.8858 Y162.4493 I-0.3964 J-3.4934
G3 X45.8906 Y162.4485 I0.13 J0.7386
G2 X46.0494 Y162.413 I-0.2606 J-1.5378
G2 X46.2167 Y162.3585 I-0.7989 J-2.7374
G3 X46.2204 Y162.3572 I0.2541 J0.7056
G2 X46.3112 Y162.3177 I-0.2393 J-0.6755
G2 X46.3661 Y162.2878 I-2.3231 J-4.3284
G1 X46.4163 Y162.2562
G2 X46.478 Y162.208 I-0.5209 J-0.7288
G2 X46.5046 Y162.1783 I-0.1697 J-0.1795
G3 X46.5242 Y162.1538 I0.5962 J0.455
G2 X46.5312 Y162.1444 I-0.0786 J-0.0653
G3 X46.5468 Y162.1214 I0.6279 J0.4102
G2 X46.5557 Y162.1074 I-0.1405 J-0.0994
G1 X46.5714 Y162.0788
G2 X46.6083 Y161.9973 I-1.4407 J-0.7016
G2 X46.6527 Y161.8651 I-1.2142 J-0.4808
G3 X46.6542 Y161.8597 I0.7228 J0.2002
G2 X46.6991 Y161.6741 I-2.2725 J-0.6478
G2 X46.733 Y161.4599 I-2.7589 J-0.5467
G2 X46.7527 Y161.2168 I-3.256 J-0.3863
G3 X46.7528 Y161.215 I0.7493 J0.0328
G2 X46.7575 Y161.073 I-5.4978 J-0.2538
G1 X46.7601 Y160.9176
G1 Y155.2297
G3 Y155.2248 I0.75 J0.0
G2 X46.7581 Y155.1122 I-2.378 J-0.0153
G3 X46.7576 Y155.0907 I0.7494 J-0.0307
G2 X46.7537 Y154.9836 I-2.2083 J0.0271
G1 X46.7451 Y154.8658
G2 X46.7325 Y154.7481 I-120.5525 J12.9429
G2 X46.7035 Y154.5713 I-1.9564 J0.2295
G3 X46.7019 Y154.5636 I0.7339 J-0.1547
G2 X46.6654 Y154.4208 I-1.3555 J0.2709
G2 X46.6446 Y154.3586 I-1.8141 J0.5719
G1 X46.6102 Y154.2712
G2 X46.5787 Y154.2072 I-0.4036 J0.159
G3 X46.5769 Y154.2042 I0.6433 J-0.3856
G2 X46.5369 Y154.1463 I-0.4381 J0.2599
G2 X46.4928 Y154.1006 I-0.3574 J0.3009
G3 X46.4872 Y154.0955 I0.503 J-0.5563
G2 X46.4561 Y154.0713 I-0.1604 J0.1737
G2 X46.4141 Y154.0462 I-0.8934 J1.4496
G2 X46.3624 Y154.0203 I-0.9885 J1.9082
G2 X46.258 Y153.9777 I-0.3938 J0.8155
G3 X46.252 Y153.9756 I0.2397 J-0.7106
G2 X46.1037 Y153.9315 I-0.5687 J1.6399
G2 X45.9158 Y153.894 I-0.6654 J2.848
G2 X45.8999 Y153.8915 I-0.5679 J3.4788
G1 F300.0 Z-3.0
G2 F800.0 X45.6967 Y153.8653 I-0.5521 J3.4814
G3 X45.6914 Y153.8647 I0.0742 J-0.7463
G2 X45.4485 Y153.8469 I-0.3948 J3.7062
G2 X45.3009 Y153.842 I-0.7405 J20.2551
G1 X45.153 Y153.8393
G1 X40.0095
G3 X40.0075 I0.0 J-0.75
G2 X39.8823 Y153.8416 I-0.0078 J3.0328
G3 X39.8594 Y153.8421 I-0.0291 J-0.7494
G2 X39.742 Y153.8461 I0.019 J2.3213
G1 X39.6071 Y153.8543
G1 X39.4717 Y153.8661
G3 X39.47 Y153.8662 I-0.0653 J-0.7471
G2 X39.3799 Y153.8765 I0.1359 J1.5964
G3 X39.3523 Y153.8799 I-0.1058 J-0.7425
G2 X39.2892 Y153.8895 I0.0721 J0.6879
G3 X39.277 Y153.8918 I-0.1466 J-0.7355
G2 X39.0876 Y153.9327 I0.5353 J2.9381
G3 X39.0635 Y153.9383 I-0.182 J-0.7276
G2 X39.0173 Y153.9503 I0.1169 J0.5432
G3 X38.9776 Y153.9613 I-0.2201 J-0.717
G2 X38.9593 Y153.9671 I0.0371 J0.1499
G3 X38.9334 Y153.9765 I-0.2691 J-0.7001
G2 X38.8479 Y154.0132 I0.202 J0.5894
G3 X38.8116 Y154.0308 I-0.3461 J-0.6654
G2 X38.7987 Y154.0375 I0.0566 J0.1247
G3 X38.7798 Y154.0483 I-0.3804 J-0.6464
G2 X38.7444 Y154.0694 I0.282 J0.5125
G3 X38.7431 Y154.0702 I-0.4069 J-0.6301
G2 X38.7052 Y154.0991 I0.1612 J0.2507
G2 X38.6899 Y154.114 I0.3755 J0.4006
G1 X38.6518 Y154.158
G2 X38.6446 Y154.1678 I0.1259 J0.1
G3 X38.629 Y154.1898 I-0.6208 J-0.4209
G3 X38.6197 Y154.206 I-0.6549 J-0.3655
G2 X38.5842 Y154.2782 I0.4532 J0.268
G3 X38.5678 Y154.3161 I-0.6962 J-0.2789
G2 X38.5594 Y154.3371 I0.1875 J0.0874
G3 X38.5448 Y154.3765 I-0.7104 J-0.2405
G2 X38.5384 Y154.395 I0.1843 J0.0741
G1 X38.5149 Y154.4827
G1 X38.4948 Y154.5766
G3 X38.4925 Y154.5868 I-0.7333 J-0.1573
G2 X38.4824 Y154.642 I0.6029 J0.1381
G3 X38.4783 Y154.6689 I-0.7432 J-0.1005
G2 X38.4656 Y154.7544 I1.8255 J0.3147
G2 X38.4456 Y154.9797 I3.9721 J0.4672
G2 X38.4413 Y155.096 I3.0652 J0.17
G3 Y155.0966 I-0.7499 J-0.0131
G1 X38.4387 Y155.2365
G1 Y160.9238
G3 Y160.9267 I-0.75 J0.0
G2 X38.4409 Y161.0565 I3.1999 J0.0123
G3 X38.4413 Y161.0741 I-0.7495 J0.0276
G2 X38.4455 Y161.1995 I3.1082 J-0.041
G1 X38.4541 Y161.3313
G1 X38.4673 Y161.4655
G2 X38.4964 Y161.6575 I1.9891 J-0.2033
G2 X38.5172 Y161.7557 I7.5541 J-1.5455
G1 X38.5434 Y161.8587
G2 X38.582 Y161.9759 I1.151 J-0.3138
G1 X38.6085 Y162.035
G1 X38.6458 Y162.1063
G2 X38.6568 Y162.1247 I0.1943 J-0.1033
G3 X38.668 Y162.1421 I-0.6248 J0.4149
G2 X38.6864 Y162.1688 I0.3174 J-0.1983
G3 X38.687 Y162.1697 I-0.5992 J0.4511
G2 X38.7253 Y162.2137 I0.3264 J-0.2449
G2 X38.7908 Y162.2674 I0.5237 J-0.5724
G2 X38.8685 Y162.3166 I0.4123 J-0.5653
G3 X38.8717 Y162.3183 I-0.3586 J0.6587
G2 X38.9703 Y162.3656 I0.473 J-0.859
G2 X39.107 Y162.4128 I0.6299 J-1.6028
G3 X39.1093 Y162.4135 I-0.2148 J0.7186
G2 X39.2499 Y162.4479 I0.3871 J-1.2798
G2 X39.3456 Y162.4646 I0.9634 J-5.2266
G1 X39.4571 Y162.4799
G3 X39.4573 I-0.1019 J0.743
G2 X39.5465 Y162.4896 I0.2136 J-1.5543
G3 X39.5691 Y162.4918 I-0.0595 J0.7476
G2 X39.6272 Y162.4967 I0.1278 J-1.1604
G1 X39.7041 Y162.1099
G1 X39.2395
G3 X38.4895 Y161.3599 I0.0 J-0.75
G1 Y154.9847
G3 X39.2395 Y154.2347 I0.75 J0.0
G1 X45.9593
G3 X46.7093 Y154.9847 I0.0 J0.75
G1 Y161.3599
G3 X45.9593 Y162.1099 I-0.75 J0.0
G1 X43.3748
G3 X42.6248 Y161.3599 I0.0 J-0.75
G1 Y158.4915
G1 X42.574
G1 Y162.5053
G1 X45.1589
G2 X45.4318 Y162.4981 I-0.0123 J-5.6895
G3 X45.4365 Y162.4979 I0.0376 J0.7491
G2 X45.6726 Y162.4802 I-0.1656 J-3.7812
G2 X45.8858 Y162.4493 I-0.3964 J-3.4934
G3 X45.8906 Y162.4485 I0.13 J0.7386
G2 X46.0494 Y162.413 I-0.2606 J-1.5378
G2 X46.2167 Y162.3585 I-0.7989 J-2.7374
G3 X46.2204 Y162.3572 I0.2541 J0.7056
G2 X46.3112 Y162.3177 I-0.2393 J-0.6755
G2 X46.3661 Y162.2878 I-2.3231 J-4.3284
G1 X46.4163 Y162.2562
G2 X46.478 Y162.208 I-0.5209 J-0.7288
G2 X46.5046 Y162.1783 I-0.1697 J-0.1795
G3 X46.5242 Y162.1538 I0.5962 J0.455
G2 X46.5312 Y162.1444 I-0.0786 J-0.0653
G3 X46.5468 Y162.1214 I0.6279 J0.4102
G2 X46.5557 Y162.1074 I-0.1405 J-0.0994
G1 X46.5714 Y162.0788
G2 X46.6083 Y161.9973 I-1.4407 J-0.7016
G2 X46.6527 Y161.8651 I-1.2142 J-0.4808
G3 X46.6542 Y161.8597 I0.7228 J0.2002
G2 X46.6991 Y161.6741 I-2.2725 J-0.6478
G2 X46.733 Y161.4599 I-2.7589 J-0.5467
G2 X46.7527 Y161.2168 I-3.256 J-0.3863
G3 X46.7528 Y161.215 I0.7493 J0.0328
G2 X46.7575 Y161.073 I-5.4978 J-0.2538
G1 X46.7601 Y160.9176
G1 Y155.2297
G3 Y155.2248 I0.75 J0.0
G2 X46.7581 Y155.1122 I-2.378 J-0.0153
G3 X46.7576 Y155.0907 I0.7494 J-0.0307
G2 X46.7537 Y154.9836 I-2.2083 J0.0271
G1 X46.7451 Y154.8658
G2 X46.7325 Y154.7481 I-120.5525 J12.9429
G2 X46.7035 Y154.5713 I-1.9564 J0.2295
G3 X46.7019 Y154.5636 I0.7339 J-0.1547
G2 X46.6654 Y154.4208 I-1.3555 J0.2709
G2 X46.6446 Y154.3586 I-1.8141 J0.5719
G1 X46.6102 Y154.2712
G2 X46.5787 Y154.2072 I-0.4036 J0.159
G3 X46.5769 Y154.2042 I0.6433 J-0.3856
G2 X46.5369 Y154.1463 I-0.4381 J0.2599
G2 X46.4928 Y154.1006 I-0.3574 J0.3009
G3 X46.4872 Y154.0955 I0.503 J-0.5563
G2 X46.4561 Y154.0713 I-0.1604 J0.1737
G2 X46.4141 Y154.0462 I-0.8934 J1.4496
G2 X46.3624 Y154.0203 I-0.9885 J1.9082
G2 X46.258 Y153.9777 I-0.3938 J0.8155
G3 X46.252 Y153.9756 I0.2397 J-0.7106
G2 X46.1037 Y153.9315 I-0.5687 J1.6399
G2 X45.9158 Y153.894 I-0.6654 J2.848
G2 X45.8999 Y153.8915 I-0.5679 J3.4788
G1 F300.0 Z-4.0
G2 F800.0 X45.6967 Y153.8653 I-0.5521 J3.4814
G3 X45.6914 Y153.8647 I0.0742 J-0.7463
G2 X45.4485 Y153.8469 I-0.3948 J3.7062
G2 X45.3009 Y153.842 I-0.7405 J20.2551
G1 X45.153 Y153.8393
G1 X40.0095
G3 X40.0075 I0.0 J-0.75
G2 X39.8823 Y153.8416 I-0.0078 J3.0328
G3 X39.8594 Y153.8421 I-0.0291 J-0.7494
G2 X39.742 Y153.8461 I0.019 J2.3213
G1 X39.6071 Y153.8543
G1 X39.4717 Y153.8661
G3 X39.47 Y153.8662 I-0.0653 J-0.7471
G2 X39.3799 Y153.8765 I0.1359 J1.5964
G3 X39.3523 Y153.8799 I-0.1058 J-0.7425
G2 X39.2892 Y153.8895 I0.0721 J0.6879
G3 X39.277 Y153.8918 I-0.1466 J-0.7355
G2 X39.0876 Y153.9327 I0.5353 J2.9381
G3 X39.0635 Y153.9383 I-0.182 J-0.7276
G2 X39.0173 Y153.9503 I0.1169 J0.5432
G3 X38.9776 Y153.9613 I-0.2201 J-0.717
G2 X38.9593 Y153.9671 I0.0371 J0.1499
G3 X38.9334 Y153.9765 I-0.2691 J-0.7001
G2 X38.8479 Y154.0132 I0.202 J0.5894
G3 X38.8116 Y154.0308 I-0.3461 J-0.6654
G2 X38.7987 Y154.0375 I0.0566 J0.1247
G3 X38.7798 Y154.0483 I-0.3804 J-0.6464
G2 X38.7444 Y154.0694 I0.282 J0.5125
G3 X38.7431 Y154.0702 I-0.4069 J-0.6301
G2 X38.7052 Y154.0991 I0.1612 J0.2507
G2 X38.6899 Y154.114 I0.3755 J0.4006
G1 X38.6518 Y154.158
G2 X38.6446 Y154.1678 I0.1259 J0.1
G3 X38.629 Y154.1898 I-0.6208 J-0.4209
G3 X38.6197 Y154.206 I-0.6549 J-0.3655
G2 X38.5842 Y154.2782 I0.4532 J0.268
G3 X38.5678 Y154.3161 I-0.6962 J-0.2789
G2 X38.5594 Y154.3371 I0.1875 J0.0874
G3 X38.5448 Y154.3765 I-0.7104 J-0.2405
G2 X38.5384 Y154.395 I0.1843 J0.0741
G1 X38.5149 Y154.4827
G1 X38.4948 Y154.5766
G3 X38.4925 Y154.5868 I-0.7333 J-0.1573
G2 X38.4824 Y154.642 I0.6029 J0.1381
G3 X38.4783 Y154.6689 I-0.7432 J-0.1005
G2 X38.4656 Y154.7544 I1.8255 J0.3147
G2 X38.4456 Y154.9797 I3.9721 J0.4672
G2 X38.4413 Y155.096 I3.0652 J0.17
G3 Y155.0966 I-0.7499 J-0.0131
G1 X38.4387 Y155.2365
G1 Y160.9238
G3 Y160.9267 I-0.75 J0.0
G2 X38.4409 Y161.0565 I3.1999 J0.0123
G3 X38.4413 Y161.0741 I-0.7495 J0.0276
G2 X38.4455 Y161.1995 I3.1082 J-0.041
G1 X38.4541 Y161.3313
G1 X38.4673 Y161.4655
G2 X38.4964 Y161.6575 I1.9891 J-0.2033
G2 X38.5172 Y161.7557 I7.5541 J-1.5455
G1 X38.5434 Y161.8587
G2 X38.582 Y161.9759 I1.151 J-0.3138
G1 X38.6085 Y162.035
G1 X38.6458 Y162.1063
G2 X38.6568 Y162.1247 I0.1943 J-0.1033
G3 X38.668 Y162.1421 I-0.6248 J0.4149
G2 X38.6864 Y162.1688 I0.3174 J-0.1983
G3 X38.687 Y162.1697 I-0.5992 J0.4511
G2 X38.7253 Y162.2137 I0.3264 J-0.2449
G2 X38.7908 Y162.2674 I0.5237 J-0.5724
G2 X38.8685 Y162.3166 I0.4123 J-0.5653
G3 X38.8717 Y162.3183 I-0.3586 J0.6587
G2 X38.9703 Y162.3656 I0.473 J-0.859
G2 X39.107 Y162.4128 I0.6299 J-1.6028
G3 X39.1093 Y162.4135 I-0.2148 J0.7186
G2 X39.2499 Y162.4479 I0.3871 J-1.2798
G2 X39.3456 Y162.4646 I0.9634 J-5.2266
G1 X39.4571 Y162.4799
G3 X39.4573 I-0.1019 J0.743
G2 X39.5465 Y162.4896 I0.2136 J-1.5543
G3 X39.5691 Y162.4918 I-0.0595 J0.7476
G2 X39.6272 Y162.4967 I0.1278 J-1.1604
G1 X39.7041 Y162.1099
G1 X39.2395
G3 X38.4895 Y161.3599 I0.0 J-0.75
G1 Y154.9847
G3 X39.2395 Y154.2347 I0.75 J0.0
G1 X45.9593
G3 X46.7093 Y154.9847 I0.0 J0.75
G1 Y161.3599
G3 X45.9593 Y162.1099 I-0.75 J0.0
G1 X43.3748
G3 X42.6248 Y161.3599 I0.0 J-0.75
G1 Y158.4915
G1 X42.574
G1 Y162.5053
G1 X45.1589
G2 X45.4318 Y162.4981 I-0.0123 J-5.6895
G3 X45.4365 Y162.4979 I0.0376 J0.7491
G2 X45.6726 Y162.4802 I-0.1656 J-3.7812
G2 X45.8858 Y162.4493 I-0.3964 J-3.4934
G3 X45.8906 Y162.4485 I0.13 J0.7386
G2 X46.0494 Y162.413 I-0.2606 J-1.5378
G2 X46.2167 Y162.3585 I-0.7989 J-2.7374
G3 X46.2204 Y162.3572 I0.2541 J0.7056
G2 X46.3112 Y162.3177 I-0.2393 J-0.6755
G2 X46.3661 Y162.2878 I-2.3231 J-4.3284
G1 X46.4163 Y162.2562
G2 X46.478 Y162.208 I-0.5209 J-0.7288
G2 X46.5046 Y162.1783 I-0.1697 J-0.1795
G3 X46.5242 Y162.1538 I0.5962 J0.455
G2 X46.5312 Y162.1444 I-0.0786 J-0.0653
G3 X46.5468 Y162.1214 I0.6279 J0.4102
G2 X46.5557 Y162.1074 I-0.1405 J-0.0994
G1 X46.5714 Y162.0788
G2 X46.6083 Y161.9973 I-1.4407 J-0.7016
G2 X46.6527 Y161.8651 I-1.2142 J-0.4808
G3 X46.6542 Y161.8597 I0.7228 J0.2002
G2 X46.6991 Y161.6741 I-2.2725 J-0.6478
G2 X46.733 Y161.4599 I-2.7589 J-0.5467
G2 X46.7527 Y161.2168 I-3.256 J-0.3863
G3 X46.7528 Y161.215 I0.7493 J0.0328
G2 X46.7575 Y161.073 I-5.4978 J-0.2538
G1 X46.7601 Y160.9176
G1 Y155.2297
G3 Y155.2248 I0.75 J0.0
G2 X46.7581 Y155.1122 I-2.378 J-0.0153
G3 X46.7576 Y155.0907 I0.7494 J-0.0307
G2 X46.7537 Y154.9836 I-2.2083 J0.0271
G1 X46.7451 Y154.8658
G2 X46.7325 Y154.7481 I-120.5525 J12.9429
G2 X46.7035 Y154.5713 I-1.9564 J0.2295
G3 X46.7019 Y154.5636 I0.7339 J-0.1547
G2 X46.6654 Y154.4208 I-1.3555 J0.2709
G2 X46.6446 Y154.3586 I-1.8141 J0.5719
G1 X46.6102 Y154.2712
G2 X46.5787 Y154.2072 I-0.4036 J0.159
G3 X46.5769 Y154.2042 I0.6433 J-0.3856
G2 X46.5369 Y154.1463 I-0.4381 J0.2599
G2 X46.4928 Y154.1006 I-0.3574 J0.3009
G3 X46.4872 Y154.0955 I0.503 J-0.5563
G2 X46.4561 Y154.0713 I-0.1604 J0.1737
G2 X46.4141 Y154.0462 I-0.8934 J1.4496
G2 X46.3624 Y154.0203 I-0.9885 J1.9082
G2 X46.258 Y153.9777 I-0.3938 J0.8155
G3 X46.252 Y153.9756 I0.2397 J-0.7106
G2 X46.1037 Y153.9315 I-0.5687 J1.6399
G2 X45.9158 Y153.894 I-0.6654 J2.848
G2 X45.8999 Y153.8915 I-0.5679 J3.4788
G1 F300.0 Z-5.0
G2 F800.0 X45.6967 Y153.8653 I-0.5521 J3.4814
G3 X45.6914 Y153.8647 I0.0742 J-0.7463
G2 X45.4485 Y153.8469 I-0.3948 J3.7062
G2 X45.3009 Y153.842 I-0.7405 J20.2551
G1 X45.153 Y153.8393
G1 X40.0095
G3 X40.0075 I0.0 J-0.75
G2 X39.8823 Y153.8416 I-0.0078 J3.0328
G3 X39.8594 Y153.8421 I-0.0291 J-0.7494
G2 X39.742 Y153.8461 I0.019 J2.3213
G1 X39.6071 Y153.8543
G1 X39.4717 Y153.8661
G3 X39.47 Y153.8662 I-0.0653 J-0.7471
G2 X39.3799 Y153.8765 I0.1359 J1.5964
G3 X39.3523 Y153.8799 I-0.1058 J-0.7425
G2 X39.2892 Y153.8895 I0.0721 J0.6879
G3 X39.277 Y153.8918 I-0.1466 J-0.7355
G2 X39.0876 Y153.9327 I0.5353 J2.9381
G3 X39.0635 Y153.9383 I-0.182 J-0.7276
G2 X39.0173 Y153.9503 I0.1169 J0.5432
G3 X38.9776 Y153.9613 I-0.2201 J-0.717
G2 X38.9593 Y153.9671 I0.0371 J0.1499
G3 X38.9334 Y153.9765 I-0.2691 J-0.7001
G2 X38.8479 Y154.0132 I0.202 J0.5894
G3 X38.8116 Y154.0308 I-0.3461 J-0.6654
G2 X38.7987 Y154.0375 I0.0566 J0.1247
G3 X38.7798 Y154.0483 I-0.3804 J-0.6464
G2 X38.7444 Y154.0694 I0.282 J0.5125
G3 X38.7431 Y154.0702 I-0.4069 J-0.6301
G2 X38.7052 Y154.0991 I0.1612 J0.2507
G2 X38.6899 Y154.114 I0.3755 J0.4006
G1 X38.6518 Y154.158
G2 X38.6446 Y154.1678 I0.1259 J0.1
G3 X38.629 Y154.1898 I-0.6208 J-0.4209
G3 X38.6197 Y154.206 I-0.6549 J-0.3655
G2 X38.5842 Y154.2782 I0.4532 J0.268
G3 X38.5678 Y154.3161 I-0.6962 J-0.2789
G2 X38.5594 Y154.3371 I0.1875 J0.0874
G3 X38.5448 Y154.3765 I-0.7104 J-0.2405
G2 X38.5384 Y154.395 I0.1843 J0.0741
G1 X38.5149 Y154.4827
G1 X38.4948 Y154.5766
G3 X38.4925 Y154.5868 I-0.7333 J-0.1573
G2 X38.4824 Y154.642 I0.6029 J0.1381
G3 X38.4783 Y154.6689 I-0.7432 J-0.1005
G2 X38.4656 Y154.7544 I1.8255 J0.3147
G2 X38.4456 Y154.9797 I3.9721 J0.4672
G2 X38.4413 Y155.096 I3.0652 J0.17
G3 Y155.0966 I-0.7499 J-0.0131
G1 X38.4387 Y155.2365
G1 Y160.9238
G3 Y160.9267 I-0.75 J0.0
G2 X38.4409 Y161.0565 I3.1999 J0.0123
G3 X38.4413 Y161.0741 I-0.7495 J0.0276
G2 X38.4455 Y161.1995 I3.1082 J-0.041
G1 X38.4541 Y161.3313
G1 X38.4673 Y161.4655
G2 X38.4964 Y161.6575 I1.9891 J-0.2033
G2 X38.5172 Y161.7557 I7.5541 J-1.5455
G1 X38.5434 Y161.8587
G2 X38.582 Y161.9759 I1.151 J-0.3138
G1 X38.6085 Y162.035
G1 X38.6458 Y162.1063
G2 X38.6568 Y162.1247 I0.1943 J-0.1033
G3 X38.668 Y162.1421 I-0.6248 J0.4149
G2 X38.6864 Y162.1688 I0.3174 J-0.1983
G3 X38.687 Y162.1697 I-0.5992 J0.4511
G2 X38.7253 Y162.2137 I0.3264 J-0.2449
G2 X38.7908 Y162.2674 I0.5237 J-0.5724
G2 X38.8685 Y162.3166 I0.4123 J-0.5653
G3 X38.8717 Y162.3183 I-0.3586 J0.6587
G2 X38.9703 Y162.3656 I0.473 J-0.859
G2 X39.107 Y162.4128 I0.6299 J-1.6028
G3 X39.1093 Y162.4135 I-0.2148 J0.7186
G2 X39.2499 Y162.4479 I0.3871 J-1.2798
G2 X39.3456 Y162.4646 I0.9634 J-5.2266
G1 X39.4571 Y162.4799
G3 X39.4573 I-0.1019 J0.743
G2 X39.5465 Y162.4896 I0.2136 J-1.5543
G3 X39.5691 Y162.4918 I-0.0595 J0.7476
G2 X39.6272 Y162.4967 I0.1278 J-1.1604
G1 X39.7041 Y162.1099
G1 X39.2395
G3 X38.4895 Y161.3599 I0.0 J-0.75
G1 Y154.9847
G3 X39.2395 Y154.2347 I0.75 J0.0
G1 X45.9593
G3 X46.7093 Y154.9847 I0.0 J0.75
G1 Y161.3599
G3 X45.9593 Y162.1099 I-0.75 J0.0
G1 X43.3748
G3 X42.6248 Y161.3599 I0.0 J-0.75
G1 Y158.4915
G1 X42.574
G1 Y162.5053
G1 X45.1589
G2 X45.4318 Y162.4981 I-0.0123 J-5.6895
G3 X45.4365 Y162.4979 I0.0376 J0.7491
G2 X45.6726 Y162.4802 I-0.1656 J-3.7812
G2 X45.8858 Y162.4493 I-0.3964 J-3.4934
G3 X45.8906 Y162.4485 I0.13 J0.7386
G2 X46.0494 Y162.413 I-0.2606 J-1.5378
G2 X46.2167 Y162.3585 I-0.7989 J-2.7374
G3 X46.2204 Y162.3572 I0.2541 J0.7056
G2 X46.3112 Y162.3177 I-0.2393 J-0.6755
G2 X46.3661 Y162.2878 I-2.3231 J-4.3284
G1 X46.4163 Y162.2562
G2 X46.478 Y162.208 I-0.5209 J-0.7288
G2 X46.5046 Y162.1783 I-0.1697 J-0.1795
G3 X46.5242 Y162.1538 I0.5962 J0.455
G2 X46.5312 Y162.1444 I-0.0786 J-0.0653
G3 X46.5468 Y162.1214 I0.6279 J0.4102
G2 X46.5557 Y162.1074 I-0.1405 J-0.0994
G1 X46.5714 Y162.0788
G2 X46.6083 Y161.9973 I-1.4407 J-0.7016
G2 X46.6527 Y161.8651 I-1.2142 J-0.4808
G3 X46.6542 Y161.8597 I0.7228 J0.2002
G2 X46.6991 Y161.6741 I-2.2725 J-0.6478
G2 X46.733 Y161.4599 I-2.7589 J-0.5467
G2 X46.7527 Y161.2168 I-3.256 J-0.3863
G3 X46.7528 Y161.215 I0.7493 J0.0328
G2 X46.7575 Y161.073 I-5.4978 J-0.2538
G1 X46.7601 Y160.9176
G1 Y155.2297
G3 Y155.2248 I0.75 J0.0
G2 X46.7581 Y155.1122 I-2.378 J-0.0153
G3 X46.7576 Y155.0907 I0.7494 J-0.0307
G2 X46.7537 Y154.9836 I-2.2083 J0.0271
G1 X46.7451 Y154.8658
G2 X46.7325 Y154.7481 I-120.5525 J12.9429
G2 X46.7035 Y154.5713 I-1.9564 J0.2295
G3 X46.7019 Y154.5636 I0.7339 J-0.1547
G2 X46.6654 Y154.4208 I-1.3555 J0.2709
G2 X46.6446 Y154.3586 I-1.8141 J0.5719
G1 X46.6102 Y154.2712
G2 X46.5787 Y154.2072 I-0.4036 J0.159
G3 X46.5769 Y154.2042 I0.6433 J-0.3856
G2 X46.5369 Y154.1463 I-0.4381 J0.2599
G2 X46.4928 Y154.1006 I-0.3574 J0.3009
G3 X46.4872 Y154.0955 I0.503 J-0.5563
G2 X46.4561 Y154.0713 I-0.1604 J0.1737
G2 X46.4141 Y154.0462 I-0.8934 J1.4496
G2 X46.3624 Y154.0203 I-0.9885 J1.9082
G2 X46.258 Y153.9777 I-0.3938 J0.8155
G3 X46.252 Y153.9756 I0.2397 J-0.7106
G2 X46.1037 Y153.9315 I-0.5687 J1.6399
G2 X45.9158 Y153.894 I-0.6654 J2.848
G2 X45.8999 Y153.8915 I-0.5679 J3.4788
G1 F300.0 Z-6.0
G2 F800.0 X45.6967 Y153.8653 I-0.5521 J3.4814
G3 X45.6914 Y153.8647 I0.0742 J-0.7463
G2 X45.4485 Y153.8469 I-0.3948 J3.7062
G2 X45.3009 Y153.842 I-0.7405 J20.2551
G1 X45.153 Y153.8393
G1 X40.0095
G3 X40.0075 I0.0 J-0.75
G2 X39.8823 Y153.8416 I-0.0078 J3.0328
G3 X39.8594 Y153.8421 I-0.0291 J-0.7494
G2 X39.742 Y153.8461 I0.019 J2.3213
G1 X39.6071 Y153.8543
G1 X39.4717 Y153.8661
G3 X39.47 Y153.8662 I-0.0653 J-0.7471
G2 X39.3799 Y153.8765 I0.1359 J1.5964
G3 X39.3523 Y153.8799 I-0.1058 J-0.7425
G2 X39.2892 Y153.8895 I0.0721 J0.6879
G3 X39.277 Y153.8918 I-0.1466 J-0.7355
G2 X39.0876 Y153.9327 I0.5353 J2.9381
G3 X39.0635 Y153.9383 I-0.182 J-0.7276
G2 X39.0173 Y153.9503 I0.1169 J0.5432
G3 X38.9776 Y153.9613 I-0.2201 J-0.717
G2 X38.9593 Y153.9671 I0.0371 J0.1499
G3 X38.9334 Y153.9765 I-0.2691 J-0.7001
G2 X38.8479 Y154.0132 I0.202 J0.5894
G3 X38.8116 Y154.0308 I-0.3461 J-0.6654
G2 X38.7987 Y154.0375 I0.0566 J0.1247
G3 X38.7798 Y154.0483 I-0.3804 J-0.6464
G2 X38.7444 Y154.0694 I0.282 J0.5125
G3 X38.7431 Y154.0702 I-0.4069 J-0.6301
G2 X38.7052 Y154.0991 I0.1612 J0.2507
G2 X38.6899 Y154.114 I0.3755 J0.4006
G1 X38.6518 Y154.158
G2 X38.6446 Y154.1678 I0.1259 J0.1
G3 X38.629 Y154.1898 I-0.6208 J-0.4209
G3 X38.6197 Y154.206 I-0.6549 J-0.3655
G2 X38.5842 Y154.2782 I0.4532 J0.268
G3 X38.5678 Y154.3161 I-0.6962 J-0.2789
G2 X38.5594 Y154.3371 I0.1875 J0.0874
G3 X38.5448 Y154.3765 I-0.7104 J-0.2405
G2 X38.5384 Y154.395 I0.1843 J0.0741
G1 X38.5149 Y154.4827
G1 X38.4948 Y154.5766
G3 X38.4925 Y154.5868 I-0.7333 J-0.1573
G2 X38.4824 Y154.642 I0.6029 J0.1381
G3 X38.4783 Y154.6689 I-0.7432 J-0.1005
G2 X38.4656 Y154.7544 I1.8255 J0.3147
G2 X38.4456 Y154.9797 I3.9721 J0.4672
G2 X38.4413 Y155.096 I3.0652 J0.17
G3 Y155.0966 I-0.7499 J-0.0131
G1 X38.4387 Y155.2365
G1 Y160.9238
G3 Y160.9267 I-0.75 J0.0
G2 X38.4409 Y161.0565 I3.1999 J0.0123
G3 X38.4413 Y161.0741 I-0.7495 J0.0276
G2 X38.4455 Y161.1995 I3.1082 J-0.041
G1 X38.4541 Y161.3313
G1 X38.4673 Y161.4655
G2 X38.4964 Y161.6575 I1.9891 J-0.2033
G2 X38.5172 Y161.7557 I7.5541 J-1.5455
G1 X38.5434 Y161.8587
G2 X38.582 Y161.9759 I1.151 J-0.3138
G1 X38.6085 Y162.035
G1 X38.6458 Y162.1063
G2 X38.6568 Y162.1247 I0.1943 J-0.1033
G3 X38.668 Y162.1421 I-0.6248 J0.4149
G2 X38.6864 Y162.1688 I0.3174 J-0.1983
G3 X38.687 Y162.1697 I-0.5992 J0.4511
G2 X38.7253 Y162.2137 I0.3264 J-0.2449
G2 X38.7908 Y162.2674 I0.5237 J-0.5724
G2 X38.8685 Y162.3166 I0.4123 J-0.5653
G3 X38.8717 Y162.3183 I-0.3586 J0.6587
G2 X38.9703 Y162.3656 I0.473 J-0.859
G2 X39.107 Y162.4128 I0.6299 J-1.6028
G3 X39.1093 Y162.4135 I-0.2148 J0.7186
G2 X39.2499 Y162.4479 I0.3871 J-1.2798
G2 X39.3456 Y162.4646 I0.9634 J-5.2266
G1 X39.4571 Y162.4799
G3 X39.4573 I-0.1019 J0.743
G2 X39.5465 Y162.4896 I0.2136 J-1.5543
G3 X39.5691 Y162.4918 I-0.0595 J0.7476
G2 X39.6272 Y162.4967 I0.1278 J-1.1604
G1 X39.7041 Y162.1099
G1 X39.2395
G3 X38.4895 Y161.3599 I0.0 J-0.75
G1 Y154.9847
G3 X39.2395 Y154.2347 I0.75 J0.0
G1 X45.9593
G3 X46.7093 Y154.9847 I0.0 J0.75
G1 Y161.3599
G3 X45.9593 Y162.1099 I-0.75 J0.0
G1 X43.3748
G3 X42.6248 Y161.3599 I0.0 J-0.75
G1 Y158.4915
G1 X42.574
G1 Y162.5053
G1 X45.1589
G2 X45.4318 Y162.4981 I-0.0123 J-5.6895
G3 X45.4365 Y162.4979 I0.0376 J0.7491
G2 X45.6726 Y162.4802 I-0.1656 J-3.7812
G2 X45.8858 Y162.4493 I-0.3964 J-3.4934
G3 X45.8906 Y162.4485 I0.13 J0.7386
G2 X46.0494 Y162.413 I-0.2606 J-1.5378
G2 X46.2167 Y162.3585 I-0.7989 J-2.7374
G3 X46.2204 Y162.3572 I0.2541 J0.7056
G2 X46.3112 Y162.3177 I-0.2393 J-0.6755
G2 X46.3661 Y162.2878 I-2.3231 J-4.3284
G1 X46.4163 Y162.2562
G2 X46.478 Y162.208 I-0.5209 J-0.7288
G2 X46.5046 Y162.1783 I-0.1697 J-0.1795
G3 X46.5242 Y162.1538 I0.5962 J0.455
G2 X46.5312 Y162.1444 I-0.0786 J-0.0653
G3 X46.5468 Y162.1214 I0.6279 J0.4102
G2 X46.5557 Y162.1074 I-0.1405 J-0.0994
G1 X46.5714 Y162.0788
G2 X46.6083 Y161.9973 I-1.4407 J-0.7016
G2 X46.6527 Y161.8651 I-1.2142 J-0.4808
G3 X46.6542 Y161.8597 I0.7228 J0.2002
G2 X46.6991 Y161.6741 I-2.2725 J-0.6478
G2 X46.733 Y161.4599 I-2.7589 J-0.5467
G2 X46.7527 Y161.2168 I-3.256 J-0.3863
G3 X46.7528 Y161.215 I0.7493 J0.0328
G2 X46.7575 Y161.073 I-5.4978 J-0.2538
G1 X46.7601 Y160.9176
G1 Y155.2297
G3 Y155.2248 I0.75 J0.0
G2 X46.7581 Y155.1122 I-2.378 J-0.0153
G3 X46.7576 Y155.0907 I0.7494 J-0.0307
G2 X46.7537 Y154.9836 I-2.2083 J0.0271
G1 X46.7451 Y154.8658
G2 X46.7325 Y154.7481 I-120.5525 J12.9429
G2 X46.7035 Y154.5713 I-1.9564 J0.2295
G3 X46.7019 Y154.5636 I0.7339 J-0.1547
G2 X46.6654 Y154.4208 I-1.3555 J0.2709
G2 X46.6446 Y154.3586 I-1.8141 J0.5719
G1 X46.6102 Y154.2712
G2 X46.5787 Y154.2072 I-0.4036 J0.159
G3 X46.5769 Y154.2042 I0.6433 J-0.3856
G2 X46.5369 Y154.1463 I-0.4381 J0.2599
G2 X46.4928 Y154.1006 I-0.3574 J0.3009
G3 X46.4872 Y154.0955 I0.503 J-0.5563
G2 X46.4561 Y154.0713 I-0.1604 J0.1737
G2 X46.4141 Y154.0462 I-0.8934 J1.4496
G2 X46.3624 Y154.0203 I-0.9885 J1.9082
G2 X46.258 Y153.9777 I-0.3938 J0.8155
G3 X46.252 Y153.9756 I0.2397 J-0.7106
G2 X46.1037 Y153.9315 I-0.5687 J1.6399
G2 X45.9158 Y153.894 I-0.6654 J2.848
G2 X45.8999 Y153.8915 I-0.5679 J3.4788
G0 Z3.0
G0 X39.5753 Y144.334
G1 F300.0 Z-1.0
G3 F800.0 X39.4358 Y144.3191 I0.1798 J-2.3394
G2 X39.4271 Y144.318 I-0.1021 J0.743
G3 X39.2625 Y144.2897 I0.2293 J-1.827
G1 X39.1673 Y144.2682
G3 X39.0978 Y144.249 I0.5986 J-2.3024
G3 X38.9912 Y144.2094 I0.2682 J-0.886
G2 X38.9828 Y144.2058 I-0.3036 J0.6858
G3 X38.8858 Y144.1574 I0.368 J-0.8592
G3 X38.7909 Y144.0965 I0.6908 J-1.1817
G3 X38.7453 Y144.0565 I0.2507 J-0.3318
G2 X38.7404 Y144.0516 I-0.5343 J0.5264
G3 X38.693 Y143.9971 I0.3561 J-0.3574
G3 X38.6365 Y143.9094 I0.7293 J-0.532
G3 X38.6196 Y143.8755 I0.3903 J-0.2162
G2 X38.6111 Y143.8573 I-0.6846 J0.3063
G3 X38.5949 Y143.8196 I0.4567 J-0.2192
G1 X38.5619 Y143.7316
G1 X38.5345 Y143.6453
G3 X38.5207 Y143.5908 I0.66 J-0.1961
G2 X38.5171 Y143.5742 I-0.734 J0.1542
G3 X38.5152 Y143.5661 I1.5462 J-0.3616
G2 X39.2395 Y144.1214 I0.7243 J-0.1947
G1 X39.6338
G1 X39.5753 Y144.334
G1 F300.0 Z-2.0
G3 F800.0 X39.4358 Y144.3191 I0.1798 J-2.3394
G2 X39.4271 Y144.318 I-0.1021 J0.743
G3 X39.2625 Y144.2897 I0.2293 J-1.827
G1 X39.1673 Y144.2682
G3 X39.0978 Y144.249 I0.5986 J-2.3024
G3 X38.9912 Y144.2094 I0.2682 J-0.886
G2 X38.9828 Y144.2058 I-0.3036 J0.6858
G3 X38.8858 Y144.1574 I0.368 J-0.8592
G3 X38.7909 Y144.0965 I0.6908 J-1.1817
G3 X38.7453 Y144.0565 I0.2507 J-0.3318
G2 X38.7404 Y144.0516 I-0.5343 J0.5264
G3 X38.693 Y143.9971 I0.3561 J-0.3574
G3 X38.6365 Y143.9094 I0.7293 J-0.532
G3 X38.6196 Y143.8755 I0.3903 J-0.2162
G2 X38.6111 Y143.8573 I-0.6846 J0.3063
G3 X38.5949 Y143.8196 I0.4567 J-0.2192
G1 X38.5619 Y143.7316
G1 X38.5345 Y143.6453
G3 X38.5207 Y143.5908 I0.66 J-0.1961
G2 X38.5171 Y143.5742 I-0.734 J0.1542
G3 X38.5152 Y143.5661 I1.5462 J-0.3616
G2 X39.2395 Y144.1214 I0.7243 J-0.1947
G1 X39.6338
G1 X39.5753 Y144.334
G0 Z3.0
G0 X38.4947 Y143.4597
G1 F300.0 Z-2.0
G3 F800.0 X38.4657 Y143.2632 I5.6099 J-0.9271
G3 X38.4458 Y143.0194 I4.3151 J-0.4761
G3 X38.4412 Y142.8869 I3.6673 J-0.1915
G2 X38.4409 Y142.8719 I-0.7499 J0.012
G3 X38.4387 Y142.7414 I3.2992 J-0.1189
G2 Y142.7387 I-0.75 J-0.0027
G1 Y138.0771
G1 X38.4412 Y137.9419
G3 X38.4459 Y137.8171 I6.1942 J0.1713
G3 X38.4648 Y137.6098 I2.7105 J0.1426
G2 X38.4662 Y137.5984 I-0.7437 J-0.0967
G3 X38.4942 Y137.4279 I1.759 J0.2016
G1 X38.514 Y137.3382
G1 X38.5371 Y137.2538
G3 X38.547 Y137.225 I0.3455 J0.1031
G2 X38.559 Y137.1922 I-0.698 J-0.2743
G3 X38.5682 Y137.1694 I0.2167 J0.0737
G2 X38.584 Y137.1328 I-0.6802 J-0.316
G3 X38.6125 Y137.075 I0.3961 J0.159
G3 X38.6661 Y137.0 I0.7555 J0.4833
G2 X38.6667 Y136.9992 I-0.587 J-0.4669
G3 X38.6893 Y136.9755 I0.1388 J0.1101
G2 X38.7033 Y136.9631 I-0.4917 J-0.5663
G2 X38.7209 Y136.95 I-0.4377 J-0.609
G3 X38.7316 Y136.9425 I0.1108 J0.1451
G1 X38.7884 Y136.9084
G3 X38.8306 Y136.8868 I0.8035 J1.5206
G3 X38.919 Y136.8516 I0.2981 J0.6199
G2 X38.9293 Y136.8482 I-0.2287 J-0.7143
G3 X39.0794 Y136.805 I0.5648 J1.6797
G3 X39.2821 Y136.7622 I1.0215 J4.3326
G3 X39.4785 Y136.7365 I0.387 J2.1983
G2 X39.4819 Y136.7362 I-0.064 J-0.7473
G3 X39.7348 Y136.7198 I0.4502 J4.9862
G2 X39.7366 Y136.7197 I-0.0296 J-0.7494
G3 X40.0264 Y136.7123 I0.3736 J8.9273
G1 X40.9291
G1 X41.2488 Y136.7201
G3 X41.5038 Y136.736 I-0.1272 J4.1026
G2 X41.5055 Y136.7361 I0.0698 J-0.7467
G3 X41.6159 Y136.7477 I-0.3708 J4.0653
G1 X41.742 Y136.7659
G3 X41.9197 Y136.8024 I-0.3091 J1.9561
G2 X41.9293 Y136.8048 I0.1843 J-0.727
G3 X42.1029 Y136.8521 I-0.6739 J2.8137
G3 X42.2305 Y136.9005 I-0.4906 J1.4836
G3 X42.3001 Y136.9376 I-0.2106 J0.4792
G3 X42.336 Y136.9613 I-0.6483 J1.0217
G3 X42.3719 Y136.9895 I-1.0537 J1.3796
G3 X42.392 Y137.0099 I-0.1027 J0.1216
G2 X42.3942 Y137.0126 I0.5789 J-0.4768
G3 X42.417 Y137.0409 I-0.8434 J0.7013
G1 X42.4469 Y137.0857
G3 X42.4515 Y137.0944 I-0.1248 J0.0718
G2 X42.4666 Y137.1237 I0.6743 J-0.3284
G3 X42.4743 Y137.1399 I-0.1495 J0.0812
G2 X42.4906 Y137.1764 I0.6932 J-0.2864
G3 X42.5256 Y137.2665 I-0.5878 J0.2804
G2 X42.5345 Y137.2938 I0.7172 J-0.2192
G3 X42.5415 Y137.3185 I-0.2055 J0.0715
G2 X42.5503 Y137.354 I0.7324 J-0.1615
G3 X42.5622 Y137.406 I-0.6375 J0.1736
G2 X42.5635 Y137.4129 I0.7372 J-0.138
G1 X42.5846 Y137.5202
G1 X42.6015 Y137.6265
G3 X42.6091 Y137.6955 I-0.8069 J0.1242
G2 X42.6101 Y137.7077 I0.7483 J-0.0508
G3 X42.6175 Y137.8139 I-3.6068 J0.304
G3 X42.6248 Y138.077 I-13.5238 J0.5076
G1 Y143.5437
G2 X42.6263 Y143.5909 I0.75 J0.0
G3 X42.602 Y143.4174 I3.0891 J-0.5202
G3 X42.5811 Y143.1543 I5.266 J-0.5514
G3 X42.5766 Y143.017 I3.8396 J-0.1946
G2 X42.5762 Y143.002 I-0.7499 J0.0112
G3 X42.574 Y142.865 I3.5894 J-0.1254
G2 Y142.8626 I-0.75 J-0.0024
G1 Y137.6854
G2 X41.824 Y136.9354 I-0.75 J0.0
G1 X39.2395
G2 X38.4895 Y137.6854 I0.0 J0.75
G1 Y143.3714
G2 X38.4947 Y143.4597 I0.75 J0.0
G1 F300.0 Z-3.0
G3 F800.0 X38.4657 Y143.2632 I5.6099 J-0.9271
G3 X38.4458 Y143.0194 I4.3151 J-0.4761
G3 X38.4412 Y142.8869 I3.6673 J-0.1915
G2 X38.4409 Y142.8719 I-0.7499 J0.012
G3 X38.4387 Y142.7414 I3.2992 J-0.1189
G2 Y142.7387 I-0.75 J-0.0027
G1 Y138.0771
G1 X38.4412 Y137.9419
G3 X38.4459 Y137.8171 I6.1942 J0.1713
G3 X38.4648 Y137.6098 I2.7105 J0.1426
G2 X38.4662 Y137.5984 I-0.7437 J-0.0967
G3 X38.4942 Y137.4279 I1.759 J0.2016
G1 X38.514 Y137.3382
G1 X38.5371 Y137.2538
G3 X38.547 Y137.225 I0.3455 J0.1031
G2 X38.559 Y137.1922 I-0.698 J-0.2743
G3 X38.5682 Y137.1694 I0.2167 J0.0737
G2 X38.584 Y137.1328 I-0.6802 J-0.316
G3 X38.6125 Y137.075 I0.3961 J0.159
G3 X38.6661 Y137.0 I0.7555 J0.4833
G2 X38.6667 Y136.9992 I-0.587 J-0.4669
G3 X38.6893 Y136.9755 I0.1388 J0.1101
G2 X38.7033 Y136.9631 I-0.4917 J-0.5663
G2 X38.7209 Y136.95 I-0.4377 J-0.609
G3 X38.7316 Y136.9425 I0.1108 J0.1451
G1 X38.7884 Y136.9084
G3 X38.8306 Y136.8868 I0.8035 J1.5206
G3 X38.919 Y136.8516 I0.2981 J0.6199
G2 X38.9293 Y136.8482 I-0.2287 J-0.7143
G3 X39.0794 Y136.805 I0.5648 J1.6797
G3 X39.2821 Y136.7622 I1.0215 J4.3326
G3 X39.4785 Y136.7365 I0.387 J2.1983
G2 X39.4819 Y136.7362 I-0.064 J-0.7473
G3 X39.7348 Y136.7198 I0.4502 J4.9862
G2 X39.7366 Y136.7197 I-0.0296 J-0.7494
G3 X40.0264 Y136.7123 I0.3736 J8.9273
G1 X40.9291
G1 X41.2488 Y136.7201
G3 X41.5038 Y136.736 I-0.1272 J4.1026
G2 X41.5055 Y136.7361 I0.0698 J-0.7467
G3 X41.6159 Y136.7477 I-0.3708 J4.0653
G1 X41.742 Y136.7659
G3 X41.9197 Y136.8024 I-0.3091 J1.9561
G2 X41.9293 Y136.8048 I0.1843 J-0.727
G3 X42.1029 Y136.8521 I-0.6739 J2.8137
G3 X42.2305 Y136.9005 I-0.4906 J1.4836
G3 X42.3001 Y136.9376 I-0.2106 J0.4792
G3 X42.336 Y136.9613 I-0.6483 J1.0217
G3 X42.3719 Y136.9895 I-1.0537 J1.3796
G3 X42.392 Y137.0099 I-0.1027 J0.1216
G2 X42.3942 Y137.0126 I0.5789 J-0.4768
G3 X42.417 Y137.0409 I-0.8434 J0.7013
G1 X42.4469 Y137.0857
G3 X42.4515 Y137.0944 I-0.1248 J0.0718
G2 X42.4666 Y137.1237 I0.6743 J-0.3284
G3 X42.4743 Y137.1399 I-0.1495 J0.0812
G2 X42.4906 Y137.1764 I0.6932 J-0.2864
G3 X42.5256 Y137.2665 I-0.5878 J0.2804
G2 X42.5345 Y137.2938 I0.7172 J-0.2192
G3 X42.5415 Y137.3185 I-0.2055 J0.0715
G2 X42.5503 Y137.354 I0.7324 J-0.1615
G3 X42.5622 Y137.406 I-0.6375 J0.1736
G2 X42.5635 Y137.4129 I0.7372 J-0.138
G1 X42.5846 Y137.5202
G1 X42.6015 Y137.6265
G3 X42.6091 Y137.6955 I-0.8069 J0.1242
G2 X42.6101 Y137.7077 I0.7483 J-0.0508
G3 X42.6175 Y137.8139 I-3.6068 J0.304
G3 X42.6248 Y138.077 I-13.5238 J0.5076
G1 Y143.5437
G2 X42.6263 Y143.5909 I0.75 J0.0
G3 X42.602 Y143.4174 I3.0891 J-0.5202
G3 X42.5811 Y143.1543 I5.266 J-0.5514
G3 X42.5766 Y143.017 I3.8396 J-0.1946
G2 X42.5762 Y143.002 I-0.7499 J0.0112
G3 X42.574 Y142.865 I3.5894 J-0.1254
G2 Y142.8626 I-0.75 J-0.0024
G1 Y137.6854
G2 X41.824 Y136.9354 I-0.75 J0.0
G1 X39.2395
G2 X38.4895 Y137.6854 I0.0 J0.75
G1 Y143.3714
G2 X38.4947 Y143.4597 I0.75 J0.0
G1 F300.0 X38.5152 Y143.5661
G2 F800.0 X39.2395 Y144.1214 I0.7243 J-0.1947
G1 X39.6338
G1 X39.5753 Y144.334
G3 X39.4358 Y144.3191 I0.1798 J-2.3394
G2 X39.4271 Y144.318 I-0.1021 J0.743
G3 X39.2625 Y144.2897 I0.2293 J-1.827
G1 X39.1673 Y144.2682
G3 X39.0978 Y144.249 I0.5986 J-2.3024
G3 X38.9912 Y144.2094 I0.2682 J-0.886
G2 X38.9828 Y144.2058 I-0.3036 J0.6858
G3 X38.8858 Y144.1574 I0.368 J-0.8592
G3 X38.7909 Y144.0965 I0.6908 J-1.1817
G3 X38.7453 Y144.0565 I0.2507 J-0.3318
G2 X38.7404 Y144.0516 I-0.5343 J0.5264
G3 X38.693 Y143.9971 I0.3561 J-0.3574
G3 X38.6365 Y143.9094 I0.7293 J-0.532
G3 X38.6196 Y143.8755 I0.3903 J-0.2162
G2 X38.6111 Y143.8573 I-0.6846 J0.3063
G3 X38.5949 Y143.8196 I0.4567 J-0.2192
G1 X38.5619 Y143.7316
G1 X38.5345 Y143.6453
G3 X38.5207 Y143.5908 I0.66 J-0.1961
G2 X38.5171 Y143.5742 I-0.734 J0.1542
G3 X38.5152 Y143.5661 I1.5462 J-0.3616
G1 F300.0 Z-4.0
G2 F800.0 X39.2395 Y144.1214 I0.7243 J-0.1947
G1 X39.6338
G1 X39.5753 Y144.334
G3 X39.4358 Y144.3191 I0.1798 J-2.3394
G2 X39.4271 Y144.318 I-0.1021 J0.743
G3 X39.2625 Y144.2897 I0.2293 J-1.827
G1 X39.1673 Y144.2682
G3 X39.0978 Y144.249 I0.5986 J-2.3024
G3 X38.9912 Y144.2094 I0.2682 J-0.886
G2 X38.9828 Y144.2058 I-0.3036 J0.6858
G3 X38.8858 Y144.1574 I0.368 J-0.8592
G3 X38.7909 Y144.0965 I0.6908 J-1.1817
G3 X38.7453 Y144.0565 I0.2507 J-0.3318
G2 X38.7404 Y144.0516 I-0.5343 J0.5264
G3 X38.693 Y143.9971 I0.3561 J-0.3574
G3 X38.6365 Y143.9094 I0.7293 J-0.532
G3 X38.6196 Y143.8755 I0.3903 J-0.2162
G2 X38.6111 Y143.8573 I-0.6846 J0.3063
G3 X38.5949 Y143.8196 I0.4567 J-0.2192
G1 X38.5619 Y143.7316
G1 X38.5345 Y143.6453
G3 X38.5207 Y143.5908 I0.66 J-0.1961
G2 X38.5171 Y143.5742 I-0.734 J0.1542
G3 X38.5152 Y143.5661 I1.5462 J-0.3616
G0 Z3.0
G0 X42.67 Y143.8001
G1 F300.0 Z-3.0
G2 F800.0 X43.3748 Y144.2937 I0.7048 J-0.2564
G1 X45.9593
G2 X46.6748 Y143.7687 I0.0 J-0.75
G3 X46.6588 Y143.8267 I-1.5506 J-0.395
G2 X46.6547 Y143.8412 I0.7193 J0.2123
G3 X46.6064 Y143.9907 I-1.6634 J-0.455
G3 X46.5673 Y144.082 I-2.0896 J-0.8417
G1 X46.5514 Y144.1127
G3 X46.5205 Y144.161 I-0.2956 J-0.1554
G1 X46.4777 Y144.2143
G3 X46.458 Y144.2351 I-0.5093 J-0.4627
G3 X46.4191 Y144.2672 I-0.2066 J-0.211
G2 X46.4127 Y144.2716 I0.426 J0.6173
G3 X46.3441 Y144.3125 I-0.3016 J-0.4275
G2 X46.3375 Y144.3159 I0.3341 J0.6715
G3 X46.2107 Y144.374 I-0.7625 J-1.4957
G3 X46.0685 Y144.4225 I-0.6008 J-1.5307
G3 X45.9163 Y144.457 I-0.376 J-1.3035
G2 X45.9069 Y144.4586 I0.1238 J0.7397
G3 X45.6994 Y144.489 I-0.5557 J-3.0802
G3 X45.579 Y144.5012 I-0.9593 J-8.8067
G1 X45.4497 Y144.5103
G3 X45.3381 Y144.5142 I-0.1336 J-2.1866
G2 X45.3154 Y144.5148 I0.0075 J0.75
G3 X45.1975 Y144.5168 I-0.1 J-2.483
G2 X45.192 Y144.5167 I-0.0054 J0.75
G1 X44.1029
G1 X43.9658 Y144.5143
G3 X43.8299 Y144.5094 I0.6493 J-19.6695
G3 X43.616 Y144.4906 I0.1239 J-2.6389
G2 X43.6078 Y144.4896 I-0.0959 J0.7438
G3 X43.4156 Y144.4589 I0.277 J-2.3536
G2 X43.4154 I-0.1485 J0.7352
G3 X43.3341 Y144.4412 I0.5434 J-2.6928
G1 X43.237 Y144.415
G3 X43.1883 Y144.399 I0.2205 J-0.7537
G2 X43.1613 Y144.3897 I-0.2572 J0.7045
G3 X43.1262 Y144.3766 I0.1188 J-0.3686
G2 X43.123 Y144.3752 I-0.298 J0.6883
G1 X43.0498 Y144.3439
G1 X42.9874 Y144.3126
G3 X42.9833 Y144.31 I0.0331 J-0.0571
G2 X42.9595 Y144.2944 I-0.4234 J0.6191
G3 X42.9449 Y144.2843 I0.1144 J-0.1817
G1 X42.8965 Y144.2454
G3 X42.8636 Y144.2146 I1.5316 J-1.6685
G3 X42.8338 Y144.1791 I0.1887 J-0.1888
G2 X42.8313 Y144.1755 I-0.614 J0.4307
G3 X42.7719 Y144.0813 I0.8223 J-0.5841
G3 X42.7309 Y143.9904 I0.5839 J-0.3178
G2 X42.7289 Y143.9848 I-0.705 J0.2559
G3 X42.6759 Y143.8222 I1.9367 J-0.7207
G3 X42.67 Y143.8001 I1.9059 J-0.5244
G1 F300.0 Z-4.0
G2 F800.0 X43.3748 Y144.2937 I0.7048 J-0.2564
G1 X45.9593
G2 X46.6748 Y143.7687 I0.0 J-0.75
G3 X46.6588 Y143.8267 I-1.5506 J-0.395
G2 X46.6547 Y143.8412 I0.7193 J0.2123
G3 X46.6064 Y143.9907 I-1.6634 J-0.455
G3 X46.5673 Y144.082 I-2.0896 J-0.8417
G1 X46.5514 Y144.1127
G3 X46.5205 Y144.161 I-0.2956 J-0.1554
G1 X46.4777 Y144.2143
G3 X46.458 Y144.2351 I-0.5093 J-0.4627
G3 X46.4191 Y144.2672 I-0.2066 J-0.211
G2 X46.4127 Y144.2716 I0.426 J0.6173
G3 X46.3441 Y144.3125 I-0.3016 J-0.4275
G2 X46.3375 Y144.3159 I0.3341 J0.6715
G3 X46.2107 Y144.374 I-0.7625 J-1.4957
G3 X46.0685 Y144.4225 I-0.6008 J-1.5307
G3 X45.9163 Y144.457 I-0.376 J-1.3035
G2 X45.9069 Y144.4586 I0.1238 J0.7397
G3 X45.6994 Y144.489 I-0.5557 J-3.0802
G3 X45.579 Y144.5012 I-0.9593 J-8.8067
G1 X45.4497 Y144.5103
G3 X45.3381 Y144.5142 I-0.1336 J-2.1866
G2 X45.3154 Y144.5148 I0.0075 J0.75
G3 X45.1975 Y144.5168 I-0.1 J-2.483
G2 X45.192 Y144.5167 I-0.0054 J0.75
G1 X44.1029
G1 X43.9658 Y144.5143
G3 X43.8299 Y144.5094 I0.6493 J-19.6695
G3 X43.616 Y144.4906 I0.1239 J-2.6389
G2 X43.6078 Y144.4896 I-0.0959 J0.7438
G3 X43.4156 Y144.4589 I0.277 J-2.3536
G2 X43.4154 I-0.1485 J0.7352
G3 X43.3341 Y144.4412 I0.5434 J-2.6928
G1 X43.237 Y144.415
G3 X43.1883 Y144.399 I0.2205 J-0.7537
G2 X43.1613 Y144.3897 I-0.2572 J0.7045
G3 X43.1262 Y144.3766 I0.1188 J-0.3686
G2 X43.123 Y144.3752 I-0.298 J0.6883
G1 X43.0498 Y144.3439
G1 X42.9874 Y144.3126
G3 X42.9833 Y144.31 I0.0331 J-0.0571
G2 X42.9595 Y144.2944 I-0.4234 J0.6191
G3 X42.9449 Y144.2843 I0.1144 J-0.1817
G1 X42.8965 Y144.2454
G3 X42.8636 Y144.2146 I1.5316 J-1.6685
G3 X42.8338 Y144.1791 I0.1887 J-0.1888
G2 X42.8313 Y144.1755 I-0.614 J0.4307
G3 X42.7719 Y144.0813 I0.8223 J-0.5841
G3 X42.7309 Y143.9904 I0.5839 J-0.3178
G2 X42.7289 Y143.9848 I-0.705 J0.2559
G3 X42.6759 Y143.8222 I1.9367 J-0.7207
G3 X42.67 Y143.8001 I1.9059 J-0.5244
G1 F300.0 X42.6263 Y143.5909
G3 F800.0 X42.602 Y143.4174 I3.0891 J-0.5202
G3 X42.5811 Y143.1543 I5.266 J-0.5514
G3 X42.5766 Y143.017 I3.8396 J-0.1946
G2 X42.5762 Y143.002 I-0.7499 J0.0112
G3 X42.574 Y142.865 I3.5894 J-0.1254
G2 Y142.8626 I-0.75 J-0.0024
G1 Y137.6854
G2 X41.824 Y136.9354 I-0.75 J0.0
G1 X39.2395
G2 X38.4895 Y137.6854 I0.0 J0.75
G1 Y143.3714
G2 X38.4947 Y143.4597 I0.75 J0.0
G3 X38.4657 Y143.2632 I5.6099 J-0.9271
G3 X38.4458 Y143.0194 I4.3151 J-0.4761
G3 X38.4412 Y142.8869 I3.6673 J-0.1915
G2 X38.4409 Y142.8719 I-0.7499 J0.012
G3 X38.4387 Y142.7414 I3.2992 J-0.1189
G2 Y142.7387 I-0.75 J-0.0027
G1 Y138.0771
G1 X38.4412 Y137.9419
G3 X38.4459 Y137.8171 I6.1942 J0.1713
G3 X38.4648 Y137.6098 I2.7105 J0.1426
G2 X38.4662 Y137.5984 I-0.7437 J-0.0967
G3 X38.4942 Y137.4279 I1.759 J0.2016
G1 X38.514 Y137.3382
G1 X38.5371 Y137.2538
G3 X38.547 Y137.225 I0.3455 J0.1031
G2 X38.559 Y137.1922 I-0.698 J-0.2743
G3 X38.5682 Y137.1694 I0.2167 J0.0737
G2 X38.584 Y137.1328 I-0.6802 J-0.316
G3 X38.6125 Y137.075 I0.3961 J0.159
G3 X38.6661 Y137.0 I0.7555 J0.4833
G2 X38.6667 Y136.9992 I-0.587 J-0.4669
G3 X38.6893 Y136.9755 I0.1388 J0.1101
G2 X38.7033 Y136.9631 I-0.4917 J-0.5663
G2 X38.7209 Y136.95 I-0.4377 J-0.609
G3 X38.7316 Y136.9425 I0.1108 J0.1451
G1 X38.7884 Y136.9084
G3 X38.8306 Y136.8868 I0.8035 J1.5206
G3 X38.919 Y136.8516 I0.2981 J0.6199
G2 X38.9293 Y136.8482 I-0.2287 J-0.7143
G3 X39.0794 Y136.805 I0.5648 J1.6797
G3 X39.2821 Y136.7622 I1.0215 J4.3326
G3 X39.4785 Y136.7365 I0.387 J2.1983
G2 X39.4819 Y136.7362 I-0.064 J-0.7473
G3 X39.7348 Y136.7198 I0.4502 J4.9862
G2 X39.7366 Y136.7197 I-0.0296 J-0.7494
G3 X40.0264 Y136.7123 I0.3736 J8.9273
G1 X40.9291
G1 X41.2488 Y136.7201
G3 X41.5038 Y136.736 I-0.1272 J4.1026
G2 X41.5055 Y136.7361 I0.0698 J-0.7467
G3 X41.6159 Y136.7477 I-0.3708 J4.0653
G1 X41.742 Y136.7659
G3 X41.9197 Y136.8024 I-0.3091 J1.9561
G2 X41.9293 Y136.8048 I0.1843 J-0.727
G3 X42.1029 Y136.8521 I-0.6739 J2.8137
G3 X42.2305 Y136.9005 I-0.4906 J1.4836
G3 X42.3001 Y136.9376 I-0.2106 J0.4792
G3 X42.336 Y136.9613 I-0.6483 J1.0217
G3 X42.3719 Y136.9895 I-1.0537 J1.3796
G3 X42.392 Y137.0099 I-0.1027 J0.1216
G2 X42.3942 Y137.0126 I0.5789 J-0.4768
G3 X42.417 Y137.0409 I-0.8434 J0.7013
G1 X42.4469 Y137.0857
G3 X42.4515 Y137.0944 I-0.1248 J0.0718
G2 X42.4666 Y137.1237 I0.6743 J-0.3284
G3 X42.4743 Y137.1399 I-0.1495 J0.0812
G2 X42.4906 Y137.1764 I0.6932 J-0.2864
G3 X42.5256 Y137.2665 I-0.5878 J0.2804
G2 X42.5345 Y137.2938 I0.7172 J-0.2192
G3 X42.5415 Y137.3185 I-0.2055 J0.0715
G2 X42.5503 Y137.354 I0.7324 J-0.1615
G3 X42.5622 Y137.406 I-0.6375 J0.1736
G2 X42.5635 Y137.4129 I0.7372 J-0.138
G1 X42.5846 Y137.5202
G1 X42.6015 Y137.6265
G3 X42.6091 Y137.6955 I-0.8069 J0.1242
G2 X42.6101 Y137.7077 I0.7483 J-0.0508
G3 X42.6175 Y137.8139 I-3.6068 J0.304
G3 X42.6248 Y138.077 I-13.5238 J0.5076
G1 Y143.5437
G2 X42.6263 Y143.5909 I0.75 J0.0
G1 F300.0 Z-5.0
G3 F800.0 X42.602 Y143.4174 I3.0891 J-0.5202
G3 X42.5811 Y143.1543 I5.266 J-0.5514
G3 X42.5766 Y143.017 I3.8396 J-0.1946
G2 X42.5762 Y143.002 I-0.7499 J0.0112
G3 X42.574 Y142.865 I3.5894 J-0.1254
G2 Y142.8626 I-0.75 J-0.0024
G1 Y137.6854
G2 X41.824 Y136.9354 I-0.75 J0.0
G1 X39.2395
G2 X38.4895 Y137.6854 I0.0 J0.75
G1 Y143.3714
G2 X38.4947 Y143.4597 I0.75 J0.0
G3 X38.4657 Y143.2632 I5.6099 J-0.9271
G3 X38.4458 Y143.0194 I4.3151 J-0.4761
G3 X38.4412 Y142.8869 I3.6673 J-0.1915
G2 X38.4409 Y142.8719 I-0.7499 J0.012
G3 X38.4387 Y142.7414 I3.2992 J-0.1189
G2 Y142.7387 I-0.75 J-0.0027
G1 Y138.0771
G1 X38.4412 Y137.9419
G3 X38.4459 Y137.8171 I6.1942 J0.1713
G3 X38.4648 Y137.6098 I2.7105 J0.1426
G2 X38.4662 Y137.5984 I-0.7437 J-0.0967
G3 X38.4942 Y137.4279 I1.759 J0.2016
G1 X38.514 Y137.3382
G1 X38.5371 Y137.2538
G3 X38.547 Y137.225 I0.3455 J0.1031
G2 X38.559 Y137.1922 I-0.698 J-0.2743
G3 X38.5682 Y137.1694 I0.2167 J0.0737
G2 X38.584 Y137.1328 I-0.6802 J-0.316
G3 X38.6125 Y137.075 I0.3961 J0.159
G3 X38.6661 Y137.0 I0.7555 J0.4833
G2 X38.6667 Y136.9992 I-0.587 J-0.4669
G3 X38.6893 Y136.9755 I0.1388 J0.1101
G2 X38.7033 Y136.9631 I-0.4917 J-0.5663
G2 X38.7209 Y136.95 I-0.4377 J-0.609
G3 X38.7316 Y136.9425 I0.1108 J0.1451
G1 X38.7884 Y136.9084
G3 X38.8306 Y136.8868 I0.8035 J1.5206
G3 X38.919 Y136.8516 I0.2981 J0.6199
G2 X38.9293 Y136.8482 I-0.2287 J-0.7143
G3 X39.0794 Y136.805 I0.5648 J1.6797
G3 X39.2821 Y136.7622 I1.0215 J4.3326
G3 X39.4785 Y136.7365 I0.387 J2.1983
G2 X39.4819 Y136.7362 I-0.064 J-0.7473
G3 X39.7348 Y136.7198 I0.4502 J4.9862
G2 X39.7366 Y136.7197 I-0.0296 J-0.7494
G3 X40.0264 Y136.7123 I0.3736 J8.9273
G1 X40.9291
G1 X41.2488 Y136.7201
G3 X41.5038 Y136.736 I-0.1272 J4.1026
G2 X41.5055 Y136.7361 I0.0698 J-0.7467
G3 X41.6159 Y136.7477 I-0.3708 J4.0653
G1 X41.742 Y136.7659
G3 X41.9197 Y136.8024 I-0.3091 J1.9561
G2 X41.9293 Y136.8048 I0.1843 J-0.727
G3 X42.1029 Y136.8521 I-0.6739 J2.8137
G3 X42.2305 Y136.9005 I-0.4906 J1.4836
G3 X42.3001 Y136.9376 I-0.2106 J0.4792
G3 X42.336 Y136.9613 I-0.6483 J1.0217
G3 X42.3719 Y136.9895 I-1.0537 J1.3796
G3 X42.392 Y137.0099 I-0.1027 J0.1216
G2 X42.3942 Y137.0126 I0.5789 J-0.4768
G3 X42.417 Y137.0409 I-0.8434 J0.7013
G1 X42.4469 Y137.0857
G3 X42.4515 Y137.0944 I-0.1248 J0.0718
G2 X42.4666 Y137.1237 I0.6743 J-0.3284
G3 X42.4743 Y137.1399 I-0.1495 J0.0812
G2 X42.4906 Y137.1764 I0.6932 J-0.2864
G3 X42.5256 Y137.2665 I-0.5878 J0.2804
G2 X42.5345 Y137.2938 I0.7172 J-0.2192
G3 X42.5415 Y137.3185 I-0.2055 J0.0715
G2 X42.5503 Y137.354 I0.7324 J-0.1615
G3 X42.5622 Y137.406 I-0.6375 J0.1736
G2 X42.5635 Y137.4129 I0.7372 J-0.138
G1 X42.5846 Y137.5202
G1 X42.6015 Y137.6265
G3 X42.6091 Y137.6955 I-0.8069 J0.1242
G2 X42.6101 Y137.7077 I0.7483 J-0.0508
G3 X42.6175 Y137.8139 I-3.6068 J0.304
G3 X42.6248 Y138.077 I-13.5238 J0.5076
G1 Y143.5437
G2 X42.6263 Y143.5909 I0.75 J0.0
G0 Z3.0
G0 X39.6338 Y144.1214
G1 F300.0 Z-5.0
G1 F800.0 X39.5753 Y144.334
G3 X39.4358 Y144.3191 I0.1798 J-2.3394
G2 X39.4271 Y144.318 I-0.1021 J0.743
G3 X39.2625 Y144.2897 I0.2293 J-1.827
G1 X39.1673 Y144.2682
G3 X39.0978 Y144.249 I0.5986 J-2.3024
G3 X38.9912 Y144.2094 I0.2682 J-0.886
G2 X38.9828 Y144.2058 I-0.3036 J0.6858
G3 X38.8858 Y144.1574 I0.368 J-0.8592
G3 X38.7909 Y144.0965 I0.6908 J-1.1817
G3 X38.7453 Y144.0565 I0.2507 J-0.3318
G2 X38.7404 Y144.0516 I-0.5343 J0.5264
G3 X38.693 Y143.9971 I0.3561 J-0.3574
G3 X38.6365 Y143.9094 I0.7293 J-0.532
G3 X38.6196 Y143.8755 I0.3903 J-0.2162
G2 X38.6111 Y143.8573 I-0.6846 J0.3063
G3 X38.5949 Y143.8196 I0.4567 J-0.2192
G1 X38.5619 Y143.7316
G1 X38.5345 Y143.6453
G3 X38.5207 Y143.5908 I0.66 J-0.1961
G2 X38.5171 Y143.5742 I-0.734 J0.1542
G3 X38.5152 Y143.5661 I1.5462 J-0.3616
G2 X39.2395 Y144.1214 I0.7243 J-0.1947
G1 X39.6338
G1 F300.0 Z-6.0
G1 F800.0 X39.5753 Y144.334
G3 X39.4358 Y144.3191 I0.1798 J-2.3394
G2 X39.4271 Y144.318 I-0.1021 J0.743
G3 X39.2625 Y144.2897 I0.2293 J-1.827
G1 X39.1673 Y144.2682
G3 X39.0978 Y144.249 I0.5986 J-2.3024
G3 X38.9912 Y144.2094 I0.2682 J-0.886
G2 X38.9828 Y144.2058 I-0.3036 J0.6858
G3 X38.8858 Y144.1574 I0.368 J-0.8592
G3 X38.7909 Y144.0965 I0.6908 J-1.1817
G3 X38.7453 Y144.0565 I0.2507 J-0.3318
G2 X38.7404 Y144.0516 I-0.5343 J0.5264
G3 X38.693 Y143.9971 I0.3561 J-0.3574
G3 X38.6365 Y143.9094 I0.7293 J-0.532
G3 X38.6196 Y143.8755 I0.3903 J-0.2162
G2 X38.6111 Y143.8573 I-0.6846 J0.3063
G3 X38.5949 Y143.8196 I0.4567 J-0.2192
G1 X38.5619 Y143.7316
G1 X38.5345 Y143.6453
G3 X38.5207 Y143.5908 I0.66 J-0.1961
G2 X38.5171 Y143.5742 I-0.734 J0.1542
G3 X38.5152 Y143.5661 I1.5462 J-0.3616
G2 X39.2395 Y144.1214 I0.7243 J-0.1947
G1 X39.6338
G0 Z3.0
G0 X46.706 Y143.6141
G1 F300.0 Z-4.0
G1 F800.0 X46.7179 Y143.542
G1 X46.7335 Y143.4164
G3 Y143.4161 I0.7443 J0.0923
G2 X46.7437 Y143.3069 I-1.7868 J-0.2223
G3 X46.7453 Y143.2858 I0.7485 J0.0471
G2 X46.7524 Y143.1738 I-1.986 J-0.1816
G1 X46.7577 Y143.0129
G1 X46.7601 Y142.8568
G1 Y137.7473
G3 Y137.7377 I0.75 J0.0
G2 X46.7584 Y137.6349 I-1.7489 J-0.0224
G3 X46.7576 Y137.602 I0.7492 J-0.0344
G2 X46.7541 Y137.5101 I-1.2632 J0.0026
G1 X46.7449 Y137.3883
G1 X46.7323 Y137.2697
G2 X46.7051 Y137.0917 I-2.4179 J0.2788
G2 X46.6653 Y136.9374 I-1.9638 J0.4241
G3 X46.6597 Y136.918 I0.7182 J-0.2159
G2 X46.6484 Y136.8829 I-0.3894 J0.1057
G3 X46.6361 Y136.847 I0.7028 J-0.2619
G2 X46.6298 Y136.8306 I-0.1427 J0.0451
G3 X46.6193 Y136.806 I0.6837 J-0.3083
G2 X46.5838 Y136.7352 I-0.4851 J0.1982
G3 X46.5758 Y136.7214 I0.6435 J-0.3852
G2 X46.5329 Y136.656 I-0.5419 J0.3089
G2 X46.5126 Y136.6346 I-0.1322 J0.1052
G3 X46.4917 Y136.6154 I0.4967 J-0.5619
G3 X46.4698 Y136.5983 I0.451 J-0.5992
G2 X46.4694 Y136.598 I-0.0228 J0.028
G1 X46.4187 Y136.5673
G2 X46.3872 Y136.5515 I-0.3814 J0.7215
G2 X46.2704 Y136.5038 I-0.5078 J1.0772
G3 X46.2581 Y136.4994 I0.2463 J-0.7084
G2 X46.1318 Y136.4608 I-0.4144 J1.1287
G2 X46.0331 Y136.4386 I-5.1241 J22.5703
G2 X45.9398 Y136.4219 I-0.8798 J4.6476
G2 X45.7269 Y136.394 I-0.4955 J2.9492
G3 X45.7182 Y136.3931 I0.0709 J-0.7466
G2 X45.4777 Y136.3752 I-0.3988 J3.7386
G2 X45.397 Y136.3724 I-0.8912 J24.5914
G1 X45.3475 Y136.5907
G1 X45.9593
G3 X46.7093 Y137.3407 I0.0 J0.75
G1 Y143.5437
G3 X46.706 Y143.6141 I-0.75 J0.0
G1 F300.0 Z-5.0
G1 F800.0 X46.7179 Y143.542
G1 X46.7335 Y143.4164
G3 Y143.4161 I0.7443 J0.0923
G2 X46.7437 Y143.3069 I-1.7868 J-0.2223
G3 X46.7453 Y143.2858 I0.7485 J0.0471
G2 X46.7524 Y143.1738 I-1.986 J-0.1816
G1 X46.7577 Y143.0129
G1 X46.7601 Y142.8568
G1 Y137.7473
G3 Y137.7377 I0.75 J0.0
G2 X46.7584 Y137.6349 I-1.7489 J-0.0224
G3 X46.7576 Y137.602 I0.7492 J-0.0344
G2 X46.7541 Y137.5101 I-1.2632 J0.0026
G1 X46.7449 Y137.3883
G1 X46.7323 Y137.2697
G2 X46.7051 Y137.0917 I-2.4179 J0.2788
G2 X46.6653 Y136.9374 I-1.9638 J0.4241
G3 X46.6597 Y136.918 I0.7182 J-0.2159
G2 X46.6484 Y136.8829 I-0.3894 J0.1057
G3 X46.6361 Y136.847 I0.7028 J-0.2619
G2 X46.6298 Y136.8306 I-0.1427 J0.0451
G3 X46.6193 Y136.806 I0.6837 J-0.3083
G2 X46.5838 Y136.7352 I-0.4851 J0.1982
G3 X46.5758 Y136.7214 I0.6435 J-0.3852
G2 X46.5329 Y136.656 I-0.5419 J0.3089
G2 X46.5126 Y136.6346 I-0.1322 J0.1052
G3 X46.4917 Y136.6154 I0.4967 J-0.5619
G3 X46.4698 Y136.5983 I0.451 J-0.5992
G2 X46.4694 Y136.598 I-0.0228 J0.028
G1 X46.4187 Y136.5673
G2 X46.3872 Y136.5515 I-0.3814 J0.7215
G2 X46.2704 Y136.5038 I-0.5078 J1.0772
G3 X46.2581 Y136.4994 I0.2463 J-0.7084
G2 X46.1318 Y136.4608 I-0.4144 J1.1287
G2 X46.0331 Y136.4386 I-5.1241 J22.5703
G2 X45.9398 Y136.4219 I-0.8798 J4.6476
G2 X45.7269 Y136.394 I-0.4955 J2.9492
G3 X45.7182 Y136.3931 I0.0709 J-0.7466
G2 X45.4777 Y136.3752 I-0.3988 J3.7386
G2 X45.397 Y136.3724 I-0.8912 J24.5914
G1 X45.3475 Y136.5907
G1 X45.9593
G3 X46.7093 Y137.3407 I0.0 J0.75
G1 Y143.5437
G3 X46.706 Y143.6141 I-0.75 J0.0
G1 F300.0 X46.6748 Y143.7687
G3 F800.0 X46.6588 Y143.8267 I-1.5506 J-0.395
G2 X46.6547 Y143.8412 I0.7193 J0.2123
G3 X46.6064 Y143.9907 I-1.6634 J-0.455
G3 X46.5673 Y144.082 I-2.0896 J-0.8417
G1 X46.5514 Y144.1127
G3 X46.5205 Y144.161 I-0.2956 J-0.1554
G1 X46.4777 Y144.2143
G3 X46.458 Y144.2351 I-0.5093 J-0.4627
G3 X46.4191 Y144.2672 I-0.2066 J-0.211
G2 X46.4127 Y144.2716 I0.426 J0.6173
G3 X46.3441 Y144.3125 I-0.3016 J-0.4275
G2 X46.3375 Y144.3159 I0.3341 J0.6715
G3 X46.2107 Y144.374 I-0.7625 J-1.4957
G3 X46.0685 Y144.4225 I-0.6008 J-1.5307
G3 X45.9163 Y144.457 I-0.376 J-1.3035
G2 X45.9069 Y144.4586 I0.1238 J0.7397
G3 X45.6994 Y144.489 I-0.5557 J-3.0802
G3 X45.579 Y144.5012 I-0.9593 J-8.8067
G1 X45.4497 Y144.5103
G3 X45.3381 Y144.5142 I-0.1336 J-2.1866
G2 X45.3154 Y144.5148 I0.0075 J0.75
G3 X45.1975 Y144.5168 I-0.1 J-2.483
G2 X45.192 Y144.5167 I-0.0054 J0.75
G1 X44.1029
G1 X43.9658 Y144.5143
G3 X43.8299 Y144.5094 I0.6493 J-19.6695
G3 X43.616 Y144.4906 I0.1239 J-2.6389
G2 X43.6078 Y144.4896 I-0.0959 J0.7438
G3 X43.4156 Y144.4589 I0.277 J-2.3536
G2 X43.4154 I-0.1485 J0.7352
G3 X43.3341 Y144.4412 I0.5434 J-2.6928
G1 X43.237 Y144.415
G3 X43.1883 Y144.399 I0.2205 J-0.7537
G2 X43.1613 Y144.3897 I-0.2572 J0.7045
G3 X43.1262 Y144.3766 I0.1188 J-0.3686
G2 X43.123 Y144.3752 I-0.298 J0.6883
G1 X43.0498 Y144.3439
G1 X42.9874 Y144.3126
G3 X42.9833 Y144.31 I0.0331 J-0.0571
G2 X42.9595 Y144.2944 I-0.4234 J0.6191
G3 X42.9449 Y144.2843 I0.1144 J-0.1817
G1 X42.8965 Y144.2454
G3 X42.8636 Y144.2146 I1.5316 J-1.6685
G3 X42.8338 Y144.1791 I0.1887 J-0.1888
G2 X42.8313 Y144.1755 I-0.614 J0.4307
G3 X42.7719 Y144.0813 I0.8223 J-0.5841
G3 X42.7309 Y143.9904 I0.5839 J-0.3178
G2 X42.7289 Y143.9848 I-0.705 J0.2559
G3 X42.6759 Y143.8222 I1.9367 J-0.7207
G3 X42.67 Y143.8001 I1.9059 J-0.5244
G2 X43.3748 Y144.2937 I0.7048 J-0.2564
G1 X45.9593
G2 X46.6748 Y143.7687 I0.0 J-0.75
G1 F300.0 Z-6.0
G3 F800.0 X46.6588 Y143.8267 I-1.5506 J-0.395
G2 X46.6547 Y143.8412 I0.7193 J0.2123
G3 X46.6064 Y143.9907 I-1.6634 J-0.455
G3 X46.5673 Y144.082 I-2.0896 J-0.8417
G1 X46.5514 Y144.1127
G3 X46.5205 Y144.161 I-0.2956 J-0.1554
G1 X46.4777 Y144.2143
G3 X46.458 Y144.2351 I-0.5093 J-0.4627
G3 X46.4191 Y144.2672 I-0.2066 J-0.211
G2 X46.4127 Y144.2716 I0.426 J0.6173
G3 X46.3441 Y144.3125 I-0.3016 J-0.4275
G2 X46.3375 Y144.3159 I0.3341 J0.6715
G3 X46.2107 Y144.374 I-0.7625 J-1.4957
G3 X46.0685 Y144.4225 I-0.6008 J-1.5307
G3 X45.9163 Y144.457 I-0.376 J-1.3035
G2 X45.9069 Y144.4586 I0.1238 J0.7397
G3 X45.6994 Y144.489 I-0.5557 J-3.0802
G3 X45.579 Y144.5012 I-0.9593 J-8.8067
G1 X45.4497 Y144.5103
G3 X45.3381 Y144.5142 I-0.1336 J-2.1866
G2 X45.3154 Y144.5148 I0.0075 J0.75
G3 X45.1975 Y144.5168 I-0.1 J-2.483
G2 X45.192 Y144.5167 I-0.0054 J0.75
G1 X44.1029
G1 X43.9658 Y144.5143
G3 X43.8299 Y144.5094 I0.6493 J-19.6695
G3 X43.616 Y144.4906 I0.1239 J-2.6389
G2 X43.6078 Y144.4896 I-0.0959 J0.7438
G3 X43.4156 Y144.4589 I0.277 J-2.3536
G2 X43.4154 I-0.1485 J0.7352
G3 X43.3341 Y144.4412 I0.5434 J-2.6928
G1 X43.237 Y144.415
G3 X43.1883 Y144.399 I0.2205 J-0.7537
G2 X43.1613 Y144.3897 I-0.2572 J0.7045
G3 X43.1262 Y144.3766 I0.1188 J-0.3686
G2 X43.123 Y144.3752 I-0.298 J0.6883
G1 X43.0498 Y144.3439
G1 X42.9874 Y144.3126
G3 X42.9833 Y144.31 I0.0331 J-0.0571
G2 X42.9595 Y144.2944 I-0.4234 J0.6191
G3 X42.9449 Y144.2843 I0.1144 J-0.1817
G1 X42.8965 Y144.2454
G3 X42.8636 Y144.2146 I1.5316 J-1.6685
G3 X42.8338 Y144.1791 I0.1887 J-0.1888
G2 X42.8313 Y144.1755 I-0.614 J0.4307
G3 X42.7719 Y144.0813 I0.8223 J-0.5841
G3 X42.7309 Y143.9904 I0.5839 J-0.3178
G2 X42.7289 Y143.9848 I-0.705 J0.2559
G3 X42.6759 Y143.8222 I1.9367 J-0.7207
G3 X42.67 Y143.8001 I1.9059 J-0.5244
G2 X43.3748 Y144.2937 I0.7048 J-0.2564
G1 X45.9593
G2 X46.6748 Y143.7687 I0.0 J-0.75
G1 F300.0 X46.706 Y143.6141
G1 F800.0 X46.7179 Y143.542
G1 X46.7335 Y143.4164
G3 Y143.4161 I0.7443 J0.0923
G2 X46.7437 Y143.3069 I-1.7868 J-0.2223
G3 X46.7453 Y143.2858 I0.7485 J0.0471
G2 X46.7524 Y143.1738 I-1.986 J-0.1816
G1 X46.7577 Y143.0129
G1 X46.7601 Y142.8568
G1 Y137.7473
G3 Y137.7377 I0.75 J0.0
G2 X46.7584 Y137.6349 I-1.7489 J-0.0224
G3 X46.7576 Y137.602 I0.7492 J-0.0344
G2 X46.7541 Y137.5101 I-1.2632 J0.0026
G1 X46.7449 Y137.3883
G1 X46.7323 Y137.2697
G2 X46.7051 Y137.0917 I-2.4179 J0.2788
G2 X46.6653 Y136.9374 I-1.9638 J0.4241
G3 X46.6597 Y136.918 I0.7182 J-0.2159
G2 X46.6484 Y136.8829 I-0.3894 J0.1057
G3 X46.6361 Y136.847 I0.7028 J-0.2619
G2 X46.6298 Y136.8306 I-0.1427 J0.0451
G3 X46.6193 Y136.806 I0.6837 J-0.3083
G2 X46.5838 Y136.7352 I-0.4851 J0.1982
G3 X46.5758 Y136.7214 I0.6435 J-0.3852
G2 X46.5329 Y136.656 I-0.5419 J0.3089
G2 X46.5126 Y136.6346 I-0.1322 J0.1052
G3 X46.4917 Y136.6154 I0.4967 J-0.5619
G3 X46.4698 Y136.5983 I0.451 J-0.5992
G2 X46.4694 Y136.598 I-0.0228 J0.028
G1 X46.4187 Y136.5673
G2 X46.3872 Y136.5515 I-0.3814 J0.7215
G2 X46.2704 Y136.5038 I-0.5078 J1.0772
G3 X46.2581 Y136.4994 I0.2463 J-0.7084
G2 X46.1318 Y136.4608 I-0.4144 J1.1287
G2 X46.0331 Y136.4386 I-5.1241 J22.5703
G2 X45.9398 Y136.4219 I-0.8798 J4.6476
G2 X45.7269 Y136.394 I-0.4955 J2.9492
G3 X45.7182 Y136.3931 I0.0709 J-0.7466
G2 X45.4777 Y136.3752 I-0.3988 J3.7386
G2 X45.397 Y136.3724 I-0.8912 J24.5914
G1 X45.3475 Y136.5907
G1 X45.9593
G3 X46.7093 Y137.3407 I0.0 J0.75
G1 Y143.5437
G3 X46.706 Y143.6141 I-0.75 J0.0
G0 Z3.0
G0 X42.6263 Y143.5909
G1 F300.0 Z-6.0
G3 F800.0 X42.602 Y143.4174 I3.0891 J-0.5202
G3 X42.5811 Y143.1543 I5.266 J-0.5514
G3 X42.5766 Y143.017 I3.8396 J-0.1946
G2 X42.5762 Y143.002 I-0.7499 J0.0112
G3 X42.574 Y142.865 I3.5894 J-0.1254
G2 Y142.8626 I-0.75 J-0.0024
G1 Y137.6854
G2 X41.824 Y136.9354 I-0.75 J0.0
G1 X39.2395
G2 X38.4895 Y137.6854 I0.0 J0.75
G1 Y143.3714
G2 X38.4947 Y143.4597 I0.75 J0.0
G3 X38.4657 Y143.2632 I5.6099 J-0.9271
G3 X38.4458 Y143.0194 I4.3151 J-0.4761
G3 X38.4412 Y142.8869 I3.6673 J-0.1915
G2 X38.4409 Y142.8719 I-0.7499 J0.012
G3 X38.4387 Y142.7414 I3.2992 J-0.1189
G2 Y142.7387 I-0.75 J-0.0027
G1 Y138.0771
G1 X38.4412 Y137.9419
G3 X38.4459 Y137.8171 I6.1942 J0.1713
G3 X38.4648 Y137.6098 I2.7105 J0.1426
G2 X38.4662 Y137.5984 I-0.7437 J-0.0967
G3 X38.4942 Y137.4279 I1.759 J0.2016
G1 X38.514 Y137.3382
G1 X38.5371 Y137.2538
G3 X38.547 Y137.225 I0.3455 J0.1031
G2 X38.559 Y137.1922 I-0.698 J-0.2743
G3 X38.5682 Y137.1694 I0.2167 J0.0737
G2 X38.584 Y137.1328 I-0.6802 J-0.316
G3 X38.6125 Y137.075 I0.3961 J0.159
G3 X38.6661 Y137.0 I0.7555 J0.4833
G2 X38.6667 Y136.9992 I-0.587 J-0.4669
G3 X38.6893 Y136.9755 I0.1388 J0.1101
G2 X38.7033 Y136.9631 I-0.4917 J-0.5663
G2 X38.7209 Y136.95 I-0.4377 J-0.609
G3 X38.7316 Y136.9425 I0.1108 J0.1451
G1 X38.7884 Y136.9084
G3 X38.8306 Y136.8868 I0.8035 J1.5206
G3 X38.919 Y136.8516 I0.2981 J0.6199
G2 X38.9293 Y136.8482 I-0.2287 J-0.7143
G3 X39.0794 Y136.805 I0.5648 J1.6797
G3 X39.2821 Y136.7622 I1.0215 J4.3326
G3 X39.4785 Y136.7365 I0.387 J2.1983
G2 X39.4819 Y136.7362 I-0.064 J-0.7473
G3 X39.7348 Y136.7198 I0.4502 J4.9862
G2 X39.7366 Y136.7197 I-0.0296 J-0.7494
G3 X40.0264 Y136.7123 I0.3736 J8.9273
G1 X40.9291
G1 X41.2488 Y136.7201
G3 X41.5038 Y136.736 I-0.1272 J4.1026
G2 X41.5055 Y136.7361 I0.0698 J-0.7467
G3 X41.6159 Y136.7477 I-0.3708 J4.0653
G1 X41.742 Y136.7659
G3 X41.9197 Y136.8024 I-0.3091 J1.9561
G2 X41.9293 Y136.8048 I0.1843 J-0.727
G3 X42.1029 Y136.8521 I-0.6739 J2.8137
G3 X42.2305 Y136.9005 I-0.4906 J1.4836
G3 X42.3001 Y136.9376 I-0.2106 J0.4792
G3 X42.336 Y136.9613 I-0.6483 J1.0217
G3 X42.3719 Y136.9895 I-1.0537 J1.3796
G3 X42.392 Y137.0099 I-0.1027 J0.1216
G2 X42.3942 Y137.0126 I0.5789 J-0.4768
G3 X42.417 Y137.0409 I-0.8434 J0.7013
G1 X42.4469 Y137.0857
G3 X42.4515 Y137.0944 I-0.1248 J0.0718
G2 X42.4666 Y137.1237 I0.6743 J-0.3284
G3 X42.4743 Y137.1399 I-0.1495 J0.0812
G2 X42.4906 Y137.1764 I0.6932 J-0.2864
G3 X42.5256 Y137.2665 I-0.5878 J0.2804
G2 X42.5345 Y137.2938 I0.7172 J-0.2192
G3 X42.5415 Y137.3185 I-0.2055 J0.0715
G2 X42.5503 Y137.354 I0.7324 J-0.1615
G3 X42.5622 Y137.406 I-0.6375 J0.1736
G2 X42.5635 Y137.4129 I0.7372 J-0.138
G1 X42.5846 Y137.5202
G1 X42.6015 Y137.6265
G3 X42.6091 Y137.6955 I-0.8069 J0.1242
G2 X42.6101 Y137.7077 I0.7483 J-0.0508
G3 X42.6175 Y137.8139 I-3.6068 J0.304
G3 X42.6248 Y138.077 I-13.5238 J0.5076
G1 Y143.5437
G2 X42.6263 Y143.5909 I0.75 J0.0
G0 Z3.0
G0 X59.75
G1 F300.0 Z-1.0
G1 F800.0 Y154.25
G1 X68.25
G1 Y135.75
G1 X59.75
G1 Y143.5909
G1 F300.0 Z-2.0
G1 F800.0 Y154.25
G1 X68.25
G1 Y135.75
G1 X59.75
G1 Y143.5909
G1 F300.0 Z-3.0
G1 F800.0 Y154.25
G1 X68.25
G1 Y135.75
G1 X59.75
G1 Y143.5909
G1 F300.0 Z-4.0
G1 F800.0 Y154.25
G1 X68.25
G1 Y135.75
G1 X59.75
G1 Y143.5909
G1 F300.0 Z-5.0
G1 F800.0 Y154.25
G1 X68.25
G1 Y135.75
G1 X59.75
G1 Y143.5909
G1 F300.0 Z-6.0
G1 F800.0 Y154.25
G1 X68.25
G1 Y135.75
G1 X59.75
G1 Y143.5909
G0 Z3.0
G0 X46.7601 Y166.6243
G1 F300.0 Z-1.0
G1 F800.0 X38.4387
G1 Y166.8369
G1 X44.614 Y173.1605
G3 X44.6171 Y173.1637 I-0.5366 J0.524
G2 X44.6719 Y173.2189 I2.0127 J-1.9422
G3 X44.6925 Y173.2399 I-0.525 J0.5356
G2 X44.7647 Y173.3119 I1.2119 J-1.1426
G3 X44.7897 Y173.3366 I-0.5132 J0.5469
G2 X44.8156 Y173.3619 I0.5165 J-0.5012
G3 X44.8381 Y173.3838 I-0.5113 J0.5487
G2 X44.864 Y173.4087 I0.507 J-0.5003
G3 X44.8668 Y173.4113 I-0.5066 J0.5531
G1 X44.9907 Y173.5259
G3 X44.991 Y173.5262 I-0.5094 J0.5505
G2 X45.07 Y173.5933 I0.8134 J-0.8781
G3 X44.5409 Y174.9324 I-0.4602 J0.5923
G2 X44.4199 Y174.9233 I-0.3256 J3.5256
G1 X44.2848 Y174.9158
G2 X44.1516 Y174.9105 I-1.5305 J37.1521
G3 X44.1514 I0.0282 J-0.7495
G2 X43.8427 Y174.9029 I-0.4425 J11.7148
G3 X43.8375 Y174.9028 I0.0086 J-0.75
G2 X43.4733 Y174.8975 I-0.8729 J47.6104
G1 X43.06 Y174.8949
G1 X38.4387
G1 Y175.1179
G1 X46.7601
G1 Y174.9431
G1 X40.3405 Y168.4532
G3 X40.322 Y168.4339 I0.5332 J-0.5274
G2 X40.2831 Y168.3932 I-1.1255 J1.0368
G1 X40.198 Y168.308
G3 X40.1907 Y168.3006 I0.5303 J-0.5303
G2 X40.1111 Y168.2242 I-1.1657 J1.1338
G2 X40.0703 Y168.1937 I-0.283 J0.3365
G3 X40.0621 Y168.1882 I0.413 J-0.626
G1 X40.0591 Y168.1863
G3 X40.5106 Y166.8163 I0.4212 J-0.6205
G1 X40.6215 Y166.8208
G3 X40.7651 Y166.827 I-0.1248 J4.5757
G2 X40.8753 Y166.8315 I0.3244 J-6.5242
G1 X41.1511 Y166.8396
G2 X41.4363 Y166.8447 I0.38 J-13.2986
G3 X41.4373 I-0.0053 J0.75
G1 X41.7545 Y166.8473
G1 X46.7601
G1 Y166.6243
G1 F300.0 Z-2.0
G1 F800.0 X38.4387
G1 Y166.8369
G1 X44.614 Y173.1605
G3 X44.6171 Y173.1637 I-0.5366 J0.524
G2 X44.6719 Y173.2189 I2.0127 J-1.9422
G3 X44.6925 Y173.2399 I-0.525 J0.5356
G2 X44.7647 Y173.3119 I1.2119 J-1.1426
G3 X44.7897 Y173.3366 I-0.5132 J0.5469
