( Made using CamBam - http://www.cambam.co.uk )
( Carcasse axe YZ gauche 1/28/2016 2:57:40 PM )
( T0 : 1.5 )
G21 G90 G64 G40
G0 Z3.0
( T0 : 1.5 )
T0 M6
( Contour1 )
G17
M3 S1000
G0 X57.835 Y148.0
G1 F300.0 Z-1.0
G2 F800.0 X56.71 Y147.3505 I-0.75 J0.0
G2 Y148.6495 I0.375 J0.6495
G2 X57.835 Y148.0 I0.375 J-0.6495
G1 F300.0 Z-2.0
G2 F800.0 X56.71 Y147.3505 I-0.75 J0.0
G2 Y148.6495 I0.375 J0.6495
G2 X57.835 Y148.0 I0.375 J-0.6495
G1 F300.0 Z-3.0
G2 F800.0 X56.71 Y147.3505 I-0.75 J0.0
G2 Y148.6495 I0.375 J0.6495
G2 X57.835 Y148.0 I0.375 J-0.6495
G1 F300.0 Z-4.0
G2 F800.0 X56.71 Y147.3505 I-0.75 J0.0
G2 Y148.6495 I0.375 J0.6495
G2 X57.835 Y148.0 I0.375 J-0.6495
G1 F300.0 Z-5.0
G2 F800.0 X56.71 Y147.3505 I-0.75 J0.0
G2 Y148.6495 I0.375 J0.6495
G2 X57.835 Y148.0 I0.375 J-0.6495
G1 F300.0 Z-6.0
G2 F800.0 X56.71 Y147.3505 I-0.75 J0.0
G2 Y148.6495 I0.375 J0.6495
G2 X57.835 Y148.0 I0.375 J-0.6495
G0 Z3.0
G0 X76.335
G1 F300.0 Z-1.0
G2 F800.0 X76.71 Y148.6495 I0.75 J0.0
G2 X77.835 Y148.0 I0.375 J-0.6495
G2 X76.71 Y147.3505 I-0.75 J0.0
G2 X76.335 Y148.0 I0.375 J0.6495
G1 F300.0 Z-2.0
G2 F800.0 X76.71 Y148.6495 I0.75 J0.0
G2 X77.835 Y148.0 I0.375 J-0.6495
G2 X76.71 Y147.3505 I-0.75 J0.0
G2 X76.335 Y148.0 I0.375 J0.6495
G1 F300.0 Z-3.0
G2 F800.0 X76.71 Y148.6495 I0.75 J0.0
G2 X77.835 Y148.0 I0.375 J-0.6495
G2 X76.71 Y147.3505 I-0.75 J0.0
G2 X76.335 Y148.0 I0.375 J0.6495
G1 F300.0 Z-4.0
G2 F800.0 X76.71 Y148.6495 I0.75 J0.0
G2 X77.835 Y148.0 I0.375 J-0.6495
G2 X76.71 Y147.3505 I-0.75 J0.0
G2 X76.335 Y148.0 I0.375 J0.6495
G1 F300.0 Z-5.0
G2 F800.0 X76.71 Y148.6495 I0.75 J0.0
G2 X77.835 Y148.0 I0.375 J-0.6495
G2 X76.71 Y147.3505 I-0.75 J0.0
G2 X76.335 Y148.0 I0.375 J0.6495
G1 F300.0 Z-6.0
G2 F800.0 X76.71 Y148.6495 I0.75 J0.0
G2 X77.835 Y148.0 I0.375 J-0.6495
G2 X76.71 Y147.3505 I-0.75 J0.0
G2 X76.335 Y148.0 I0.375 J0.6495
G0 Z3.0
G0 X13.7467 Y153.9293
G1 F300.0 Z-1.0
G2 F800.0 X12.625 Y153.3505 I-0.7467 J0.0707
G2 Y154.6495 I0.375 J0.6495
G2 X13.75 Y154.0 I0.375 J-0.6495
G2 X13.7467 Y153.9293 I-0.75 J0.0
G1 F300.0 Z-2.0
G2 F800.0 X12.625 Y153.3505 I-0.7467 J0.0707
G2 Y154.6495 I0.375 J0.6495
G2 X13.75 Y154.0 I0.375 J-0.6495
G2 X13.7467 Y153.9293 I-0.75 J0.0
G1 F300.0 Z-3.0
G2 F800.0 X12.625 Y153.3505 I-0.7467 J0.0707
G2 Y154.6495 I0.375 J0.6495
G2 X13.75 Y154.0 I0.375 J-0.6495
G2 X13.7467 Y153.9293 I-0.75 J0.0
G1 F300.0 Z-4.0
G2 F800.0 X12.625 Y153.3505 I-0.7467 J0.0707
G2 Y154.6495 I0.375 J0.6495
G2 X13.75 Y154.0 I0.375 J-0.6495
G2 X13.7467 Y153.9293 I-0.75 J0.0
G1 F300.0 Z-5.0
G2 F800.0 X12.625 Y153.3505 I-0.7467 J0.0707
G2 Y154.6495 I0.375 J0.6495
G2 X13.75 Y154.0 I0.375 J-0.6495
G2 X13.7467 Y153.9293 I-0.75 J0.0
G1 F300.0 Z-6.0
G2 F800.0 X12.625 Y153.3505 I-0.7467 J0.0707
G2 Y154.6495 I0.375 J0.6495
G2 X13.75 Y154.0 I0.375 J-0.6495
G2 X13.7467 Y153.9293 I-0.75 J0.0
G0 Z3.0
G0 X13.0148 Y116.7499
G1 F300.0 Z-1.0
G2 F800.0 X13.75 Y116.0 I-0.0148 J-0.7499
G2 X12.625 Y115.3505 I-0.75 J0.0
G2 Y116.6495 I0.375 J0.6495
G2 X13.0148 Y116.7499 I0.375 J-0.6495
G1 F300.0 Z-2.0
G2 F800.0 X13.75 Y116.0 I-0.0148 J-0.7499
G2 X12.625 Y115.3505 I-0.75 J0.0
G2 Y116.6495 I0.375 J0.6495
G2 X13.0148 Y116.7499 I0.375 J-0.6495
G1 F300.0 Z-3.0
G2 F800.0 X13.75 Y116.0 I-0.0148 J-0.7499
G2 X12.625 Y115.3505 I-0.75 J0.0
G2 Y116.6495 I0.375 J0.6495
G2 X13.0148 Y116.7499 I0.375 J-0.6495
G1 F300.0 Z-4.0
G2 F800.0 X13.75 Y116.0 I-0.0148 J-0.7499
G2 X12.625 Y115.3505 I-0.75 J0.0
G2 Y116.6495 I0.375 J0.6495
G2 X13.0148 Y116.7499 I0.375 J-0.6495
G1 F300.0 Z-5.0
G2 F800.0 X13.75 Y116.0 I-0.0148 J-0.7499
G2 X12.625 Y115.3505 I-0.75 J0.0
G2 Y116.6495 I0.375 J0.6495
G2 X13.0148 Y116.7499 I0.375 J-0.6495
G1 F300.0 Z-6.0
G2 F800.0 X13.75 Y116.0 I-0.0148 J-0.7499
G2 X12.625 Y115.3505 I-0.75 J0.0
G2 Y116.6495 I0.375 J0.6495
G2 X13.0148 Y116.7499 I0.375 J-0.6495
G0 Z3.0
G0 X13.0002 Y56.75
G1 F300.0 Z-1.0
G2 F800.0 X13.75 Y56.0 I-0.0002 J-0.75
G2 X12.625 Y55.3505 I-0.75 J0.0
G2 Y56.6495 I0.375 J0.6495
G2 X13.0002 Y56.75 I0.375 J-0.6495
G1 F300.0 Z-2.0
G2 F800.0 X13.75 Y56.0 I-0.0002 J-0.75
G2 X12.625 Y55.3505 I-0.75 J0.0
G2 Y56.6495 I0.375 J0.6495
G2 X13.0002 Y56.75 I0.375 J-0.6495
G1 F300.0 Z-3.0
G2 F800.0 X13.75 Y56.0 I-0.0002 J-0.75
G2 X12.625 Y55.3505 I-0.75 J0.0
G2 Y56.6495 I0.375 J0.6495
G2 X13.0002 Y56.75 I0.375 J-0.6495
G1 F300.0 Z-4.0
G2 F800.0 X13.75 Y56.0 I-0.0002 J-0.75
G2 X12.625 Y55.3505 I-0.75 J0.0
G2 Y56.6495 I0.375 J0.6495
G2 X13.0002 Y56.75 I0.375 J-0.6495
G1 F300.0 Z-5.0
G2 F800.0 X13.75 Y56.0 I-0.0002 J-0.75
G2 X12.625 Y55.3505 I-0.75 J0.0
G2 Y56.6495 I0.375 J0.6495
G2 X13.0002 Y56.75 I0.375 J-0.6495
G1 F300.0 Z-6.0
G2 F800.0 X13.75 Y56.0 I-0.0002 J-0.75
G2 X12.625 Y55.3505 I-0.75 J0.0
G2 Y56.6495 I0.375 J0.6495
G2 X13.0002 Y56.75 I0.375 J-0.6495
G0 Z3.0
G0 X23.325 Y13.7293
G1 F300.0 Z-1.0
G2 F800.0 X24.25 Y13.0 I0.175 J-0.7293
G2 X23.125 Y12.3505 I-0.75 J0.0
G2 Y13.6495 I0.375 J0.6495
G2 X23.325 Y13.7293 I0.375 J-0.6495
G1 F300.0 Z-2.0
G2 F800.0 X24.25 Y13.0 I0.175 J-0.7293
G2 X23.125 Y12.3505 I-0.75 J0.0
G2 Y13.6495 I0.375 J0.6495
G2 X23.325 Y13.7293 I0.375 J-0.6495
G1 F300.0 Z-3.0
G2 F800.0 X24.25 Y13.0 I0.175 J-0.7293
G2 X23.125 Y12.3505 I-0.75 J0.0
G2 Y13.6495 I0.375 J0.6495
G2 X23.325 Y13.7293 I0.375 J-0.6495
G1 F300.0 Z-4.0
G2 F800.0 X24.25 Y13.0 I0.175 J-0.7293
G2 X23.125 Y12.3505 I-0.75 J0.0
G2 Y13.6495 I0.375 J0.6495
G2 X23.325 Y13.7293 I0.375 J-0.6495
G1 F300.0 Z-5.0
G2 F800.0 X24.25 Y13.0 I0.175 J-0.7293
G2 X23.125 Y12.3505 I-0.75 J0.0
G2 Y13.6495 I0.375 J0.6495
G2 X23.325 Y13.7293 I0.375 J-0.6495
G1 F300.0 Z-6.0
G2 F800.0 X24.25 Y13.0 I0.175 J-0.7293
G2 X23.125 Y12.3505 I-0.75 J0.0
G2 Y13.6495 I0.375 J0.6495
G2 X23.325 Y13.7293 I0.375 J-0.6495
G0 Z3.0
G0 X99.04 Y13.0072
G1 F300.0 Z-1.0
G2 F800.0 X99.415 Y13.6495 I0.75 J-0.0072
G2 X100.54 Y13.0 I0.375 J-0.6495
G2 X99.415 Y12.3505 I-0.75 J0.0
G2 X99.04 Y13.0072 I0.375 J0.6495
G1 F300.0 Z-2.0
G2 F800.0 X99.415 Y13.6495 I0.75 J-0.0072
G2 X100.54 Y13.0 I0.375 J-0.6495
G2 X99.415 Y12.3505 I-0.75 J0.0
G2 X99.04 Y13.0072 I0.375 J0.6495
G1 F300.0 Z-3.0
G2 F800.0 X99.415 Y13.6495 I0.75 J-0.0072
G2 X100.54 Y13.0 I0.375 J-0.6495
G2 X99.415 Y12.3505 I-0.75 J0.0
G2 X99.04 Y13.0072 I0.375 J0.6495
G1 F300.0 Z-4.0
G2 F800.0 X99.415 Y13.6495 I0.75 J-0.0072
G2 X100.54 Y13.0 I0.375 J-0.6495
G2 X99.415 Y12.3505 I-0.75 J0.0
G2 X99.04 Y13.0072 I0.375 J0.6495
G1 F300.0 Z-5.0
G2 F800.0 X99.415 Y13.6495 I0.75 J-0.0072
G2 X100.54 Y13.0 I0.375 J-0.6495
G2 X99.415 Y12.3505 I-0.75 J0.0
G2 X99.04 Y13.0072 I0.375 J0.6495
G1 F300.0 Z-6.0
G2 F800.0 X99.415 Y13.6495 I0.75 J-0.0072
G2 X100.54 Y13.0 I0.375 J-0.6495
G2 X99.415 Y12.3505 I-0.75 J0.0
G2 X99.04 Y13.0072 I0.375 J0.6495
G0 Z3.0
G0 X111.2417 Y83.2611
G1 F300.0 Z-1.0
G2 F800.0 X110.995 Y83.3505 I0.1283 J0.7389
G2 Y84.6495 I0.375 J0.6495
G2 X112.12 Y84.0 I0.375 J-0.6495
G2 X111.2417 Y83.2611 I-0.75 J0.0
G1 F300.0 Z-2.0
G2 F800.0 X110.995 Y83.3505 I0.1283 J0.7389
G2 Y84.6495 I0.375 J0.6495
G2 X112.12 Y84.0 I0.375 J-0.6495
G2 X111.2417 Y83.2611 I-0.75 J0.0
G1 F300.0 Z-3.0
G2 F800.0 X110.995 Y83.3505 I0.1283 J0.7389
G2 Y84.6495 I0.375 J0.6495
G2 X112.12 Y84.0 I0.375 J-0.6495
G2 X111.2417 Y83.2611 I-0.75 J0.0
G1 F300.0 Z-4.0
G2 F800.0 X110.995 Y83.3505 I0.1283 J0.7389
G2 Y84.6495 I0.375 J0.6495
G2 X112.12 Y84.0 I0.375 J-0.6495
G2 X111.2417 Y83.2611 I-0.75 J0.0
G1 F300.0 Z-5.0
G2 F800.0 X110.995 Y83.3505 I0.1283 J0.7389
G2 Y84.6495 I0.375 J0.6495
G2 X112.12 Y84.0 I0.375 J-0.6495
G2 X111.2417 Y83.2611 I-0.75 J0.0
G1 F300.0 Z-6.0
G2 F800.0 X110.995 Y83.3505 I0.1283 J0.7389
G2 Y84.6495 I0.375 J0.6495
G2 X112.12 Y84.0 I0.375 J-0.6495
G2 X111.2417 Y83.2611 I-0.75 J0.0
G0 Z3.0
G0 X13.4506 Y213.4004
G1 F300.0 Z-1.0
G2 F800.0 X12.625 Y213.3505 I-0.4506 J0.5996
G2 Y214.6495 I0.375 J0.6495
G2 X13.75 Y214.0 I0.375 J-0.6495
G2 X13.4506 Y213.4004 I-0.75 J0.0
G1 F300.0 Z-2.0
G2 F800.0 X12.625 Y213.3505 I-0.4506 J0.5996
G2 Y214.6495 I0.375 J0.6495
G2 X13.75 Y214.0 I0.375 J-0.6495
G2 X13.4506 Y213.4004 I-0.75 J0.0
G1 F300.0 Z-3.0
G2 F800.0 X12.625 Y213.3505 I-0.4506 J0.5996
G2 Y214.6495 I0.375 J0.6495
G2 X13.75 Y214.0 I0.375 J-0.6495
G2 X13.4506 Y213.4004 I-0.75 J0.0
G1 F300.0 Z-4.0
G2 F800.0 X12.625 Y213.3505 I-0.4506 J0.5996
G2 Y214.6495 I0.375 J0.6495
G2 X13.75 Y214.0 I0.375 J-0.6495
G2 X13.4506 Y213.4004 I-0.75 J0.0
G1 F300.0 Z-5.0
G2 F800.0 X12.625 Y213.3505 I-0.4506 J0.5996
G2 Y214.6495 I0.375 J0.6495
G2 X13.75 Y214.0 I0.375 J-0.6495
G2 X13.4506 Y213.4004 I-0.75 J0.0
G1 F300.0 Z-6.0
G2 F800.0 X12.625 Y213.3505 I-0.4506 J0.5996
G2 Y214.6495 I0.375 J0.6495
G2 X13.75 Y214.0 I0.375 J-0.6495
G2 X13.4506 Y213.4004 I-0.75 J0.0
G0 Z3.0
G0 X32.5747 Y256.3149
G1 F300.0 Z-1.0
G2 F800.0 X32.505 Y256.3505 I0.3053 J0.6851
G2 Y257.6495 I0.375 J0.6495
G2 X33.63 Y257.0 I0.375 J-0.6495
G2 X32.5747 Y256.3149 I-0.75 J0.0
G1 F300.0 Z-2.0
G2 F800.0 X32.505 Y256.3505 I0.3053 J0.6851
G2 Y257.6495 I0.375 J0.6495
G2 X33.63 Y257.0 I0.375 J-0.6495
G2 X32.5747 Y256.3149 I-0.75 J0.0
G1 F300.0 Z-3.0
G2 F800.0 X32.505 Y256.3505 I0.3053 J0.6851
G2 Y257.6495 I0.375 J0.6495
G2 X33.63 Y257.0 I0.375 J-0.6495
G2 X32.5747 Y256.3149 I-0.75 J0.0
G1 F300.0 Z-4.0
G2 F800.0 X32.505 Y256.3505 I0.3053 J0.6851
G2 Y257.6495 I0.375 J0.6495
G2 X33.63 Y257.0 I0.375 J-0.6495
G2 X32.5747 Y256.3149 I-0.75 J0.0
G1 F300.0 Z-5.0
G2 F800.0 X32.505 Y256.3505 I0.3053 J0.6851
G2 Y257.6495 I0.375 J0.6495
G2 X33.63 Y257.0 I0.375 J-0.6495
G2 X32.5747 Y256.3149 I-0.75 J0.0
G1 F300.0 Z-6.0
G2 F800.0 X32.505 Y256.3505 I0.3053 J0.6851
G2 Y257.6495 I0.375 J0.6495
G2 X33.63 Y257.0 I0.375 J-0.6495
G2 X32.5747 Y256.3149 I-0.75 J0.0
G0 Z3.0
G0 X104.25 Y256.9929
G1 F300.0 Z-1.0
G2 F800.0 X104.625 Y257.6495 I0.75 J0.0071
G2 X105.75 Y257.0 I0.375 J-0.6495
G2 X104.625 Y256.3505 I-0.75 J0.0
G2 X104.25 Y256.9929 I0.375 J0.6495
G1 F300.0 Z-2.0
G2 F800.0 X104.625 Y257.6495 I0.75 J0.0071
G2 X105.75 Y257.0 I0.375 J-0.6495
G2 X104.625 Y256.3505 I-0.75 J0.0
G2 X104.25 Y256.9929 I0.375 J0.6495
G1 F300.0 Z-3.0
G2 F800.0 X104.625 Y257.6495 I0.75 J0.0071
G2 X105.75 Y257.0 I0.375 J-0.6495
G2 X104.625 Y256.3505 I-0.75 J0.0
G2 X104.25 Y256.9929 I0.375 J0.6495
G1 F300.0 Z-4.0
G2 F800.0 X104.625 Y257.6495 I0.75 J0.0071
G2 X105.75 Y257.0 I0.375 J-0.6495
G2 X104.625 Y256.3505 I-0.75 J0.0
G2 X104.25 Y256.9929 I0.375 J0.6495
G1 F300.0 Z-5.0
G2 F800.0 X104.625 Y257.6495 I0.75 J0.0071
G2 X105.75 Y257.0 I0.375 J-0.6495
G2 X104.625 Y256.3505 I-0.75 J0.0
G2 X104.25 Y256.9929 I0.375 J0.6495
G1 F300.0 Z-6.0
G2 F800.0 X104.625 Y257.6495 I0.75 J0.0071
G2 X105.75 Y257.0 I0.375 J-0.6495
G2 X104.625 Y256.3505 I-0.75 J0.0
G2 X104.25 Y256.9929 I0.375 J0.6495
( Contour2 )
S1000
G0 Z3.0
G0 X59.335 Y148.0
G1 F300.0 Z-1.0
G3 F800.0 X55.96 Y149.9486 I-2.25 J0.0
G3 Y146.0514 I1.125 J-1.9486
G3 X59.335 Y148.0 I1.125 J1.9486
G1 F300.0 Z-2.0
G3 F800.0 X55.96 Y149.9486 I-2.25 J0.0
G3 Y146.0514 I1.125 J-1.9486
G3 X59.335 Y148.0 I1.125 J1.9486
G1 F300.0 Z-3.0
G3 F800.0 X55.96 Y149.9486 I-2.25 J0.0
G3 Y146.0514 I1.125 J-1.9486
G3 X59.335 Y148.0 I1.125 J1.9486
G0 Z3.0
G0 X74.835
G1 F300.0 Z-1.0
G3 F800.0 X75.96 Y146.0514 I2.25 J0.0
G3 X79.335 Y148.0 I1.125 J1.9486
G3 X75.96 Y149.9486 I-2.25 J0.0
G3 X74.835 Y148.0 I1.125 J-1.9486
G1 F300.0 Z-2.0
G3 F800.0 X75.96 Y146.0514 I2.25 J0.0
G3 X79.335 Y148.0 I1.125 J1.9486
G3 X75.96 Y149.9486 I-2.25 J0.0
G3 X74.835 Y148.0 I1.125 J-1.9486
G1 F300.0 Z-3.0
G3 F800.0 X75.96 Y146.0514 I2.25 J0.0
G3 X79.335 Y148.0 I1.125 J1.9486
G3 X75.96 Y149.9486 I-2.25 J0.0
G3 X74.835 Y148.0 I1.125 J-1.9486
G0 Z3.0
G0 X15.2395 Y153.7827
G1 F300.0 Z-1.0
G3 F800.0 X15.25 Y154.0 I-2.2395 J0.2173
G3 X11.875 Y155.9486 I-2.25 J0.0
G3 Y152.0514 I1.125 J-1.9486
G3 X15.2395 Y153.7827 I1.125 J1.9486
G1 F300.0 Z-2.0
G3 F800.0 X15.25 Y154.0 I-2.2395 J0.2173
G3 X11.875 Y155.9486 I-2.25 J0.0
G3 Y152.0514 I1.125 J-1.9486
G3 X15.2395 Y153.7827 I1.125 J1.9486
G1 F300.0 Z-3.0
G3 F800.0 X15.25 Y154.0 I-2.2395 J0.2173
G3 X11.875 Y155.9486 I-2.25 J0.0
G3 Y152.0514 I1.125 J-1.9486
G3 X15.2395 Y153.7827 I1.125 J1.9486
G0 Z3.0
G0 X13.1331 Y118.2461
G1 F300.0 Z-1.0
G3 F800.0 X11.875 Y117.9486 I-0.1331 J-2.2461
G3 Y114.0514 I1.125 J-1.9486
G3 X15.25 Y116.0 I1.125 J1.9486
G3 X13.1331 Y118.2461 I-2.25 J0.0
G1 F300.0 Z-2.0
G3 F800.0 X11.875 Y117.9486 I-0.1331 J-2.2461
G3 Y114.0514 I1.125 J-1.9486
G3 X15.25 Y116.0 I1.125 J1.9486
G3 X13.1331 Y118.2461 I-2.25 J0.0
G1 F300.0 Z-3.0
G3 F800.0 X11.875 Y117.9486 I-0.1331 J-2.2461
G3 Y114.0514 I1.125 J-1.9486
G3 X15.25 Y116.0 I1.125 J1.9486
G3 X13.1331 Y118.2461 I-2.25 J0.0
G0 Z3.0
G0 X13.0048 Y58.25
G1 F300.0 Z-1.0
G3 F800.0 X11.875 Y57.9486 I-0.0048 J-2.25
G3 Y54.0514 I1.125 J-1.9486
G3 X15.25 Y56.0 I1.125 J1.9486
G3 X13.0048 Y58.25 I-2.25 J0.0
G1 F300.0 Z-2.0
G3 F800.0 X11.875 Y57.9486 I-0.0048 J-2.25
G3 Y54.0514 I1.125 J-1.9486
G3 X15.25 Y56.0 I1.125 J1.9486
G3 X13.0048 Y58.25 I-2.25 J0.0
G1 F300.0 Z-3.0
G3 F800.0 X11.875 Y57.9486 I-0.0048 J-2.25
G3 Y54.0514 I1.125 J-1.9486
G3 X15.25 Y56.0 I1.125 J1.9486
G3 X13.0048 Y58.25 I-2.25 J0.0
G0 Z3.0
G0 X22.9916 Y15.1918
G1 F300.0 Z-1.0
G3 F800.0 X22.375 Y14.9486 I0.5084 J-2.1918
G3 Y11.0514 I1.125 J-1.9486
G3 X25.75 Y13.0 I1.125 J1.9486
G3 X22.9916 Y15.1918 I-2.25 J0.0
G1 F300.0 Z-2.0
G3 F800.0 X22.375 Y14.9486 I0.5084 J-2.1918
G3 Y11.0514 I1.125 J-1.9486
G3 X25.75 Y13.0 I1.125 J1.9486
G3 X22.9916 Y15.1918 I-2.25 J0.0
G1 F300.0 Z-3.0
G3 F800.0 X22.375 Y14.9486 I0.5084 J-2.1918
G3 Y11.0514 I1.125 J-1.9486
G3 X25.75 Y13.0 I1.125 J1.9486
G3 X22.9916 Y15.1918 I-2.25 J0.0
G0 Z3.0
G0 X97.5409 Y13.0642
G1 F300.0 Z-1.0
G3 F800.0 X98.665 Y11.0514 I2.2491 J-0.0642
G3 X102.04 Y13.0 I1.125 J1.9486
G3 X98.665 Y14.9486 I-2.25 J0.0
G3 X97.5409 Y13.0642 I1.125 J-1.9486
G1 F300.0 Z-2.0
G3 F800.0 X98.665 Y11.0514 I2.2491 J-0.0642
G3 X102.04 Y13.0 I1.125 J1.9486
G3 X98.665 Y14.9486 I-2.25 J0.0
G3 X97.5409 Y13.0642 I1.125 J-1.9486
G1 F300.0 Z-3.0
G3 F800.0 X98.665 Y11.0514 I2.2491 J-0.0642
G3 X102.04 Y13.0 I1.125 J1.9486
G3 X98.665 Y14.9486 I-2.25 J0.0
G3 X97.5409 Y13.0642 I1.125 J-1.9486
G0 Z3.0
G0 X110.9395 Y81.7916
G1 F300.0 Z-1.0
G3 F800.0 X113.62 Y84.0 I0.4305 J2.2084
G3 X110.245 Y85.9486 I-2.25 J0.0
G3 Y82.0514 I1.125 J-1.9486
G3 X110.9395 Y81.7916 I1.125 J1.9486
G1 F300.0 Z-2.0
G3 F800.0 X113.62 Y84.0 I0.4305 J2.2084
G3 X110.245 Y85.9486 I-2.25 J0.0
G3 Y82.0514 I1.125 J-1.9486
G3 X110.9395 Y81.7916 I1.125 J1.9486
G1 F300.0 Z-3.0
G3 F800.0 X113.62 Y84.0 I0.4305 J2.2084
G3 X110.245 Y85.9486 I-2.25 J0.0
G3 Y82.0514 I1.125 J-1.9486
G3 X110.9395 Y81.7916 I1.125 J1.9486
G0 Z3.0
G0 X14.3393 Y212.192
G1 F300.0 Z-1.0
G3 F800.0 X15.25 Y214.0 I-1.3393 J1.808
G3 X11.875 Y215.9486 I-2.25 J0.0
G3 Y212.0514 I1.125 J-1.9486
G3 X14.3393 Y212.192 I1.125 J1.9486
G1 F300.0 Z-2.0
G3 F800.0 X15.25 Y214.0 I-1.3393 J1.808
G3 X11.875 Y215.9486 I-2.25 J0.0
G3 Y212.0514 I1.125 J-1.9486
G3 X14.3393 Y212.192 I1.125 J1.9486
G1 F300.0 Z-3.0
G3 F800.0 X15.25 Y214.0 I-1.3393 J1.808
G3 X11.875 Y215.9486 I-2.25 J0.0
G3 Y212.0514 I1.125 J-1.9486
G3 X14.3393 Y212.192 I1.125 J1.9486
G0 Z3.0
G0 X32.0197 Y254.921
G1 F300.0 Z-1.0
G3 F800.0 X35.13 Y257.0 I0.8603 J2.079
G3 X31.755 Y258.9486 I-2.25 J0.0
G3 Y255.0514 I1.125 J-1.9486
G3 X32.0197 Y254.921 I1.125 J1.9486
G1 F300.0 Z-2.0
G3 F800.0 X35.13 Y257.0 I0.8603 J2.079
G3 X31.755 Y258.9486 I-2.25 J0.0
G3 Y255.0514 I1.125 J-1.9486
G3 X32.0197 Y254.921 I1.125 J1.9486
G1 F300.0 Z-3.0
G3 F800.0 X35.13 Y257.0 I0.8603 J2.079
G3 X31.755 Y258.9486 I-2.25 J0.0
G3 Y255.0514 I1.125 J-1.9486
G3 X32.0197 Y254.921 I1.125 J1.9486
G0 Z3.0
G0 X102.7509 Y256.9359
G1 F300.0 Z-1.0
G3 F800.0 X103.875 Y255.0514 I2.2491 J0.0641
G3 X107.25 Y257.0 I1.125 J1.9486
G3 X103.875 Y258.9486 I-2.25 J0.0
G3 X102.7509 Y256.9359 I1.125 J-1.9486
G1 F300.0 Z-2.0
G3 F800.0 X103.875 Y255.0514 I2.2491 J0.0641
G3 X107.25 Y257.0 I1.125 J1.9486
G3 X103.875 Y258.9486 I-2.25 J0.0
G3 X102.7509 Y256.9359 I1.125 J-1.9486
G1 F300.0 Z-3.0
G3 F800.0 X103.875 Y255.0514 I2.2491 J0.0641
G3 X107.25 Y257.0 I1.125 J1.9486
G3 X103.875 Y258.9486 I-2.25 J0.0
G3 X102.7509 Y256.9359 I1.125 J-1.9486
( Contour3 )
S1000
G0 Z3.0
G0 X96.335 Y145.75
G1 F300.0 Z-1.0
G1 F800.0 X82.835
G1 Y150.25
G1 X96.335
G1 Y145.75
G1 F300.0 Z-2.0
G1 F800.0 X82.835
G1 Y150.25
G1 X96.335
G1 Y145.75
G1 F300.0 Z-3.0
G1 F800.0 X82.835
G1 Y150.25
G1 X96.335
G1 Y145.75
G1 F300.0 Z-4.0
G1 F800.0 X82.835
G1 Y150.25
G1 X96.335
G1 Y145.75
G1 F300.0 Z-5.0
G1 F800.0 X82.835
G1 Y150.25
G1 X96.335
G1 Y145.75
G1 F300.0 Z-6.0
G1 F800.0 X82.835
G1 Y150.25
G1 X96.335
G1 Y145.75
G0 Z3.0
G0 X51.335
G1 F300.0 Z-1.0
G1 F800.0 X37.835
G1 Y150.25
G1 X51.335
G1 Y145.75
G1 F300.0 Z-2.0
G1 F800.0 X37.835
G1 Y150.25
G1 X51.335
G1 Y145.75
G1 F300.0 Z-3.0
G1 F800.0 X37.835
G1 Y150.25
G1 X51.335
G1 Y145.75
G1 F300.0 Z-4.0
G1 F800.0 X37.835
G1 Y150.25
G1 X51.335
G1 Y145.75
G1 F300.0 Z-5.0
G1 F800.0 X37.835
G1 Y150.25
G1 X51.335
G1 Y145.75
G1 F300.0 Z-6.0
G1 F800.0 X37.835
G1 Y150.25
G1 X51.335
G1 Y145.75
G0 Z3.0
G0 X98.33 Y86.25
G1 F300.0 Z-1.0
G1 F800.0 X106.83
G1 Y81.75
G1 X98.33
G1 Y86.25
G1 F300.0 Z-2.0
G1 F800.0 X106.83
G1 Y81.75
G1 X98.33
G1 Y86.25
G1 F300.0 Z-3.0
G1 F800.0 X106.83
G1 Y81.75
G1 X98.33
G1 Y86.25
G1 F300.0 Z-4.0
G1 F800.0 X106.83
G1 Y81.75
G1 X98.33
G1 Y86.25
G1 F300.0 Z-5.0
G1 F800.0 X106.83
G1 Y81.75
G1 X98.33
G1 Y86.25
G1 F300.0 Z-6.0
G1 F800.0 X106.83
G1 Y81.75
G1 X98.33
G1 Y86.25
( Contour4 )
S1000
G0 Z3.0
G0 X17.75 Y15.25
G1 F300.0 Z-1.0
G1 F800.0 Y10.0
G3 X18.5 Y9.25 I0.75 J0.0
G1 X28.5
G3 X29.25 Y10.0 I0.0 J0.75
G1 Y15.25
G1 X37.0
G3 X37.75 Y16.0 I0.0 J0.75
G1 Y140.84
G1 X82.25
G1 Y16.0
G3 X83.0 Y15.25 I0.75 J0.0
G1 X89.04
G1 Y10.0
G3 X89.79 Y9.25 I0.75 J0.0
G1 X109.79
G3 X110.54 Y10.0 I0.0 J0.75
G1 Y15.25
G1 X116.58
G3 X117.33 Y16.0 I0.0 J0.75
G1 Y254.0
G3 X116.58 Y254.75 I-0.75 J0.0
G1 X110.75
G1 Y260.0
G3 X110.0 Y260.75 I-0.75 J0.0
G1 X100.0
G3 X99.25 Y260.0 I0.0 J-0.75
G1 Y254.75
G1 X38.63
G1 Y260.0
G3 X37.88 Y260.75 I-0.75 J0.0
G1 X27.88
G3 X27.13 Y260.0 I0.0 J-0.75
G1 Y254.75
G1 X22.88
G3 X22.13 Y254.0 I0.0 J-0.75
G1 Y247.75
G1 X16.0
G3 X15.25 Y247.0 I0.0 J-0.75
G1 Y224.75
G1 X10.0
G3 X9.25 Y224.0 I0.0 J-0.75
G1 Y204.0
G3 X10.0 Y203.25 I0.75 J0.0
G1 X15.25
G1 Y164.75
G1 X10.0
G3 X9.25 Y164.0 I0.0 J-0.75
G1 Y144.0
G3 X10.0 Y143.25 I0.75 J0.0
G1 X15.25
G1 Y126.75
G1 X10.0
G3 X9.25 Y126.0 I0.0 J-0.75
G1 Y106.0
G3 X10.0 Y105.25 I0.75 J0.0
G1 X15.25
G1 Y66.75
G1 X10.0
G3 X9.25 Y66.0 I0.0 J-0.75
G1 Y46.0
G3 X10.0 Y45.25 I0.75 J0.0
G1 X15.25
G1 Y16.0
G3 X16.0 Y15.25 I0.75 J0.0
G1 X17.75
G1 F300.0 Z-2.0
G1 F800.0 Y10.0
G3 X18.5 Y9.25 I0.75 J0.0
G1 X28.5
G3 X29.25 Y10.0 I0.0 J0.75
G1 Y15.25
G1 X37.0
G3 X37.75 Y16.0 I0.0 J0.75
G1 Y140.84
G1 X82.25
G1 Y16.0
G3 X83.0 Y15.25 I0.75 J0.0
G1 X89.04
G1 Y10.0
G3 X89.79 Y9.25 I0.75 J0.0
G1 X109.79
G3 X110.54 Y10.0 I0.0 J0.75
G1 Y15.25
G1 X116.58
G3 X117.33 Y16.0 I0.0 J0.75
G1 Y254.0
G3 X116.58 Y254.75 I-0.75 J0.0
G1 X110.75
G1 Y260.0
G3 X110.0 Y260.75 I-0.75 J0.0
G1 X100.0
G3 X99.25 Y260.0 I0.0 J-0.75
G1 Y254.75
G1 X38.63
G1 Y260.0
G3 X37.88 Y260.75 I-0.75 J0.0
G1 X27.88
G3 X27.13 Y260.0 I0.0 J-0.75
G1 Y254.75
G1 X22.88
G3 X22.13 Y254.0 I0.0 J-0.75
G1 Y247.75
G1 X16.0
G3 X15.25 Y247.0 I0.0 J-0.75
G1 Y224.75
G1 X10.0
G3 X9.25 Y224.0 I0.0 J-0.75
G1 Y204.0
G3 X10.0 Y203.25 I0.75 J0.0
G1 X15.25
G1 Y164.75
G1 X10.0
G3 X9.25 Y164.0 I0.0 J-0.75
G1 Y144.0
G3 X10.0 Y143.25 I0.75 J0.0
G1 X15.25
G1 Y126.75
G1 X10.0
G3 X9.25 Y126.0 I0.0 J-0.75
G1 Y106.0
G3 X10.0 Y105.25 I0.75 J0.0
G1 X15.25
G1 Y66.75
G1 X10.0
G3 X9.25 Y66.0 I0.0 J-0.75
G1 Y46.0
G3 X10.0 Y45.25 I0.75 J0.0
G1 X15.25
G1 Y16.0
G3 X16.0 Y15.25 I0.75 J0.0
G1 X17.75
G1 F300.0 Z-3.0
G1 F800.0 Y10.0
G3 X18.5 Y9.25 I0.75 J0.0
G1 X28.5
G3 X29.25 Y10.0 I0.0 J0.75
G1 Y15.25
G1 X37.0
G3 X37.75 Y16.0 I0.0 J0.75
G1 Y140.84
G1 X82.25
G1 Y16.0
G3 X83.0 Y15.25 I0.75 J0.0
G1 X89.04
G1 Y10.0
G3 X89.79 Y9.25 I0.75 J0.0
G1 X109.79
G3 X110.54 Y10.0 I0.0 J0.75
G1 Y15.25
G1 X116.58
G3 X117.33 Y16.0 I0.0 J0.75
G1 Y254.0
G3 X116.58 Y254.75 I-0.75 J0.0
G1 X110.75
G1 Y260.0
G3 X110.0 Y260.75 I-0.75 J0.0
G1 X100.0
G3 X99.25 Y260.0 I0.0 J-0.75
G1 Y254.75
G1 X38.63
G1 Y260.0
G3 X37.88 Y260.75 I-0.75 J0.0
G1 X27.88
G3 X27.13 Y260.0 I0.0 J-0.75
G1 Y254.75
G1 X22.88
G3 X22.13 Y254.0 I0.0 J-0.75
G1 Y247.75
G1 X16.0
G3 X15.25 Y247.0 I0.0 J-0.75
G1 Y224.75
G1 X10.0
G3 X9.25 Y224.0 I0.0 J-0.75
G1 Y204.0
G3 X10.0 Y203.25 I0.75 J0.0
G1 X15.25
G1 Y164.75
G1 X10.0
G3 X9.25 Y164.0 I0.0 J-0.75
G1 Y144.0
G3 X10.0 Y143.25 I0.75 J0.0
G1 X15.25
G1 Y126.75
G1 X10.0
G3 X9.25 Y126.0 I0.0 J-0.75
G1 Y106.0
G3 X10.0 Y105.25 I0.75 J0.0
G1 X15.25
G1 Y66.75
G1 X10.0
G3 X9.25 Y66.0 I0.0 J-0.75
G1 Y46.0
G3 X10.0 Y45.25 I0.75 J0.0
G1 X15.25
G1 Y16.0
G3 X16.0 Y15.25 I0.75 J0.0
G1 X17.75
G1 F300.0 Z-4.0
G1 F800.0 Y10.0
G3 X18.5 Y9.25 I0.75 J0.0
G1 X28.5
G3 X29.25 Y10.0 I0.0 J0.75
G1 Y15.25
G1 X37.0
G3 X37.75 Y16.0 I0.0 J0.75
G1 Y28.75
G0 Z-3.0
G1 Y35.25
G1 F300.0 Z-4.0
G1 F800.0 Y140.84
G1 X58.75
G0 Z-3.0
G1 X65.25
G1 F300.0 Z-4.0
G1 F800.0 X82.25
G1 Y99.25
G0 Z-3.0
G1 Y92.75
G1 F300.0 Z-4.0
G1 F800.0 Y16.0
G3 X83.0 Y15.25 I0.75 J0.0
G1 X89.04
G1 Y10.0
G3 X89.79 Y9.25 I0.75 J0.0
G1 X109.79
G3 X110.54 Y10.0 I0.0 J0.75
G1 Y15.25
G1 X116.58
G3 X117.33 Y16.0 I0.0 J0.75
G1 Y120.75
G0 Z-3.0
G1 Y127.25
G1 F300.0 Z-4.0
G1 F800.0 Y237.75
G0 Z-3.0
G1 Y244.25
G1 F300.0 Z-4.0
G1 F800.0 Y254.0
G3 X116.58 Y254.75 I-0.75 J0.0
G1 X110.75
G1 Y260.0
G3 X110.0 Y260.75 I-0.75 J0.0
G1 X100.0
G3 X99.25 Y260.0 I0.0 J-0.75
G1 Y254.75
G1 X49.25
G0 Z-3.0
G1 X42.75
G1 F300.0 Z-4.0
G1 F800.0 X38.63
G1 Y260.0
G3 X37.88 Y260.75 I-0.75 J0.0
G1 X27.88
G3 X27.13 Y260.0 I0.0 J-0.75
G1 Y254.75
G1 X22.88
G3 X22.13 Y254.0 I0.0 J-0.75
G1 Y247.75
G1 X16.0
G3 X15.25 Y247.0 I0.0 J-0.75
G1 Y224.75
G1 X10.0
G3 X9.25 Y224.0 I0.0 J-0.75
G1 Y204.0
G3 X10.0 Y203.25 I0.75 J0.0
G1 X15.25
G1 Y186.25
G0 Z-3.0
G1 Y179.75
G1 F300.0 Z-4.0
G1 F800.0 Y164.75
G1 X10.0
G3 X9.25 Y164.0 I0.0 J-0.75
G1 Y144.0
G3 X10.0 Y143.25 I0.75 J0.0
G1 X15.25
G1 Y126.75
G1 X10.0
G3 X9.25 Y126.0 I0.0 J-0.75
G1 Y106.0
G3 X10.0 Y105.25 I0.75 J0.0
G1 X15.25
G1 Y88.25
G0 Z-3.0
G1 Y81.75
G1 F300.0 Z-4.0
G1 F800.0 Y66.75
G1 X10.0
G3 X9.25 Y66.0 I0.0 J-0.75
G1 Y46.0
G3 X10.0 Y45.25 I0.75 J0.0
G1 X15.25
G1 Y16.0
G3 X16.0 Y15.25 I0.75 J0.0
G1 X17.75
G1 F300.0 Z-5.0
G1 F800.0 Y10.0
G3 X18.5 Y9.25 I0.75 J0.0
G1 X28.5
G3 X29.25 Y10.0 I0.0 J0.75
G1 Y15.25
G1 X37.0
G3 X37.75 Y16.0 I0.0 J0.75
G1 Y28.75
G0 Z-3.0
G1 Y35.25
G1 F300.0 Z-5.0
G1 F800.0 Y140.84
G1 X58.75
G0 Z-3.0
G1 X65.25
G1 F300.0 Z-5.0
G1 F800.0 X82.25
G1 Y99.25
G0 Z-3.0
G1 Y92.75
G1 F300.0 Z-5.0
G1 F800.0 Y16.0
G3 X83.0 Y15.25 I0.75 J0.0
G1 X89.04
G1 Y10.0
G3 X89.79 Y9.25 I0.75 J0.0
G1 X109.79
G3 X110.54 Y10.0 I0.0 J0.75
G1 Y15.25
G1 X116.58
G3 X117.33 Y16.0 I0.0 J0.75
G1 Y120.75
G0 Z-3.0
G1 Y127.25
G1 F300.0 Z-5.0
G1 F800.0 Y237.75
G0 Z-3.0
G1 Y244.25
G1 F300.0 Z-5.0
G1 F800.0 Y254.0
G3 X116.58 Y254.75 I-0.75 J0.0
G1 X110.75
G1 Y260.0
G3 X110.0 Y260.75 I-0.75 J0.0
G1 X100.0
G3 X99.25 Y260.0 I0.0 J-0.75
G1 Y254.75
G1 X49.25
G0 Z-3.0
G1 X42.75
G1 F300.0 Z-5.0
G1 F800.0 X38.63
G1 Y260.0
G3 X37.88 Y260.75 I-0.75 J0.0
G1 X27.88
G3 X27.13 Y260.0 I0.0 J-0.75
G1 Y254.75
G1 X22.88
G3 X22.13 Y254.0 I0.0 J-0.75
G1 Y247.75
G1 X16.0
G3 X15.25 Y247.0 I0.0 J-0.75
G1 Y224.75
G1 X10.0
G3 X9.25 Y224.0 I0.0 J-0.75
G1 Y204.0
G3 X10.0 Y203.25 I0.75 J0.0
G1 X15.25
G1 Y186.25
G0 Z-3.0
G1 Y179.75
G1 F300.0 Z-5.0
G1 F800.0 Y164.75
G1 X10.0
G3 X9.25 Y164.0 I0.0 J-0.75
G1 Y144.0
G3 X10.0 Y143.25 I0.75 J0.0
G1 X15.25
G1 Y126.75
G1 X10.0
G3 X9.25 Y126.0 I0.0 J-0.75
G1 Y106.0
G3 X10.0 Y105.25 I0.75 J0.0
G1 X15.25
G1 Y88.25
G0 Z-3.0
G1 Y81.75
G1 F300.0 Z-5.0
G1 F800.0 Y66.75
G1 X10.0
G3 X9.25 Y66.0 I0.0 J-0.75
G1 Y46.0
G3 X10.0 Y45.25 I0.75 J0.0
G1 X15.25
G1 Y16.0
G3 X16.0 Y15.25 I0.75 J0.0
G1 X17.75
G1 F300.0 Z-6.0
G1 F800.0 Y10.0
G3 X18.5 Y9.25 I0.75 J0.0
G1 X28.5
G3 X29.25 Y10.0 I0.0 J0.75
G1 Y15.25
G1 X37.0
G3 X37.75 Y16.0 I0.0 J0.75
G1 Y28.75
G0 Z-3.0
G1 Y35.25
G1 F300.0 Z-6.0
G1 F800.0 Y140.84
G1 X58.75
G0 Z-3.0
G1 X65.25
G1 F300.0 Z-6.0
G1 F800.0 X82.25
G1 Y99.25
G0 Z-3.0
G1 Y92.75
G1 F300.0 Z-6.0
G1 F800.0 Y16.0
G3 X83.0 Y15.25 I0.75 J0.0
G1 X89.04
G1 Y10.0
G3 X89.79 Y9.25 I0.75 J0.0
G1 X109.79
G3 X110.54 Y10.0 I0.0 J0.75
G1 Y15.25
G1 X116.58
G3 X117.33 Y16.0 I0.0 J0.75
G1 Y120.75
G0 Z-3.0
G1 Y127.25
G1 F300.0 Z-6.0
G1 F800.0 Y237.75
G0 Z-3.0
G1 Y244.25
G1 F300.0 Z-6.0
G1 F800.0 Y254.0
G3 X116.58 Y254.75 I-0.75 J0.0
G1 X110.75
G1 Y260.0
G3 X110.0 Y260.75 I-0.75 J0.0
G1 X100.0
G3 X99.25 Y260.0 I0.0 J-0.75
G1 Y254.75
G1 X49.25
G0 Z-3.0
G1 X42.75
G1 F300.0 Z-6.0
G1 F800.0 X38.63
G1 Y260.0
G3 X37.88 Y260.75 I-0.75 J0.0
G1 X27.88
G3 X27.13 Y260.0 I0.0 J-0.75
G1 Y254.75
G1 X22.88
G3 X22.13 Y254.0 I0.0 J-0.75
G1 Y247.75
G1 X16.0
G3 X15.25 Y247.0 I0.0 J-0.75
G1 Y224.75
G1 X10.0
G3 X9.25 Y224.0 I0.0 J-0.75
G1 Y204.0
G3 X10.0 Y203.25 I0.75 J0.0
G1 X15.25
G1 Y186.25
G0 Z-3.0
G1 Y179.75
G1 F300.0 Z-6.0
G1 F800.0 Y164.75
G1 X10.0
G3 X9.25 Y164.0 I0.0 J-0.75
G1 Y144.0
G3 X10.0 Y143.25 I0.75 J0.0
G1 X15.25
G1 Y126.75
G1 X10.0
G3 X9.25 Y126.0 I0.0 J-0.75
G1 Y106.0
G3 X10.0 Y105.25 I0.75 J0.0
G1 X15.25
G1 Y88.25
G0 Z-3.0
G1 Y81.75
G1 F300.0 Z-6.0
G1 F800.0 Y66.75
G1 X10.0
G3 X9.25 Y66.0 I0.0 J-0.75
G1 Y46.0
G3 X10.0 Y45.25 I0.75 J0.0
G1 X15.25
G1 Y16.0
G3 X16.0 Y15.25 I0.75 J0.0
G1 X17.75
G0 Z3.0
M5
M30
