( Made using CamBam - http://www.cambam.co.uk )
( Ensemble 1 1/27/2016 3:30:03 PM )
( T0 : 1.5 )
G21 G90 G64 G40
G0 Z3.0
( T0 : 1.5 )
T0 M6
( Contour1 )
G17
M3 S1000
G0 X19.245 Y249.0589
G1 F300.0 Z-1.0
G2 F800.0 X17.37 Y247.9764 I-1.25 J0.0
G2 Y250.1414 I0.625 J1.0825
G2 X19.245 Y249.0589 I0.625 J-1.0825
G1 F300.0 Z-2.0
G2 F800.0 X17.37 Y247.9764 I-1.25 J0.0
G2 Y250.1414 I0.625 J1.0825
G2 X19.245 Y249.0589 I0.625 J-1.0825
G1 F300.0 Z-3.0
G2 F800.0 X17.37 Y247.9764 I-1.25 J0.0
G2 Y250.1414 I0.625 J1.0825
G2 X19.245 Y249.0589 I0.625 J-1.0825
G1 F300.0 Z-4.0
G2 F800.0 X17.37 Y247.9764 I-1.25 J0.0
G2 Y250.1414 I0.625 J1.0825
G2 X19.245 Y249.0589 I0.625 J-1.0825
G1 F300.0 Z-5.0
G2 F800.0 X17.37 Y247.9764 I-1.25 J0.0
G2 Y250.1414 I0.625 J1.0825
G2 X19.245 Y249.0589 I0.625 J-1.0825
G1 F300.0 Z-6.0
G2 F800.0 X17.37 Y247.9764 I-1.25 J0.0
G2 Y250.1414 I0.625 J1.0825
G2 X19.245 Y249.0589 I0.625 J-1.0825
G0 Z3.0
G0 X18.0322 Y289.8095
G1 F300.0 Z-1.0
G2 F800.0 X17.37 Y289.9764 I-0.0372 J1.2494
G2 Y292.1414 I0.625 J1.0825
G2 X19.245 Y291.0589 I0.625 J-1.0825
G2 X18.0322 Y289.8095 I-1.25 J0.0
G1 F300.0 Z-2.0
G2 F800.0 X17.37 Y289.9764 I-0.0372 J1.2494
G2 Y292.1414 I0.625 J1.0825
G2 X19.245 Y291.0589 I0.625 J-1.0825
G2 X18.0322 Y289.8095 I-1.25 J0.0
G1 F300.0 Z-3.0
G2 F800.0 X17.37 Y289.9764 I-0.0372 J1.2494
G2 Y292.1414 I0.625 J1.0825
G2 X19.245 Y291.0589 I0.625 J-1.0825
G2 X18.0322 Y289.8095 I-1.25 J0.0
G1 F300.0 Z-4.0
G2 F800.0 X17.37 Y289.9764 I-0.0372 J1.2494
G2 Y292.1414 I0.625 J1.0825
G2 X19.245 Y291.0589 I0.625 J-1.0825
G2 X18.0322 Y289.8095 I-1.25 J0.0
G1 F300.0 Z-5.0
G2 F800.0 X17.37 Y289.9764 I-0.0372 J1.2494
G2 Y292.1414 I0.625 J1.0825
G2 X19.245 Y291.0589 I0.625 J-1.0825
G2 X18.0322 Y289.8095 I-1.25 J0.0
G1 F300.0 Z-6.0
G2 F800.0 X17.37 Y289.9764 I-0.0372 J1.2494
G2 Y292.1414 I0.625 J1.0825
G2 X19.245 Y291.0589 I0.625 J-1.0825
G2 X18.0322 Y289.8095 I-1.25 J0.0
G0 Z3.0
G0 X173.7451 Y291.0489
G1 F300.0 Z-1.0
G2 F800.0 X174.37 Y292.1414 I1.25 J0.0099
G2 X176.245 Y291.0589 I0.625 J-1.0825
G2 X174.37 Y289.9764 I-1.25 J0.0
G2 X173.7451 Y291.0489 I0.625 J1.0825
G1 F300.0 Z-2.0
G2 F800.0 X174.37 Y292.1414 I1.25 J0.0099
G2 X176.245 Y291.0589 I0.625 J-1.0825
G2 X174.37 Y289.9764 I-1.25 J0.0
G2 X173.7451 Y291.0489 I0.625 J1.0825
G1 F300.0 Z-3.0
G2 F800.0 X174.37 Y292.1414 I1.25 J0.0099
G2 X176.245 Y291.0589 I0.625 J-1.0825
G2 X174.37 Y289.9764 I-1.25 J0.0
G2 X173.7451 Y291.0489 I0.625 J1.0825
G1 F300.0 Z-4.0
G2 F800.0 X174.37 Y292.1414 I1.25 J0.0099
G2 X176.245 Y291.0589 I0.625 J-1.0825
G2 X174.37 Y289.9764 I-1.25 J0.0
G2 X173.7451 Y291.0489 I0.625 J1.0825
G1 F300.0 Z-5.0
G2 F800.0 X174.37 Y292.1414 I1.25 J0.0099
G2 X176.245 Y291.0589 I0.625 J-1.0825
G2 X174.37 Y289.9764 I-1.25 J0.0
G2 X173.7451 Y291.0489 I0.625 J1.0825
G1 F300.0 Z-6.0
G2 F800.0 X174.37 Y292.1414 I1.25 J0.0099
G2 X176.245 Y291.0589 I0.625 J-1.0825
G2 X174.37 Y289.9764 I-1.25 J0.0
G2 X173.7451 Y291.0489 I0.625 J1.0825
G0 Z3.0
G0 X174.9578 Y250.3083
G1 F300.0 Z-1.0
G2 F800.0 X176.245 Y249.0589 I0.0372 J-1.2494
G2 X174.37 Y247.9764 I-1.25 J0.0
G2 Y250.1414 I0.625 J1.0825
G2 X174.9578 Y250.3083 I0.625 J-1.0825
G1 F300.0 Z-2.0
G2 F800.0 X176.245 Y249.0589 I0.0372 J-1.2494
G2 X174.37 Y247.9764 I-1.25 J0.0
G2 Y250.1414 I0.625 J1.0825
G2 X174.9578 Y250.3083 I0.625 J-1.0825
G1 F300.0 Z-3.0
G2 F800.0 X176.245 Y249.0589 I0.0372 J-1.2494
G2 X174.37 Y247.9764 I-1.25 J0.0
G2 Y250.1414 I0.625 J1.0825
G2 X174.9578 Y250.3083 I0.625 J-1.0825
G1 F300.0 Z-4.0
G2 F800.0 X176.245 Y249.0589 I0.0372 J-1.2494
G2 X174.37 Y247.9764 I-1.25 J0.0
G2 Y250.1414 I0.625 J1.0825
G2 X174.9578 Y250.3083 I0.625 J-1.0825
G1 F300.0 Z-5.0
G2 F800.0 X176.245 Y249.0589 I0.0372 J-1.2494
G2 X174.37 Y247.9764 I-1.25 J0.0
G2 Y250.1414 I0.625 J1.0825
G2 X174.9578 Y250.3083 I0.625 J-1.0825
G1 F300.0 Z-6.0
G2 F800.0 X176.245 Y249.0589 I0.0372 J-1.2494
G2 X174.37 Y247.9764 I-1.25 J0.0
G2 Y250.1414 I0.625 J1.0825
G2 X174.9578 Y250.3083 I0.625 J-1.0825
( Contour2 )
S1000
G0 Z3.0
G0 X199.7176 Y257.383
G1 F300.0 Z-1.0
G2 F800.0 X195.3676 Y254.8715 I-2.9 J0.0
G2 Y259.8944 I1.45 J2.5115
G2 X199.7176 Y257.383 I1.45 J-2.5115
G1 F300.0 Z-2.0
G2 F800.0 X195.3676 Y254.8715 I-2.9 J0.0
G2 Y259.8944 I1.45 J2.5115
G2 X199.7176 Y257.383 I1.45 J-2.5115
G1 F300.0 Z-3.0
G2 F800.0 X195.3676 Y254.8715 I-2.9 J0.0
G2 Y259.8944 I1.45 J2.5115
G2 X199.7176 Y257.383 I1.45 J-2.5115
G1 F300.0 Z-4.0
G2 F800.0 X195.3676 Y254.8715 I-2.9 J0.0
G2 Y259.8944 I1.45 J2.5115
G2 X199.7176 Y257.383 I1.45 J-2.5115
G1 F300.0 Z-5.0
G2 F800.0 X195.3676 Y254.8715 I-2.9 J0.0
G2 Y259.8944 I1.45 J2.5115
G2 X199.7176 Y257.383 I1.45 J-2.5115
G1 F300.0 Z-6.0
G2 F800.0 X195.3676 Y254.8715 I-2.9 J0.0
G2 Y259.8944 I1.45 J2.5115
G2 X199.7176 Y257.383 I1.45 J-2.5115
G0 Z3.0
G0 X196.9431 Y271.4727
G1 F300.0 Z-1.0
G2 F800.0 X196.4926 Y271.5476 I-0.1256 J0.6378
G2 Y272.6734 I0.325 J0.5629
G2 X197.4676 Y272.1105 I0.325 J-0.5629
G2 X196.9431 Y271.4727 I-0.65 J0.0
G1 F300.0 Z-2.0
G2 F800.0 X196.4926 Y271.5476 I-0.1256 J0.6378
G2 Y272.6734 I0.325 J0.5629
G2 X197.4676 Y272.1105 I0.325 J-0.5629
G2 X196.9431 Y271.4727 I-0.65 J0.0
G1 F300.0 Z-3.0
G2 F800.0 X196.4926 Y271.5476 I-0.1256 J0.6378
G2 Y272.6734 I0.325 J0.5629
G2 X197.4676 Y272.1105 I0.325 J-0.5629
G2 X196.9431 Y271.4727 I-0.65 J0.0
G1 F300.0 Z-4.0
G2 F800.0 X196.4926 Y271.5476 I-0.1256 J0.6378
G2 Y272.6734 I0.325 J0.5629
G2 X197.4676 Y272.1105 I0.325 J-0.5629
G2 X196.9431 Y271.4727 I-0.65 J0.0
G1 F300.0 Z-5.0
G2 F800.0 X196.4926 Y271.5476 I-0.1256 J0.6378
G2 Y272.6734 I0.325 J0.5629
G2 X197.4676 Y272.1105 I0.325 J-0.5629
G2 X196.9431 Y271.4727 I-0.65 J0.0
G1 F300.0 Z-6.0
G2 F800.0 X196.4926 Y271.5476 I-0.1256 J0.6378
G2 Y272.6734 I0.325 J0.5629
G2 X197.4676 Y272.1105 I0.325 J-0.5629
G2 X196.9431 Y271.4727 I-0.65 J0.0
G0 Z3.0
G0 X196.8228 Y286.4605
G1 F300.0 Z-1.0
G2 F800.0 X196.4926 Y286.5476 I-0.0052 J0.65
G2 Y287.6734 I0.325 J0.5629
G2 X197.4676 Y287.1105 I0.325 J-0.5629
G2 X196.8228 Y286.4605 I-0.65 J0.0
G1 F300.0 Z-2.0
G2 F800.0 X196.4926 Y286.5476 I-0.0052 J0.65
G2 Y287.6734 I0.325 J0.5629
G2 X197.4676 Y287.1105 I0.325 J-0.5629
G2 X196.8228 Y286.4605 I-0.65 J0.0
G1 F300.0 Z-3.0
G2 F800.0 X196.4926 Y286.5476 I-0.0052 J0.65
G2 Y287.6734 I0.325 J0.5629
G2 X197.4676 Y287.1105 I0.325 J-0.5629
G2 X196.8228 Y286.4605 I-0.65 J0.0
G1 F300.0 Z-4.0
G2 F800.0 X196.4926 Y286.5476 I-0.0052 J0.65
G2 Y287.6734 I0.325 J0.5629
G2 X197.4676 Y287.1105 I0.325 J-0.5629
G2 X196.8228 Y286.4605 I-0.65 J0.0
G1 F300.0 Z-5.0
G2 F800.0 X196.4926 Y286.5476 I-0.0052 J0.65
G2 Y287.6734 I0.325 J0.5629
G2 X197.4676 Y287.1105 I0.325 J-0.5629
G2 X196.8228 Y286.4605 I-0.65 J0.0
G1 F300.0 Z-6.0
G2 F800.0 X196.4926 Y286.5476 I-0.0052 J0.65
G2 Y287.6734 I0.325 J0.5629
G2 X197.4676 Y287.1105 I0.325 J-0.5629
G2 X196.8228 Y286.4605 I-0.65 J0.0
G0 Z3.0
G0 X196.9211 Y221.4656
G1 F300.0 Z-1.0
G2 F800.0 X197.3718 Y221.0156 I0.0007 J-0.45
G2 X196.6968 Y220.6259 I-0.45 J0.0
G2 Y221.4053 I0.225 J0.3897
G2 X196.9211 Y221.4656 I0.225 J-0.3897
G1 F300.0 Z-2.0
G2 F800.0 X197.3718 Y221.0156 I0.0007 J-0.45
G2 X196.6968 Y220.6259 I-0.45 J0.0
G2 Y221.4053 I0.225 J0.3897
G2 X196.9211 Y221.4656 I0.225 J-0.3897
G1 F300.0 Z-3.0
G2 F800.0 X197.3718 Y221.0156 I0.0007 J-0.45
G2 X196.6968 Y220.6259 I-0.45 J0.0
G2 Y221.4053 I0.225 J0.3897
G2 X196.9211 Y221.4656 I0.225 J-0.3897
G1 F300.0 Z-4.0
G2 F800.0 X197.3718 Y221.0156 I0.0007 J-0.45
G2 X196.6968 Y220.6259 I-0.45 J0.0
G2 Y221.4053 I0.225 J0.3897
G2 X196.9211 Y221.4656 I0.225 J-0.3897
G1 F300.0 Z-5.0
G2 F800.0 X197.3718 Y221.0156 I0.0007 J-0.45
G2 X196.6968 Y220.6259 I-0.45 J0.0
G2 Y221.4053 I0.225 J0.3897
G2 X196.9211 Y221.4656 I0.225 J-0.3897
G1 F300.0 Z-6.0
G2 F800.0 X197.3718 Y221.0156 I0.0007 J-0.45
G2 X196.6968 Y220.6259 I-0.45 J0.0
G2 Y221.4053 I0.225 J0.3897
G2 X196.9211 Y221.4656 I0.225 J-0.3897
G0 Z3.0
G0 X181.4516 Y221.0283
G1 F300.0 Z-1.0
G2 F800.0 X181.4518 Y221.0156 I-0.4498 J-0.0127
G2 X180.7768 Y220.6259 I-0.45 J0.0
G2 Y221.4053 I0.225 J0.3897
G2 X181.4516 Y221.0283 I0.225 J-0.3897
G1 F300.0 Z-2.0
G2 F800.0 X181.4518 Y221.0156 I-0.4498 J-0.0127
G2 X180.7768 Y220.6259 I-0.45 J0.0
G2 Y221.4053 I0.225 J0.3897
G2 X181.4516 Y221.0283 I0.225 J-0.3897
G1 F300.0 Z-3.0
G2 F800.0 X181.4518 Y221.0156 I-0.4498 J-0.0127
G2 X180.7768 Y220.6259 I-0.45 J0.0
G2 Y221.4053 I0.225 J0.3897
G2 X181.4516 Y221.0283 I0.225 J-0.3897
G1 F300.0 Z-4.0
G2 F800.0 X181.4518 Y221.0156 I-0.4498 J-0.0127
G2 X180.7768 Y220.6259 I-0.45 J0.0
G2 Y221.4053 I0.225 J0.3897
G2 X181.4516 Y221.0283 I0.225 J-0.3897
G1 F300.0 Z-5.0
G2 F800.0 X181.4518 Y221.0156 I-0.4498 J-0.0127
G2 X180.7768 Y220.6259 I-0.45 J0.0
G2 Y221.4053 I0.225 J0.3897
G2 X181.4516 Y221.0283 I0.225 J-0.3897
G1 F300.0 Z-6.0
G2 F800.0 X181.4518 Y221.0156 I-0.4498 J-0.0127
G2 X180.7768 Y220.6259 I-0.45 J0.0
G2 Y221.4053 I0.225 J0.3897
G2 X181.4516 Y221.0283 I0.225 J-0.3897
G0 Z3.0
G0 X181.0145 Y205.4654
G1 F300.0 Z-1.0
G2 F800.0 X181.4518 Y205.0156 I-0.0126 J-0.4498
G2 X180.7768 Y204.6259 I-0.45 J0.0
G2 Y205.4053 I0.225 J0.3897
G2 X181.0145 Y205.4654 I0.225 J-0.3897
G1 F300.0 Z-2.0
G2 F800.0 X181.4518 Y205.0156 I-0.0126 J-0.4498
G2 X180.7768 Y204.6259 I-0.45 J0.0
G2 Y205.4053 I0.225 J0.3897
G2 X181.0145 Y205.4654 I0.225 J-0.3897
G1 F300.0 Z-3.0
G2 F800.0 X181.4518 Y205.0156 I-0.0126 J-0.4498
G2 X180.7768 Y204.6259 I-0.45 J0.0
G2 Y205.4053 I0.225 J0.3897
G2 X181.0145 Y205.4654 I0.225 J-0.3897
G1 F300.0 Z-4.0
G2 F800.0 X181.4518 Y205.0156 I-0.0126 J-0.4498
G2 X180.7768 Y204.6259 I-0.45 J0.0
G2 Y205.4053 I0.225 J0.3897
G2 X181.0145 Y205.4654 I0.225 J-0.3897
G1 F300.0 Z-5.0
G2 F800.0 X181.4518 Y205.0156 I-0.0126 J-0.4498
G2 X180.7768 Y204.6259 I-0.45 J0.0
G2 Y205.4053 I0.225 J0.3897
G2 X181.0145 Y205.4654 I0.225 J-0.3897
G1 F300.0 Z-6.0
G2 F800.0 X181.4518 Y205.0156 I-0.0126 J-0.4498
G2 X180.7768 Y204.6259 I-0.45 J0.0
G2 Y205.4053 I0.225 J0.3897
G2 X181.0145 Y205.4654 I0.225 J-0.3897
G0 Z3.0
G0 X196.472 Y205.0283
G1 F300.0 Z-1.0
G2 F800.0 X196.6968 Y205.4053 I0.4498 J-0.0127
G2 X197.3718 Y205.0156 I0.225 J-0.3897
G2 X196.6968 Y204.6259 I-0.45 J0.0
G2 X196.472 Y205.0283 I0.225 J0.3897
G1 F300.0 Z-2.0
G2 F800.0 X196.6968 Y205.4053 I0.4498 J-0.0127
G2 X197.3718 Y205.0156 I0.225 J-0.3897
G2 X196.6968 Y204.6259 I-0.45 J0.0
G2 X196.472 Y205.0283 I0.225 J0.3897
G1 F300.0 Z-3.0
G2 F800.0 X196.6968 Y205.4053 I0.4498 J-0.0127
G2 X197.3718 Y205.0156 I0.225 J-0.3897
G2 X196.6968 Y204.6259 I-0.45 J0.0
G2 X196.472 Y205.0283 I0.225 J0.3897
G1 F300.0 Z-4.0
G2 F800.0 X196.6968 Y205.4053 I0.4498 J-0.0127
G2 X197.3718 Y205.0156 I0.225 J-0.3897
G2 X196.6968 Y204.6259 I-0.45 J0.0
G2 X196.472 Y205.0283 I0.225 J0.3897
G1 F300.0 Z-5.0
G2 F800.0 X196.6968 Y205.4053 I0.4498 J-0.0127
G2 X197.3718 Y205.0156 I0.225 J-0.3897
G2 X196.6968 Y204.6259 I-0.45 J0.0
G2 X196.472 Y205.0283 I0.225 J0.3897
G1 F300.0 Z-6.0
G2 F800.0 X196.6968 Y205.4053 I0.4498 J-0.0127
G2 X197.3718 Y205.0156 I0.225 J-0.3897
G2 X196.6968 Y204.6259 I-0.45 J0.0
G2 X196.472 Y205.0283 I0.225 J0.3897
G0 Z3.0
G0 X154.3173 Y197.872
G1 F300.0 Z-1.0
G2 F800.0 X154.3582 Y197.3866 I-2.8591 J-0.4854
G2 X150.0082 Y194.8751 I-2.9 J0.0
G2 Y199.8981 I1.45 J2.5115
G2 X154.3173 Y197.872 I1.45 J-2.5115
G1 F300.0 Z-2.0
G2 F800.0 X154.3582 Y197.3866 I-2.8591 J-0.4854
G2 X150.0082 Y194.8751 I-2.9 J0.0
G2 Y199.8981 I1.45 J2.5115
G2 X154.3173 Y197.872 I1.45 J-2.5115
G1 F300.0 Z-3.0
G2 F800.0 X154.3582 Y197.3866 I-2.8591 J-0.4854
G2 X150.0082 Y194.8751 I-2.9 J0.0
G2 Y199.8981 I1.45 J2.5115
G2 X154.3173 Y197.872 I1.45 J-2.5115
G1 F300.0 Z-4.0
G2 F800.0 X154.3582 Y197.3866 I-2.8591 J-0.4854
G2 X150.0082 Y194.8751 I-2.9 J0.0
G2 Y199.8981 I1.45 J2.5115
G2 X154.3173 Y197.872 I1.45 J-2.5115
G1 F300.0 Z-5.0
G2 F800.0 X154.3582 Y197.3866 I-2.8591 J-0.4854
G2 X150.0082 Y194.8751 I-2.9 J0.0
G2 Y199.8981 I1.45 J2.5115
G2 X154.3173 Y197.872 I1.45 J-2.5115
G1 F300.0 Z-6.0
G2 F800.0 X154.3582 Y197.3866 I-2.8591 J-0.4854
G2 X150.0082 Y194.8751 I-2.9 J0.0
G2 Y199.8981 I1.45 J2.5115
G2 X154.3173 Y197.872 I1.45 J-2.5115
G0 Z3.0
G0 X151.5861 Y211.4768
G1 F300.0 Z-1.0
G2 F800.0 X151.1332 Y211.5512 I-0.1279 J0.6373
G2 Y212.677 I0.325 J0.5629
G2 X152.1082 Y212.1141 I0.325 J-0.5629
G2 X151.5861 Y211.4768 I-0.65 J0.0
G1 F300.0 Z-2.0
G2 F800.0 X151.1332 Y211.5512 I-0.1279 J0.6373
G2 Y212.677 I0.325 J0.5629
G2 X152.1082 Y212.1141 I0.325 J-0.5629
G2 X151.5861 Y211.4768 I-0.65 J0.0
G1 F300.0 Z-3.0
G2 F800.0 X151.1332 Y211.5512 I-0.1279 J0.6373
G2 Y212.677 I0.325 J0.5629
G2 X152.1082 Y212.1141 I0.325 J-0.5629
G2 X151.5861 Y211.4768 I-0.65 J0.0
G1 F300.0 Z-4.0
G2 F800.0 X151.1332 Y211.5512 I-0.1279 J0.6373
G2 Y212.677 I0.325 J0.5629
G2 X152.1082 Y212.1141 I0.325 J-0.5629
G2 X151.5861 Y211.4768 I-0.65 J0.0
G1 F300.0 Z-5.0
G2 F800.0 X151.1332 Y211.5512 I-0.1279 J0.6373
G2 Y212.677 I0.325 J0.5629
G2 X152.1082 Y212.1141 I0.325 J-0.5629
G2 X151.5861 Y211.4768 I-0.65 J0.0
G1 F300.0 Z-6.0
G2 F800.0 X151.1332 Y211.5512 I-0.1279 J0.6373
G2 Y212.677 I0.325 J0.5629
G2 X152.1082 Y212.1141 I0.325 J-0.5629
G2 X151.5861 Y211.4768 I-0.65 J0.0
G0 Z3.0
G0 X151.4635 Y226.4641
G1 F300.0 Z-1.0
G2 F800.0 X151.1332 Y226.5512 I-0.0053 J0.65
G2 Y227.677 I0.325 J0.5629
G2 X152.1082 Y227.1141 I0.325 J-0.5629
G2 X151.4635 Y226.4641 I-0.65 J0.0
G1 F300.0 Z-2.0
G2 F800.0 X151.1332 Y226.5512 I-0.0053 J0.65
G2 Y227.677 I0.325 J0.5629
G2 X152.1082 Y227.1141 I0.325 J-0.5629
G2 X151.4635 Y226.4641 I-0.65 J0.0
G1 F300.0 Z-3.0
G2 F800.0 X151.1332 Y226.5512 I-0.0053 J0.65
G2 Y227.677 I0.325 J0.5629
G2 X152.1082 Y227.1141 I0.325 J-0.5629
G2 X151.4635 Y226.4641 I-0.65 J0.0
G1 F300.0 Z-4.0
G2 F800.0 X151.1332 Y226.5512 I-0.0053 J0.65
G2 Y227.677 I0.325 J0.5629
G2 X152.1082 Y227.1141 I0.325 J-0.5629
G2 X151.4635 Y226.4641 I-0.65 J0.0
G1 F300.0 Z-5.0
G2 F800.0 X151.1332 Y226.5512 I-0.0053 J0.65
G2 Y227.677 I0.325 J0.5629
G2 X152.1082 Y227.1141 I0.325 J-0.5629
G2 X151.4635 Y226.4641 I-0.65 J0.0
G1 F300.0 Z-6.0
G2 F800.0 X151.1332 Y226.5512 I-0.0053 J0.65
G2 Y227.677 I0.325 J0.5629
G2 X152.1082 Y227.1141 I0.325 J-0.5629
G2 X151.4635 Y226.4641 I-0.65 J0.0
G0 Z3.0
G0 X110.1062 Y209.4921
G1 F300.0 Z-1.0
G2 F800.0 X110.1624 Y209.2074 I-0.6938 J-0.2847
G2 X109.0374 Y208.5579 I-0.75 J0.0
G2 Y209.8569 I0.375 J0.6495
G2 X110.1062 Y209.4921 I0.375 J-0.6495
G1 F300.0 Z-2.0
G2 F800.0 X110.1624 Y209.2074 I-0.6938 J-0.2847
G2 X109.0374 Y208.5579 I-0.75 J0.0
G2 Y209.8569 I0.375 J0.6495
G2 X110.1062 Y209.4921 I0.375 J-0.6495
G1 F300.0 Z-3.0
G2 F800.0 X110.1624 Y209.2074 I-0.6938 J-0.2847
G2 X109.0374 Y208.5579 I-0.75 J0.0
G2 Y209.8569 I0.375 J0.6495
G2 X110.1062 Y209.4921 I0.375 J-0.6495
G1 F300.0 Z-4.0
G2 F800.0 X110.1624 Y209.2074 I-0.6938 J-0.2847
G2 X109.0374 Y208.5579 I-0.75 J0.0
G2 Y209.8569 I0.375 J0.6495
G2 X110.1062 Y209.4921 I0.375 J-0.6495
G1 F300.0 Z-5.0
G2 F800.0 X110.1624 Y209.2074 I-0.6938 J-0.2847
G2 X109.0374 Y208.5579 I-0.75 J0.0
G2 Y209.8569 I0.375 J0.6495
G2 X110.1062 Y209.4921 I0.375 J-0.6495
G1 F300.0 Z-6.0
G2 F800.0 X110.1624 Y209.2074 I-0.6938 J-0.2847
G2 X109.0374 Y208.5579 I-0.75 J0.0
G2 Y209.8569 I0.375 J0.6495
G2 X110.1062 Y209.4921 I0.375 J-0.6495
G0 Z3.0
G0 X110.7856 Y175.2603
G1 F300.0 Z-1.0
G2 F800.0 X111.5505 Y174.5104 I0.0149 J-0.7499
G2 X110.4255 Y173.8609 I-0.75 J0.0
G2 Y175.1599 I0.375 J0.6495
G2 X110.7856 Y175.2603 I0.375 J-0.6495
G1 F300.0 Z-2.0
G2 F800.0 X111.5505 Y174.5104 I0.0149 J-0.7499
G2 X110.4255 Y173.8609 I-0.75 J0.0
G2 Y175.1599 I0.375 J0.6495
G2 X110.7856 Y175.2603 I0.375 J-0.6495
G1 F300.0 Z-3.0
G2 F800.0 X111.5505 Y174.5104 I0.0149 J-0.7499
G2 X110.4255 Y173.8609 I-0.75 J0.0
G2 Y175.1599 I0.375 J0.6495
G2 X110.7856 Y175.2603 I0.375 J-0.6495
G1 F300.0 Z-4.0
G2 F800.0 X111.5505 Y174.5104 I0.0149 J-0.7499
G2 X110.4255 Y173.8609 I-0.75 J0.0
G2 Y175.1599 I0.375 J0.6495
G2 X110.7856 Y175.2603 I0.375 J-0.6495
G1 F300.0 Z-5.0
G2 F800.0 X111.5505 Y174.5104 I0.0149 J-0.7499
G2 X110.4255 Y173.8609 I-0.75 J0.0
G2 Y175.1599 I0.375 J0.6495
G2 X110.7856 Y175.2603 I0.375 J-0.6495
G1 F300.0 Z-6.0
G2 F800.0 X111.5505 Y174.5104 I0.0149 J-0.7499
G2 X110.4255 Y173.8609 I-0.75 J0.0
G2 Y175.1599 I0.375 J0.6495
G2 X110.7856 Y175.2603 I0.375 J-0.6495
G0 Z3.0
G0 X133.8951 Y152.9694
G1 F300.0 Z-1.0
G2 F800.0 X134.6092 Y153.5277 I2.3392 J-2.2563
G2 X139.4842 Y150.7131 I1.625 J-2.8146
G2 X134.6092 Y147.8985 I-3.25 J0.0
G2 X133.8951 Y152.9694 I1.625 J2.8146
G1 F300.0 Z-2.0
G2 F800.0 X134.6092 Y153.5277 I2.3392 J-2.2563
G2 X139.4842 Y150.7131 I1.625 J-2.8146
G2 X134.6092 Y147.8985 I-3.25 J0.0
G2 X133.8951 Y152.9694 I1.625 J2.8146
G1 F300.0 Z-3.0
G2 F800.0 X134.6092 Y153.5277 I2.3392 J-2.2563
G2 X139.4842 Y150.7131 I1.625 J-2.8146
G2 X134.6092 Y147.8985 I-3.25 J0.0
G2 X133.8951 Y152.9694 I1.625 J2.8146
G1 F300.0 Z-4.0
G2 F800.0 X134.6092 Y153.5277 I2.3392 J-2.2563
G2 X139.4842 Y150.7131 I1.625 J-2.8146
G2 X134.6092 Y147.8985 I-3.25 J0.0
G2 X133.8951 Y152.9694 I1.625 J2.8146
G1 F300.0 Z-5.0
G2 F800.0 X134.6092 Y153.5277 I2.3392 J-2.2563
G2 X139.4842 Y150.7131 I1.625 J-2.8146
G2 X134.6092 Y147.8985 I-3.25 J0.0
G2 X133.8951 Y152.9694 I1.625 J2.8146
G1 F300.0 Z-6.0
G2 F800.0 X134.6092 Y153.5277 I2.3392 J-2.2563
G2 X139.4842 Y150.7131 I1.625 J-2.8146
G2 X134.6092 Y147.8985 I-3.25 J0.0
G2 X133.8951 Y152.9694 I1.625 J2.8146
G0 Z3.0
G0 X160.4667 Y145.438
G1 F300.0 Z-1.0
G2 F800.0 X161.8068 Y147.1586 I2.7901 J-0.7908
G2 X166.1568 Y144.6472 I1.45 J-2.5115
G2 X161.8068 Y142.1357 I-2.9 J0.0
G2 X160.4667 Y145.438 I1.45 J2.5115
G1 F300.0 Z-2.0
G2 F800.0 X161.8068 Y147.1586 I2.7901 J-0.7908
G2 X166.1568 Y144.6472 I1.45 J-2.5115
G2 X161.8068 Y142.1357 I-2.9 J0.0
G2 X160.4667 Y145.438 I1.45 J2.5115
G1 F300.0 Z-3.0
G2 F800.0 X161.8068 Y147.1586 I2.7901 J-0.7908
G2 X166.1568 Y144.6472 I1.45 J-2.5115
G2 X161.8068 Y142.1357 I-2.9 J0.0
G2 X160.4667 Y145.438 I1.45 J2.5115
G1 F300.0 Z-4.0
G2 F800.0 X161.8068 Y147.1586 I2.7901 J-0.7908
G2 X166.1568 Y144.6472 I1.45 J-2.5115
G2 X161.8068 Y142.1357 I-2.9 J0.0
G2 X160.4667 Y145.438 I1.45 J2.5115
G1 F300.0 Z-5.0
G2 F800.0 X161.8068 Y147.1586 I2.7901 J-0.7908
G2 X166.1568 Y144.6472 I1.45 J-2.5115
G2 X161.8068 Y142.1357 I-2.9 J0.0
G2 X160.4667 Y145.438 I1.45 J2.5115
G1 F300.0 Z-6.0
G2 F800.0 X161.8068 Y147.1586 I2.7901 J-0.7908
G2 X166.1568 Y144.6472 I1.45 J-2.5115
G2 X161.8068 Y142.1357 I-2.9 J0.0
G2 X160.4667 Y145.438 I1.45 J2.5115
G0 Z3.0
G0 X163.1292 Y158.7373
G1 F300.0 Z-1.0
G2 F800.0 X162.9318 Y158.8118 I0.1276 J0.6374
G2 Y159.9376 I0.325 J0.5629
G2 X163.9068 Y159.3747 I0.325 J-0.5629
G2 X163.1292 Y158.7373 I-0.65 J0.0
G1 F300.0 Z-2.0
G2 F800.0 X162.9318 Y158.8118 I0.1276 J0.6374
G2 Y159.9376 I0.325 J0.5629
G2 X163.9068 Y159.3747 I0.325 J-0.5629
G2 X163.1292 Y158.7373 I-0.65 J0.0
G1 F300.0 Z-3.0
G2 F800.0 X162.9318 Y158.8118 I0.1276 J0.6374
G2 Y159.9376 I0.325 J0.5629
G2 X163.9068 Y159.3747 I0.325 J-0.5629
G2 X163.1292 Y158.7373 I-0.65 J0.0
G1 F300.0 Z-4.0
G2 F800.0 X162.9318 Y158.8118 I0.1276 J0.6374
G2 Y159.9376 I0.325 J0.5629
G2 X163.9068 Y159.3747 I0.325 J-0.5629
G2 X163.1292 Y158.7373 I-0.65 J0.0
G1 F300.0 Z-5.0
G2 F800.0 X162.9318 Y158.8118 I0.1276 J0.6374
G2 Y159.9376 I0.325 J0.5629
G2 X163.9068 Y159.3747 I0.325 J-0.5629
G2 X163.1292 Y158.7373 I-0.65 J0.0
G1 F300.0 Z-6.0
G2 F800.0 X162.9318 Y158.8118 I0.1276 J0.6374
G2 Y159.9376 I0.325 J0.5629
G2 X163.9068 Y159.3747 I0.325 J-0.5629
G2 X163.1292 Y158.7373 I-0.65 J0.0
G0 Z3.0
G0 X163.2515 Y173.7247
G1 F300.0 Z-1.0
G2 F800.0 X162.9318 Y173.8118 I0.0053 J0.65
G2 Y174.9376 I0.325 J0.5629
G2 X163.9068 Y174.3747 I0.325 J-0.5629
G2 X163.2515 Y173.7247 I-0.65 J0.0
G1 F300.0 Z-2.0
G2 F800.0 X162.9318 Y173.8118 I0.0053 J0.65
G2 Y174.9376 I0.325 J0.5629
G2 X163.9068 Y174.3747 I0.325 J-0.5629
G2 X163.2515 Y173.7247 I-0.65 J0.0
G1 F300.0 Z-3.0
G2 F800.0 X162.9318 Y173.8118 I0.0053 J0.65
G2 Y174.9376 I0.325 J0.5629
G2 X163.9068 Y174.3747 I0.325 J-0.5629
G2 X163.2515 Y173.7247 I-0.65 J0.0
G1 F300.0 Z-4.0
G2 F800.0 X162.9318 Y173.8118 I0.0053 J0.65
G2 Y174.9376 I0.325 J0.5629
G2 X163.9068 Y174.3747 I0.325 J-0.5629
G2 X163.2515 Y173.7247 I-0.65 J0.0
G1 F300.0 Z-5.0
G2 F800.0 X162.9318 Y173.8118 I0.0053 J0.65
G2 Y174.9376 I0.325 J0.5629
G2 X163.9068 Y174.3747 I0.325 J-0.5629
G2 X163.2515 Y173.7247 I-0.65 J0.0
G1 F300.0 Z-6.0
G2 F800.0 X162.9318 Y173.8118 I0.0053 J0.65
G2 Y174.9376 I0.325 J0.5629
G2 X163.9068 Y174.3747 I0.325 J-0.5629
G2 X163.2515 Y173.7247 I-0.65 J0.0
G0 Z3.0
G0 X187.1799 Y150.2896
G1 F300.0 Z-1.0
G2 F800.0 X187.8768 Y150.8302 I2.3219 J-2.274
G2 X192.7518 Y148.0156 I1.625 J-2.8146
G2 X187.8768 Y145.201 I-3.25 J0.0
G2 X187.1799 Y150.2896 I1.625 J2.8146
G1 F300.0 Z-2.0
G2 F800.0 X187.8768 Y150.8302 I2.3219 J-2.274
G2 X192.7518 Y148.0156 I1.625 J-2.8146
G2 X187.8768 Y145.201 I-3.25 J0.0
G2 X187.1799 Y150.2896 I1.625 J2.8146
G1 F300.0 Z-3.0
G2 F800.0 X187.8768 Y150.8302 I2.3219 J-2.274
G2 X192.7518 Y148.0156 I1.625 J-2.8146
G2 X187.8768 Y145.201 I-3.25 J0.0
G2 X187.1799 Y150.2896 I1.625 J2.8146
G1 F300.0 Z-4.0
G2 F800.0 X187.8768 Y150.8302 I2.3219 J-2.274
G2 X192.7518 Y148.0156 I1.625 J-2.8146
G2 X187.8768 Y145.201 I-3.25 J0.0
G2 X187.1799 Y150.2896 I1.625 J2.8146
G1 F300.0 Z-5.0
G2 F800.0 X187.8768 Y150.8302 I2.3219 J-2.274
G2 X192.7518 Y148.0156 I1.625 J-2.8146
G2 X187.8768 Y145.201 I-3.25 J0.0
G2 X187.1799 Y150.2896 I1.625 J2.8146
G1 F300.0 Z-6.0
G2 F800.0 X187.8768 Y150.8302 I2.3219 J-2.274
G2 X192.7518 Y148.0156 I1.625 J-2.8146
G2 X187.8768 Y145.201 I-3.25 J0.0
G2 X187.1799 Y150.2896 I1.625 J2.8146
G0 Z3.0
G0 X163.0041 Y31.811
G1 F300.0 Z-1.0
G2 F800.0 X163.3441 Y31.3946 I-0.085 J-0.4164
G2 X162.7066 Y31.0266 I-0.425 J0.0
G2 Y31.7627 I0.2125 J0.3681
G2 X163.0041 Y31.811 I0.2125 J-0.3681
G1 F300.0 Z-2.0
G2 F800.0 X163.3441 Y31.3946 I-0.085 J-0.4164
G2 X162.7066 Y31.0266 I-0.425 J0.0
G2 Y31.7627 I0.2125 J0.3681
G2 X163.0041 Y31.811 I0.2125 J-0.3681
G1 F300.0 Z-3.0
G2 F800.0 X163.3441 Y31.3946 I-0.085 J-0.4164
G2 X162.7066 Y31.0266 I-0.425 J0.0
G2 Y31.7627 I0.2125 J0.3681
G2 X163.0041 Y31.811 I0.2125 J-0.3681
G1 F300.0 Z-4.0
G2 F800.0 X163.3441 Y31.3946 I-0.085 J-0.4164
G2 X162.7066 Y31.0266 I-0.425 J0.0
G2 Y31.7627 I0.2125 J0.3681
G2 X163.0041 Y31.811 I0.2125 J-0.3681
G1 F300.0 Z-5.0
G2 F800.0 X163.3441 Y31.3946 I-0.085 J-0.4164
G2 X162.7066 Y31.0266 I-0.425 J0.0
G2 Y31.7627 I0.2125 J0.3681
G2 X163.0041 Y31.811 I0.2125 J-0.3681
G1 F300.0 Z-6.0
G2 F800.0 X163.3441 Y31.3946 I-0.085 J-0.4164
G2 X162.7066 Y31.0266 I-0.425 J0.0
G2 Y31.7627 I0.2125 J0.3681
G2 X163.0041 Y31.811 I0.2125 J-0.3681
G0 Z3.0
G0 X147.3439 Y31.4056
G1 F300.0 Z-1.0
G2 F800.0 X147.3441 Y31.3946 I-0.4249 J-0.011
G2 X146.7066 Y31.0266 I-0.425 J0.0
G2 Y31.7627 I0.2125 J0.3681
G2 X147.3439 Y31.4056 I0.2125 J-0.3681
G1 F300.0 Z-2.0
G2 F800.0 X147.3441 Y31.3946 I-0.4249 J-0.011
G2 X146.7066 Y31.0266 I-0.425 J0.0
G2 Y31.7627 I0.2125 J0.3681
G2 X147.3439 Y31.4056 I0.2125 J-0.3681
G1 F300.0 Z-3.0
G2 F800.0 X147.3441 Y31.3946 I-0.4249 J-0.011
G2 X146.7066 Y31.0266 I-0.425 J0.0
G2 Y31.7627 I0.2125 J0.3681
G2 X147.3439 Y31.4056 I0.2125 J-0.3681
G1 F300.0 Z-4.0
G2 F800.0 X147.3441 Y31.3946 I-0.4249 J-0.011
G2 X146.7066 Y31.0266 I-0.425 J0.0
G2 Y31.7627 I0.2125 J0.3681
G2 X147.3439 Y31.4056 I0.2125 J-0.3681
G1 F300.0 Z-5.0
G2 F800.0 X147.3441 Y31.3946 I-0.4249 J-0.011
G2 X146.7066 Y31.0266 I-0.425 J0.0
G2 Y31.7627 I0.2125 J0.3681
G2 X147.3439 Y31.4056 I0.2125 J-0.3681
G1 F300.0 Z-6.0
G2 F800.0 X147.3441 Y31.3946 I-0.4249 J-0.011
G2 X146.7066 Y31.0266 I-0.425 J0.0
G2 Y31.7627 I0.2125 J0.3681
G2 X147.3439 Y31.4056 I0.2125 J-0.3681
G0 Z3.0
G0 X146.9304 Y15.8195
G1 F300.0 Z-1.0
G2 F800.0 X147.3441 Y15.3946 I-0.0113 J-0.4249
G2 X146.7066 Y15.0266 I-0.425 J0.0
G2 Y15.7627 I0.2125 J0.3681
G2 X146.9304 Y15.8195 I0.2125 J-0.3681
G1 F300.0 Z-2.0
G2 F800.0 X147.3441 Y15.3946 I-0.0113 J-0.4249
G2 X146.7066 Y15.0266 I-0.425 J0.0
G2 Y15.7627 I0.2125 J0.3681
G2 X146.9304 Y15.8195 I0.2125 J-0.3681
G1 F300.0 Z-3.0
G2 F800.0 X147.3441 Y15.3946 I-0.0113 J-0.4249
G2 X146.7066 Y15.0266 I-0.425 J0.0
G2 Y15.7627 I0.2125 J0.3681
G2 X146.9304 Y15.8195 I0.2125 J-0.3681
G1 F300.0 Z-4.0
G2 F800.0 X147.3441 Y15.3946 I-0.0113 J-0.4249
G2 X146.7066 Y15.0266 I-0.425 J0.0
G2 Y15.7627 I0.2125 J0.3681
G2 X146.9304 Y15.8195 I0.2125 J-0.3681
G1 F300.0 Z-5.0
G2 F800.0 X147.3441 Y15.3946 I-0.0113 J-0.4249
G2 X146.7066 Y15.0266 I-0.425 J0.0
G2 Y15.7627 I0.2125 J0.3681
G2 X146.9304 Y15.8195 I0.2125 J-0.3681
G1 F300.0 Z-6.0
G2 F800.0 X147.3441 Y15.3946 I-0.0113 J-0.4249
G2 X146.7066 Y15.0266 I-0.425 J0.0
G2 Y15.7627 I0.2125 J0.3681
G2 X146.9304 Y15.8195 I0.2125 J-0.3681
G0 Z3.0
G0 X162.4942 Y15.4059
G1 F300.0 Z-1.0
G2 F800.0 X162.7066 Y15.7627 I0.4249 J-0.0113
G2 X163.3441 Y15.3946 I0.2125 J-0.3681
G2 X162.7066 Y15.0266 I-0.425 J0.0
G2 X162.4942 Y15.4059 I0.2125 J0.3681
G1 F300.0 Z-2.0
G2 F800.0 X162.7066 Y15.7627 I0.4249 J-0.0113
G2 X163.3441 Y15.3946 I0.2125 J-0.3681
G2 X162.7066 Y15.0266 I-0.425 J0.0
G2 X162.4942 Y15.4059 I0.2125 J0.3681
G1 F300.0 Z-3.0
G2 F800.0 X162.7066 Y15.7627 I0.4249 J-0.0113
G2 X163.3441 Y15.3946 I0.2125 J-0.3681
G2 X162.7066 Y15.0266 I-0.425 J0.0
G2 X162.4942 Y15.4059 I0.2125 J0.3681
G1 F300.0 Z-4.0
G2 F800.0 X162.7066 Y15.7627 I0.4249 J-0.0113
G2 X163.3441 Y15.3946 I0.2125 J-0.3681
G2 X162.7066 Y15.0266 I-0.425 J0.0
G2 X162.4942 Y15.4059 I0.2125 J0.3681
G1 F300.0 Z-5.0
G2 F800.0 X162.7066 Y15.7627 I0.4249 J-0.0113
G2 X163.3441 Y15.3946 I0.2125 J-0.3681
G2 X162.7066 Y15.0266 I-0.425 J0.0
G2 X162.4942 Y15.4059 I0.2125 J0.3681
G1 F300.0 Z-6.0
G2 F800.0 X162.7066 Y15.7627 I0.4249 J-0.0113
G2 X163.3441 Y15.3946 I0.2125 J-0.3681
G2 X162.7066 Y15.0266 I-0.425 J0.0
G2 X162.4942 Y15.4059 I0.2125 J0.3681
G0 Z3.0
G0 X67.3441 Y15.3947
G1 F300.0 Z-1.0
G1 F800.0 Y15.3946
G2 X66.7066 Y15.0266 I-0.425 J0.0
G2 Y15.7627 I0.2125 J0.3681
G2 X67.3441 Y15.3947 I0.2125 J-0.3681
G1 F300.0 Z-2.0
G1 F800.0 Y15.3946
G2 X66.7066 Y15.0266 I-0.425 J0.0
G2 Y15.7627 I0.2125 J0.3681
G2 X67.3441 Y15.3947 I0.2125 J-0.3681
G1 F300.0 Z-3.0
G1 F800.0 Y15.3946
G2 X66.7066 Y15.0266 I-0.425 J0.0
G2 Y15.7627 I0.2125 J0.3681
G2 X67.3441 Y15.3947 I0.2125 J-0.3681
G1 F300.0 Z-4.0
G1 F800.0 Y15.3946
G2 X66.7066 Y15.0266 I-0.425 J0.0
G2 Y15.7627 I0.2125 J0.3681
G2 X67.3441 Y15.3947 I0.2125 J-0.3681
G1 F300.0 Z-5.0
G1 F800.0 Y15.3946
G2 X66.7066 Y15.0266 I-0.425 J0.0
G2 Y15.7627 I0.2125 J0.3681
G2 X67.3441 Y15.3947 I0.2125 J-0.3681
G1 F300.0 Z-6.0
G1 F800.0 Y15.3946
G2 X66.7066 Y15.0266 I-0.425 J0.0
G2 Y15.7627 I0.2125 J0.3681
G2 X67.3441 Y15.3947 I0.2125 J-0.3681
G0 Z3.0
G0 X66.9304 Y30.9698
G1 F300.0 Z-1.0
G2 F800.0 X66.7066 Y31.0266 I-0.0113 J0.4249
G2 Y31.7627 I0.2125 J0.3681
G2 X67.3441 Y31.3946 I0.2125 J-0.3681
G2 X66.9304 Y30.9698 I-0.425 J0.0
G1 F300.0 Z-2.0
G2 F800.0 X66.7066 Y31.0266 I-0.0113 J0.4249
G2 Y31.7627 I0.2125 J0.3681
G2 X67.3441 Y31.3946 I0.2125 J-0.3681
G2 X66.9304 Y30.9698 I-0.425 J0.0
G1 F300.0 Z-3.0
G2 F800.0 X66.7066 Y31.0266 I-0.0113 J0.4249
G2 Y31.7627 I0.2125 J0.3681
G2 X67.3441 Y31.3946 I0.2125 J-0.3681
G2 X66.9304 Y30.9698 I-0.425 J0.0
G1 F300.0 Z-4.0
G2 F800.0 X66.7066 Y31.0266 I-0.0113 J0.4249
G2 Y31.7627 I0.2125 J0.3681
G2 X67.3441 Y31.3946 I0.2125 J-0.3681
G2 X66.9304 Y30.9698 I-0.425 J0.0
G1 F300.0 Z-5.0
G2 F800.0 X66.7066 Y31.0266 I-0.0113 J0.4249
G2 Y31.7627 I0.2125 J0.3681
G2 X67.3441 Y31.3946 I0.2125 J-0.3681
G2 X66.9304 Y30.9698 I-0.425 J0.0
G1 F300.0 Z-6.0
G2 F800.0 X66.7066 Y31.0266 I-0.0113 J0.4249
G2 Y31.7627 I0.2125 J0.3681
G2 X67.3441 Y31.3946 I0.2125 J-0.3681
G2 X66.9304 Y30.9698 I-0.425 J0.0
G0 Z3.0
G0 X51.3439 Y31.3833
G1 F300.0 Z-1.0
G2 F800.0 X50.7066 Y31.0266 I-0.4249 J0.0113
G2 Y31.7627 I0.2125 J0.3681
G2 X51.3441 Y31.3946 I0.2125 J-0.3681
G2 X51.3439 Y31.3833 I-0.425 J0.0
G1 F300.0 Z-2.0
G2 F800.0 X50.7066 Y31.0266 I-0.4249 J0.0113
G2 Y31.7627 I0.2125 J0.3681
G2 X51.3441 Y31.3946 I0.2125 J-0.3681
G2 X51.3439 Y31.3833 I-0.425 J0.0
G1 F300.0 Z-3.0
G2 F800.0 X50.7066 Y31.0266 I-0.4249 J0.0113
G2 Y31.7627 I0.2125 J0.3681
G2 X51.3441 Y31.3946 I0.2125 J-0.3681
G2 X51.3439 Y31.3833 I-0.425 J0.0
G1 F300.0 Z-4.0
G2 F800.0 X50.7066 Y31.0266 I-0.4249 J0.0113
G2 Y31.7627 I0.2125 J0.3681
G2 X51.3441 Y31.3946 I0.2125 J-0.3681
G2 X51.3439 Y31.3833 I-0.425 J0.0
G1 F300.0 Z-5.0
G2 F800.0 X50.7066 Y31.0266 I-0.4249 J0.0113
G2 Y31.7627 I0.2125 J0.3681
G2 X51.3441 Y31.3946 I0.2125 J-0.3681
G2 X51.3439 Y31.3833 I-0.425 J0.0
G1 F300.0 Z-6.0
G2 F800.0 X50.7066 Y31.0266 I-0.4249 J0.0113
G2 Y31.7627 I0.2125 J0.3681
G2 X51.3441 Y31.3946 I0.2125 J-0.3681
G2 X51.3439 Y31.3833 I-0.425 J0.0
G0 Z3.0
G0 X50.9304 Y15.8195
G1 F300.0 Z-1.0
G2 F800.0 X51.3441 Y15.3946 I-0.0113 J-0.4249
G2 X50.7066 Y15.0266 I-0.425 J0.0
G2 Y15.7627 I0.2125 J0.3681
G2 X50.9304 Y15.8195 I0.2125 J-0.3681
G1 F300.0 Z-2.0
G2 F800.0 X51.3441 Y15.3946 I-0.0113 J-0.4249
G2 X50.7066 Y15.0266 I-0.425 J0.0
G2 Y15.7627 I0.2125 J0.3681
G2 X50.9304 Y15.8195 I0.2125 J-0.3681
G1 F300.0 Z-3.0
G2 F800.0 X51.3441 Y15.3946 I-0.0113 J-0.4249
G2 X50.7066 Y15.0266 I-0.425 J0.0
G2 Y15.7627 I0.2125 J0.3681
G2 X50.9304 Y15.8195 I0.2125 J-0.3681
G1 F300.0 Z-4.0
G2 F800.0 X51.3441 Y15.3946 I-0.0113 J-0.4249
G2 X50.7066 Y15.0266 I-0.425 J0.0
G2 Y15.7627 I0.2125 J0.3681
G2 X50.9304 Y15.8195 I0.2125 J-0.3681
G1 F300.0 Z-5.0
G2 F800.0 X51.3441 Y15.3946 I-0.0113 J-0.4249
G2 X50.7066 Y15.0266 I-0.425 J0.0
G2 Y15.7627 I0.2125 J0.3681
G2 X50.9304 Y15.8195 I0.2125 J-0.3681
G1 F300.0 Z-6.0
G2 F800.0 X51.3441 Y15.3946 I-0.0113 J-0.4249
G2 X50.7066 Y15.0266 I-0.425 J0.0
G2 Y15.7627 I0.2125 J0.3681
G2 X50.9304 Y15.8195 I0.2125 J-0.3681
G0 Z3.0
G0 X13.8383 Y135.199
G1 F300.0 Z-1.0
G2 F800.0 X11.5278 Y135.4569 I-0.8605 J2.7694
G2 Y140.4799 I1.45 J2.5115
G2 X15.8778 Y137.9684 I1.45 J-2.5115
G2 X13.8383 Y135.199 I-2.9 J0.0
G1 F300.0 Z-2.0
G2 F800.0 X11.5278 Y135.4569 I-0.8605 J2.7694
G2 Y140.4799 I1.45 J2.5115
G2 X15.8778 Y137.9684 I1.45 J-2.5115
G2 X13.8383 Y135.199 I-2.9 J0.0
G1 F300.0 Z-3.0
G2 F800.0 X11.5278 Y135.4569 I-0.8605 J2.7694
G2 Y140.4799 I1.45 J2.5115
G2 X15.8778 Y137.9684 I1.45 J-2.5115
G2 X13.8383 Y135.199 I-2.9 J0.0
G1 F300.0 Z-4.0
G2 F800.0 X11.5278 Y135.4569 I-0.8605 J2.7694
G2 Y140.4799 I1.45 J2.5115
G2 X15.8778 Y137.9684 I1.45 J-2.5115
G2 X13.8383 Y135.199 I-2.9 J0.0
G1 F300.0 Z-5.0
G2 F800.0 X11.5278 Y135.4569 I-0.8605 J2.7694
G2 Y140.4799 I1.45 J2.5115
G2 X15.8778 Y137.9684 I1.45 J-2.5115
G2 X13.8383 Y135.199 I-2.9 J0.0
G1 F300.0 Z-6.0
G2 F800.0 X11.5278 Y135.4569 I-0.8605 J2.7694
G2 Y140.4799 I1.45 J2.5115
G2 X15.8778 Y137.9684 I1.45 J-2.5115
G2 X13.8383 Y135.199 I-2.9 J0.0
G0 Z3.0
G0 X13.0097 Y152.0467
G1 F300.0 Z-1.0
G2 F800.0 X12.6528 Y152.133 I-0.0319 J0.6492
G2 Y153.2588 I0.325 J0.5629
G2 X13.6278 Y152.6959 I0.325 J-0.5629
G2 X13.0097 Y152.0467 I-0.65 J0.0
G1 F300.0 Z-2.0
G2 F800.0 X12.6528 Y152.133 I-0.0319 J0.6492
G2 Y153.2588 I0.325 J0.5629
G2 X13.6278 Y152.6959 I0.325 J-0.5629
G2 X13.0097 Y152.0467 I-0.65 J0.0
G1 F300.0 Z-3.0
G2 F800.0 X12.6528 Y152.133 I-0.0319 J0.6492
G2 Y153.2588 I0.325 J0.5629
G2 X13.6278 Y152.6959 I0.325 J-0.5629
G2 X13.0097 Y152.0467 I-0.65 J0.0
G1 F300.0 Z-4.0
G2 F800.0 X12.6528 Y152.133 I-0.0319 J0.6492
G2 Y153.2588 I0.325 J0.5629
G2 X13.6278 Y152.6959 I0.325 J-0.5629
G2 X13.0097 Y152.0467 I-0.65 J0.0
G1 F300.0 Z-5.0
G2 F800.0 X12.6528 Y152.133 I-0.0319 J0.6492
G2 Y153.2588 I0.325 J0.5629
G2 X13.6278 Y152.6959 I0.325 J-0.5629
G2 X13.0097 Y152.0467 I-0.65 J0.0
G1 F300.0 Z-6.0
G2 F800.0 X12.6528 Y152.133 I-0.0319 J0.6492
G2 Y153.2588 I0.325 J0.5629
G2 X13.6278 Y152.6959 I0.325 J-0.5629
G2 X13.0097 Y152.0467 I-0.65 J0.0
G0 Z3.0
G0 X12.9791 Y167.0459
G1 F300.0 Z-1.0
G2 F800.0 X12.6528 Y167.133 I-0.0013 J0.65
G2 Y168.2588 I0.325 J0.5629
G2 X13.6278 Y167.6959 I0.325 J-0.5629
G2 X12.9791 Y167.0459 I-0.65 J0.0
G1 F300.0 Z-2.0
G2 F800.0 X12.6528 Y167.133 I-0.0013 J0.65
G2 Y168.2588 I0.325 J0.5629
G2 X13.6278 Y167.6959 I0.325 J-0.5629
G2 X12.9791 Y167.0459 I-0.65 J0.0
G1 F300.0 Z-3.0
G2 F800.0 X12.6528 Y167.133 I-0.0013 J0.65
G2 Y168.2588 I0.325 J0.5629
G2 X13.6278 Y167.6959 I0.325 J-0.5629
G2 X12.9791 Y167.0459 I-0.65 J0.0
G1 F300.0 Z-4.0
G2 F800.0 X12.6528 Y167.133 I-0.0013 J0.65
G2 Y168.2588 I0.325 J0.5629
G2 X13.6278 Y167.6959 I0.325 J-0.5629
G2 X12.9791 Y167.0459 I-0.65 J0.0
G1 F300.0 Z-5.0
G2 F800.0 X12.6528 Y167.133 I-0.0013 J0.65
G2 Y168.2588 I0.325 J0.5629
G2 X13.6278 Y167.6959 I0.325 J-0.5629
G2 X12.9791 Y167.0459 I-0.65 J0.0
G1 F300.0 Z-6.0
G2 F800.0 X12.6528 Y167.133 I-0.0013 J0.65
G2 Y168.2588 I0.325 J0.5629
G2 X13.6278 Y167.6959 I0.325 J-0.5629
G2 X12.9791 Y167.0459 I-0.65 J0.0
G0 Z3.0
G0 X37.3217 Y174.2963
G1 F300.0 Z-1.0
G2 F800.0 X37.6655 Y175.1599 I0.7188 J0.2141
G2 X38.7905 Y174.5104 I0.375 J-0.6495
G2 X37.6655 Y173.8609 I-0.75 J0.0
G2 X37.3217 Y174.2963 I0.375 J0.6495
G1 F300.0 Z-2.0
G2 F800.0 X37.6655 Y175.1599 I0.7188 J0.2141
G2 X38.7905 Y174.5104 I0.375 J-0.6495
G2 X37.6655 Y173.8609 I-0.75 J0.0
G2 X37.3217 Y174.2963 I0.375 J0.6495
G1 F300.0 Z-3.0
G2 F800.0 X37.6655 Y175.1599 I0.7188 J0.2141
G2 X38.7905 Y174.5104 I0.375 J-0.6495
G2 X37.6655 Y173.8609 I-0.75 J0.0
G2 X37.3217 Y174.2963 I0.375 J0.6495
G1 F300.0 Z-4.0
G2 F800.0 X37.6655 Y175.1599 I0.7188 J0.2141
G2 X38.7905 Y174.5104 I0.375 J-0.6495
G2 X37.6655 Y173.8609 I-0.75 J0.0
G2 X37.3217 Y174.2963 I0.375 J0.6495
G1 F300.0 Z-5.0
G2 F800.0 X37.6655 Y175.1599 I0.7188 J0.2141
G2 X38.7905 Y174.5104 I0.375 J-0.6495
G2 X37.6655 Y173.8609 I-0.75 J0.0
G2 X37.3217 Y174.2963 I0.375 J0.6495
G1 F300.0 Z-6.0
G2 F800.0 X37.6655 Y175.1599 I0.7188 J0.2141
G2 X38.7905 Y174.5104 I0.375 J-0.6495
G2 X37.6655 Y173.8609 I-0.75 J0.0
G2 X37.3217 Y174.2963 I0.375 J0.6495
G0 Z3.0
G0 X36.6668 Y208.4575
G1 F300.0 Z-1.0
G2 F800.0 X36.2774 Y208.5579 I-0.0144 J0.7499
G2 Y209.8569 I0.375 J0.6495
G2 X37.4024 Y209.2074 I0.375 J-0.6495
G2 X36.6668 Y208.4575 I-0.75 J0.0
G1 F300.0 Z-2.0
G2 F800.0 X36.2774 Y208.5579 I-0.0144 J0.7499
G2 Y209.8569 I0.375 J0.6495
G2 X37.4024 Y209.2074 I0.375 J-0.6495
G2 X36.6668 Y208.4575 I-0.75 J0.0
G1 F300.0 Z-3.0
G2 F800.0 X36.2774 Y208.5579 I-0.0144 J0.7499
G2 Y209.8569 I0.375 J0.6495
G2 X37.4024 Y209.2074 I0.375 J-0.6495
G2 X36.6668 Y208.4575 I-0.75 J0.0
G1 F300.0 Z-4.0
G2 F800.0 X36.2774 Y208.5579 I-0.0144 J0.7499
G2 Y209.8569 I0.375 J0.6495
G2 X37.4024 Y209.2074 I0.375 J-0.6495
G2 X36.6668 Y208.4575 I-0.75 J0.0
G1 F300.0 Z-5.0
G2 F800.0 X36.2774 Y208.5579 I-0.0144 J0.7499
G2 Y209.8569 I0.375 J0.6495
G2 X37.4024 Y209.2074 I0.375 J-0.6495
G2 X36.6668 Y208.4575 I-0.75 J0.0
G1 F300.0 Z-6.0
G2 F800.0 X36.2774 Y208.5579 I-0.0144 J0.7499
G2 Y209.8569 I0.375 J0.6495
G2 X37.4024 Y209.2074 I0.375 J-0.6495
G2 X36.6668 Y208.4575 I-0.75 J0.0
( Contour3 )
S1000
G0 Z3.0
G0 X198.9676 Y272.1105
G1 F300.0 Z-1.0
G3 F800.0 X195.7426 Y273.9724 I-2.15 J0.0
G3 Y270.2485 I1.075 J-1.862
G3 X198.9676 Y272.1105 I1.075 J1.862
G1 F300.0 Z-2.0
G3 F800.0 X195.7426 Y273.9724 I-2.15 J0.0
G3 Y270.2485 I1.075 J-1.862
G3 X198.9676 Y272.1105 I1.075 J1.862
G1 F300.0 Z-3.0
G3 F800.0 X195.7426 Y273.9724 I-2.15 J0.0
G3 Y270.2485 I1.075 J-1.862
G3 X198.9676 Y272.1105 I1.075 J1.862
G0 Z3.0
G0 X197.1226 Y284.9822
G1 F300.0 Z-1.0
G3 F800.0 X198.9676 Y287.1105 I-0.305 J2.1282
G3 X195.7426 Y288.9724 I-2.15 J0.0
G3 Y285.2485 I1.075 J-1.862
G3 X197.1226 Y284.9822 I1.075 J1.862
G1 F300.0 Z-2.0
G3 F800.0 X198.9676 Y287.1105 I-0.305 J2.1282
G3 X195.7426 Y288.9724 I-2.15 J0.0
G3 Y285.2485 I1.075 J-1.862
G3 X197.1226 Y284.9822 I1.075 J1.862
G1 F300.0 Z-3.0
G3 F800.0 X198.9676 Y287.1105 I-0.305 J2.1282
G3 X195.7426 Y288.9724 I-2.15 J0.0
G3 Y285.2485 I1.075 J-1.862
G3 X197.1226 Y284.9822 I1.075 J1.862
G0 Z3.0
G0 X196.9279 Y222.9656
G1 F300.0 Z-1.0
G3 F800.0 X195.9468 Y222.7043 I-0.0061 J-1.95
G3 Y219.3268 I0.975 J-1.6887
G3 X198.8718 Y221.0156 I0.975 J1.6887
G3 X196.9279 Y222.9656 I-1.95 J0.0
G1 F300.0 Z-2.0
G3 F800.0 X195.9468 Y222.7043 I-0.0061 J-1.95
G3 Y219.3268 I0.975 J-1.6887
G3 X198.8718 Y221.0156 I0.975 J1.6887
G3 X196.9279 Y222.9656 I-1.95 J0.0
G1 F300.0 Z-3.0
G3 F800.0 X195.9468 Y222.7043 I-0.0061 J-1.95
G3 Y219.3268 I0.975 J-1.6887
G3 X198.8718 Y221.0156 I0.975 J1.6887
G3 X196.9279 Y222.9656 I-1.95 J0.0
G0 Z3.0
G0 X182.9374 Y221.2526
G1 F300.0 Z-1.0
G3 F800.0 X180.0268 Y222.7043 I-1.9355 J-0.237
G3 Y219.3268 I0.975 J-1.6887
G3 X182.9518 Y221.0156 I0.975 J1.6887
G3 X182.9374 Y221.2526 I-1.95 J0.0
G1 F300.0 Z-2.0
G3 F800.0 X180.0268 Y222.7043 I-1.9355 J-0.237
G3 Y219.3268 I0.975 J-1.6887
G3 X182.9518 Y221.0156 I0.975 J1.6887
G3 X182.9374 Y221.2526 I-1.95 J0.0
G1 F300.0 Z-3.0
G3 F800.0 X180.0268 Y222.7043 I-1.9355 J-0.237
G3 Y219.3268 I0.975 J-1.6887
G3 X182.9518 Y221.0156 I0.975 J1.6887
G3 X182.9374 Y221.2526 I-1.95 J0.0
G0 Z3.0
G0 X181.2326 Y206.9519
G1 F300.0 Z-1.0
G3 F800.0 X180.0268 Y206.7043 I-0.2308 J-1.9363
G3 Y203.3268 I0.975 J-1.6887
G3 X182.9518 Y205.0156 I0.975 J1.6887
G3 X181.2326 Y206.9519 I-1.95 J0.0
G1 F300.0 Z-2.0
G3 F800.0 X180.0268 Y206.7043 I-0.2308 J-1.9363
G3 Y203.3268 I0.975 J-1.6887
G3 X182.9518 Y205.0156 I0.975 J1.6887
G3 X181.2326 Y206.9519 I-1.95 J0.0
G1 F300.0 Z-3.0
G3 F800.0 X180.0268 Y206.7043 I-0.2308 J-1.9363
G3 Y203.3268 I0.975 J-1.6887
G3 X182.9518 Y205.0156 I0.975 J1.6887
G3 X181.2326 Y206.9519 I-1.95 J0.0
G0 Z3.0
G0 X194.9865 Y205.2544
G1 F300.0 Z-1.0
G3 F800.0 X195.9468 Y203.3268 I1.9353 J-0.2388
G3 X198.8718 Y205.0156 I0.975 J1.6887
G3 X195.9468 Y206.7043 I-1.95 J0.0
G3 X194.9865 Y205.2544 I0.975 J-1.6887
G1 F300.0 Z-2.0
G3 F800.0 X195.9468 Y203.3268 I1.9353 J-0.2388
G3 X198.8718 Y205.0156 I0.975 J1.6887
G3 X195.9468 Y206.7043 I-1.95 J0.0
G3 X194.9865 Y205.2544 I0.975 J-1.6887
G1 F300.0 Z-3.0
G3 F800.0 X195.9468 Y203.3268 I1.9353 J-0.2388
G3 X198.8718 Y205.0156 I0.975 J1.6887
G3 X195.9468 Y206.7043 I-1.95 J0.0
G3 X194.9865 Y205.2544 I0.975 J-1.6887
G0 Z3.0
G0 X153.582 Y211.7794
G1 F300.0 Z-1.0
G3 F800.0 X153.6082 Y212.1141 I-2.1238 J0.3347
G3 X150.3832 Y213.9761 I-2.15 J0.0
G3 Y210.2521 I1.075 J-1.862
G3 X153.582 Y211.7794 I1.075 J1.862
G1 F300.0 Z-2.0
G3 F800.0 X153.6082 Y212.1141 I-2.1238 J0.3347
G3 X150.3832 Y213.9761 I-2.15 J0.0
G3 Y210.2521 I1.075 J-1.862
G3 X153.582 Y211.7794 I1.075 J1.862
G1 F300.0 Z-3.0
G3 F800.0 X153.6082 Y212.1141 I-2.1238 J0.3347
G3 X150.3832 Y213.9761 I-2.15 J0.0
G3 Y210.2521 I1.075 J-1.862
G3 X153.582 Y211.7794 I1.075 J1.862
G0 Z3.0
G0 X151.7532 Y224.9844
G1 F300.0 Z-1.0
G3 F800.0 X153.6082 Y227.1141 I-0.295 J2.1297
G3 X150.3832 Y228.9761 I-2.15 J0.0
G3 Y225.2521 I1.075 J-1.862
G3 X151.7532 Y224.9844 I1.075 J1.862
G1 F300.0 Z-2.0
G3 F800.0 X153.6082 Y227.1141 I-0.295 J2.1297
G3 X150.3832 Y228.9761 I-2.15 J0.0
G3 Y225.2521 I1.075 J-1.862
G3 X151.7532 Y224.9844 I1.075 J1.862
G1 F300.0 Z-3.0
G3 F800.0 X153.6082 Y227.1141 I-0.295 J2.1297
G3 X150.3832 Y228.9761 I-2.15 J0.0
G3 Y225.2521 I1.075 J-1.862
G3 X151.7532 Y224.9844 I1.075 J1.862
G0 Z3.0
G0 X111.5208 Y209.993
G1 F300.0 Z-1.0
G3 F800.0 X108.2874 Y211.156 I-2.1084 J-0.7856
G3 Y207.2588 I1.125 J-1.9486
G3 X111.6624 Y209.2074 I1.125 J1.9486
G3 X111.5208 Y209.993 I-2.25 J0.0
G1 F300.0 Z-2.0
G3 F800.0 X108.2874 Y211.156 I-2.1084 J-0.7856
G3 Y207.2588 I1.125 J-1.9486
G3 X111.6624 Y209.2074 I1.125 J1.9486
G3 X111.5208 Y209.993 I-2.25 J0.0
G1 F300.0 Z-3.0
G3 F800.0 X108.2874 Y211.156 I-2.1084 J-0.7856
G3 Y207.2588 I1.125 J-1.9486
G3 X111.6624 Y209.2074 I1.125 J1.9486
G3 X111.5208 Y209.993 I-2.25 J0.0
G0 Z3.0
G0 X110.8461 Y176.7599
G1 F300.0 Z-1.0
G3 F800.0 X109.6755 Y176.459 I-0.0457 J-2.2495
G3 Y172.5619 I1.125 J-1.9486
G3 X113.0505 Y174.5104 I1.125 J1.9486
G3 X110.8461 Y176.7599 I-2.25 J0.0
G1 F300.0 Z-2.0
G3 F800.0 X109.6755 Y176.459 I-0.0457 J-2.2495
G3 Y172.5619 I1.125 J-1.9486
G3 X113.0505 Y174.5104 I1.125 J1.9486
G3 X110.8461 Y176.7599 I-2.25 J0.0
G1 F300.0 Z-3.0
G3 F800.0 X109.6755 Y176.459 I-0.0457 J-2.2495
G3 Y172.5619 I1.125 J-1.9486
G3 X113.0505 Y174.5104 I1.125 J1.9486
G3 X110.8461 Y176.7599 I-2.25 J0.0
G0 Z3.0
G0 X134.8894 Y159.6691
G1 F300.0 Z-1.0
G3 F800.0 X135.4092 Y157.2842 I1.3448 J-0.956
G3 X137.8842 Y158.7131 I0.825 J1.4289
G3 X135.4092 Y160.142 I-1.65 J0.0
G3 X134.8894 Y159.6691 I0.825 J-1.4289
G1 F300.0 Z-2.0
G3 F800.0 X135.4092 Y157.2842 I1.3448 J-0.956
G3 X137.8842 Y158.7131 I0.825 J1.4289
G3 X135.4092 Y160.142 I-1.65 J0.0
G3 X134.8894 Y159.6691 I0.825 J-1.4289
G1 F300.0 Z-3.0
G3 F800.0 X135.4092 Y157.2842 I1.3448 J-0.956
G3 X137.8842 Y158.7131 I0.825 J1.4289
G3 X135.4092 Y160.142 I-1.65 J0.0
G3 X134.8894 Y159.6691 I0.825 J-1.4289
G0 Z3.0
G0 X129.2184 Y152.0375
G1 F300.0 Z-1.0
G3 F800.0 X127.4092 Y152.142 I-0.9841 J-1.3244
G3 Y149.2842 I0.825 J-1.4289
G3 X129.8842 Y150.7131 I0.825 J1.4289
G3 X129.2184 Y152.0375 I-1.65 J0.0
G1 F300.0 Z-2.0
G3 F800.0 X127.4092 Y152.142 I-0.9841 J-1.3244
G3 Y149.2842 I0.825 J-1.4289
G3 X129.8842 Y150.7131 I0.825 J1.4289
G3 X129.2184 Y152.0375 I-1.65 J0.0
G1 F300.0 Z-3.0
G3 F800.0 X127.4092 Y152.142 I-0.9841 J-1.3244
G3 Y149.2842 I0.825 J-1.4289
G3 X129.8842 Y150.7131 I0.825 J1.4289
G3 X129.2184 Y152.0375 I-1.65 J0.0
G0 Z3.0
G0 X135.2422 Y144.0316
G1 F300.0 Z-1.0
G3 F800.0 X135.4092 Y141.2842 I0.992 J-1.3185
G3 X137.8842 Y142.7131 I0.825 J1.4289
G3 X135.4092 Y144.142 I-1.65 J0.0
G3 X135.2422 Y144.0316 I0.825 J-1.4289
G1 F300.0 Z-2.0
G3 F800.0 X135.4092 Y141.2842 I0.992 J-1.3185
G3 X137.8842 Y142.7131 I0.825 J1.4289
G3 X135.4092 Y144.142 I-1.65 J0.0
G3 X135.2422 Y144.0316 I0.825 J-1.4289
G1 F300.0 Z-3.0
G3 F800.0 X135.4092 Y141.2842 I0.992 J-1.3185
G3 X137.8842 Y142.7131 I0.825 J1.4289
G3 X135.4092 Y144.142 I-1.65 J0.0
G3 X135.2422 Y144.0316 I0.825 J-1.4289
G0 Z3.0
G0 X142.9098 Y149.729
G1 F300.0 Z-1.0
G3 F800.0 X143.4092 Y149.2842 I1.3244 J0.9841
G3 X145.8842 Y150.7131 I0.825 J1.4289
G3 X143.4092 Y152.142 I-1.65 J0.0
G3 X142.9098 Y149.729 I0.825 J-1.4289
G1 F300.0 Z-2.0
G3 F800.0 X143.4092 Y149.2842 I1.3244 J0.9841
G3 X145.8842 Y150.7131 I0.825 J1.4289
G3 X143.4092 Y152.142 I-1.65 J0.0
G3 X142.9098 Y149.729 I0.825 J-1.4289
G1 F300.0 Z-3.0
G3 F800.0 X143.4092 Y149.2842 I1.3244 J0.9841
G3 X145.8842 Y150.7131 I0.825 J1.4289
G3 X143.4092 Y152.142 I-1.65 J0.0
G3 X142.9098 Y149.729 I0.825 J-1.4289
G0 Z3.0
G0 X161.314 Y158.4537
G1 F300.0 Z-1.0
G3 F800.0 X162.1818 Y157.5127 I1.9428 J0.921
G3 X165.4068 Y159.3747 I1.075 J1.862
G3 X162.1818 Y161.2366 I-2.15 J0.0
G3 X161.314 Y158.4537 I1.075 J-1.862
G1 F300.0 Z-2.0
G3 F800.0 X162.1818 Y157.5127 I1.9428 J0.921
G3 X165.4068 Y159.3747 I1.075 J1.862
G3 X162.1818 Y161.2366 I-2.15 J0.0
G3 X161.314 Y158.4537 I1.075 J-1.862
G1 F300.0 Z-3.0
G3 F800.0 X162.1818 Y157.5127 I1.9428 J0.921
G3 X165.4068 Y159.3747 I1.075 J1.862
G3 X162.1818 Y161.2366 I-2.15 J0.0
G3 X161.314 Y158.4537 I1.075 J-1.862
G0 Z3.0
G0 X162.9964 Y172.2405
G1 F300.0 Z-1.0
G3 F800.0 X165.4068 Y174.3747 I0.2604 J2.1342
G3 X162.1818 Y176.2366 I-2.15 J0.0
G3 Y172.5127 I1.075 J-1.862
G3 X162.9964 Y172.2405 I1.075 J1.862
G1 F300.0 Z-2.0
G3 F800.0 X165.4068 Y174.3747 I0.2604 J2.1342
G3 X162.1818 Y176.2366 I-2.15 J0.0
G3 Y172.5127 I1.075 J-1.862
G3 X162.9964 Y172.2405 I1.075 J1.862
G1 F300.0 Z-3.0
G3 F800.0 X165.4068 Y174.3747 I0.2604 J2.1342
G3 X162.1818 Y176.2366 I-2.15 J0.0
G3 Y172.5127 I1.075 J-1.862
G3 X162.9964 Y172.2405 I1.075 J1.862
G0 Z3.0
G0 X180.5002 Y149.3268
G1 F300.0 Z-1.0
G3 F800.0 X180.6768 Y146.5866 I1.0016 J-1.3112
G3 X183.1518 Y148.0156 I0.825 J1.4289
G3 X180.6768 Y149.4445 I-1.65 J0.0
G3 X180.5002 Y149.3268 I0.825 J-1.4289
G1 F300.0 Z-2.0
G3 F800.0 X180.6768 Y146.5866 I1.0016 J-1.3112
G3 X183.1518 Y148.0156 I0.825 J1.4289
G3 X180.6768 Y149.4445 I-1.65 J0.0
G3 X180.5002 Y149.3268 I0.825 J-1.4289
G1 F300.0 Z-3.0
G3 F800.0 X180.6768 Y146.5866 I1.0016 J-1.3112
G3 X183.1518 Y148.0156 I0.825 J1.4289
G3 X180.6768 Y149.4445 I-1.65 J0.0
G3 X180.5002 Y149.3268 I0.825 J-1.4289
G0 Z3.0
G0 X188.1774 Y155.0315
G1 F300.0 Z-1.0
G3 F800.0 X188.6768 Y154.5866 I1.3244 J0.9841
G3 X191.1518 Y156.0156 I0.825 J1.4289
G3 X188.6768 Y157.4445 I-1.65 J0.0
G3 X188.1774 Y155.0315 I0.825 J-1.4289
G1 F300.0 Z-2.0
G3 F800.0 X188.6768 Y154.5866 I1.3244 J0.9841
G3 X191.1518 Y156.0156 I0.825 J1.4289
G3 X188.6768 Y157.4445 I-1.65 J0.0
G3 X188.1774 Y155.0315 I0.825 J-1.4289
G1 F300.0 Z-3.0
G3 F800.0 X188.6768 Y154.5866 I1.3244 J0.9841
G3 X191.1518 Y156.0156 I0.825 J1.4289
G3 X188.6768 Y157.4445 I-1.65 J0.0
G3 X188.1774 Y155.0315 I0.825 J-1.4289
G0 Z3.0
G0 X196.1834 Y149.0076
G1 F300.0 Z-1.0
G3 F800.0 X196.6768 Y146.5866 I1.3185 J-0.992
G3 X199.1518 Y148.0156 I0.825 J1.4289
G3 X196.6768 Y149.4445 I-1.65 J0.0
G3 X196.1834 Y149.0076 I0.825 J-1.4289
G1 F300.0 Z-2.0
G3 F800.0 X196.6768 Y146.5866 I1.3185 J-0.992
G3 X199.1518 Y148.0156 I0.825 J1.4289
G3 X196.6768 Y149.4445 I-1.65 J0.0
G3 X196.1834 Y149.0076 I0.825 J-1.4289
G1 F300.0 Z-3.0
G3 F800.0 X196.6768 Y146.5866 I1.3185 J-0.992
G3 X199.1518 Y148.0156 I0.825 J1.4289
G3 X196.6768 Y149.4445 I-1.65 J0.0
G3 X196.1834 Y149.0076 I0.825 J-1.4289
G0 Z3.0
G0 X190.4859 Y141.34
G1 F300.0 Z-1.0
G3 F800.0 X188.6768 Y141.4445 I-0.9841 J-1.3244
G3 Y138.5866 I0.825 J-1.4289
G3 X191.1518 Y140.0156 I0.825 J1.4289
G3 X190.4859 Y141.34 I-1.65 J0.0
G1 F300.0 Z-2.0
G3 F800.0 X188.6768 Y141.4445 I-0.9841 J-1.3244
G3 Y138.5866 I0.825 J-1.4289
G3 X191.1518 Y140.0156 I0.825 J1.4289
G3 X190.4859 Y141.34 I-1.65 J0.0
G1 F300.0 Z-3.0
G3 F800.0 X188.6768 Y141.4445 I-0.9841 J-1.3244
G3 Y138.5866 I0.825 J-1.4289
G3 X191.1518 Y140.0156 I0.825 J1.4289
G3 X190.4859 Y141.34 I-1.65 J0.0
G0 Z3.0
G0 X163.3873 Y33.2618
G1 F300.0 Z-1.0
G3 F800.0 X161.9566 Y33.0617 I-0.4682 J-1.8672
G3 Y29.7275 I0.9625 J-1.6671
G3 X164.8441 Y31.3946 I0.9625 J1.6671
G3 X163.3873 Y33.2618 I-1.925 J0.0
G1 F300.0 Z-2.0
G3 F800.0 X161.9566 Y33.0617 I-0.4682 J-1.8672
G3 Y29.7275 I0.9625 J-1.6671
G3 X164.8441 Y31.3946 I0.9625 J1.6671
G3 X163.3873 Y33.2618 I-1.925 J0.0
G1 F300.0 Z-3.0
G3 F800.0 X161.9566 Y33.0617 I-0.4682 J-1.8672
G3 Y29.7275 I0.9625 J-1.6671
G3 X164.8441 Y31.3946 I0.9625 J1.6671
G3 X163.3873 Y33.2618 I-1.925 J0.0
G0 Z3.0
G0 X148.8318 Y31.6115
G1 F300.0 Z-1.0
G3 F800.0 X145.9566 Y33.0617 I-1.9127 J-0.2169
G3 Y29.7275 I0.9625 J-1.6671
G3 X148.8441 Y31.3946 I0.9625 J1.6671
G3 X148.8318 Y31.6115 I-1.925 J0.0
G1 F300.0 Z-2.0
G3 F800.0 X145.9566 Y33.0617 I-1.9127 J-0.2169
G3 Y29.7275 I0.9625 J-1.6671
G3 X148.8441 Y31.3946 I0.9625 J1.6671
G3 X148.8318 Y31.6115 I-1.925 J0.0
G1 F300.0 Z-3.0
G3 F800.0 X145.9566 Y33.0617 I-1.9127 J-0.2169
G3 Y29.7275 I0.9625 J-1.6671
G3 X148.8441 Y31.3946 I0.9625 J1.6671
G3 X148.8318 Y31.6115 I-1.925 J0.0
G0 Z3.0
G0 X147.1446 Y17.3064
G1 F300.0 Z-1.0
G3 F800.0 X145.9566 Y17.0617 I-0.2255 J-1.9117
G3 Y13.7275 I0.9625 J-1.6671
G3 X148.8441 Y15.3946 I0.9625 J1.6671
G3 X147.1446 Y17.3064 I-1.925 J0.0
G1 F300.0 Z-2.0
G3 F800.0 X145.9566 Y17.0617 I-0.2255 J-1.9117
G3 Y13.7275 I0.9625 J-1.6671
G3 X148.8441 Y15.3946 I0.9625 J1.6671
G3 X147.1446 Y17.3064 I-1.925 J0.0
G1 F300.0 Z-3.0
G3 F800.0 X145.9566 Y17.0617 I-0.2255 J-1.9117
G3 Y13.7275 I0.9625 J-1.6671
G3 X148.8441 Y15.3946 I0.9625 J1.6671
G3 X147.1446 Y17.3064 I-1.925 J0.0
G0 Z3.0
G0 X161.0081 Y15.6262
G1 F300.0 Z-1.0
G3 F800.0 X161.9566 Y13.7275 I1.911 J-0.2316
G3 X164.8441 Y15.3946 I0.9625 J1.6671
G3 X161.9566 Y17.0617 I-1.925 J0.0
G3 X161.0081 Y15.6262 I0.9625 J-1.6671
G1 F300.0 Z-2.0
G3 F800.0 X161.9566 Y13.7275 I1.911 J-0.2316
G3 X164.8441 Y15.3946 I0.9625 J1.6671
G3 X161.9566 Y17.0617 I-1.925 J0.0
G3 X161.0081 Y15.6262 I0.9625 J-1.6671
G1 F300.0 Z-3.0
G3 F800.0 X161.9566 Y13.7275 I1.911 J-0.2316
G3 X164.8441 Y15.3946 I0.9625 J1.6671
G3 X161.9566 Y17.0617 I-1.925 J0.0
G3 X161.0081 Y15.6262 I0.9625 J-1.6671
G0 Z3.0
G0 X68.8441 Y15.3994
G1 F300.0 Z-1.0
G3 F800.0 X65.9566 Y17.0617 I-1.925 J-0.0047
G3 Y13.7275 I0.9625 J-1.6671
G3 X68.8441 Y15.3946 I0.9625 J1.6671
G3 Y15.3994 I-1.925 J0.0
G1 F300.0 Z-2.0
G3 F800.0 X65.9566 Y17.0617 I-1.925 J-0.0047
G3 Y13.7275 I0.9625 J-1.6671
G3 X68.8441 Y15.3946 I0.9625 J1.6671
G3 Y15.3994 I-1.925 J0.0
G1 F300.0 Z-3.0
G3 F800.0 X65.9566 Y17.0617 I-1.925 J-0.0047
G3 Y13.7275 I0.9625 J-1.6671
G3 X68.8441 Y15.3946 I0.9625 J1.6671
G3 Y15.3994 I-1.925 J0.0
G0 Z3.0
G0 X67.1491 Y29.4834
G1 F300.0 Z-1.0
G3 F800.0 X68.8441 Y31.3946 I-0.23 J1.9112
G3 X65.9566 Y33.0617 I-1.925 J0.0
G3 Y29.7275 I0.9625 J-1.6671
G3 X67.1491 Y29.4834 I0.9625 J1.6671
G1 F300.0 Z-2.0
G3 F800.0 X68.8441 Y31.3946 I-0.23 J1.9112
G3 X65.9566 Y33.0617 I-1.925 J0.0
G3 Y29.7275 I0.9625 J-1.6671
G3 X67.1491 Y29.4834 I0.9625 J1.6671
G1 F300.0 Z-3.0
G3 F800.0 X68.8441 Y31.3946 I-0.23 J1.9112
G3 X65.9566 Y33.0617 I-1.925 J0.0
G3 Y29.7275 I0.9625 J-1.6671
G3 X67.1491 Y29.4834 I0.9625 J1.6671
G0 Z3.0
G0 X52.8309 Y31.1695
G1 F300.0 Z-1.0
G3 F800.0 X52.8441 Y31.3946 I-1.9118 J0.2251
G3 X49.9566 Y33.0617 I-1.925 J0.0
G3 Y29.7275 I0.9625 J-1.6671
G3 X52.8309 Y31.1695 I0.9625 J1.6671
G1 F300.0 Z-2.0
G3 F800.0 X52.8441 Y31.3946 I-1.9118 J0.2251
G3 X49.9566 Y33.0617 I-1.925 J0.0
G3 Y29.7275 I0.9625 J-1.6671
G3 X52.8309 Y31.1695 I0.9625 J1.6671
G1 F300.0 Z-3.0
G3 F800.0 X52.8441 Y31.3946 I-1.9118 J0.2251
G3 X49.9566 Y33.0617 I-1.925 J0.0
G3 Y29.7275 I0.9625 J-1.6671
G3 X52.8309 Y31.1695 I0.9625 J1.6671
G0 Z3.0
G0 X51.1507 Y17.3056
G1 F300.0 Z-1.0
G3 F800.0 X49.9566 Y17.0617 I-0.2316 J-1.911
G3 Y13.7275 I0.9625 J-1.6671
G3 X52.8441 Y15.3946 I0.9625 J1.6671
G3 X51.1507 Y17.3056 I-1.925 J0.0
G1 F300.0 Z-2.0
G3 F800.0 X49.9566 Y17.0617 I-0.2316 J-1.911
G3 Y13.7275 I0.9625 J-1.6671
G3 X52.8441 Y15.3946 I0.9625 J1.6671
G3 X51.1507 Y17.3056 I-1.925 J0.0
G1 F300.0 Z-3.0
G3 F800.0 X49.9566 Y17.0617 I-0.2316 J-1.911
G3 Y13.7275 I0.9625 J-1.6671
G3 X52.8441 Y15.3946 I0.9625 J1.6671
G3 X51.1507 Y17.3056 I-1.925 J0.0
G0 Z3.0
G0 X13.5612 Y150.6266
G1 F300.0 Z-1.0
G3 F800.0 X15.1278 Y152.6959 I-0.5834 J2.0693
G3 X11.9028 Y154.5579 I-2.15 J0.0
G3 Y150.8339 I1.075 J-1.862
G3 X13.5612 Y150.6266 I1.075 J1.862
G1 F300.0 Z-2.0
G3 F800.0 X15.1278 Y152.6959 I-0.5834 J2.0693
G3 X11.9028 Y154.5579 I-2.15 J0.0
G3 Y150.8339 I1.075 J-1.862
G3 X13.5612 Y150.6266 I1.075 J1.862
G1 F300.0 Z-3.0
G3 F800.0 X15.1278 Y152.6959 I-0.5834 J2.0693
G3 X11.9028 Y154.5579 I-2.15 J0.0
G3 Y150.8339 I1.075 J-1.862
G3 X13.5612 Y150.6266 I1.075 J1.862
G0 Z3.0
G0 X13.0512 Y165.5472
G1 F300.0 Z-1.0
G3 F800.0 X15.1278 Y167.6959 I-0.0734 J2.1487
G3 X11.9028 Y169.5579 I-2.15 J0.0
G3 Y165.8339 I1.075 J-1.862
G3 X13.0512 Y165.5472 I1.075 J1.862
G1 F300.0 Z-2.0
G3 F800.0 X15.1278 Y167.6959 I-0.0734 J2.1487
G3 X11.9028 Y169.5579 I-2.15 J0.0
G3 Y165.8339 I1.075 J-1.862
G3 X13.0512 Y165.5472 I1.075 J1.862
G1 F300.0 Z-3.0
G3 F800.0 X15.1278 Y167.6959 I-0.0734 J2.1487
G3 X11.9028 Y169.5579 I-2.15 J0.0
G3 Y165.8339 I1.075 J-1.862
G3 X13.0512 Y165.5472 I1.075 J1.862
G0 Z3.0
G0 X35.9226 Y173.7508
G1 F300.0 Z-1.0
G3 F800.0 X36.9155 Y172.5619 I2.1179 J0.7597
G3 X40.2905 Y174.5104 I1.125 J1.9486
G3 X36.9155 Y176.459 I-2.25 J0.0
G3 X35.9226 Y173.7508 I1.125 J-1.9486
G1 F300.0 Z-2.0
G3 F800.0 X36.9155 Y172.5619 I2.1179 J0.7597
G3 X40.2905 Y174.5104 I1.125 J1.9486
G3 X36.9155 Y176.459 I-2.25 J0.0
G3 X35.9226 Y173.7508 I1.125 J-1.9486
G1 F300.0 Z-3.0
G3 F800.0 X36.9155 Y172.5619 I2.1179 J0.7597
G3 X40.2905 Y174.5104 I1.125 J1.9486
G3 X36.9155 Y176.459 I-2.25 J0.0
G3 X35.9226 Y173.7508 I1.125 J-1.9486
G0 Z3.0
G0 X36.6061 Y206.9579
G1 F300.0 Z-1.0
G3 F800.0 X38.9024 Y209.2074 I0.0463 J2.2495
G3 X35.5274 Y211.156 I-2.25 J0.0
G3 Y207.2588 I1.125 J-1.9486
G3 X36.6061 Y206.9579 I1.125 J1.9486
G1 F300.0 Z-2.0
G3 F800.0 X38.9024 Y209.2074 I0.0463 J2.2495
G3 X35.5274 Y211.156 I-2.25 J0.0
G3 Y207.2588 I1.125 J-1.9486
G3 X36.6061 Y206.9579 I1.125 J1.9486
G1 F300.0 Z-3.0
G3 F800.0 X38.9024 Y209.2074 I0.0463 J2.2495
G3 X35.5274 Y211.156 I-2.25 J0.0
G3 Y207.2588 I1.125 J-1.9486
G3 X36.6061 Y206.9579 I1.125 J1.9486
( Poche1 )
S1000
G0 Z3.0
G0 X170.645 Y245.7089
G1 F300.0 Z-1.0
G1 F800.0 Y246.3043
G3 X171.0851 Y245.7089 I4.35 J2.7546
G1 X170.645
G0 Z3.0
G0 X178.905
G1 F300.0 Z-1.0
G3 F800.0 X179.345 Y246.3043 I-3.9099 J3.35
G1 Y245.7089
G1 X178.905
G0 Z3.0
G0 X175.145 Y258.4065
G1 F300.0 Z-1.0
G3 F800.0 X174.845 I-0.15 J-9.3476
G1 Y281.7113
G3 X175.145 I0.15 J9.3476
G1 Y258.4065
G1 F300.0 X175.1354 Y257.8066
G3 F800.0 X174.245 Y257.7755 I-0.1404 J-8.7477
G1 Y282.3423
G3 X175.745 I0.75 J8.7166
G1 Y257.7755
G3 X175.1354 Y257.8066 I-0.75 J-8.7166
G1 F300.0 X175.1258 Y257.2066
G3 F800.0 X173.645 Y257.0951 I-0.1307 J-8.1478
G1 Y283.0227
G3 X176.345 I1.35 J8.0362
G1 Y257.0951
G3 X175.1258 Y257.2066 I-1.35 J-8.0362
G1 F300.0 X175.1161 Y256.6067
G3 F800.0 X173.045 Y256.3515 I-0.1211 J-7.5478
G1 Y283.7663
G3 X176.945 I1.95 J7.2926
G1 Y256.3515
G3 X175.1161 Y256.6067 I-1.95 J-7.2926
G1 F300.0 X175.1065 Y256.0068
G3 F800.0 X172.445 Y255.5229 I-0.1115 J-6.9479
G1 Y284.5949
G3 X177.545 I2.55 J6.464
G1 Y255.5229
G3 X175.1065 Y256.0068 I-2.55 J-6.464
G1 F300.0 X175.0969 Y255.4069
G3 F800.0 X171.845 Y254.5711 I-0.1019 J-6.348
G1 Y285.5467
G3 X178.145 I3.15 J5.5122
G1 Y254.5711
G3 X175.0969 Y255.4069 I-3.15 J-5.5122
G1 F300.0 X175.0873 Y254.807
G3 F800.0 X172.1206 Y254.0375 I-0.0922 J-5.7481
G3 X171.245 Y253.4162 I2.8744 J-4.9786
G1 Y286.7016
G3 X172.1206 Y286.0803 I3.75 J4.3573
G3 X178.745 Y286.7016 I2.8744 J4.9786
G1 Y253.4162
G3 X175.0873 Y254.807 I-3.75 J-4.3573
G1 F300.0 X175.0776 Y254.207
G3 F800.0 X172.4206 Y253.5179 I-0.0826 J-5.1481
G3 X170.645 Y251.8135 I2.5744 J-4.459
G1 Y288.3043
G3 X172.4206 Y286.5999 I4.35 J2.7546
G3 X179.345 Y288.3043 I2.5744 J4.459
G1 Y251.8135
G3 X175.0776 Y254.207 I-4.35 J-2.7546
G0 Z3.0
G0 X179.345 Y293.8135
G1 F300.0 Z-1.0
G3 F800.0 X178.905 Y294.4089 I-4.35 J-2.7546
G1 X179.345
G1 Y293.8135
G0 Z3.0
G0 X171.0851 Y294.4089
G1 F300.0 Z-1.0
G3 F800.0 X170.645 Y293.8135 I3.9099 J-3.35
G1 Y294.4089
G1 X171.0851
G1 F300.0 X171.5407 Y294.0185
G3 F800.0 X172.7206 Y287.1195 I3.4543 J-2.9596
G3 X179.5438 Y291.0589 I2.2744 J3.9394
G3 X177.2509 Y295.0089 I-4.5488 J0.0
G1 X179.945
G1 Y245.1089
G1 X177.2509
G3 X179.5438 Y249.0589 I-2.2559 J3.95
G3 X172.7206 Y252.9983 I-4.5488 J0.0
G3 Y245.1195 I2.2744 J-3.9394
G3 X172.7391 Y245.1089 I2.2744 J3.9394
G1 X170.045
G1 Y295.0089
G1 X172.7391
G3 X172.7206 Y294.9983 I2.2559 J-3.95
G3 X171.5407 Y294.0185 I2.2744 J-3.9394
G0 Z3.0
G0 X172.452 Y293.2378
G1 F300.0 Z-1.0
G3 F800.0 X173.3206 Y288.1588 I2.543 J-2.1789
G3 X178.3438 Y291.0589 I1.6744 J2.9001
G3 X173.3206 Y293.959 I-3.3488 J0.0
G3 X172.452 Y293.2378 I1.6744 J-2.9001
G1 F300.0 X172.9067 Y292.8482
G3 F800.0 X173.62 Y288.6773 I2.0883 J-1.7893
G3 X177.745 Y291.0589 I1.375 J2.3816
G3 X173.62 Y293.4405 I-2.75 J0.0
G3 X172.9067 Y292.8482 I1.375 J-2.3816
G0 Z3.0
G0 X171.9963 Y293.6281
G1 F300.0 Z-1.0
G2 F800.0 X173.0206 Y294.4787 I2.9987 J-2.5692
G2 X178.9438 Y291.0589 I1.9744 J-3.4198
G2 X173.0206 Y287.6391 I-3.9488 J0.0
G2 X171.9963 Y293.6281 I1.9744 J3.4198
G0 Z3.0
G0 X174.7702 Y252.4001
G1 F300.0 Z-1.0
G3 F800.0 X173.3206 Y251.959 I0.2248 J-3.3412
G3 Y246.1588 I1.6744 J-2.9001
G3 X178.3438 Y249.0589 I1.6744 J2.9001
G3 X174.7702 Y252.4001 I-3.3488 J0.0
G1 F300.0 X174.8104 Y251.8027
G3 F800.0 X173.62 Y251.4405 I0.1846 J-2.7438
G3 Y246.6773 I1.375 J-2.3816
G3 X177.745 Y249.0589 I1.375 J2.3816
G3 X174.8104 Y251.8027 I-2.75 J0.0
G0 Z3.0
G0 X174.7299 Y252.9988
G1 F300.0 Z-1.0
G2 F800.0 X178.9438 Y249.0589 I0.2651 J-3.9399
G2 X173.0206 Y245.6391 I-3.9488 J0.0
G2 Y252.4787 I1.9744 J3.4198
G2 X174.7299 Y252.9988 I1.9744 J-3.4198
G0 Z3.0
G0 X169.445
G1 F300.0 Z-1.0
G1 F800.0 Y295.6089
G1 X180.545
G1 Y244.5089
G1 X169.445
G1 Y252.9988
G1 F300.0 X168.845
G1 F800.0 Y296.2089
G1 X181.145
G1 Y243.9089
G1 X168.845
G1 Y252.9988
G1 F300.0 X168.245
G1 F800.0 Y296.8089
G1 X181.745
G1 Y243.3089
G1 X168.245
G1 Y252.9988
G0 Z3.0
G0 X170.645 Y246.3043
G1 F300.0 Z-2.0
G3 F800.0 X171.0851 Y245.7089 I4.35 J2.7546
G1 X170.645
G1 Y246.3043
G0 Z3.0
G0 X178.905 Y245.7089
G1 F300.0 Z-2.0
G3 F800.0 X179.345 Y246.3043 I-3.9099 J3.35
G1 Y245.7089
G1 X178.905
G0 Z3.0
G0 X175.145 Y258.4065
G1 F300.0 Z-2.0
G3 F800.0 X174.845 I-0.15 J-9.3476
G1 Y281.7113
G3 X175.145 I0.15 J9.3476
G1 Y258.4065
G1 F300.0 X175.1354 Y257.8066
G3 F800.0 X174.245 Y257.7755 I-0.1404 J-8.7477
G1 Y282.3423
G3 X175.745 I0.75 J8.7166
G1 Y257.7755
G3 X175.1354 Y257.8066 I-0.75 J-8.7166
G1 F300.0 X175.1258 Y257.2066
G3 F800.0 X173.645 Y257.0951 I-0.1307 J-8.1478
G1 Y283.0227
G3 X176.345 I1.35 J8.0362
G1 Y257.0951
G3 X175.1258 Y257.2066 I-1.35 J-8.0362
G1 F300.0 X175.1161 Y256.6067
G3 F800.0 X173.045 Y256.3515 I-0.1211 J-7.5478
G1 Y283.7663
G3 X176.945 I1.95 J7.2926
G1 Y256.3515
G3 X175.1161 Y256.6067 I-1.95 J-7.2926
G1 F300.0 X175.1065 Y256.0068
G3 F800.0 X172.445 Y255.5229 I-0.1115 J-6.9479
G1 Y284.5949
G3 X177.545 I2.55 J6.464
G1 Y255.5229
G3 X175.1065 Y256.0068 I-2.55 J-6.464
G1 F300.0 X175.0969 Y255.4069
G3 F800.0 X171.845 Y254.5711 I-0.1019 J-6.348
G1 Y285.5467
G3 X178.145 I3.15 J5.5122
G1 Y254.5711
G3 X175.0969 Y255.4069 I-3.15 J-5.5122
G1 F300.0 X175.0873 Y254.807
G3 F800.0 X172.1206 Y254.0375 I-0.0922 J-5.7481
G3 X171.245 Y253.4162 I2.8744 J-4.9786
G1 Y286.7016
G3 X172.1206 Y286.0803 I3.75 J4.3573
G3 X178.745 Y286.7016 I2.8744 J4.9786
G1 Y253.4162
G3 X175.0873 Y254.807 I-3.75 J-4.3573
G1 F300.0 X175.0776 Y254.207
G3 F800.0 X172.4206 Y253.5179 I-0.0826 J-5.1481
G3 X170.645 Y251.8135 I2.5744 J-4.459
G1 Y288.3043
G3 X172.4206 Y286.5999 I4.35 J2.7546
G3 X179.345 Y288.3043 I2.5744 J4.459
G1 Y251.8135
G3 X175.0776 Y254.207 I-4.35 J-2.7546
G0 Z3.0
G0 X179.345 Y293.8135
G1 F300.0 Z-2.0
G3 F800.0 X178.905 Y294.4089 I-4.35 J-2.7546
G1 X179.345
G1 Y293.8135
G0 Z3.0
G0 X171.0851 Y294.4089
G1 F300.0 Z-2.0
G3 F800.0 X170.645 Y293.8135 I3.9099 J-3.35
G1 Y294.4089
G1 X171.0851
G1 F300.0 X171.5407 Y294.0185
G3 F800.0 X172.7206 Y287.1195 I3.4543 J-2.9596
G3 X179.5438 Y291.0589 I2.2744 J3.9394
G3 X177.2509 Y295.0089 I-4.5488 J0.0
G1 X179.945
G1 Y245.1089
G1 X177.2509
G3 X179.5438 Y249.0589 I-2.2559 J3.95
G3 X172.7206 Y252.9983 I-4.5488 J0.0
G3 Y245.1195 I2.2744 J-3.9394
G3 X172.7391 Y245.1089 I2.2744 J3.9394
G1 X170.045
G1 Y295.0089
G1 X172.7391
G3 X172.7206 Y294.9983 I2.2559 J-3.95
G3 X171.5407 Y294.0185 I2.2744 J-3.9394
G0 Z3.0
G0 X172.452 Y293.2378
G1 F300.0 Z-2.0
G3 F800.0 X173.3206 Y288.1588 I2.543 J-2.1789
G3 X178.3438 Y291.0589 I1.6744 J2.9001
G3 X173.3206 Y293.959 I-3.3488 J0.0
G3 X172.452 Y293.2378 I1.6744 J-2.9001
G1 F300.0 X172.9067 Y292.8482
G3 F800.0 X173.62 Y288.6773 I2.0883 J-1.7893
G3 X177.745 Y291.0589 I1.375 J2.3816
G3 X173.62 Y293.4405 I-2.75 J0.0
G3 X172.9067 Y292.8482 I1.375 J-2.3816
G0 Z3.0
G0 X171.9963 Y293.6281
G1 F300.0 Z-2.0
G2 F800.0 X173.0206 Y294.4787 I2.9987 J-2.5692
G2 X178.9438 Y291.0589 I1.9744 J-3.4198
G2 X173.0206 Y287.6391 I-3.9488 J0.0
G2 X171.9963 Y293.6281 I1.9744 J3.4198
G0 Z3.0
G0 X174.7702 Y252.4001
G1 F300.0 Z-2.0
G3 F800.0 X173.3206 Y251.959 I0.2248 J-3.3412
G3 Y246.1588 I1.6744 J-2.9001
G3 X178.3438 Y249.0589 I1.6744 J2.9001
G3 X174.7702 Y252.4001 I-3.3488 J0.0
G1 F300.0 X174.8104 Y251.8027
G3 F800.0 X173.62 Y251.4405 I0.1846 J-2.7438
G3 Y246.6773 I1.375 J-2.3816
G3 X177.745 Y249.0589 I1.375 J2.3816
G3 X174.8104 Y251.8027 I-2.75 J0.0
G0 Z3.0
G0 X174.7299 Y252.9988
G1 F300.0 Z-2.0
G2 F800.0 X178.9438 Y249.0589 I0.2651 J-3.9399
G2 X173.0206 Y245.6391 I-3.9488 J0.0
G2 Y252.4787 I1.9744 J3.4198
G2 X174.7299 Y252.9988 I1.9744 J-3.4198
G0 Z3.0
G0 X169.445
G1 F300.0 Z-2.0
G1 F800.0 Y295.6089
G1 X180.545
G1 Y244.5089
G1 X169.445
G1 Y252.9988
G1 F300.0 X168.845
G1 F800.0 Y296.2089
G1 X181.145
G1 Y243.9089
G1 X168.845
G1 Y252.9988
G1 F300.0 X168.245
G1 F800.0 Y296.8089
G1 X181.745
G1 Y243.3089
G1 X168.245
G1 Y252.9988
G0 Z3.0
G0 X170.645 Y246.3043
G1 F300.0 Z-3.0
G3 F800.0 X171.0851 Y245.7089 I4.35 J2.7546
G1 X170.645
G1 Y246.3043
G0 Z3.0
G0 X178.905 Y245.7089
G1 F300.0 Z-3.0
G3 F800.0 X179.345 Y246.3043 I-3.9099 J3.35
G1 Y245.7089
G1 X178.905
G0 Z3.0
G0 X175.145 Y258.4065
G1 F300.0 Z-3.0
G3 F800.0 X174.845 I-0.15 J-9.3476
G1 Y281.7113
G3 X175.145 I0.15 J9.3476
G1 Y258.4065
G1 F300.0 X175.1354 Y257.8066
G3 F800.0 X174.245 Y257.7755 I-0.1404 J-8.7477
G1 Y282.3423
G3 X175.745 I0.75 J8.7166
G1 Y257.7755
G3 X175.1354 Y257.8066 I-0.75 J-8.7166
G1 F300.0 X175.1258 Y257.2066
G3 F800.0 X173.645 Y257.0951 I-0.1307 J-8.1478
G1 Y283.0227
G3 X176.345 I1.35 J8.0362
G1 Y257.0951
G3 X175.1258 Y257.2066 I-1.35 J-8.0362
G1 F300.0 X175.1161 Y256.6067
G3 F800.0 X173.045 Y256.3515 I-0.1211 J-7.5478
G1 Y283.7663
G3 X176.945 I1.95 J7.2926
G1 Y256.3515
G3 X175.1161 Y256.6067 I-1.95 J-7.2926
G1 F300.0 X175.1065 Y256.0068
G3 F800.0 X172.445 Y255.5229 I-0.1115 J-6.9479
G1 Y284.5949
G3 X177.545 I2.55 J6.464
G1 Y255.5229
G3 X175.1065 Y256.0068 I-2.55 J-6.464
G1 F300.0 X175.0969 Y255.4069
G3 F800.0 X171.845 Y254.5711 I-0.1019 J-6.348
G1 Y285.5467
G3 X178.145 I3.15 J5.5122
G1 Y254.5711
G3 X175.0969 Y255.4069 I-3.15 J-5.5122
G1 F300.0 X175.0873 Y254.807
G3 F800.0 X172.1206 Y254.0375 I-0.0922 J-5.7481
G3 X171.245 Y253.4162 I2.8744 J-4.9786
G1 Y286.7016
G3 X172.1206 Y286.0803 I3.75 J4.3573
G3 X178.745 Y286.7016 I2.8744 J4.9786
G1 Y253.4162
G3 X175.0873 Y254.807 I-3.75 J-4.3573
G1 F300.0 X175.0776 Y254.207
G3 F800.0 X172.4206 Y253.5179 I-0.0826 J-5.1481
G3 X170.645 Y251.8135 I2.5744 J-4.459
G1 Y288.3043
G3 X172.4206 Y286.5999 I4.35 J2.7546
G3 X179.345 Y288.3043 I2.5744 J4.459
G1 Y251.8135
G3 X175.0776 Y254.207 I-4.35 J-2.7546
G0 Z3.0
G0 X179.345 Y293.8135
G1 F300.0 Z-3.0
G3 F800.0 X178.905 Y294.4089 I-4.35 J-2.7546
G1 X179.345
G1 Y293.8135
G0 Z3.0
G0 X171.0851 Y294.4089
G1 F300.0 Z-3.0
G3 F800.0 X170.645 Y293.8135 I3.9099 J-3.35
G1 Y294.4089
G1 X171.0851
G1 F300.0 X171.5407 Y294.0185
G3 F800.0 X172.7206 Y287.1195 I3.4543 J-2.9596
G3 X179.5438 Y291.0589 I2.2744 J3.9394
G3 X177.2509 Y295.0089 I-4.5488 J0.0
G1 X179.945
G1 Y245.1089
G1 X177.2509
G3 X179.5438 Y249.0589 I-2.2559 J3.95
G3 X172.7206 Y252.9983 I-4.5488 J0.0
G3 Y245.1195 I2.2744 J-3.9394
G3 X172.7391 Y245.1089 I2.2744 J3.9394
G1 X170.045
G1 Y295.0089
G1 X172.7391
G3 X172.7206 Y294.9983 I2.2559 J-3.95
G3 X171.5407 Y294.0185 I2.2744 J-3.9394
G0 Z3.0
G0 X172.452 Y293.2378
G1 F300.0 Z-3.0
G3 F800.0 X173.3206 Y288.1588 I2.543 J-2.1789
G3 X178.3438 Y291.0589 I1.6744 J2.9001
G3 X173.3206 Y293.959 I-3.3488 J0.0
G3 X172.452 Y293.2378 I1.6744 J-2.9001
G1 F300.0 X172.9067 Y292.8482
G3 F800.0 X173.62 Y288.6773 I2.0883 J-1.7893
G3 X177.745 Y291.0589 I1.375 J2.3816
G3 X173.62 Y293.4405 I-2.75 J0.0
G3 X172.9067 Y292.8482 I1.375 J-2.3816
G0 Z3.0
G0 X171.9963 Y293.6281
G1 F300.0 Z-3.0
G2 F800.0 X173.0206 Y294.4787 I2.9987 J-2.5692
G2 X178.9438 Y291.0589 I1.9744 J-3.4198
G2 X173.0206 Y287.6391 I-3.9488 J0.0
G2 X171.9963 Y293.6281 I1.9744 J3.4198
G0 Z3.0
G0 X174.7702 Y252.4001
G1 F300.0 Z-3.0
G3 F800.0 X173.3206 Y251.959 I0.2248 J-3.3412
G3 Y246.1588 I1.6744 J-2.9001
G3 X178.3438 Y249.0589 I1.6744 J2.9001
G3 X174.7702 Y252.4001 I-3.3488 J0.0
G1 F300.0 X174.8104 Y251.8027
G3 F800.0 X173.62 Y251.4405 I0.1846 J-2.7438
G3 Y246.6773 I1.375 J-2.3816
G3 X177.745 Y249.0589 I1.375 J2.3816
G3 X174.8104 Y251.8027 I-2.75 J0.0
G0 Z3.0
G0 X174.7299 Y252.9988
G1 F300.0 Z-3.0
G2 F800.0 X178.9438 Y249.0589 I0.2651 J-3.9399
G2 X173.0206 Y245.6391 I-3.9488 J0.0
G2 Y252.4787 I1.9744 J3.4198
G2 X174.7299 Y252.9988 I1.9744 J-3.4198
G0 Z3.0
G0 X169.445
G1 F300.0 Z-3.0
G1 F800.0 Y295.6089
G1 X180.545
G1 Y244.5089
G1 X169.445
G1 Y252.9988
G1 F300.0 X168.845
G1 F800.0 Y296.2089
G1 X181.145
G1 Y243.9089
G1 X168.845
G1 Y252.9988
G1 F300.0 X168.245
G1 F800.0 Y296.8089
G1 X181.745
G1 Y243.3089
G1 X168.245
G1 Y252.9988
G0 Z3.0
G0 X22.345 Y246.3043
G1 F300.0 Z-1.0
G1 F800.0 Y245.7089
G1 X21.905
G3 X22.345 Y246.3043 I-3.9099 J3.35
G0 Z3.0
G0 X14.0851 Y245.7089
G1 F300.0 Z-1.0
G1 F800.0 X13.645
G1 Y246.3043
G3 X14.0851 Y245.7089 I4.35 J2.7546
G0 Z3.0
G0 X17.845 Y258.4065
G1 F300.0 Z-1.0
G1 F800.0 Y281.7113
G3 X18.145 I0.15 J9.3476
G1 Y258.4065
G3 X17.845 I-0.15 J-9.3476
G1 F300.0 X17.245
G1 F800.0 Y282.3423
G3 X18.745 I0.75 J8.7166
G1 Y257.7755
G3 X17.245 I-0.75 J-8.7166
G1 Y258.4065
G1 F300.0 X16.645
G1 F800.0 Y283.0227
G3 X19.345 I1.35 J8.0362
G1 Y257.0951
G3 X16.645 I-1.35 J-8.0362
G1 Y258.4065
G1 F300.0 X16.045
G1 F800.0 Y283.7663
G3 X19.945 I1.95 J7.2926
G1 Y256.3515
G3 X16.045 I-1.95 J-7.2926
G1 Y258.4065
G1 F300.0 X15.445
G1 F800.0 Y284.5949
G3 X20.545 I2.55 J6.464
G1 Y255.5229
G3 X15.445 I-2.55 J-6.464
G1 Y258.4065
G1 F300.0 X14.845
G1 F800.0 Y285.5467
G3 X21.145 I3.15 J5.5122
G1 Y254.5711
G3 X14.845 I-3.15 J-5.5122
G1 Y258.4065
G1 F300.0 X14.245
G1 F800.0 Y286.7016
G3 X15.1206 Y286.0803 I3.75 J4.3573
G3 X21.745 Y286.7016 I2.8744 J4.9786
G1 Y253.4162
G3 X15.1206 Y254.0375 I-3.75 J-4.3573
G3 X14.245 Y253.4162 I2.8744 J-4.9786
G1 Y258.4065
G1 F300.0 X13.645
G1 F800.0 Y288.3043
G3 X15.4206 Y286.5999 I4.35 J2.7546
G3 X22.345 Y288.3043 I2.5744 J4.459
G1 Y251.8135
G3 X15.4206 Y253.5179 I-4.35 J-2.7546
G3 X13.645 Y251.8135 I2.5744 J-4.459
G1 Y258.4065
G0 Z3.0
G0 Y293.8135
G1 F300.0 Z-1.0
G1 F800.0 Y294.4089
G1 X14.0851
G3 X13.645 Y293.8135 I3.9099 J-3.35
G0 Z3.0
G0 X21.905 Y294.4089
G1 F300.0 Z-1.0
G1 F800.0 X22.345
G1 Y293.8135
G3 X21.905 Y294.4089 I-4.35 J-2.7546
G1 F300.0 X21.4493 Y294.0185
G3 F800.0 X20.2509 Y295.0089 I-3.4543 J-2.9596
G1 X22.945
G1 Y245.1089
G1 X20.2509
G3 X22.5438 Y249.0589 I-2.2559 J3.95
G3 X15.7206 Y252.9983 I-4.5488 J0.0
G3 Y245.1195 I2.2744 J-3.9394
G3 X15.7391 Y245.1089 I2.2744 J3.9394
G1 X13.045
G1 Y295.0089
G1 X15.7391
G3 X15.7206 Y294.9983 I2.2559 J-3.95
G3 Y287.1195 I2.2744 J-3.9394
G3 X22.5438 Y291.0589 I2.2744 J3.9394
G3 X21.4493 Y294.0185 I-4.5488 J0.0
G0 Z3.0
G0 X20.5381 Y293.2378
G1 F300.0 Z-1.0
G3 F800.0 X16.3206 Y293.959 I-2.543 J-2.1789
G3 Y288.1588 I1.6744 J-2.9001
G3 X21.3438 Y291.0589 I1.6744 J2.9001
G3 X20.5381 Y293.2378 I-3.3488 J0.0
G1 F300.0 X20.0833 Y292.8482
G3 F800.0 X16.62 Y293.4405 I-2.0883 J-1.7893
G3 Y288.6773 I1.375 J-2.3816
G3 X20.745 Y291.0589 I1.375 J2.3816
G3 X20.0833 Y292.8482 I-2.75 J0.0
G0 Z3.0
G0 X20.9937 Y293.6281
G1 F300.0 Z-1.0
G2 F800.0 X21.9438 Y291.0589 I-2.9987 J-2.5692
G2 X16.0206 Y287.6391 I-3.9488 J0.0
G2 Y294.4787 I1.9744 J3.4198
G2 X20.9937 Y293.6281 I1.9744 J-3.4198
G0 Z3.0
G0 X18.2198 Y252.4001
G1 F300.0 Z-1.0
G3 F800.0 X16.3206 Y251.959 I-0.2248 J-3.3412
G3 Y246.1588 I1.6744 J-2.9001
G3 X21.3438 Y249.0589 I1.6744 J2.9001
G3 X18.2198 Y252.4001 I-3.3488 J0.0
G1 F300.0 X18.1796 Y251.8027
G3 F800.0 X16.62 Y251.4405 I-0.1846 J-2.7438
G3 Y246.6773 I1.375 J-2.3816
G3 X20.745 Y249.0589 I1.375 J2.3816
G3 X18.1796 Y251.8027 I-2.75 J0.0
G0 Z3.0
G0 X18.2601 Y252.9988
G1 F300.0 Z-1.0
G2 F800.0 X21.9438 Y249.0589 I-0.2651 J-3.9399
G2 X16.0206 Y245.6391 I-3.9488 J0.0
G2 Y252.4787 I1.9744 J3.4198
G2 X18.2601 Y252.9988 I1.9744 J-3.4198
G0 Z3.0
G0 X23.545
G1 F300.0 Z-1.0
G1 F800.0 Y244.5089
G1 X12.445
G1 Y295.6089
G1 X23.545
G1 Y252.9988
G1 F300.0 X24.145
G1 F800.0 Y243.9089
G1 X11.845
G1 Y296.2089
G1 X24.145
G1 Y252.9988
G1 F300.0 X24.745
G1 F800.0 Y243.3089
G1 X11.245
G1 Y296.8089
G1 X24.745
G1 Y252.9988
G0 Z3.0
G0 X22.345 Y246.3043
G1 F300.0 Z-2.0
G1 F800.0 Y245.7089
G1 X21.905
G3 X22.345 Y246.3043 I-3.9099 J3.35
G0 Z3.0
G0 X14.0851 Y245.7089
G1 F300.0 Z-2.0
G1 F800.0 X13.645
G1 Y246.3043
G3 X14.0851 Y245.7089 I4.35 J2.7546
G0 Z3.0
G0 X17.845 Y258.4065
G1 F300.0 Z-2.0
G1 F800.0 Y281.7113
G3 X18.145 I0.15 J9.3476
G1 Y258.4065
G3 X17.845 I-0.15 J-9.3476
G1 F300.0 X17.245
G1 F800.0 Y282.3423
G3 X18.745 I0.75 J8.7166
G1 Y257.7755
G3 X17.245 I-0.75 J-8.7166
G1 Y258.4065
G1 F300.0 X16.645
G1 F800.0 Y283.0227
G3 X19.345 I1.35 J8.0362
G1 Y257.0951
G3 X16.645 I-1.35 J-8.0362
G1 Y258.4065
G1 F300.0 X16.045
G1 F800.0 Y283.7663
G3 X19.945 I1.95 J7.2926
G1 Y256.3515
G3 X16.045 I-1.95 J-7.2926
G1 Y258.4065
G1 F300.0 X15.445
G1 F800.0 Y284.5949
G3 X20.545 I2.55 J6.464
G1 Y255.5229
G3 X15.445 I-2.55 J-6.464
G1 Y258.4065
G1 F300.0 X14.845
G1 F800.0 Y285.5467
G3 X21.145 I3.15 J5.5122
G1 Y254.5711
G3 X14.845 I-3.15 J-5.5122
G1 Y258.4065
G1 F300.0 X14.245
G1 F800.0 Y286.7016
G3 X15.1206 Y286.0803 I3.75 J4.3573
G3 X21.745 Y286.7016 I2.8744 J4.9786
G1 Y253.4162
G3 X15.1206 Y254.0375 I-3.75 J-4.3573
G3 X14.245 Y253.4162 I2.8744 J-4.9786
G1 Y258.4065
G1 F300.0 X13.645
G1 F800.0 Y288.3043
G3 X15.4206 Y286.5999 I4.35 J2.7546
G3 X22.345 Y288.3043 I2.5744 J4.459
G1 Y251.8135
G3 X15.4206 Y253.5179 I-4.35 J-2.7546
G3 X13.645 Y251.8135 I2.5744 J-4.459
G1 Y258.4065
G0 Z3.0
G0 Y293.8135
G1 F300.0 Z-2.0
G1 F800.0 Y294.4089
G1 X14.0851
G3 X13.645 Y293.8135 I3.9099 J-3.35
G0 Z3.0
G0 X21.905 Y294.4089
G1 F300.0 Z-2.0
G1 F800.0 X22.345
G1 Y293.8135
G3 X21.905 Y294.4089 I-4.35 J-2.7546
G1 F300.0 X21.4493 Y294.0185
G3 F800.0 X20.2509 Y295.0089 I-3.4543 J-2.9596
G1 X22.945
G1 Y245.1089
G1 X20.2509
G3 X22.5438 Y249.0589 I-2.2559 J3.95
G3 X15.7206 Y252.9983 I-4.5488 J0.0
G3 Y245.1195 I2.2744 J-3.9394
G3 X15.7391 Y245.1089 I2.2744 J3.9394
G1 X13.045
G1 Y295.0089
G1 X15.7391
G3 X15.7206 Y294.9983 I2.2559 J-3.95
G3 Y287.1195 I2.2744 J-3.9394
G3 X22.5438 Y291.0589 I2.2744 J3.9394
G3 X21.4493 Y294.0185 I-4.5488 J0.0
G0 Z3.0
G0 X20.5381 Y293.2378
G1 F300.0 Z-2.0
G3 F800.0 X16.3206 Y293.959 I-2.543 J-2.1789
G3 Y288.1588 I1.6744 J-2.9001
G3 X21.3438 Y291.0589 I1.6744 J2.9001
G3 X20.5381 Y293.2378 I-3.3488 J0.0
G1 F300.0 X20.0833 Y292.8482
G3 F800.0 X16.62 Y293.4405 I-2.0883 J-1.7893
G3 Y288.6773 I1.375 J-2.3816
G3 X20.745 Y291.0589 I1.375 J2.3816
G3 X20.0833 Y292.8482 I-2.75 J0.0
G0 Z3.0
G0 X20.9937 Y293.6281
G1 F300.0 Z-2.0
G2 F800.0 X21.9438 Y291.0589 I-2.9987 J-2.5692
G2 X16.0206 Y287.6391 I-3.9488 J0.0
G2 Y294.4787 I1.9744 J3.4198
G2 X20.9937 Y293.6281 I1.9744 J-3.4198
G0 Z3.0
G0 X18.2198 Y252.4001
G1 F300.0 Z-2.0
G3 F800.0 X16.3206 Y251.959 I-0.2248 J-3.3412
G3 Y246.1588 I1.6744 J-2.9001
G3 X21.3438 Y249.0589 I1.6744 J2.9001
G3 X18.2198 Y252.4001 I-3.3488 J0.0
G1 F300.0 X18.1796 Y251.8027
G3 F800.0 X16.62 Y251.4405 I-0.1846 J-2.7438
G3 Y246.6773 I1.375 J-2.3816
G3 X20.745 Y249.0589 I1.375 J2.3816
G3 X18.1796 Y251.8027 I-2.75 J0.0
G0 Z3.0
G0 X18.2601 Y252.9988
G1 F300.0 Z-2.0
G2 F800.0 X21.9438 Y249.0589 I-0.2651 J-3.9399
G2 X16.0206 Y245.6391 I-3.9488 J0.0
G2 Y252.4787 I1.9744 J3.4198
G2 X18.2601 Y252.9988 I1.9744 J-3.4198
G0 Z3.0
G0 X23.545
G1 F300.0 Z-2.0
G1 F800.0 Y244.5089
G1 X12.445
G1 Y295.6089
G1 X23.545
G1 Y252.9988
G1 F300.0 X24.145
G1 F800.0 Y243.9089
G1 X11.845
G1 Y296.2089
G1 X24.145
G1 Y252.9988
G1 F300.0 X24.745
G1 F800.0 Y243.3089
G1 X11.245
G1 Y296.8089
G1 X24.745
G1 Y252.9988
G0 Z3.0
G0 X22.345 Y246.3043
G1 F300.0 Z-3.0
G1 F800.0 Y245.7089
G1 X21.905
G3 X22.345 Y246.3043 I-3.9099 J3.35
G0 Z3.0
G0 X14.0851 Y245.7089
G1 F300.0 Z-3.0
G1 F800.0 X13.645
G1 Y246.3043
G3 X14.0851 Y245.7089 I4.35 J2.7546
G0 Z3.0
G0 X17.845 Y258.4065
G1 F300.0 Z-3.0
G1 F800.0 Y281.7113
G3 X18.145 I0.15 J9.3476
G1 Y258.4065
G3 X17.845 I-0.15 J-9.3476
G1 F300.0 X17.245
G1 F800.0 Y282.3423
G3 X18.745 I0.75 J8.7166
G1 Y257.7755
G3 X17.245 I-0.75 J-8.7166
G1 Y258.4065
G1 F300.0 X16.645
G1 F800.0 Y283.0227
G3 X19.345 I1.35 J8.0362
G1 Y257.0951
G3 X16.645 I-1.35 J-8.0362
G1 Y258.4065
G1 F300.0 X16.045
G1 F800.0 Y283.7663
G3 X19.945 I1.95 J7.2926
G1 Y256.3515
G3 X16.045 I-1.95 J-7.2926
G1 Y258.4065
G1 F300.0 X15.445
G1 F800.0 Y284.5949
G3 X20.545 I2.55 J6.464
G1 Y255.5229
G3 X15.445 I-2.55 J-6.464
G1 Y258.4065
G1 F300.0 X14.845
G1 F800.0 Y285.5467
G3 X21.145 I3.15 J5.5122
G1 Y254.5711
G3 X14.845 I-3.15 J-5.5122
G1 Y258.4065
G1 F300.0 X14.245
G1 F800.0 Y286.7016
G3 X15.1206 Y286.0803 I3.75 J4.3573
G3 X21.745 Y286.7016 I2.8744 J4.9786
G1 Y253.4162
G3 X15.1206 Y254.0375 I-3.75 J-4.3573
G3 X14.245 Y253.4162 I2.8744 J-4.9786
G1 Y258.4065
G1 F300.0 X13.645
G1 F800.0 Y288.3043
G3 X15.4206 Y286.5999 I4.35 J2.7546
G3 X22.345 Y288.3043 I2.5744 J4.459
G1 Y251.8135
G3 X15.4206 Y253.5179 I-4.35 J-2.7546
G3 X13.645 Y251.8135 I2.5744 J-4.459
G1 Y258.4065
G0 Z3.0
G0 Y293.8135
G1 F300.0 Z-3.0
G1 F800.0 Y294.4089
G1 X14.0851
G3 X13.645 Y293.8135 I3.9099 J-3.35
G0 Z3.0
G0 X21.905 Y294.4089
G1 F300.0 Z-3.0
G1 F800.0 X22.345
G1 Y293.8135
G3 X21.905 Y294.4089 I-4.35 J-2.7546
G1 F300.0 X21.4493 Y294.0185
G3 F800.0 X20.2509 Y295.0089 I-3.4543 J-2.9596
G1 X22.945
G1 Y245.1089
G1 X20.2509
G3 X22.5438 Y249.0589 I-2.2559 J3.95
G3 X15.7206 Y252.9983 I-4.5488 J0.0
G3 Y245.1195 I2.2744 J-3.9394
G3 X15.7391 Y245.1089 I2.2744 J3.9394
G1 X13.045
G1 Y295.0089
G1 X15.7391
G3 X15.7206 Y294.9983 I2.2559 J-3.95
G3 Y287.1195 I2.2744 J-3.9394
G3 X22.5438 Y291.0589 I2.2744 J3.9394
G3 X21.4493 Y294.0185 I-4.5488 J0.0
G0 Z3.0
G0 X20.5381 Y293.2378
G1 F300.0 Z-3.0
G3 F800.0 X16.3206 Y293.959 I-2.543 J-2.1789
G3 Y288.1588 I1.6744 J-2.9001
G3 X21.3438 Y291.0589 I1.6744 J2.9001
G3 X20.5381 Y293.2378 I-3.3488 J0.0
G1 F300.0 X20.0833 Y292.8482
G3 F800.0 X16.62 Y293.4405 I-2.0883 J-1.7893
G3 Y288.6773 I1.375 J-2.3816
G3 X20.745 Y291.0589 I1.375 J2.3816
G3 X20.0833 Y292.8482 I-2.75 J0.0
G0 Z3.0
G0 X20.9937 Y293.6281
G1 F300.0 Z-3.0
G2 F800.0 X21.9438 Y291.0589 I-2.9987 J-2.5692
G2 X16.0206 Y287.6391 I-3.9488 J0.0
G2 Y294.4787 I1.9744 J3.4198
G2 X20.9937 Y293.6281 I1.9744 J-3.4198
G0 Z3.0
G0 X18.2198 Y252.4001
G1 F300.0 Z-3.0
G3 F800.0 X16.3206 Y251.959 I-0.2248 J-3.3412
G3 Y246.1588 I1.6744 J-2.9001
G3 X21.3438 Y249.0589 I1.6744 J2.9001
G3 X18.2198 Y252.4001 I-3.3488 J0.0
G1 F300.0 X18.1796 Y251.8027
G3 F800.0 X16.62 Y251.4405 I-0.1846 J-2.7438
G3 Y246.6773 I1.375 J-2.3816
G3 X20.745 Y249.0589 I1.375 J2.3816
G3 X18.1796 Y251.8027 I-2.75 J0.0
G0 Z3.0
G0 X18.2601 Y252.9988
G1 F300.0 Z-3.0
G2 F800.0 X21.9438 Y249.0589 I-0.2651 J-3.9399
G2 X16.0206 Y245.6391 I-3.9488 J0.0
G2 Y252.4787 I1.9744 J3.4198
G2 X18.2601 Y252.9988 I1.9744 J-3.4198
G0 Z3.0
G0 X23.545
G1 F300.0 Z-3.0
G1 F800.0 Y244.5089
G1 X12.445
G1 Y295.6089
G1 X23.545
G1 Y252.9988
G1 F300.0 X24.145
G1 F800.0 Y243.9089
G1 X11.845
G1 Y296.2089
G1 X24.145
G1 Y252.9988
G1 F300.0 X24.745
G1 F800.0 Y243.3089
G1 X11.245
G1 Y296.8089
G1 X24.745
G1 Y252.9988
( Contour4 )
S1000
G0 Z3.0
G0 X145.7082 Y232.1141
G1 F300.0 Z-1.0
G1 F800.0 Y202.4113
G3 X157.2082 I5.75 J-5.1962
G1 Y232.1141
G3 X156.4582 Y232.8641 I-0.75 J0.0
G1 X146.4582
G3 X145.7082 Y232.1141 I0.0 J-0.75
G1 F300.0 Z-2.0
G1 F800.0 Y202.4113
G3 X157.2082 I5.75 J-5.1962
G1 Y232.1141
G3 X156.4582 Y232.8641 I-0.75 J0.0
G1 X146.4582
G3 X145.7082 Y232.1141 I0.0 J-0.75
G1 F300.0 Z-3.0
G1 F800.0 Y202.4113
G3 X157.2082 I5.75 J-5.1962
G1 Y232.1141
G3 X156.4582 Y232.8641 I-0.75 J0.0
G1 X146.4582
G3 X145.7082 Y232.1141 I0.0 J-0.75
G1 F300.0 Z-4.0
G1 F800.0 Y208.6531
G1 Y206.4031 Z-3.0
G1 Y204.1531 Z-4.0
G1 Y202.4113
G3 X157.2082 I5.75 J-5.1962
G1 Y217.1446
G1 Y219.3946 Z-3.0
G1 Y221.6446 Z-4.0
G1 Y232.1141
G3 X156.4582 Y232.8641 I-0.75 J0.0
G1 X146.4582
G3 X145.7082 Y232.1141 I0.0 J-0.75
G1 F300.0 Z-5.0
G1 F800.0 Y208.6531
G1 Y206.4031 Z-3.0
G1 Y204.1531 Z-5.0
G1 Y202.4113
G3 X157.2082 I5.75 J-5.1962
G1 Y217.1446
G1 Y219.3946 Z-3.0
G1 Y221.6446 Z-5.0
G1 Y232.1141
G3 X156.4582 Y232.8641 I-0.75 J0.0
G1 X146.4582
G3 X145.7082 Y232.1141 I0.0 J-0.75
G1 F300.0 Z-6.0
G1 F800.0 Y208.6531
G1 Y206.4031 Z-3.0
G1 Y204.1531 Z-6.0
G1 Y202.4113
G3 X157.2082 I5.75 J-5.1962
G1 Y217.1446
G1 Y219.3946 Z-3.0
G1 Y221.6446 Z-6.0
G1 Y232.1141
G3 X156.4582 Y232.8641 I-0.75 J0.0
G1 X146.4582
G3 X145.7082 Y232.1141 I0.0 J-0.75
G0 Z3.0
G0 Y241.8089
G1 F300.0 Z-1.0
G1 F800.0 X182.495
G3 X183.245 Y242.5589 I0.0 J0.75
G1 Y297.5589
G3 X182.495 Y298.3089 I-0.75 J0.0
G1 X10.495
G3 X9.745 Y297.5589 I0.0 J-0.75
G1 Y242.5589
G3 X10.495 Y241.8089 I0.75 J0.0
G1 X145.7082
G1 F300.0 Z-2.0
G1 F800.0 X182.495
G3 X183.245 Y242.5589 I0.0 J0.75
G1 Y297.5589
G3 X182.495 Y298.3089 I-0.75 J0.0
G1 X10.495
G3 X9.745 Y297.5589 I0.0 J-0.75
G1 Y242.5589
G3 X10.495 Y241.8089 I0.75 J0.0
G1 X145.7082
G1 F300.0 Z-3.0
G1 F800.0 X182.495
G3 X183.245 Y242.5589 I0.0 J0.75
G1 Y297.5589
G3 X182.495 Y298.3089 I-0.75 J0.0
G1 X10.495
G3 X9.745 Y297.5589 I0.0 J-0.75
G1 Y242.5589
G3 X10.495 Y241.8089 I0.75 J0.0
G1 X145.7082
G1 F300.0 Z-4.0
G1 F800.0 X182.495
G3 X183.245 Y242.5589 I0.0 J0.75
G1 Y268.1446
G1 Y270.3946 Z-3.0
G1 Y272.6446 Z-4.0
G1 Y297.5589
G3 X182.495 Y298.3089 I-0.75 J0.0
G1 X60.8191
G1 X58.5691 Z-3.0
G1 X56.3191 Z-4.0
G1 X10.495
G3 X9.745 Y297.5589 I0.0 J-0.75
G1 Y274.6446
G1 Y272.3946 Z-3.0
G1 Y270.1446 Z-4.0
G1 Y242.5589
G3 X10.495 Y241.8089 I0.75 J0.0
G1 X123.495
G1 X125.745 Z-3.0
G1 X127.995 Z-4.0
G1 X145.7082
G1 F300.0 Z-5.0
G1 F800.0 X182.495
G3 X183.245 Y242.5589 I0.0 J0.75
G1 Y268.1446
G1 Y270.3946 Z-3.0
G1 Y272.6446 Z-5.0
G1 Y297.5589
G3 X182.495 Y298.3089 I-0.75 J0.0
G1 X60.8191
G1 X58.5691 Z-3.0
G1 X56.3191 Z-5.0
G1 X10.495
G3 X9.745 Y297.5589 I0.0 J-0.75
G1 Y274.6446
G1 Y272.3946 Z-3.0
G1 Y270.1446 Z-5.0
G1 Y242.5589
G3 X10.495 Y241.8089 I0.75 J0.0
G1 X123.495
G1 X125.745 Z-3.0
G1 X127.995 Z-5.0
G1 X145.7082
G1 F300.0 Z-6.0
G1 F800.0 X182.495
G3 X183.245 Y242.5589 I0.0 J0.75
G1 Y268.1446
G1 Y270.3946 Z-3.0
G1 Y272.6446 Z-6.0
G1 Y297.5589
G3 X182.495 Y298.3089 I-0.75 J0.0
G1 X60.8191
G1 X58.5691 Z-3.0
G1 X56.3191 Z-6.0
G1 X10.495
G3 X9.745 Y297.5589 I0.0 J-0.75
G1 Y274.6446
G1 Y272.3946 Z-3.0
G1 Y270.1446 Z-6.0
G1 Y242.5589
G3 X10.495 Y241.8089 I0.75 J0.0
G1 X123.495
G1 X125.745 Z-3.0
G1 X127.995 Z-6.0
G1 X145.7082
G0 Z3.0
G0 X134.9838 Y232.6931
G1 F300.0 Z-1.0
G3 F800.0 X134.4124 Y232.9574 I-0.5715 J-0.4857
G1 X11.6524
G3 X10.9024 Y232.2074 I0.0 J-0.75
G1 Y212.2074
G3 X11.6524 Y211.4574 I0.75 J0.0
G1 X25.9024
G1 Y206.2074
G3 X26.6524 Y205.4574 I0.75 J0.0
G1 X46.6524
G3 X47.4024 Y206.2074 I0.0 J0.75
G1 Y211.4574
G1 X98.6624
G1 Y206.2074
G3 X99.4124 Y205.4574 I0.75 J0.0
G1 X119.4124
G3 X120.1624 Y206.2074 I0.0 J0.75
G1 Y211.4574
G1 X134.4124
G3 X135.1624 Y212.2074 I0.0 J0.75
G1 Y232.2074
G3 X134.9838 Y232.6931 I-0.75 J0.0
G1 F300.0 Z-2.0
G3 F800.0 X134.4124 Y232.9574 I-0.5715 J-0.4857
G1 X11.6524
G3 X10.9024 Y232.2074 I0.0 J-0.75
G1 Y212.2074
G3 X11.6524 Y211.4574 I0.75 J0.0
G1 X25.9024
G1 Y206.2074
G3 X26.6524 Y205.4574 I0.75 J0.0
G1 X46.6524
G3 X47.4024 Y206.2074 I0.0 J0.75
G1 Y211.4574
G1 X98.6624
G1 Y206.2074
G3 X99.4124 Y205.4574 I0.75 J0.0
G1 X119.4124
G3 X120.1624 Y206.2074 I0.0 J0.75
G1 Y211.4574
G1 X134.4124
G3 X135.1624 Y212.2074 I0.0 J0.75
G1 Y232.2074
G3 X134.9838 Y232.6931 I-0.75 J0.0
G1 F300.0 Z-3.0
G3 F800.0 X134.4124 Y232.9574 I-0.5715 J-0.4857
G1 X11.6524
G3 X10.9024 Y232.2074 I0.0 J-0.75
G1 Y212.2074
G3 X11.6524 Y211.4574 I0.75 J0.0
G1 X25.9024
G1 Y206.2074
G3 X26.6524 Y205.4574 I0.75 J0.0
G1 X46.6524
G3 X47.4024 Y206.2074 I0.0 J0.75
G1 Y211.4574
G1 X98.6624
G1 Y206.2074
G3 X99.4124 Y205.4574 I0.75 J0.0
G1 X119.4124
G3 X120.1624 Y206.2074 I0.0 J0.75
G1 Y211.4574
G1 X134.4124
G3 X135.1624 Y212.2074 I0.0 J0.75
G1 Y232.2074
G3 X134.9838 Y232.6931 I-0.75 J0.0
G1 F300.0 Z-4.0
G3 F800.0 X134.4124 Y232.9574 I-0.5715 J-0.4857
G1 X102.8191
G1 X100.5691 Z-3.0
G1 X98.3191 Z-4.0
G1 X11.6524
G3 X10.9024 Y232.2074 I0.0 J-0.75
G1 Y223.6446
G1 Y221.3946 Z-3.0
G1 Y219.1446 Z-4.0
G1 Y212.2074
G3 X11.6524 Y211.4574 I0.75 J0.0
G1 X25.9024
G1 Y206.2074
G3 X26.6524 Y205.4574 I0.75 J0.0
G1 X46.6524
G3 X47.4024 Y206.2074 I0.0 J0.75
G1 Y211.4574
G1 X61.3191
G1 X63.5691 Z-3.0
G1 X65.8191 Z-4.0
G1 X98.6624
G1 Y206.2074
G3 X99.4124 Y205.4574 I0.75 J0.0
G1 X119.4124
G3 X120.1624 Y206.2074 I0.0 J0.75
G1 Y211.4574
G1 X125.3191
G1 X127.5691 Z-3.0
G1 X129.8191 Z-4.0
G1 X134.4124
G3 X135.1624 Y212.2074 I0.0 J0.75
G1 Y232.2074
G3 X134.9838 Y232.6931 I-0.75 J0.0
G1 F300.0 Z-5.0
G3 F800.0 X134.4124 Y232.9574 I-0.5715 J-0.4857
G1 X102.8191
G1 X100.5691 Z-3.0
G1 X98.3191 Z-5.0
G1 X11.6524
G3 X10.9024 Y232.2074 I0.0 J-0.75
G1 Y223.6446
G1 Y221.3946 Z-3.0
G1 Y219.1446 Z-5.0
G1 Y212.2074
G3 X11.6524 Y211.4574 I0.75 J0.0
G1 X25.9024
G1 Y206.2074
G3 X26.6524 Y205.4574 I0.75 J0.0
G1 X46.6524
G3 X47.4024 Y206.2074 I0.0 J0.75
G1 Y211.4574
G1 X61.3191
G1 X63.5691 Z-3.0
G1 X65.8191 Z-5.0
G1 X98.6624
G1 Y206.2074
G3 X99.4124 Y205.4574 I0.75 J0.0
G1 X119.4124
G3 X120.1624 Y206.2074 I0.0 J0.75
G1 Y211.4574
G1 X125.3191
G1 X127.5691 Z-3.0
G1 X129.8191 Z-5.0
G1 X134.4124
G3 X135.1624 Y212.2074 I0.0 J0.75
G1 Y232.2074
G3 X134.9838 Y232.6931 I-0.75 J0.0
G1 F300.0 Z-6.0
G3 F800.0 X134.4124 Y232.9574 I-0.5715 J-0.4857
G1 X102.8191
G1 X100.5691 Z-3.0
G1 X98.3191 Z-6.0
G1 X11.6524
G3 X10.9024 Y232.2074 I0.0 J-0.75
G1 Y223.6446
G1 Y221.3946 Z-3.0
G1 Y219.1446 Z-6.0
G1 Y212.2074
G3 X11.6524 Y211.4574 I0.75 J0.0
G1 X25.9024
G1 Y206.2074
G3 X26.6524 Y205.4574 I0.75 J0.0
G1 X46.6524
G3 X47.4024 Y206.2074 I0.0 J0.75
G1 Y211.4574
G1 X61.3191
G1 X63.5691 Z-3.0
G1 X65.8191 Z-6.0
G1 X98.6624
G1 Y206.2074
G3 X99.4124 Y205.4574 I0.75 J0.0
G1 X119.4124
G3 X120.1624 Y206.2074 I0.0 J0.75
G1 Y211.4574
G1 X125.3191
G1 X127.5691 Z-3.0
G1 X129.8191 Z-6.0
G1 X134.4124
G3 X135.1624 Y212.2074 I0.0 J0.75
G1 Y232.2074
G3 X134.9838 Y232.6931 I-0.75 J0.0
G0 Z3.0
G0 Y198.2604
G1 F300.0 Z-1.0
G1 F800.0 X13.0405
G3 X12.2905 Y197.5104 I0.0 J-0.75
G1 Y177.5104
G3 X13.0405 Y176.7604 I0.75 J0.0
G1 X27.2905
G1 Y171.5104
G3 X28.0405 Y170.7604 I0.75 J0.0
G1 X48.0405
G3 X48.7905 Y171.5104 I0.0 J0.75
G1 Y176.7604
G1 X100.0505
G1 Y171.5104
G3 X100.8005 Y170.7604 I0.75 J0.0
G1 X120.8005
G3 X121.5505 Y171.5104 I0.0 J0.75
G1 Y176.7604
G1 X135.8005
G3 X136.5505 Y177.5104 I0.0 J0.75
G1 Y197.5104
G3 X135.8005 Y198.2604 I-0.75 J0.0
G1 X134.9838
G1 F300.0 Z-2.0
G1 F800.0 X13.0405
G3 X12.2905 Y197.5104 I0.0 J-0.75
G1 Y177.5104
G3 X13.0405 Y176.7604 I0.75 J0.0
G1 X27.2905
G1 Y171.5104
G3 X28.0405 Y170.7604 I0.75 J0.0
G1 X48.0405
G3 X48.7905 Y171.5104 I0.0 J0.75
G1 Y176.7604
G1 X100.0505
G1 Y171.5104
G3 X100.8005 Y170.7604 I0.75 J0.0
G1 X120.8005
G3 X121.5505 Y171.5104 I0.0 J0.75
G1 Y176.7604
G1 X135.8005
G3 X136.5505 Y177.5104 I0.0 J0.75
G1 Y197.5104
G3 X135.8005 Y198.2604 I-0.75 J0.0
G1 X134.9838
G1 F300.0 Z-3.0
G1 F800.0 X13.0405
G3 X12.2905 Y197.5104 I0.0 J-0.75
G1 Y177.5104
G3 X13.0405 Y176.7604 I0.75 J0.0
G1 X27.2905
G1 Y171.5104
G3 X28.0405 Y170.7604 I0.75 J0.0
G1 X48.0405
G3 X48.7905 Y171.5104 I0.0 J0.75
G1 Y176.7604
G1 X100.0505
G1 Y171.5104
G3 X100.8005 Y170.7604 I0.75 J0.0
G1 X120.8005
G3 X121.5505 Y171.5104 I0.0 J0.75
G1 Y176.7604
G1 X135.8005
G3 X136.5505 Y177.5104 I0.0 J0.75
G1 Y197.5104
G3 X135.8005 Y198.2604 I-0.75 J0.0
G1 X134.9838
G1 F300.0 Z-4.0
G1 F800.0 X101.8191
G1 X99.5691 Z-3.0
G1 X97.3191 Z-4.0
G1 X13.0405
G3 X12.2905 Y197.5104 I0.0 J-0.75
G1 Y191.6446
G1 Y189.3946 Z-3.0
G1 Y187.1446 Z-4.0
G1 Y177.5104
G3 X13.0405 Y176.7604 I0.75 J0.0
G1 X27.2905
G1 Y171.5104
G3 X28.0405 Y170.7604 I0.75 J0.0
G1 X48.0405
G3 X48.7905 Y171.5104 I0.0 J0.75
G1 Y176.7604
G1 X55.3191
G1 X57.5691 Z-3.0
G1 X59.8191 Z-4.0
G1 X100.0505
G1 Y171.5104
G3 X100.8005 Y170.7604 I0.75 J0.0
G1 X120.8005
G3 X121.5505 Y171.5104 I0.0 J0.75
G1 Y176.7604
G1 X124.3191
G1 X126.5691 Z-3.0
G1 X128.8191 Z-4.0
G1 X135.8005
G3 X136.5505 Y177.5104 I0.0 J0.75
G1 Y197.5104
G3 X135.8005 Y198.2604 I-0.75 J0.0
G1 X134.9838
G1 F300.0 Z-5.0
G1 F800.0 X101.8191
G1 X99.5691 Z-3.0
G1 X97.3191 Z-5.0
G1 X13.0405
G3 X12.2905 Y197.5104 I0.0 J-0.75
G1 Y191.6446
G1 Y189.3946 Z-3.0
G1 Y187.1446 Z-5.0
G1 Y177.5104
G3 X13.0405 Y176.7604 I0.75 J0.0
G1 X27.2905
G1 Y171.5104
G3 X28.0405 Y170.7604 I0.75 J0.0
G1 X48.0405
G3 X48.7905 Y171.5104 I0.0 J0.75
G1 Y176.7604
G1 X55.3191
G1 X57.5691 Z-3.0
G1 X59.8191 Z-5.0
G1 X100.0505
G1 Y171.5104
G3 X100.8005 Y170.7604 I0.75 J0.0
G1 X120.8005
G3 X121.5505 Y171.5104 I0.0 J0.75
G1 Y176.7604
G1 X124.3191
G1 X126.5691 Z-3.0
G1 X128.8191 Z-5.0
G1 X135.8005
G3 X136.5505 Y177.5104 I0.0 J0.75
G1 Y197.5104
G3 X135.8005 Y198.2604 I-0.75 J0.0
G1 X134.9838
G1 F300.0 Z-6.0
G1 F800.0 X101.8191
G1 X99.5691 Z-3.0
G1 X97.3191 Z-6.0
G1 X13.0405
G3 X12.2905 Y197.5104 I0.0 J-0.75
G1 Y191.6446
G1 Y189.3946 Z-3.0
G1 Y187.1446 Z-6.0
G1 Y177.5104
G3 X13.0405 Y176.7604 I0.75 J0.0
G1 X27.2905
G1 Y171.5104
G3 X28.0405 Y170.7604 I0.75 J0.0
G1 X48.0405
G3 X48.7905 Y171.5104 I0.0 J0.75
G1 Y176.7604
G1 X55.3191
G1 X57.5691 Z-3.0
G1 X59.8191 Z-6.0
G1 X100.0505
G1 Y171.5104
G3 X100.8005 Y170.7604 I0.75 J0.0
G1 X120.8005
G3 X121.5505 Y171.5104 I0.0 J0.75
G1 Y176.7604
G1 X124.3191
G1 X126.5691 Z-3.0
G1 X128.8191 Z-6.0
G1 X135.8005
G3 X136.5505 Y177.5104 I0.0 J0.75
G1 Y197.5104
G3 X135.8005 Y198.2604 I-0.75 J0.0
G1 X134.9838
G0 Z3.0
G0 X157.6744 Y179.8473
G1 F300.0 Z-1.0
G3 F800.0 X157.5068 Y179.3747 I0.5824 J-0.4726
G1 Y149.6718
G3 X169.0068 I5.75 J-5.1962
G1 Y179.3747
G3 X168.2568 Y180.1247 I-0.75 J0.0
G1 X158.2568
G3 X157.6744 Y179.8473 I0.0 J-0.75
G1 F300.0 Z-2.0
G3 F800.0 X157.5068 Y179.3747 I0.5824 J-0.4726
G1 Y149.6718
G3 X169.0068 I5.75 J-5.1962
G1 Y179.3747
G3 X168.2568 Y180.1247 I-0.75 J0.0
G1 X158.2568
G3 X157.6744 Y179.8473 I0.0 J-0.75
G1 F300.0 Z-3.0
G3 F800.0 X157.5068 Y179.3747 I0.5824 J-0.4726
G1 Y149.6718
G3 X169.0068 I5.75 J-5.1962
G1 Y179.3747
G3 X168.2568 Y180.1247 I-0.75 J0.0
G1 X158.2568
G3 X157.6744 Y179.8473 I0.0 J-0.75
G1 F300.0 Z-4.0
G3 F800.0 X157.5068 Y179.3747 I0.5824 J-0.4726
G1 Y155.9137
G1 Y153.6637 Z-3.0
G1 Y151.4137 Z-4.0
G1 Y149.6718
G3 X169.0068 I5.75 J-5.1962
G1 Y161.4137
G1 Y163.6637 Z-3.0
G1 Y165.9137 Z-4.0
G1 Y179.3747
G3 X168.2568 Y180.1247 I-0.75 J0.0
G1 X158.2568
G3 X157.6744 Y179.8473 I0.0 J-0.75
G1 F300.0 Z-5.0
G3 F800.0 X157.5068 Y179.3747 I0.5824 J-0.4726
G1 Y155.9137
G1 Y153.6637 Z-3.0
G1 Y151.4137 Z-5.0
G1 Y149.6718
G3 X169.0068 I5.75 J-5.1962
G1 Y161.4137
G1 Y163.6637 Z-3.0
G1 Y165.9137 Z-5.0
G1 Y179.3747
G3 X168.2568 Y180.1247 I-0.75 J0.0
G1 X158.2568
G3 X157.6744 Y179.8473 I0.0 J-0.75
G1 F300.0 Z-6.0
G3 F800.0 X157.5068 Y179.3747 I0.5824 J-0.4726
G1 Y155.9137
G1 Y153.6637 Z-3.0
G1 Y151.4137 Z-6.0
G1 Y149.6718
G3 X169.0068 I5.75 J-5.1962
G1 Y161.4137
G1 Y163.6637 Z-3.0
G1 Y165.9137 Z-6.0
G1 Y179.3747
G3 X168.2568 Y180.1247 I-0.75 J0.0
G1 X158.2568
G3 X157.6744 Y179.8473 I0.0 J-0.75
G0 Z3.0
G0 X175.7518
G1 F300.0 Z-1.0
G1 F800.0 Y139.0156
G3 X182.5018 Y132.2656 I6.75 J0.0
G1 X196.5018
G3 X203.2518 Y139.0156 I0.0 J6.75
G1 Y230.0156
G3 X202.5018 Y230.7656 I-0.75 J0.0
G1 X176.5018
G3 X175.7518 Y230.0156 I0.0 J-0.75
G1 Y179.8473
G1 F300.0 Z-2.0
G1 F800.0 Y139.0156
G3 X182.5018 Y132.2656 I6.75 J0.0
G1 X196.5018
G3 X203.2518 Y139.0156 I0.0 J6.75
G1 Y230.0156
G3 X202.5018 Y230.7656 I-0.75 J0.0
G1 X176.5018
G3 X175.7518 Y230.0156 I0.0 J-0.75
G1 Y179.8473
G1 F300.0 Z-3.0
G1 F800.0 Y139.0156
G3 X182.5018 Y132.2656 I6.75 J0.0
G1 X196.5018
G3 X203.2518 Y139.0156 I0.0 J6.75
G1 Y230.0156
G3 X202.5018 Y230.7656 I-0.75 J0.0
G1 X176.5018
G3 X175.7518 Y230.0156 I0.0 J-0.75
G1 Y179.8473
G1 F300.0 Z-4.0
G1 F800.0 Y139.0156
G3 X182.5018 Y132.2656 I6.75 J0.0
G1 X186.3191
G1 X188.5691 Z-3.0
G1 X190.8191 Z-4.0
G1 X196.5018
G3 X203.2518 Y139.0156 I0.0 J6.75
G1 Y165.1446
G1 Y167.3946 Z-3.0
G1 Y169.6446 Z-4.0
G1 Y230.0156
G3 X202.5018 Y230.7656 I-0.75 J0.0
G1 X191.8191
G1 X189.5691 Z-3.0
G1 X187.3191 Z-4.0
G1 X176.5018
G3 X175.7518 Y230.0156 I0.0 J-0.75
G1 Y193.6446
G1 Y191.3946 Z-3.0
G1 Y189.1446 Z-4.0
G1 Y179.8473
G1 F300.0 Z-5.0
G1 F800.0 Y139.0156
G3 X182.5018 Y132.2656 I6.75 J0.0
G1 X186.3191
G1 X188.5691 Z-3.0
G1 X190.8191 Z-5.0
G1 X196.5018
G3 X203.2518 Y139.0156 I0.0 J6.75
G1 Y165.1446
G1 Y167.3946 Z-3.0
G1 Y169.6446 Z-5.0
G1 Y230.0156
G3 X202.5018 Y230.7656 I-0.75 J0.0
G1 X191.8191
G1 X189.5691 Z-3.0
G1 X187.3191 Z-5.0
G1 X176.5018
G3 X175.7518 Y230.0156 I0.0 J-0.75
G1 Y193.6446
G1 Y191.3946 Z-3.0
G1 Y189.1446 Z-5.0
G1 Y179.8473
G1 F300.0 Z-6.0
G1 F800.0 Y139.0156
G3 X182.5018 Y132.2656 I6.75 J0.0
G1 X186.3191
G1 X188.5691 Z-3.0
G1 X190.8191 Z-6.0
G1 X196.5018
G3 X203.2518 Y139.0156 I0.0 J6.75
G1 Y165.1446
G1 Y167.3946 Z-3.0
G1 Y169.6446 Z-6.0
G1 Y230.0156
G3 X202.5018 Y230.7656 I-0.75 J0.0
G1 X191.8191
G1 X189.5691 Z-3.0
G1 X187.3191 Z-6.0
G1 X176.5018
G3 X175.7518 Y230.0156 I0.0 J-0.75
G1 Y193.6446
G1 Y191.3946 Z-3.0
G1 Y189.1446 Z-6.0
G1 Y179.8473
G0 Z3.0
G0 X148.2067 Y162.7895
G1 F300.0 Z-1.0
G3 F800.0 X147.5691 Y163.1446 I-0.6376 J-0.3949
G1 X27.5691
G3 X26.8191 Y162.3946 I0.0 J-0.75
G1 Y137.3946
G3 X27.5765 Y136.6447 I0.75 J0.0
G1 X147.5765 Y137.825
G3 X148.3191 Y138.575 I-0.0074 J0.75
G1 Y162.3946
G3 X148.2067 Y162.7895 I-0.75 J0.0
G1 F300.0 Z-2.0
G3 F800.0 X147.5691 Y163.1446 I-0.6376 J-0.3949
G1 X27.5691
G3 X26.8191 Y162.3946 I0.0 J-0.75
G1 Y137.3946
G3 X27.5765 Y136.6447 I0.75 J0.0
G1 X147.5765 Y137.825
G3 X148.3191 Y138.575 I-0.0074 J0.75
G1 Y162.3946
G3 X148.2067 Y162.7895 I-0.75 J0.0
G1 F300.0 Z-3.0
G3 F800.0 X147.5691 Y163.1446 I-0.6376 J-0.3949
G1 X27.5691
G3 X26.8191 Y162.3946 I0.0 J-0.75
G1 Y137.3946
G3 X27.5765 Y136.6447 I0.75 J0.0
G1 X147.5765 Y137.825
G3 X148.3191 Y138.575 I-0.0074 J0.75
G1 Y162.3946
G3 X148.2067 Y162.7895 I-0.75 J0.0
G1 F300.0 Z-4.0
G3 F800.0 X147.5691 Y163.1446 I-0.6376 J-0.3949
G1 X113.7159
G1 X111.4659 Z-3.0
G1 X109.2159 Z-4.0
G1 X27.5691
G3 X26.8191 Y162.3946 I0.0 J-0.75
G1 Y150.6446
G1 Y148.3946 Z-3.0
G1 Y146.1446 Z-4.0
G1 Y137.3946
G3 X27.5765 Y136.6447 I0.75 J0.0
G1 X73.3219 Y137.0946
G1 X75.5718 Y137.1168 Z-3.0
G1 X77.8217 Y137.1389 Z-4.0
G1 X114.3376 Y137.4981
G1 X116.5875 Y137.5202 Z-3.0
G1 X118.8374 Y137.5423 Z-4.0
G1 X147.5765 Y137.825
G3 X148.3191 Y138.575 I-0.0074 J0.75
G1 Y162.3946
G3 X148.2067 Y162.7895 I-0.75 J0.0
G1 F300.0 Z-5.0
G3 F800.0 X147.5691 Y163.1446 I-0.6376 J-0.3949
G1 X113.7159
G1 X111.4659 Z-3.0
G1 X109.2159 Z-5.0
G1 X27.5691
G3 X26.8191 Y162.3946 I0.0 J-0.75
G1 Y150.6446
G1 Y148.3946 Z-3.0
G1 Y146.1446 Z-5.0
G1 Y137.3946
G3 X27.5765 Y136.6447 I0.75 J0.0
G1 X73.3219 Y137.0946
G1 X75.5718 Y137.1168 Z-3.0
G1 X77.8217 Y137.1389 Z-5.0
G1 X114.3376 Y137.4981
G1 X116.5875 Y137.5202 Z-3.0
G1 X118.8374 Y137.5423 Z-5.0
G1 X147.5765 Y137.825
G3 X148.3191 Y138.575 I-0.0074 J0.75
G1 Y162.3946
G3 X148.2067 Y162.7895 I-0.75 J0.0
G1 F300.0 Z-6.0
G3 F800.0 X147.5691 Y163.1446 I-0.6376 J-0.3949
G1 X113.7159
G1 X111.4659 Z-3.0
G1 X109.2159 Z-6.0
G1 X27.5691
G3 X26.8191 Y162.3946 I0.0 J-0.75
G1 Y150.6446
G1 Y148.3946 Z-3.0
G1 Y146.1446 Z-6.0
G1 Y137.3946
G3 X27.5765 Y136.6447 I0.75 J0.0
G1 X73.3219 Y137.0946
G1 X75.5718 Y137.1168 Z-3.0
G1 X77.8217 Y137.1389 Z-6.0
G1 X114.3376 Y137.4981
G1 X116.5875 Y137.5202 Z-3.0
G1 X118.8374 Y137.5423 Z-6.0
G1 X147.5765 Y137.825
G3 X148.3191 Y138.575 I-0.0074 J0.75
G1 Y162.3946
G3 X148.2067 Y162.7895 I-0.75 J0.0
G0 Z3.0
G0 Y126.1446
G1 F300.0 Z-1.0
G1 F800.0 X112.5691
G3 X111.8191 Y125.3946 I0.0 J-0.75
G1 Y5.3946
G3 X112.5691 Y4.6446 I0.75 J0.0
G1 X192.5691
G3 X193.3191 Y5.3946 I0.0 J0.75
G1 Y125.3946
G3 X192.5691 Y126.1446 I-0.75 J0.0
G1 X148.2067
G1 F300.0 Z-2.0
G1 F800.0 X112.5691
G3 X111.8191 Y125.3946 I0.0 J-0.75
G1 Y5.3946
G3 X112.5691 Y4.6446 I0.75 J0.0
G1 X192.5691
G3 X193.3191 Y5.3946 I0.0 J0.75
G1 Y125.3946
G3 X192.5691 Y126.1446 I-0.75 J0.0
G1 X148.2067
G1 F300.0 Z-3.0
G1 F800.0 X112.5691
G3 X111.8191 Y125.3946 I0.0 J-0.75
G1 Y5.3946
G3 X112.5691 Y4.6446 I0.75 J0.0
G1 X192.5691
G3 X193.3191 Y5.3946 I0.0 J0.75
G1 Y125.3946
G3 X192.5691 Y126.1446 I-0.75 J0.0
G1 X148.2067
G1 F300.0 Z-4.0
G1 F800.0 X112.5691
G3 X111.8191 Y125.3946 I0.0 J-0.75
G1 Y77.6446
G1 Y75.3946 Z-3.0
G1 Y73.1446 Z-4.0
G1 Y5.3946
G3 X112.5691 Y4.6446 I0.75 J0.0
G1 X140.3191
G1 X142.5691 Z-3.0
G1 X144.8191 Z-4.0
G1 X192.5691
G3 X193.3191 Y5.3946 I0.0 J0.75
G1 Y53.1446
G1 Y55.3946 Z-3.0
G1 Y57.6446 Z-4.0
G1 Y125.3946
G3 X192.5691 Y126.1446 I-0.75 J0.0
G1 X164.8191
G1 X162.5691 Z-3.0
G1 X160.3191 Z-4.0
G1 X148.2067
G1 F300.0 Z-5.0
G1 F800.0 X112.5691
G3 X111.8191 Y125.3946 I0.0 J-0.75
G1 Y77.6446
G1 Y75.3946 Z-3.0
G1 Y73.1446 Z-5.0
G1 Y5.3946
G3 X112.5691 Y4.6446 I0.75 J0.0
G1 X140.3191
G1 X142.5691 Z-3.0
G1 X144.8191 Z-5.0
G1 X192.5691
G3 X193.3191 Y5.3946 I0.0 J0.75
G1 Y53.1446
G1 Y55.3946 Z-3.0
G1 Y57.6446 Z-5.0
G1 Y125.3946
G3 X192.5691 Y126.1446 I-0.75 J0.0
G1 X164.8191
G1 X162.5691 Z-3.0
G1 X160.3191 Z-5.0
G1 X148.2067
G1 F300.0 Z-6.0
G1 F800.0 X112.5691
G3 X111.8191 Y125.3946 I0.0 J-0.75
G1 Y77.6446
G1 Y75.3946 Z-3.0
G1 Y73.1446 Z-6.0
G1 Y5.3946
G3 X112.5691 Y4.6446 I0.75 J0.0
G1 X140.3191
G1 X142.5691 Z-3.0
G1 X144.8191 Z-6.0
G1 X192.5691
G3 X193.3191 Y5.3946 I0.0 J0.75
G1 Y53.1446
G1 Y55.3946 Z-3.0
G1 Y57.6446 Z-6.0
G1 Y125.3946
G3 X192.5691 Y126.1446 I-0.75 J0.0
G1 X164.8191
G1 X162.5691 Z-3.0
G1 X160.3191 Z-6.0
G1 X148.2067
G0 Z3.0
G0 X97.319 Y125.4055
G1 F300.0 Z-1.0
G3 F800.0 X96.5691 Y126.1446 I-0.7499 J-0.0109
G1 X16.5691
G3 X15.8191 Y125.3946 I0.0 J-0.75
G1 Y5.3946
G3 X16.5691 Y4.6446 I0.75 J0.0
G1 X96.5691
G3 X97.3191 Y5.3946 I0.0 J0.75
G1 Y125.3946
G3 X97.319 Y125.4055 I-0.75 J0.0
G1 F300.0 Z-2.0
G3 F800.0 X96.5691 Y126.1446 I-0.7499 J-0.0109
G1 X16.5691
G3 X15.8191 Y125.3946 I0.0 J-0.75
G1 Y5.3946
G3 X16.5691 Y4.6446 I0.75 J0.0
G1 X96.5691
G3 X97.3191 Y5.3946 I0.0 J0.75
G1 Y125.3946
G3 X97.319 Y125.4055 I-0.75 J0.0
G1 F300.0 Z-3.0
G3 F800.0 X96.5691 Y126.1446 I-0.7499 J-0.0109
G1 X16.5691
G3 X15.8191 Y125.3946 I0.0 J-0.75
G1 Y5.3946
G3 X16.5691 Y4.6446 I0.75 J0.0
G1 X96.5691
G3 X97.3191 Y5.3946 I0.0 J0.75
G1 Y125.3946
G3 X97.319 Y125.4055 I-0.75 J0.0
G1 F300.0 Z-4.0
G3 F800.0 X96.5691 Y126.1446 I-0.7499 J-0.0109
G1 X68.8191
G1 X66.5691 Z-3.0
G1 X64.3191 Z-4.0
G1 X16.5691
G3 X15.8191 Y125.3946 I0.0 J-0.75
G1 Y77.6446
G1 Y75.3946 Z-3.0
G1 Y73.1446 Z-4.0
G1 Y5.3946
G3 X16.5691 Y4.6446 I0.75 J0.0
G1 X44.3191
G1 X46.5691 Z-3.0
G1 X48.8191 Z-4.0
G1 X96.5691
G3 X97.3191 Y5.3946 I0.0 J0.75
G1 Y53.1446
G1 Y55.3946 Z-3.0
G1 Y57.6446 Z-4.0
G1 Y125.3946
G3 X97.319 Y125.4055 I-0.75 J0.0
G1 F300.0 Z-5.0
G3 F800.0 X96.5691 Y126.1446 I-0.7499 J-0.0109
G1 X68.8191
G1 X66.5691 Z-3.0
G1 X64.3191 Z-5.0
G1 X16.5691
G3 X15.8191 Y125.3946 I0.0 J-0.75
G1 Y77.6446
G1 Y75.3946 Z-3.0
G1 Y73.1446 Z-5.0
G1 Y5.3946
G3 X16.5691 Y4.6446 I0.75 J0.0
G1 X44.3191
G1 X46.5691 Z-3.0
G1 X48.8191 Z-5.0
G1 X96.5691
G3 X97.3191 Y5.3946 I0.0 J0.75
G1 Y53.1446
G1 Y55.3946 Z-3.0
G1 Y57.6446 Z-5.0
G1 Y125.3946
G3 X97.319 Y125.4055 I-0.75 J0.0
G1 F300.0 Z-6.0
G3 F800.0 X96.5691 Y126.1446 I-0.7499 J-0.0109
G1 X68.8191
G1 X66.5691 Z-3.0
G1 X64.3191 Z-6.0
G1 X16.5691
G3 X15.8191 Y125.3946 I0.0 J-0.75
G1 Y77.6446
G1 Y75.3946 Z-3.0
G1 Y73.1446 Z-6.0
G1 Y5.3946
G3 X16.5691 Y4.6446 I0.75 J0.0
G1 X44.3191
G1 X46.5691 Z-3.0
G1 X48.8191 Z-6.0
G1 X96.5691
G3 X97.3191 Y5.3946 I0.0 J0.75
G1 Y53.1446
G1 Y55.3946 Z-3.0
G1 Y57.6446 Z-6.0
G1 Y125.3946
G3 X97.319 Y125.4055 I-0.75 J0.0
G0 Z3.0
G0 X20.6455 Y136.6704
G1 F300.0 Z-1.0
G3 F800.0 X18.7278 Y142.9931 I-7.6677 J1.1265
G1 Y172.6959
G3 X17.9778 Y173.4459 I-0.75 J0.0
G1 X7.9778
G3 X7.2278 Y172.6959 I0.0 J-0.75
G1 Y142.9931
G3 X20.6455 Y136.6704 I5.75 J-5.1962
G1 F300.0 Z-2.0
G3 F800.0 X18.7278 Y142.9931 I-7.6677 J1.1265
G1 Y172.6959
G3 X17.9778 Y173.4459 I-0.75 J0.0
G1 X7.9778
G3 X7.2278 Y172.6959 I0.0 J-0.75
G1 Y142.9931
G3 X20.6455 Y136.6704 I5.75 J-5.1962
G1 F300.0 Z-3.0
G3 F800.0 X18.7278 Y142.9931 I-7.6677 J1.1265
G1 Y172.6959
G3 X17.9778 Y173.4459 I-0.75 J0.0
G1 X7.9778
G3 X7.2278 Y172.6959 I0.0 J-0.75
G1 Y142.9931
G3 X20.6455 Y136.6704 I5.75 J-5.1962
G1 F300.0 Z-4.0
G3 F800.0 X18.7278 Y142.9931 I-7.6677 J1.1265
G1 Y158.1446
G1 Y160.3946 Z-3.0
G1 Y162.6446 Z-4.0
G1 Y172.6959
G3 X17.9778 Y173.4459 I-0.75 J0.0
G1 X7.9778
G3 X7.2278 Y172.6959 I0.0 J-0.75
G1 Y149.2349
G1 Y146.9849 Z-3.0
G1 Y144.7349 Z-4.0
G1 Y142.9931
G3 X20.6455 Y136.6704 I5.75 J-5.1962
G1 F300.0 Z-5.0
G3 F800.0 X18.7278 Y142.9931 I-7.6677 J1.1265
G1 Y158.1446
G1 Y160.3946 Z-3.0
G1 Y162.6446 Z-5.0
G1 Y172.6959
G3 X17.9778 Y173.4459 I-0.75 J0.0
G1 X7.9778
G3 X7.2278 Y172.6959 I0.0 J-0.75
G1 Y149.2349
G1 Y146.9849 Z-3.0
G1 Y144.7349 Z-5.0
G1 Y142.9931
G3 X20.6455 Y136.6704 I5.75 J-5.1962
G1 F300.0 Z-6.0
G3 F800.0 X18.7278 Y142.9931 I-7.6677 J1.1265
G1 Y158.1446
G1 Y160.3946 Z-3.0
G1 Y162.6446 Z-6.0
G1 Y172.6959
G3 X17.9778 Y173.4459 I-0.75 J0.0
G1 X7.9778
G3 X7.2278 Y172.6959 I0.0 J-0.75
G1 Y149.2349
G1 Y146.9849 Z-3.0
G1 Y144.7349 Z-6.0
G1 Y142.9931
G3 X20.6455 Y136.6704 I5.75 J-5.1962
G0 Z3.0
G0 X190.4215 Y252.8351
G1 F300.0 Z-1.0
G3 F800.0 X202.5676 Y262.4076 I6.3961 J4.3764
G1 Y292.1105
G3 X201.8176 Y292.8605 I-0.75 J0.0
G1 X191.8176
G3 X191.0676 Y292.1105 I0.0 J-0.75
G1 Y262.4076
G3 X190.4215 Y252.8351 I5.75 J-5.1962
G1 F300.0 Z-2.0
G3 F800.0 X202.5676 Y262.4076 I6.3961 J4.3764
G1 Y292.1105
G3 X201.8176 Y292.8605 I-0.75 J0.0
G1 X191.8176
G3 X191.0676 Y292.1105 I0.0 J-0.75
G1 Y262.4076
G3 X190.4215 Y252.8351 I5.75 J-5.1962
G1 F300.0 Z-3.0
G3 F800.0 X202.5676 Y262.4076 I6.3961 J4.3764
G1 Y292.1105
G3 X201.8176 Y292.8605 I-0.75 J0.0
G1 X191.8176
G3 X191.0676 Y292.1105 I0.0 J-0.75
G1 Y262.4076
G3 X190.4215 Y252.8351 I5.75 J-5.1962
G1 F300.0 Z-4.0
G3 F800.0 X202.5676 Y262.4076 I6.3961 J4.3764
G1 Y263.1446
G1 Y265.3946 Z-3.0
G1 Y267.6446 Z-4.0
G1 Y292.1105
G3 X201.8176 Y292.8605 I-0.75 J0.0
G1 X191.8176
G3 X191.0676 Y292.1105 I0.0 J-0.75
G1 Y280.6446
G1 Y278.3946 Z-3.0
G1 Y276.1446 Z-4.0
G1 Y262.4076
G3 X190.4215 Y252.8351 I5.75 J-5.1962
G1 F300.0 Z-5.0
G3 F800.0 X202.5676 Y262.4076 I6.3961 J4.3764
G1 Y263.1446
G1 Y265.3946 Z-3.0
G1 Y267.6446 Z-5.0
G1 Y292.1105
G3 X201.8176 Y292.8605 I-0.75 J0.0
G1 X191.8176
G3 X191.0676 Y292.1105 I0.0 J-0.75
G1 Y280.6446
G1 Y278.3946 Z-3.0
G1 Y276.1446 Z-5.0
G1 Y262.4076
G3 X190.4215 Y252.8351 I5.75 J-5.1962
G1 F300.0 Z-6.0
G3 F800.0 X202.5676 Y262.4076 I6.3961 J4.3764
G1 Y263.1446
G1 Y265.3946 Z-3.0
G1 Y267.6446 Z-6.0
G1 Y292.1105
G3 X201.8176 Y292.8605 I-0.75 J0.0
G1 X191.8176
G3 X191.0676 Y292.1105 I0.0 J-0.75
G1 Y280.6446
G1 Y278.3946 Z-3.0
G1 Y276.1446 Z-6.0
G1 Y262.4076
G3 X190.4215 Y252.8351 I5.75 J-5.1962
G0 Z3.0
M5
M30
