( Made using CamBam - http://www.cambam.co.uk )
( Ensemble 10 2/5/2016 2:48:39 PM )
( T0 : 1.5 )
G21 G90 G64 G40
G0 Z3.0
( T0 : 1.5 )
T0 M6
( Contour1 )
G17
M3 S1000
G0 X119.125 Y300.0
G1 F300.0 Z-1.0
G2 F800.0 X108.25 Y293.7213 I-7.25 J0.0
G2 Y306.2787 I3.625 J6.2787
G2 X119.125 Y300.0 I3.625 J-6.2787
G1 F300.0 Z-2.0
G2 F800.0 X108.25 Y293.7213 I-7.25 J0.0
G2 Y306.2787 I3.625 J6.2787
G2 X119.125 Y300.0 I3.625 J-6.2787
G1 F300.0 Z-3.0
G2 F800.0 X108.25 Y293.7213 I-7.25 J0.0
G2 Y306.2787 I3.625 J6.2787
G2 X119.125 Y300.0 I3.625 J-6.2787
G1 F300.0 Z-4.0
G2 F800.0 X108.25 Y293.7213 I-7.25 J0.0
G2 Y306.2787 I3.625 J6.2787
G2 X119.125 Y300.0 I3.625 J-6.2787
G1 F300.0 Z-5.0
G2 F800.0 X108.25 Y293.7213 I-7.25 J0.0
G2 Y306.2787 I3.625 J6.2787
G2 X119.125 Y300.0 I3.625 J-6.2787
G1 F300.0 Z-6.0
G2 F800.0 X108.25 Y293.7213 I-7.25 J0.0
G2 Y306.2787 I3.625 J6.2787
G2 X119.125 Y300.0 I3.625 J-6.2787
G0 Z3.0
G0 X136.1947 Y284.5041
G1 F300.0 Z-1.0
G2 F800.0 X136.375 Y284.6495 I0.5553 J-0.5041
G2 X137.5 Y284.0 I0.375 J-0.6495
G2 X136.375 Y283.3505 I-0.75 J0.0
G2 X136.1947 Y284.5041 I0.375 J0.6495
G1 F300.0 Z-2.0
G2 F800.0 X136.375 Y284.6495 I0.5553 J-0.5041
G2 X137.5 Y284.0 I0.375 J-0.6495
G2 X136.375 Y283.3505 I-0.75 J0.0
G2 X136.1947 Y284.5041 I0.375 J0.6495
G1 F300.0 Z-3.0
G2 F800.0 X136.375 Y284.6495 I0.5553 J-0.5041
G2 X137.5 Y284.0 I0.375 J-0.6495
G2 X136.375 Y283.3505 I-0.75 J0.0
G2 X136.1947 Y284.5041 I0.375 J0.6495
G1 F300.0 Z-4.0
G2 F800.0 X136.375 Y284.6495 I0.5553 J-0.5041
G2 X137.5 Y284.0 I0.375 J-0.6495
G2 X136.375 Y283.3505 I-0.75 J0.0
G2 X136.1947 Y284.5041 I0.375 J0.6495
G1 F300.0 Z-5.0
G2 F800.0 X136.375 Y284.6495 I0.5553 J-0.5041
G2 X137.5 Y284.0 I0.375 J-0.6495
G2 X136.375 Y283.3505 I-0.75 J0.0
G2 X136.1947 Y284.5041 I0.375 J0.6495
G1 F300.0 Z-6.0
G2 F800.0 X136.375 Y284.6495 I0.5553 J-0.5041
G2 X137.5 Y284.0 I0.375 J-0.6495
G2 X136.375 Y283.3505 I-0.75 J0.0
G2 X136.1947 Y284.5041 I0.375 J0.6495
G0 Z3.0
G0 X121.3447 Y273.9697
G1 F300.0 Z-1.0
G1 F800.0 X121.125 Y273.75
G1 Y267.25
G1 X121.3447 Y267.0303
G1 X121.125 Y267.25
G1 X102.625
G1 X102.4053 Y267.0303
G1 X102.625 Y267.25
G1 Y273.75
G1 X102.4053 Y273.9697
G1 X102.625 Y273.75
G1 X121.125
G1 X121.3447 Y273.9697
G1 F300.0 Z-2.0
G1 F800.0 X121.125 Y273.75
G1 Y267.25
G1 X121.3447 Y267.0303
G1 X121.125 Y267.25
G1 X102.625
G1 X102.4053 Y267.0303
G1 X102.625 Y267.25
G1 Y273.75
G1 X102.4053 Y273.9697
G1 X102.625 Y273.75
G1 X121.125
G1 X121.3447 Y273.9697
G1 F300.0 Z-3.0
G1 F800.0 X121.125 Y273.75
G1 Y267.25
G1 X121.3447 Y267.0303
G1 X121.125 Y267.25
G1 X102.625
G1 X102.4053 Y267.0303
G1 X102.625 Y267.25
G1 Y273.75
G1 X102.4053 Y273.9697
G1 X102.625 Y273.75
G1 X121.125
G1 X121.3447 Y273.9697
G1 F300.0 Z-4.0
G1 F800.0 X121.125 Y273.75
G1 Y267.25
G1 X121.3447 Y267.0303
G1 X121.125 Y267.25
G1 X102.625
G1 X102.4053 Y267.0303
G1 X102.625 Y267.25
G1 Y273.75
G1 X102.4053 Y273.9697
G1 X102.625 Y273.75
G1 X121.125
G1 X121.3447 Y273.9697
G1 F300.0 Z-5.0
G1 F800.0 X121.125 Y273.75
G1 Y267.25
G1 X121.3447 Y267.0303
G1 X121.125 Y267.25
G1 X102.625
G1 X102.4053 Y267.0303
G1 X102.625 Y267.25
G1 Y273.75
G1 X102.4053 Y273.9697
G1 X102.625 Y273.75
G1 X121.125
G1 X121.3447 Y273.9697
G1 F300.0 Z-6.0
G1 F800.0 X121.125 Y273.75
G1 Y267.25
G1 X121.3447 Y267.0303
G1 X121.125 Y267.25
G1 X102.625
G1 X102.4053 Y267.0303
G1 X102.625 Y267.25
G1 Y273.75
G1 X102.4053 Y273.9697
G1 X102.625 Y273.75
G1 X121.125
G1 X121.3447 Y273.9697
G0 Z3.0
G0 X136.2919 Y254.5938
G1 F300.0 Z-1.0
G2 F800.0 X136.375 Y254.6495 I0.4581 J-0.5938
G2 X137.5 Y254.0 I0.375 J-0.6495
G2 X136.375 Y253.3505 I-0.75 J0.0
G2 X136.2919 Y254.5938 I0.375 J0.6495
G1 F300.0 Z-2.0
G2 F800.0 X136.375 Y254.6495 I0.4581 J-0.5938
G2 X137.5 Y254.0 I0.375 J-0.6495
G2 X136.375 Y253.3505 I-0.75 J0.0
G2 X136.2919 Y254.5938 I0.375 J0.6495
G1 F300.0 Z-3.0
G2 F800.0 X136.375 Y254.6495 I0.4581 J-0.5938
G2 X137.5 Y254.0 I0.375 J-0.6495
G2 X136.375 Y253.3505 I-0.75 J0.0
G2 X136.2919 Y254.5938 I0.375 J0.6495
G1 F300.0 Z-4.0
G2 F800.0 X136.375 Y254.6495 I0.4581 J-0.5938
G2 X137.5 Y254.0 I0.375 J-0.6495
G2 X136.375 Y253.3505 I-0.75 J0.0
G2 X136.2919 Y254.5938 I0.375 J0.6495
G1 F300.0 Z-5.0
G2 F800.0 X136.375 Y254.6495 I0.4581 J-0.5938
G2 X137.5 Y254.0 I0.375 J-0.6495
G2 X136.375 Y253.3505 I-0.75 J0.0
G2 X136.2919 Y254.5938 I0.375 J0.6495
G1 F300.0 Z-6.0
G2 F800.0 X136.375 Y254.6495 I0.4581 J-0.5938
G2 X137.5 Y254.0 I0.375 J-0.6495
G2 X136.375 Y253.3505 I-0.75 J0.0
G2 X136.2919 Y254.5938 I0.375 J0.6495
G0 Z3.0
G0 X125.8447 Y248.4697
G1 F300.0 Z-1.0
G1 F800.0 X125.625 Y248.25
G1 Y234.75
G1 X125.8447 Y234.5303
G1 X125.625 Y234.75
G1 X98.125
G1 X97.9053 Y234.5303
G1 X98.125 Y234.75
G1 Y248.25
G1 X97.9053 Y248.4697
G1 X98.125 Y248.25
G1 X125.625
G1 X125.8447 Y248.4697
G1 F300.0 Z-2.0
G1 F800.0 X125.625 Y248.25
G1 Y234.75
G1 X125.8447 Y234.5303
G1 X125.625 Y234.75
G1 X98.125
G1 X97.9053 Y234.5303
G1 X98.125 Y234.75
G1 Y248.25
G1 X97.9053 Y248.4697
G1 X98.125 Y248.25
G1 X125.625
G1 X125.8447 Y248.4697
G1 F300.0 Z-3.0
G1 F800.0 X125.625 Y248.25
G1 Y234.75
G1 X125.8447 Y234.5303
G1 X125.625 Y234.75
G1 X98.125
G1 X97.9053 Y234.5303
G1 X98.125 Y234.75
G1 Y248.25
G1 X97.9053 Y248.4697
G1 X98.125 Y248.25
G1 X125.625
G1 X125.8447 Y248.4697
G1 F300.0 Z-4.0
G1 F800.0 X125.625 Y248.25
G1 Y234.75
G1 X125.8447 Y234.5303
G1 X125.625 Y234.75
G1 X98.125
G1 X97.9053 Y234.5303
G1 X98.125 Y234.75
G1 Y248.25
G1 X97.9053 Y248.4697
G1 X98.125 Y248.25
G1 X125.625
G1 X125.8447 Y248.4697
G1 F300.0 Z-5.0
G1 F800.0 X125.625 Y248.25
G1 Y234.75
G1 X125.8447 Y234.5303
G1 X125.625 Y234.75
G1 X98.125
G1 X97.9053 Y234.5303
G1 X98.125 Y234.75
G1 Y248.25
G1 X97.9053 Y248.4697
G1 X98.125 Y248.25
G1 X125.625
G1 X125.8447 Y248.4697
G1 F300.0 Z-6.0
G1 F800.0 X125.625 Y248.25
G1 Y234.75
G1 X125.8447 Y234.5303
G1 X125.625 Y234.75
G1 X98.125
G1 X97.9053 Y234.5303
G1 X98.125 Y234.75
G1 Y248.25
G1 X97.9053 Y248.4697
G1 X98.125 Y248.25
G1 X125.625
G1 X125.8447 Y248.4697
G0 Z3.0
G0 X136.5503 Y209.7229
G1 F300.0 Z-1.0
G2 F800.0 X137.5 Y209.0 I0.1997 J-0.7229
G2 X136.375 Y208.3505 I-0.75 J0.0
G2 Y209.6495 I0.375 J0.6495
G2 X136.5503 Y209.7229 I0.375 J-0.6495
G1 F300.0 Z-2.0
G2 F800.0 X137.5 Y209.0 I0.1997 J-0.7229
G2 X136.375 Y208.3505 I-0.75 J0.0
G2 Y209.6495 I0.375 J0.6495
G2 X136.5503 Y209.7229 I0.375 J-0.6495
G1 F300.0 Z-3.0
G2 F800.0 X137.5 Y209.0 I0.1997 J-0.7229
G2 X136.375 Y208.3505 I-0.75 J0.0
G2 Y209.6495 I0.375 J0.6495
G2 X136.5503 Y209.7229 I0.375 J-0.6495
G1 F300.0 Z-4.0
G2 F800.0 X137.5 Y209.0 I0.1997 J-0.7229
G2 X136.375 Y208.3505 I-0.75 J0.0
G2 Y209.6495 I0.375 J0.6495
G2 X136.5503 Y209.7229 I0.375 J-0.6495
G1 F300.0 Z-5.0
G2 F800.0 X137.5 Y209.0 I0.1997 J-0.7229
G2 X136.375 Y208.3505 I-0.75 J0.0
G2 Y209.6495 I0.375 J0.6495
G2 X136.5503 Y209.7229 I0.375 J-0.6495
G1 F300.0 Z-6.0
G2 F800.0 X137.5 Y209.0 I0.1997 J-0.7229
G2 X136.375 Y208.3505 I-0.75 J0.0
G2 Y209.6495 I0.375 J0.6495
G2 X136.5503 Y209.7229 I0.375 J-0.6495
G0 Z3.0
G0 X136.7451 Y179.75
G1 F300.0 Z-1.0
G2 F800.0 X137.5 Y179.0 I0.0049 J-0.75
G2 X136.375 Y178.3505 I-0.75 J0.0
G2 Y179.6495 I0.375 J0.6495
G2 X136.7451 Y179.75 I0.375 J-0.6495
G1 F300.0 Z-2.0
G2 F800.0 X137.5 Y179.0 I0.0049 J-0.75
G2 X136.375 Y178.3505 I-0.75 J0.0
G2 Y179.6495 I0.375 J0.6495
G2 X136.7451 Y179.75 I0.375 J-0.6495
G1 F300.0 Z-3.0
G2 F800.0 X137.5 Y179.0 I0.0049 J-0.75
G2 X136.375 Y178.3505 I-0.75 J0.0
G2 Y179.6495 I0.375 J0.6495
G2 X136.7451 Y179.75 I0.375 J-0.6495
G1 F300.0 Z-4.0
G2 F800.0 X137.5 Y179.0 I0.0049 J-0.75
G2 X136.375 Y178.3505 I-0.75 J0.0
G2 Y179.6495 I0.375 J0.6495
G2 X136.7451 Y179.75 I0.375 J-0.6495
G1 F300.0 Z-5.0
G2 F800.0 X137.5 Y179.0 I0.0049 J-0.75
G2 X136.375 Y178.3505 I-0.75 J0.0
G2 Y179.6495 I0.375 J0.6495
G2 X136.7451 Y179.75 I0.375 J-0.6495
G1 F300.0 Z-6.0
G2 F800.0 X137.5 Y179.0 I0.0049 J-0.75
G2 X136.375 Y178.3505 I-0.75 J0.0
G2 Y179.6495 I0.375 J0.6495
G2 X136.7451 Y179.75 I0.375 J-0.6495
G0 Z3.0
G0 X136.7498 Y161.75
G1 F300.0 Z-1.0
G2 F800.0 X137.5 Y161.0 I0.0002 J-0.75
G2 X136.375 Y160.3505 I-0.75 J0.0
G2 Y161.6495 I0.375 J0.6495
G2 X136.7498 Y161.75 I0.375 J-0.6495
G1 F300.0 Z-2.0
G2 F800.0 X137.5 Y161.0 I0.0002 J-0.75
G2 X136.375 Y160.3505 I-0.75 J0.0
G2 Y161.6495 I0.375 J0.6495
G2 X136.7498 Y161.75 I0.375 J-0.6495
G1 F300.0 Z-3.0
G2 F800.0 X137.5 Y161.0 I0.0002 J-0.75
G2 X136.375 Y160.3505 I-0.75 J0.0
G2 Y161.6495 I0.375 J0.6495
G2 X136.7498 Y161.75 I0.375 J-0.6495
G1 F300.0 Z-4.0
G2 F800.0 X137.5 Y161.0 I0.0002 J-0.75
G2 X136.375 Y160.3505 I-0.75 J0.0
G2 Y161.6495 I0.375 J0.6495
G2 X136.7498 Y161.75 I0.375 J-0.6495
G1 F300.0 Z-5.0
G2 F800.0 X137.5 Y161.0 I0.0002 J-0.75
G2 X136.375 Y160.3505 I-0.75 J0.0
G2 Y161.6495 I0.375 J0.6495
G2 X136.7498 Y161.75 I0.375 J-0.6495
G1 F300.0 Z-6.0
G2 F800.0 X137.5 Y161.0 I0.0002 J-0.75
G2 X136.375 Y160.3505 I-0.75 J0.0
G2 Y161.6495 I0.375 J0.6495
G2 X136.7498 Y161.75 I0.375 J-0.6495
G0 Z3.0
G0 X136.75 Y131.75
G1 F300.0 Z-1.0
G2 F800.0 X137.5 Y131.0 I0.0 J-0.75
G2 X136.375 Y130.3505 I-0.75 J0.0
G2 Y131.6495 I0.375 J0.6495
G2 X136.75 Y131.75 I0.375 J-0.6495
G1 F300.0 Z-2.0
G2 F800.0 X137.5 Y131.0 I0.0 J-0.75
G2 X136.375 Y130.3505 I-0.75 J0.0
G2 Y131.6495 I0.375 J0.6495
G2 X136.75 Y131.75 I0.375 J-0.6495
G1 F300.0 Z-3.0
G2 F800.0 X137.5 Y131.0 I0.0 J-0.75
G2 X136.375 Y130.3505 I-0.75 J0.0
G2 Y131.6495 I0.375 J0.6495
G2 X136.75 Y131.75 I0.375 J-0.6495
G1 F300.0 Z-4.0
G2 F800.0 X137.5 Y131.0 I0.0 J-0.75
G2 X136.375 Y130.3505 I-0.75 J0.0
G2 Y131.6495 I0.375 J0.6495
G2 X136.75 Y131.75 I0.375 J-0.6495
G1 F300.0 Z-5.0
G2 F800.0 X137.5 Y131.0 I0.0 J-0.75
G2 X136.375 Y130.3505 I-0.75 J0.0
G2 Y131.6495 I0.375 J0.6495
G2 X136.75 Y131.75 I0.375 J-0.6495
G1 F300.0 Z-6.0
G2 F800.0 X137.5 Y131.0 I0.0 J-0.75
G2 X136.375 Y130.3505 I-0.75 J0.0
G2 Y131.6495 I0.375 J0.6495
G2 X136.75 Y131.75 I0.375 J-0.6495
G0 Z3.0
G0 Y86.75
G1 F300.0 Z-1.0
G2 F800.0 X137.5 Y86.0 I0.0 J-0.75
G2 X136.375 Y85.3505 I-0.75 J0.0
G2 Y86.6495 I0.375 J0.6495
G2 X136.75 Y86.75 I0.375 J-0.6495
G1 F300.0 Z-2.0
G2 F800.0 X137.5 Y86.0 I0.0 J-0.75
G2 X136.375 Y85.3505 I-0.75 J0.0
G2 Y86.6495 I0.375 J0.6495
G2 X136.75 Y86.75 I0.375 J-0.6495
G1 F300.0 Z-3.0
G2 F800.0 X137.5 Y86.0 I0.0 J-0.75
G2 X136.375 Y85.3505 I-0.75 J0.0
G2 Y86.6495 I0.375 J0.6495
G2 X136.75 Y86.75 I0.375 J-0.6495
G1 F300.0 Z-4.0
G2 F800.0 X137.5 Y86.0 I0.0 J-0.75
G2 X136.375 Y85.3505 I-0.75 J0.0
G2 Y86.6495 I0.375 J0.6495
G2 X136.75 Y86.75 I0.375 J-0.6495
G1 F300.0 Z-5.0
G2 F800.0 X137.5 Y86.0 I0.0 J-0.75
G2 X136.375 Y85.3505 I-0.75 J0.0
G2 Y86.6495 I0.375 J0.6495
G2 X136.75 Y86.75 I0.375 J-0.6495
G1 F300.0 Z-6.0
G2 F800.0 X137.5 Y86.0 I0.0 J-0.75
G2 X136.375 Y85.3505 I-0.75 J0.0
G2 Y86.6495 I0.375 J0.6495
G2 X136.75 Y86.75 I0.375 J-0.6495
G0 Z3.0
G0 Y56.75
G1 F300.0 Z-1.0
G2 F800.0 X137.5 Y56.0 I0.0 J-0.75
G2 X136.375 Y55.3505 I-0.75 J0.0
G2 Y56.6495 I0.375 J0.6495
G2 X136.75 Y56.75 I0.375 J-0.6495
G1 F300.0 Z-2.0
G2 F800.0 X137.5 Y56.0 I0.0 J-0.75
G2 X136.375 Y55.3505 I-0.75 J0.0
G2 Y56.6495 I0.375 J0.6495
G2 X136.75 Y56.75 I0.375 J-0.6495
G1 F300.0 Z-3.0
G2 F800.0 X137.5 Y56.0 I0.0 J-0.75
G2 X136.375 Y55.3505 I-0.75 J0.0
G2 Y56.6495 I0.375 J0.6495
G2 X136.75 Y56.75 I0.375 J-0.6495
G1 F300.0 Z-4.0
G2 F800.0 X137.5 Y56.0 I0.0 J-0.75
G2 X136.375 Y55.3505 I-0.75 J0.0
G2 Y56.6495 I0.375 J0.6495
G2 X136.75 Y56.75 I0.375 J-0.6495
G1 F300.0 Z-5.0
G2 F800.0 X137.5 Y56.0 I0.0 J-0.75
G2 X136.375 Y55.3505 I-0.75 J0.0
G2 Y56.6495 I0.375 J0.6495
G2 X136.75 Y56.75 I0.375 J-0.6495
G1 F300.0 Z-6.0
G2 F800.0 X137.5 Y56.0 I0.0 J-0.75
G2 X136.375 Y55.3505 I-0.75 J0.0
G2 Y56.6495 I0.375 J0.6495
G2 X136.75 Y56.75 I0.375 J-0.6495
G0 Z3.0
G0 X99.9311 Y80.6428
G1 F300.0 Z-1.0
G2 F800.0 X98.927 Y80.4015 I-0.6291 J0.4083
G2 Y81.7006 I0.375 J0.6495
G2 X100.052 Y81.0511 I0.375 J-0.6495
G2 X99.9311 Y80.6428 I-0.75 J0.0
G1 F300.0 Z-2.0
G2 F800.0 X98.927 Y80.4015 I-0.6291 J0.4083
G2 Y81.7006 I0.375 J0.6495
G2 X100.052 Y81.0511 I0.375 J-0.6495
G2 X99.9311 Y80.6428 I-0.75 J0.0
G1 F300.0 Z-3.0
G2 F800.0 X98.927 Y80.4015 I-0.6291 J0.4083
G2 Y81.7006 I0.375 J0.6495
G2 X100.052 Y81.0511 I0.375 J-0.6495
G2 X99.9311 Y80.6428 I-0.75 J0.0
G1 F300.0 Z-4.0
G2 F800.0 X98.927 Y80.4015 I-0.6291 J0.4083
G2 Y81.7006 I0.375 J0.6495
G2 X100.052 Y81.0511 I0.375 J-0.6495
G2 X99.9311 Y80.6428 I-0.75 J0.0
G1 F300.0 Z-5.0
G2 F800.0 X98.927 Y80.4015 I-0.6291 J0.4083
G2 Y81.7006 I0.375 J0.6495
G2 X100.052 Y81.0511 I0.375 J-0.6495
G2 X99.9311 Y80.6428 I-0.75 J0.0
G1 F300.0 Z-6.0
G2 F800.0 X98.927 Y80.4015 I-0.6291 J0.4083
G2 Y81.7006 I0.375 J0.6495
G2 X100.052 Y81.0511 I0.375 J-0.6495
G2 X99.9311 Y80.6428 I-0.75 J0.0
G0 Z3.0
G0 X89.4504 Y94.8499
G1 F300.0 Z-1.0
G2 F800.0 X89.177 Y94.8346 I-0.1484 J0.2012
G2 Y95.2676 I0.125 J0.2165
G2 X89.552 Y95.0511 I0.125 J-0.2165
G2 X89.4504 Y94.8499 I-0.25 J0.0
G1 F300.0 Z-2.0
G2 F800.0 X89.177 Y94.8346 I-0.1484 J0.2012
G2 Y95.2676 I0.125 J0.2165
G2 X89.552 Y95.0511 I0.125 J-0.2165
G2 X89.4504 Y94.8499 I-0.25 J0.0
G1 F300.0 Z-3.0
G2 F800.0 X89.177 Y94.8346 I-0.1484 J0.2012
G2 Y95.2676 I0.125 J0.2165
G2 X89.552 Y95.0511 I0.125 J-0.2165
G2 X89.4504 Y94.8499 I-0.25 J0.0
G1 F300.0 Z-4.0
G2 F800.0 X89.177 Y94.8346 I-0.1484 J0.2012
G2 Y95.2676 I0.125 J0.2165
G2 X89.552 Y95.0511 I0.125 J-0.2165
G2 X89.4504 Y94.8499 I-0.25 J0.0
G1 F300.0 Z-5.0
G2 F800.0 X89.177 Y94.8346 I-0.1484 J0.2012
G2 Y95.2676 I0.125 J0.2165
G2 X89.552 Y95.0511 I0.125 J-0.2165
G2 X89.4504 Y94.8499 I-0.25 J0.0
G1 F300.0 Z-6.0
G2 F800.0 X89.177 Y94.8346 I-0.1484 J0.2012
G2 Y95.2676 I0.125 J0.2165
G2 X89.552 Y95.0511 I0.125 J-0.2165
G2 X89.4504 Y94.8499 I-0.25 J0.0
G0 Z3.0
G0 X84.551 Y94.9708
G1 F300.0 Z-1.0
G2 F800.0 X79.677 Y92.2365 I-3.249 J0.0802
G2 Y97.8656 I1.625 J2.8146
G2 X84.552 Y95.0511 I1.625 J-2.8146
G2 X84.551 Y94.9708 I-3.25 J0.0
G1 F300.0 Z-2.0
G2 F800.0 X79.677 Y92.2365 I-3.249 J0.0802
G2 Y97.8656 I1.625 J2.8146
G2 X84.552 Y95.0511 I1.625 J-2.8146
G2 X84.551 Y94.9708 I-3.25 J0.0
G1 F300.0 Z-3.0
G2 F800.0 X79.677 Y92.2365 I-3.249 J0.0802
G2 Y97.8656 I1.625 J2.8146
G2 X84.552 Y95.0511 I1.625 J-2.8146
G2 X84.551 Y94.9708 I-3.25 J0.0
G1 F300.0 Z-4.0
G2 F800.0 X79.677 Y92.2365 I-3.249 J0.0802
G2 Y97.8656 I1.625 J2.8146
G2 X84.552 Y95.0511 I1.625 J-2.8146
G2 X84.551 Y94.9708 I-3.25 J0.0
G1 F300.0 Z-5.0
G2 F800.0 X79.677 Y92.2365 I-3.249 J0.0802
G2 Y97.8656 I1.625 J2.8146
G2 X84.552 Y95.0511 I1.625 J-2.8146
G2 X84.551 Y94.9708 I-3.25 J0.0
G1 F300.0 Z-6.0
G2 F800.0 X79.677 Y92.2365 I-3.249 J0.0802
G2 Y97.8656 I1.625 J2.8146
G2 X84.552 Y95.0511 I1.625 J-2.8146
G2 X84.551 Y94.9708 I-3.25 J0.0
G0 Z3.0
G0 X81.3969 Y87.2824
G1 F300.0 Z-1.0
G2 F800.0 X81.552 Y87.0511 I-0.0949 J-0.2313
G2 X81.177 Y86.8346 I-0.25 J0.0
G2 Y87.2676 I0.125 J0.2165
G2 X81.3969 Y87.2824 I0.125 J-0.2165
G1 F300.0 Z-2.0
G2 F800.0 X81.552 Y87.0511 I-0.0949 J-0.2313
G2 X81.177 Y86.8346 I-0.25 J0.0
G2 Y87.2676 I0.125 J0.2165
G2 X81.3969 Y87.2824 I0.125 J-0.2165
G1 F300.0 Z-3.0
G2 F800.0 X81.552 Y87.0511 I-0.0949 J-0.2313
G2 X81.177 Y86.8346 I-0.25 J0.0
G2 Y87.2676 I0.125 J0.2165
G2 X81.3969 Y87.2824 I0.125 J-0.2165
G1 F300.0 Z-4.0
G2 F800.0 X81.552 Y87.0511 I-0.0949 J-0.2313
G2 X81.177 Y86.8346 I-0.25 J0.0
G2 Y87.2676 I0.125 J0.2165
G2 X81.3969 Y87.2824 I0.125 J-0.2165
G1 F300.0 Z-5.0
G2 F800.0 X81.552 Y87.0511 I-0.0949 J-0.2313
G2 X81.177 Y86.8346 I-0.25 J0.0
G2 Y87.2676 I0.125 J0.2165
G2 X81.3969 Y87.2824 I0.125 J-0.2165
G1 F300.0 Z-6.0
G2 F800.0 X81.552 Y87.0511 I-0.0949 J-0.2313
G2 X81.177 Y86.8346 I-0.25 J0.0
G2 Y87.2676 I0.125 J0.2165
G2 X81.3969 Y87.2824 I0.125 J-0.2165
G0 Z3.0
G0 X73.4823 Y94.878
G1 F300.0 Z-1.0
G2 F800.0 X73.177 Y94.8346 I-0.1804 J0.1731
G2 Y95.2676 I0.125 J0.2165
G2 X73.552 Y95.0511 I0.125 J-0.2165
G2 X73.4823 Y94.878 I-0.25 J0.0
G1 F300.0 Z-2.0
G2 F800.0 X73.177 Y94.8346 I-0.1804 J0.1731
G2 Y95.2676 I0.125 J0.2165
G2 X73.552 Y95.0511 I0.125 J-0.2165
G2 X73.4823 Y94.878 I-0.25 J0.0
G1 F300.0 Z-3.0
G2 F800.0 X73.177 Y94.8346 I-0.1804 J0.1731
G2 Y95.2676 I0.125 J0.2165
G2 X73.552 Y95.0511 I0.125 J-0.2165
G2 X73.4823 Y94.878 I-0.25 J0.0
G1 F300.0 Z-4.0
G2 F800.0 X73.177 Y94.8346 I-0.1804 J0.1731
G2 Y95.2676 I0.125 J0.2165
G2 X73.552 Y95.0511 I0.125 J-0.2165
G2 X73.4823 Y94.878 I-0.25 J0.0
G1 F300.0 Z-5.0
G2 F800.0 X73.177 Y94.8346 I-0.1804 J0.1731
G2 Y95.2676 I0.125 J0.2165
G2 X73.552 Y95.0511 I0.125 J-0.2165
G2 X73.4823 Y94.878 I-0.25 J0.0
G1 F300.0 Z-6.0
G2 F800.0 X73.177 Y94.8346 I-0.1804 J0.1731
G2 Y95.2676 I0.125 J0.2165
G2 X73.552 Y95.0511 I0.125 J-0.2165
G2 X73.4823 Y94.878 I-0.25 J0.0
G0 Z3.0
G0 X81.1291 Y102.8704
G1 F300.0 Z-1.0
G2 F800.0 X81.177 Y103.2676 I0.1728 J0.1806
G2 X81.552 Y103.0511 I0.125 J-0.2165
G2 X81.177 Y102.8346 I-0.25 J0.0
G2 X81.1291 Y102.8704 I0.125 J0.2165
G1 F300.0 Z-2.0
G2 F800.0 X81.177 Y103.2676 I0.1728 J0.1806
G2 X81.552 Y103.0511 I0.125 J-0.2165
G2 X81.177 Y102.8346 I-0.25 J0.0
G2 X81.1291 Y102.8704 I0.125 J0.2165
G1 F300.0 Z-3.0
G2 F800.0 X81.177 Y103.2676 I0.1728 J0.1806
G2 X81.552 Y103.0511 I0.125 J-0.2165
G2 X81.177 Y102.8346 I-0.25 J0.0
G2 X81.1291 Y102.8704 I0.125 J0.2165
G1 F300.0 Z-4.0
G2 F800.0 X81.177 Y103.2676 I0.1728 J0.1806
G2 X81.552 Y103.0511 I0.125 J-0.2165
G2 X81.177 Y102.8346 I-0.25 J0.0
G2 X81.1291 Y102.8704 I0.125 J0.2165
G1 F300.0 Z-5.0
G2 F800.0 X81.177 Y103.2676 I0.1728 J0.1806
G2 X81.552 Y103.0511 I0.125 J-0.2165
G2 X81.177 Y102.8346 I-0.25 J0.0
G2 X81.1291 Y102.8704 I0.125 J0.2165
G1 F300.0 Z-6.0
G2 F800.0 X81.177 Y103.2676 I0.1728 J0.1806
G2 X81.552 Y103.0511 I0.125 J-0.2165
G2 X81.177 Y102.8346 I-0.25 J0.0
G2 X81.1291 Y102.8704 I0.125 J0.2165
G0 Z3.0
G0 X48.9266 Y81.4662
G1 F300.0 Z-1.0
G2 F800.0 X49.052 Y81.0511 I-0.6246 J-0.4152
G2 X47.927 Y80.4015 I-0.75 J0.0
G2 Y81.7006 I0.375 J0.6495
G2 X48.9266 Y81.4662 I0.375 J-0.6495
G1 F300.0 Z-2.0
G2 F800.0 X49.052 Y81.0511 I-0.6246 J-0.4152
G2 X47.927 Y80.4015 I-0.75 J0.0
G2 Y81.7006 I0.375 J0.6495
G2 X48.9266 Y81.4662 I0.375 J-0.6495
G1 F300.0 Z-3.0
G2 F800.0 X49.052 Y81.0511 I-0.6246 J-0.4152
G2 X47.927 Y80.4015 I-0.75 J0.0
G2 Y81.7006 I0.375 J0.6495
G2 X48.9266 Y81.4662 I0.375 J-0.6495
G1 F300.0 Z-4.0
G2 F800.0 X49.052 Y81.0511 I-0.6246 J-0.4152
G2 X47.927 Y80.4015 I-0.75 J0.0
G2 Y81.7006 I0.375 J0.6495
G2 X48.9266 Y81.4662 I0.375 J-0.6495
G1 F300.0 Z-5.0
G2 F800.0 X49.052 Y81.0511 I-0.6246 J-0.4152
G2 X47.927 Y80.4015 I-0.75 J0.0
G2 Y81.7006 I0.375 J0.6495
G2 X48.9266 Y81.4662 I0.375 J-0.6495
G1 F300.0 Z-6.0
G2 F800.0 X49.052 Y81.0511 I-0.6246 J-0.4152
G2 X47.927 Y80.4015 I-0.75 J0.0
G2 Y81.7006 I0.375 J0.6495
G2 X48.9266 Y81.4662 I0.375 J-0.6495
G0 Z3.0
G0 X8.7495 Y80.0269
G1 F300.0 Z-1.0
G2 F800.0 X8.75 Y80.0 I-0.7495 J-0.0269
G2 X7.625 Y79.3505 I-0.75 J0.0
G2 Y80.6495 I0.375 J0.6495
G2 X8.7495 Y80.0269 I0.375 J-0.6495
G1 F300.0 Z-2.0
G2 F800.0 X8.75 Y80.0 I-0.7495 J-0.0269
G2 X7.625 Y79.3505 I-0.75 J0.0
G2 Y80.6495 I0.375 J0.6495
G2 X8.7495 Y80.0269 I0.375 J-0.6495
G1 F300.0 Z-3.0
G2 F800.0 X8.75 Y80.0 I-0.7495 J-0.0269
G2 X7.625 Y79.3505 I-0.75 J0.0
G2 Y80.6495 I0.375 J0.6495
G2 X8.7495 Y80.0269 I0.375 J-0.6495
G1 F300.0 Z-4.0
G2 F800.0 X8.75 Y80.0 I-0.7495 J-0.0269
G2 X7.625 Y79.3505 I-0.75 J0.0
G2 Y80.6495 I0.375 J0.6495
G2 X8.7495 Y80.0269 I0.375 J-0.6495
G1 F300.0 Z-5.0
G2 F800.0 X8.75 Y80.0 I-0.7495 J-0.0269
G2 X7.625 Y79.3505 I-0.75 J0.0
G2 Y80.6495 I0.375 J0.6495
G2 X8.7495 Y80.0269 I0.375 J-0.6495
G1 F300.0 Z-6.0
G2 F800.0 X8.75 Y80.0 I-0.7495 J-0.0269
G2 X7.625 Y79.3505 I-0.75 J0.0
G2 Y80.6495 I0.375 J0.6495
G2 X8.7495 Y80.0269 I0.375 J-0.6495
G0 Z3.0
G0 X8.0187 Y50.7498
G1 F300.0 Z-1.0
G2 F800.0 X8.75 Y50.0 I-0.0187 J-0.7498
G2 X7.625 Y49.3505 I-0.75 J0.0
G2 Y50.6495 I0.375 J0.6495
G2 X8.0187 Y50.7498 I0.375 J-0.6495
G1 F300.0 Z-2.0
G2 F800.0 X8.75 Y50.0 I-0.0187 J-0.7498
G2 X7.625 Y49.3505 I-0.75 J0.0
G2 Y50.6495 I0.375 J0.6495
G2 X8.0187 Y50.7498 I0.375 J-0.6495
G1 F300.0 Z-3.0
G2 F800.0 X8.75 Y50.0 I-0.0187 J-0.7498
G2 X7.625 Y49.3505 I-0.75 J0.0
G2 Y50.6495 I0.375 J0.6495
G2 X8.0187 Y50.7498 I0.375 J-0.6495
G1 F300.0 Z-4.0
G2 F800.0 X8.75 Y50.0 I-0.0187 J-0.7498
G2 X7.625 Y49.3505 I-0.75 J0.0
G2 Y50.6495 I0.375 J0.6495
G2 X8.0187 Y50.7498 I0.375 J-0.6495
G1 F300.0 Z-5.0
G2 F800.0 X8.75 Y50.0 I-0.0187 J-0.7498
G2 X7.625 Y49.3505 I-0.75 J0.0
G2 Y50.6495 I0.375 J0.6495
G2 X8.0187 Y50.7498 I0.375 J-0.6495
G1 F300.0 Z-6.0
G2 F800.0 X8.75 Y50.0 I-0.0187 J-0.7498
G2 X7.625 Y49.3505 I-0.75 J0.0
G2 Y50.6495 I0.375 J0.6495
G2 X8.0187 Y50.7498 I0.375 J-0.6495
G0 Z3.0
G0 X46.6386 Y8.5533
G1 F300.0 Z-1.0
G2 F800.0 X46.77 Y8.6495 I0.5064 J-0.5533
G2 X47.895 Y8.0 I0.375 J-0.6495
G2 X46.77 Y7.3505 I-0.75 J0.0
G2 X46.6386 Y8.5533 I0.375 J0.6495
G1 F300.0 Z-2.0
G2 F800.0 X46.77 Y8.6495 I0.5064 J-0.5533
G2 X47.895 Y8.0 I0.375 J-0.6495
G2 X46.77 Y7.3505 I-0.75 J0.0
G2 X46.6386 Y8.5533 I0.375 J0.6495
G1 F300.0 Z-3.0
G2 F800.0 X46.77 Y8.6495 I0.5064 J-0.5533
G2 X47.895 Y8.0 I0.375 J-0.6495
G2 X46.77 Y7.3505 I-0.75 J0.0
G2 X46.6386 Y8.5533 I0.375 J0.6495
G1 F300.0 Z-4.0
G2 F800.0 X46.77 Y8.6495 I0.5064 J-0.5533
G2 X47.895 Y8.0 I0.375 J-0.6495
G2 X46.77 Y7.3505 I-0.75 J0.0
G2 X46.6386 Y8.5533 I0.375 J0.6495
G1 F300.0 Z-5.0
G2 F800.0 X46.77 Y8.6495 I0.5064 J-0.5533
G2 X47.895 Y8.0 I0.375 J-0.6495
G2 X46.77 Y7.3505 I-0.75 J0.0
G2 X46.6386 Y8.5533 I0.375 J0.6495
G1 F300.0 Z-6.0
G2 F800.0 X46.77 Y8.6495 I0.5064 J-0.5533
G2 X47.895 Y8.0 I0.375 J-0.6495
G2 X46.77 Y7.3505 I-0.75 J0.0
G2 X46.6386 Y8.5533 I0.375 J0.6495
G0 Z3.0
G0 X82.6901 Y8.0113
G1 F300.0 Z-1.0
G2 F800.0 X83.065 Y8.6495 I0.7499 J-0.0113
G2 X84.19 Y8.0 I0.375 J-0.6495
G2 X83.065 Y7.3505 I-0.75 J0.0
G2 X82.6901 Y8.0113 I0.375 J0.6495
G1 F300.0 Z-2.0
G2 F800.0 X83.065 Y8.6495 I0.7499 J-0.0113
G2 X84.19 Y8.0 I0.375 J-0.6495
G2 X83.065 Y7.3505 I-0.75 J0.0
G2 X82.6901 Y8.0113 I0.375 J0.6495
G1 F300.0 Z-3.0
G2 F800.0 X83.065 Y8.6495 I0.7499 J-0.0113
G2 X84.19 Y8.0 I0.375 J-0.6495
G2 X83.065 Y7.3505 I-0.75 J0.0
G2 X82.6901 Y8.0113 I0.375 J0.6495
G1 F300.0 Z-4.0
G2 F800.0 X83.065 Y8.6495 I0.7499 J-0.0113
G2 X84.19 Y8.0 I0.375 J-0.6495
G2 X83.065 Y7.3505 I-0.75 J0.0
G2 X82.6901 Y8.0113 I0.375 J0.6495
G1 F300.0 Z-5.0
G2 F800.0 X83.065 Y8.6495 I0.7499 J-0.0113
G2 X84.19 Y8.0 I0.375 J-0.6495
G2 X83.065 Y7.3505 I-0.75 J0.0
G2 X82.6901 Y8.0113 I0.375 J0.6495
G1 F300.0 Z-6.0
G2 F800.0 X83.065 Y8.6495 I0.7499 J-0.0113
G2 X84.19 Y8.0 I0.375 J-0.6495
G2 X83.065 Y7.3505 I-0.75 J0.0
G2 X82.6901 Y8.0113 I0.375 J0.6495
G0 Z3.0
G0 X8.4161 Y119.376
G1 F300.0 Z-1.0
G2 F800.0 X7.625 Y119.3505 I-0.4161 J0.624
G2 Y120.6495 I0.375 J0.6495
G2 X8.75 Y120.0 I0.375 J-0.6495
G2 X8.4161 Y119.376 I-0.75 J0.0
G1 F300.0 Z-2.0
G2 F800.0 X7.625 Y119.3505 I-0.4161 J0.624
G2 Y120.6495 I0.375 J0.6495
G2 X8.75 Y120.0 I0.375 J-0.6495
G2 X8.4161 Y119.376 I-0.75 J0.0
G1 F300.0 Z-3.0
G2 F800.0 X7.625 Y119.3505 I-0.4161 J0.624
G2 Y120.6495 I0.375 J0.6495
G2 X8.75 Y120.0 I0.375 J-0.6495
G2 X8.4161 Y119.376 I-0.75 J0.0
G1 F300.0 Z-4.0
G2 F800.0 X7.625 Y119.3505 I-0.4161 J0.624
G2 Y120.6495 I0.375 J0.6495
G2 X8.75 Y120.0 I0.375 J-0.6495
G2 X8.4161 Y119.376 I-0.75 J0.0
G1 F300.0 Z-5.0
G2 F800.0 X7.625 Y119.3505 I-0.4161 J0.624
G2 Y120.6495 I0.375 J0.6495
G2 X8.75 Y120.0 I0.375 J-0.6495
G2 X8.4161 Y119.376 I-0.75 J0.0
G1 F300.0 Z-6.0
G2 F800.0 X7.625 Y119.3505 I-0.4161 J0.624
G2 Y120.6495 I0.375 J0.6495
G2 X8.75 Y120.0 I0.375 J-0.6495
G2 X8.4161 Y119.376 I-0.75 J0.0
G0 Z3.0
G0 X8.0102 Y149.2501
G1 F300.0 Z-1.0
G2 F800.0 X7.625 Y149.3505 I-0.0102 J0.7499
G2 Y150.6495 I0.375 J0.6495
G2 X8.75 Y150.0 I0.375 J-0.6495
G2 X8.0102 Y149.2501 I-0.75 J0.0
G1 F300.0 Z-2.0
G2 F800.0 X7.625 Y149.3505 I-0.0102 J0.7499
G2 Y150.6495 I0.375 J0.6495
G2 X8.75 Y150.0 I0.375 J-0.6495
G2 X8.0102 Y149.2501 I-0.75 J0.0
G1 F300.0 Z-3.0
G2 F800.0 X7.625 Y149.3505 I-0.0102 J0.7499
G2 Y150.6495 I0.375 J0.6495
G2 X8.75 Y150.0 I0.375 J-0.6495
G2 X8.0102 Y149.2501 I-0.75 J0.0
G1 F300.0 Z-4.0
G2 F800.0 X7.625 Y149.3505 I-0.0102 J0.7499
G2 Y150.6495 I0.375 J0.6495
G2 X8.75 Y150.0 I0.375 J-0.6495
G2 X8.0102 Y149.2501 I-0.75 J0.0
G1 F300.0 Z-5.0
G2 F800.0 X7.625 Y149.3505 I-0.0102 J0.7499
G2 Y150.6495 I0.375 J0.6495
G2 X8.75 Y150.0 I0.375 J-0.6495
G2 X8.0102 Y149.2501 I-0.75 J0.0
G1 F300.0 Z-6.0
G2 F800.0 X7.625 Y149.3505 I-0.0102 J0.7499
G2 Y150.6495 I0.375 J0.6495
G2 X8.75 Y150.0 I0.375 J-0.6495
G2 X8.0102 Y149.2501 I-0.75 J0.0
G0 Z3.0
G0 X8.0002 Y189.25
G1 F300.0 Z-1.0
G2 F800.0 X7.625 Y189.3505 I-0.0002 J0.75
G2 Y190.6495 I0.375 J0.6495
G2 X8.75 Y190.0 I0.375 J-0.6495
G2 X8.0002 Y189.25 I-0.75 J0.0
G1 F300.0 Z-2.0
G2 F800.0 X7.625 Y189.3505 I-0.0002 J0.75
G2 Y190.6495 I0.375 J0.6495
G2 X8.75 Y190.0 I0.375 J-0.6495
G2 X8.0002 Y189.25 I-0.75 J0.0
G1 F300.0 Z-3.0
G2 F800.0 X7.625 Y189.3505 I-0.0002 J0.75
G2 Y190.6495 I0.375 J0.6495
G2 X8.75 Y190.0 I0.375 J-0.6495
G2 X8.0002 Y189.25 I-0.75 J0.0
G1 F300.0 Z-4.0
G2 F800.0 X7.625 Y189.3505 I-0.0002 J0.75
G2 Y190.6495 I0.375 J0.6495
G2 X8.75 Y190.0 I0.375 J-0.6495
G2 X8.0002 Y189.25 I-0.75 J0.0
G1 F300.0 Z-5.0
G2 F800.0 X7.625 Y189.3505 I-0.0002 J0.75
G2 Y190.6495 I0.375 J0.6495
G2 X8.75 Y190.0 I0.375 J-0.6495
G2 X8.0002 Y189.25 I-0.75 J0.0
G1 F300.0 Z-6.0
G2 F800.0 X7.625 Y189.3505 I-0.0002 J0.75
G2 Y190.6495 I0.375 J0.6495
G2 X8.75 Y190.0 I0.375 J-0.6495
G2 X8.0002 Y189.25 I-0.75 J0.0
G0 Z3.0
G0 X8.0 Y219.25
G1 F300.0 Z-1.0
G2 F800.0 X7.625 Y219.3505 I0.0 J0.75
G2 Y220.6495 I0.375 J0.6495
G2 X8.75 Y220.0 I0.375 J-0.6495
G2 X8.0 Y219.25 I-0.75 J0.0
G1 F300.0 Z-2.0
G2 F800.0 X7.625 Y219.3505 I0.0 J0.75
G2 Y220.6495 I0.375 J0.6495
G2 X8.75 Y220.0 I0.375 J-0.6495
G2 X8.0 Y219.25 I-0.75 J0.0
G1 F300.0 Z-3.0
G2 F800.0 X7.625 Y219.3505 I0.0 J0.75
G2 Y220.6495 I0.375 J0.6495
G2 X8.75 Y220.0 I0.375 J-0.6495
G2 X8.0 Y219.25 I-0.75 J0.0
G1 F300.0 Z-4.0
G2 F800.0 X7.625 Y219.3505 I0.0 J0.75
G2 Y220.6495 I0.375 J0.6495
G2 X8.75 Y220.0 I0.375 J-0.6495
G2 X8.0 Y219.25 I-0.75 J0.0
G1 F300.0 Z-5.0
G2 F800.0 X7.625 Y219.3505 I0.0 J0.75
G2 Y220.6495 I0.375 J0.6495
G2 X8.75 Y220.0 I0.375 J-0.6495
G2 X8.0 Y219.25 I-0.75 J0.0
G1 F300.0 Z-6.0
G2 F800.0 X7.625 Y219.3505 I0.0 J0.75
G2 Y220.6495 I0.375 J0.6495
G2 X8.75 Y220.0 I0.375 J-0.6495
G2 X8.0 Y219.25 I-0.75 J0.0
G0 Z3.0
G0 Y259.25
G1 F300.0 Z-1.0
G2 F800.0 X7.625 Y259.3505 I0.0 J0.75
G2 Y260.6495 I0.375 J0.6495
G2 X8.75 Y260.0 I0.375 J-0.6495
G2 X8.0 Y259.25 I-0.75 J0.0
G1 F300.0 Z-2.0
G2 F800.0 X7.625 Y259.3505 I0.0 J0.75
G2 Y260.6495 I0.375 J0.6495
G2 X8.75 Y260.0 I0.375 J-0.6495
G2 X8.0 Y259.25 I-0.75 J0.0
G1 F300.0 Z-3.0
G2 F800.0 X7.625 Y259.3505 I0.0 J0.75
G2 Y260.6495 I0.375 J0.6495
G2 X8.75 Y260.0 I0.375 J-0.6495
G2 X8.0 Y259.25 I-0.75 J0.0
G1 F300.0 Z-4.0
G2 F800.0 X7.625 Y259.3505 I0.0 J0.75
G2 Y260.6495 I0.375 J0.6495
G2 X8.75 Y260.0 I0.375 J-0.6495
G2 X8.0 Y259.25 I-0.75 J0.0
G1 F300.0 Z-5.0
G2 F800.0 X7.625 Y259.3505 I0.0 J0.75
G2 Y260.6495 I0.375 J0.6495
G2 X8.75 Y260.0 I0.375 J-0.6495
G2 X8.0 Y259.25 I-0.75 J0.0
G1 F300.0 Z-6.0
G2 F800.0 X7.625 Y259.3505 I0.0 J0.75
G2 Y260.6495 I0.375 J0.6495
G2 X8.75 Y260.0 I0.375 J-0.6495
G2 X8.0 Y259.25 I-0.75 J0.0
G0 Z3.0
G0 Y289.25
G1 F300.0 Z-1.0
G2 F800.0 X7.625 Y289.3505 I0.0 J0.75
G2 Y290.6495 I0.375 J0.6495
G2 X8.75 Y290.0 I0.375 J-0.6495
G2 X8.0 Y289.25 I-0.75 J0.0
G1 F300.0 Z-2.0
G2 F800.0 X7.625 Y289.3505 I0.0 J0.75
G2 Y290.6495 I0.375 J0.6495
G2 X8.75 Y290.0 I0.375 J-0.6495
G2 X8.0 Y289.25 I-0.75 J0.0
G1 F300.0 Z-3.0
G2 F800.0 X7.625 Y289.3505 I0.0 J0.75
G2 Y290.6495 I0.375 J0.6495
G2 X8.75 Y290.0 I0.375 J-0.6495
G2 X8.0 Y289.25 I-0.75 J0.0
G1 F300.0 Z-4.0
G2 F800.0 X7.625 Y289.3505 I0.0 J0.75
G2 Y290.6495 I0.375 J0.6495
G2 X8.75 Y290.0 I0.375 J-0.6495
G2 X8.0 Y289.25 I-0.75 J0.0
G1 F300.0 Z-5.0
G2 F800.0 X7.625 Y289.3505 I0.0 J0.75
G2 Y290.6495 I0.375 J0.6495
G2 X8.75 Y290.0 I0.375 J-0.6495
G2 X8.0 Y289.25 I-0.75 J0.0
G1 F300.0 Z-6.0
G2 F800.0 X7.625 Y289.3505 I0.0 J0.75
G2 Y290.6495 I0.375 J0.6495
G2 X8.75 Y290.0 I0.375 J-0.6495
G2 X8.0 Y289.25 I-0.75 J0.0
G0 Z3.0
G0 X27.4329 Y331.3191
G1 F300.0 Z-1.0
G2 F800.0 X27.3724 Y331.3505 I0.3145 J0.6809
G2 Y332.6495 I0.375 J0.6495
G2 X28.4974 Y332.0 I0.375 J-0.6495
G2 X27.4329 Y331.3191 I-0.75 J0.0
G1 F300.0 Z-2.0
G2 F800.0 X27.3724 Y331.3505 I0.3145 J0.6809
G2 Y332.6495 I0.375 J0.6495
G2 X28.4974 Y332.0 I0.375 J-0.6495
G2 X27.4329 Y331.3191 I-0.75 J0.0
G1 F300.0 Z-3.0
G2 F800.0 X27.3724 Y331.3505 I0.3145 J0.6809
G2 Y332.6495 I0.375 J0.6495
G2 X28.4974 Y332.0 I0.375 J-0.6495
G2 X27.4329 Y331.3191 I-0.75 J0.0
G1 F300.0 Z-4.0
G2 F800.0 X27.3724 Y331.3505 I0.3145 J0.6809
G2 Y332.6495 I0.375 J0.6495
G2 X28.4974 Y332.0 I0.375 J-0.6495
G2 X27.4329 Y331.3191 I-0.75 J0.0
G1 F300.0 Z-5.0
G2 F800.0 X27.3724 Y331.3505 I0.3145 J0.6809
G2 Y332.6495 I0.375 J0.6495
G2 X28.4974 Y332.0 I0.375 J-0.6495
G2 X27.4329 Y331.3191 I-0.75 J0.0
G1 F300.0 Z-6.0
G2 F800.0 X27.3724 Y331.3505 I0.3145 J0.6809
G2 Y332.6495 I0.375 J0.6495
G2 X28.4974 Y332.0 I0.375 J-0.6495
G2 X27.4329 Y331.3191 I-0.75 J0.0
G0 Z3.0
G0 X107.44 Y331.9937
G1 F300.0 Z-1.0
G2 F800.0 X107.815 Y332.6495 I0.75 J0.0063
G2 X108.94 Y332.0 I0.375 J-0.6495
G2 X107.815 Y331.3505 I-0.75 J0.0
G2 X107.44 Y331.9937 I0.375 J0.6495
G1 F300.0 Z-2.0
G2 F800.0 X107.815 Y332.6495 I0.75 J0.0063
G2 X108.94 Y332.0 I0.375 J-0.6495
G2 X107.815 Y331.3505 I-0.75 J0.0
G2 X107.44 Y331.9937 I0.375 J0.6495
G1 F300.0 Z-3.0
G2 F800.0 X107.815 Y332.6495 I0.75 J0.0063
G2 X108.94 Y332.0 I0.375 J-0.6495
G2 X107.815 Y331.3505 I-0.75 J0.0
G2 X107.44 Y331.9937 I0.375 J0.6495
G1 F300.0 Z-4.0
G2 F800.0 X107.815 Y332.6495 I0.75 J0.0063
G2 X108.94 Y332.0 I0.375 J-0.6495
G2 X107.815 Y331.3505 I-0.75 J0.0
G2 X107.44 Y331.9937 I0.375 J0.6495
G1 F300.0 Z-5.0
G2 F800.0 X107.815 Y332.6495 I0.75 J0.0063
G2 X108.94 Y332.0 I0.375 J-0.6495
G2 X107.815 Y331.3505 I-0.75 J0.0
G2 X107.44 Y331.9937 I0.375 J0.6495
G1 F300.0 Z-6.0
G2 F800.0 X107.815 Y332.6495 I0.75 J0.0063
G2 X108.94 Y332.0 I0.375 J-0.6495
G2 X107.815 Y331.3505 I-0.75 J0.0
G2 X107.44 Y331.9937 I0.375 J0.6495
( Poche1 )
S1000
G0 Z3.0
G0 X55.852 Y93.5011
G1 F300.0 Z-1.0
G1 F800.0 X56.3012
G3 X56.3733 Y92.6011 I25.0008 J1.55
G1 X55.852
G1 Y93.5011
G1 F300.0 X55.252
G1 F800.0 Y94.1011
G1 X56.8716
G3 X57.0442 Y92.0011 I24.4303 J0.95
G1 X55.252
G1 Y93.5011
G1 F300.0 X54.652
G1 F800.0 Y94.7011
G1 X57.4557
G3 X57.7341 Y91.4011 I23.8462 J0.35
G1 X54.652
G1 Y93.5011
G1 F300.0 X54.052
G1 F800.0 Y95.3011
G1 X58.0545
G3 X58.4449 Y90.8011 I23.2475 J-0.25
G1 X54.052
G1 Y93.5011
G1 F300.0 X53.452
G1 F800.0 Y95.9011
G1 X58.6691
G3 X59.1786 Y90.2011 I22.6328 J-0.85
G1 X53.452
G1 Y93.5011
G1 F300.0 X52.852
G1 F800.0 Y96.5011
G1 X59.3009
G3 X59.9374 Y89.6011 I22.0011 J-1.45
G1 X52.852
G1 Y93.5011
G1 F300.0 X52.252
G1 F800.0 Y97.1011
G1 X59.9514
G3 X60.7241 Y89.0011 I21.3506 J-2.05
G1 X52.252
G1 Y93.5011
G1 F300.0 X51.652
G1 F800.0 Y97.7011
G1 X60.6223
G3 X61.5422 Y88.4011 I20.6797 J-2.65
G1 X51.652
G1 Y93.5011
G1 F300.0 X51.052
G1 F800.0 Y98.3011
G1 X61.3157
G3 X62.3956 Y87.8011 I19.9863 J-3.25
G1 X51.052
G1 Y93.5011
G1 F300.0 X50.452
G1 F800.0 Y98.9011
G1 X62.0341
G3 X63.2894 Y87.2011 I19.2679 J-3.85
G1 X50.452
G1 Y93.5011
G1 F300.0 X49.852
G1 F800.0 Y99.5011
G1 X62.7803
G3 X64.2299 Y86.6011 I18.5217 J-4.45
G1 X49.852
G1 Y93.5011
G1 F300.0 X49.252
G1 F800.0 Y100.1011
G1 X63.5578
G3 X65.2254 Y86.0011 I17.7442 J-5.05
G1 X49.252
G1 Y93.5011
G1 F300.0 X48.652
G1 F800.0 Y100.7011
G1 X64.371
G3 X66.2867 Y85.4011 I16.931 J-5.65
G1 X48.652
G1 Y93.5011
G1 F300.0 X48.052
G1 F800.0 Y101.3011
G1 X65.2253
G3 X67.429 Y84.8011 I16.0766 J-6.25
G1 X48.052
G1 Y93.5011
G1 F300.0 X47.452
G1 F800.0 Y101.9011
G1 X66.1277
G3 X68.6742 Y84.2011 I15.1743 J-6.85
G1 X47.452
G1 Y93.5011
G1 F300.0 X46.852
G1 F800.0 Y102.5011
G1 X67.0871
G3 X70.0565 Y83.6011 I14.2148 J-7.45
G1 X46.852
G1 Y93.5011
G1 F300.0 X46.252
G1 F800.0 Y103.1011
G1 X68.1163
G3 X71.6344 Y83.0011 I13.1857 J-8.05
G1 X46.252
G1 Y93.5011
G1 F300.0 X45.652
G1 F800.0 Y103.7011
G1 X69.2328
G3 X73.5261 Y82.4011 I12.0691 J-8.65
G1 X45.652
G1 Y93.5011
G1 F300.0 X45.052
G1 F800.0 Y104.3011
G1 X70.4638
G3 X74.1776 Y82.7112 I10.8382 J-9.25
G3 X76.0612 Y81.8011 I7.1244 J12.3398
G1 X45.052
G1 Y93.5011
G0 Z3.0
G0 X97.3785 Y86.0011
G1 F300.0 Z-1.0
G3 F800.0 X98.352 Y88.0044 I-16.0766 J9.05
G1 Y86.0011
G1 X97.3785
G1 F300.0 X96.8557 Y86.2954
G3 F800.0 X98.952 Y92.3945 I-15.5537 J8.7557
G1 Y85.4011
G1 X96.3172
G3 X96.8557 Y86.2954 I-15.0152 J9.65
G0 Z3.0
G0 X98.952 Y97.7076
G1 F300.0 Z-1.0
G3 F800.0 X98.2329 Y100.7011 I-17.65 J-2.6565
G1 X98.952
G1 Y97.7076
G1 F300.0 X99.552
G1 F800.0 Y84.8011
G1 X95.1749
G3 X98.5508 Y95.0511 I-13.8729 J10.25
G3 X97.3786 Y101.3011 I-17.2488 J0.0
G1 X99.552
G1 Y97.7076
G1 F300.0 X100.152
G1 F800.0 Y84.2011
G1 X93.9297
G3 X97.9508 Y95.0511 I-12.6277 J10.85
G3 X96.4763 Y101.9011 I-16.6488 J0.0
G1 X100.152
G1 Y97.7076
G1 F300.0 X100.752
G1 F800.0 Y83.6011
G1 X92.5475
G3 X97.3508 Y95.0511 I-11.2455 J11.45
G3 X95.5168 Y102.5011 I-16.0488 J0.0
G1 X100.752
G1 Y97.7076
G1 F300.0 X101.352
G1 F800.0 Y83.0011
G1 X90.9696
G3 X96.7508 Y95.0511 I-9.6676 J12.05
G3 X94.4877 Y103.1011 I-15.4488 J0.0
G1 X101.352
G1 Y97.7076
G1 F300.0 X101.952
G1 F800.0 Y82.4011
G1 X89.0779
G3 X96.1508 Y95.0511 I-7.7759 J12.65
G3 X93.3711 Y103.7011 I-14.8488 J0.0
G1 X101.952
G1 Y97.7076
G1 F300.0 X102.552
G1 F800.0 Y81.8011
G1 X86.5428
G3 X95.5508 Y95.0511 I-5.2408 J13.25
G3 X92.1401 Y104.3011 I-14.2488 J0.0
G1 X102.552
G1 Y97.7076
G1 F300.0 X103.152
G1 F800.0 Y81.2011
G1 X44.452
G1 Y104.9011
G1 X71.8538
G3 X74.4776 Y83.2309 I9.4481 J-9.85
G3 X94.9508 Y95.0511 I6.8244 J11.8202
G3 X90.7501 Y104.9011 I-13.6488 J0.0
G1 X103.152
G1 Y97.7076
G1 F300.0 X103.752
G1 F800.0 Y80.6011
G1 X43.852
G1 Y105.5011
G1 X73.4873
G3 X74.7776 Y83.7505 I7.8146 J-10.45
G3 X94.3508 Y95.0511 I6.5244 J11.3006
G3 X89.1166 Y105.5011 I-13.0488 J0.0
G1 X103.752
G1 Y97.7076
G1 F300.0 X104.352
G1 F800.0 Y80.0011
G1 X43.252
G1 Y106.1011
G1 X75.5687
G3 X75.0776 Y105.832 I5.7332 J-11.05
G3 Y84.2701 I6.2244 J-10.781
G3 X93.7508 Y95.0511 I6.2244 J10.781
G3 X87.0352 Y106.1011 I-12.4488 J0.0
G1 X104.352
G1 Y97.7076
G1 F300.0 X104.952
G1 F800.0 Y79.4011
G1 X42.652
G1 Y106.7011
G1 X79.1406
G3 X75.3776 Y105.3124 I2.1614 J-11.65
G3 Y84.7897 I5.9244 J-10.2614
G3 X93.1508 Y95.0511 I5.9244 J10.2614
G3 X83.4634 Y106.7011 I-11.8488 J0.0
G1 X104.952
G1 Y97.7076
G1 F300.0 X105.552
G1 F800.0 Y78.8011
G1 X42.052
G1 Y107.3011
G1 X105.552
G1 Y97.7076
G0 Z3.0
G0 X92.4851 Y96.2761
G1 F300.0 Z-1.0
G3 F800.0 X75.677 Y104.7938 I-11.1831 J-1.2251
G3 Y85.3083 I5.625 J-9.7428
G3 X92.552 Y95.0511 I5.625 J9.7428
G3 X92.4851 Y96.2761 I-11.25 J0.0
( Contour2 )
S1000
G0 Z3.0
G0 X29.9974 Y332.0
G1 F300.0 Z-1.0
G3 F800.0 X26.6224 Y333.9486 I-2.25 J0.0
G3 Y330.0514 I1.125 J-1.9486
G3 X29.9974 Y332.0 I1.125 J1.9486
G1 F300.0 Z-2.0
G3 F800.0 X26.6224 Y333.9486 I-2.25 J0.0
G3 Y330.0514 I1.125 J-1.9486
G3 X29.9974 Y332.0 I1.125 J1.9486
G1 F300.0 Z-3.0
G3 F800.0 X26.6224 Y333.9486 I-2.25 J0.0
G3 Y330.0514 I1.125 J-1.9486
G3 X29.9974 Y332.0 I1.125 J1.9486
G0 Z3.0
G0 X9.0439 Y291.9932
G1 F300.0 Z-1.0
G3 F800.0 X6.875 Y291.9486 I-1.0439 J-1.9932
G3 Y288.0514 I1.125 J-1.9486
G3 X10.25 Y290.0 I1.125 J1.9486
G3 X9.0439 Y291.9932 I-2.25 J0.0
G1 F300.0 Z-2.0
G3 F800.0 X6.875 Y291.9486 I-1.0439 J-1.9932
G3 Y288.0514 I1.125 J-1.9486
G3 X10.25 Y290.0 I1.125 J1.9486
G3 X9.0439 Y291.9932 I-2.25 J0.0
G1 F300.0 Z-3.0
G3 F800.0 X6.875 Y291.9486 I-1.0439 J-1.9932
G3 Y288.0514 I1.125 J-1.9486
G3 X10.25 Y290.0 I1.125 J1.9486
G3 X9.0439 Y291.9932 I-2.25 J0.0
G0 Z3.0
G0 X8.0734 Y262.2488
G1 F300.0 Z-1.0
G3 F800.0 X6.875 Y261.9486 I-0.0734 J-2.2488
G3 Y258.0514 I1.125 J-1.9486
G3 X10.25 Y260.0 I1.125 J1.9486
G3 X8.0734 Y262.2488 I-2.25 J0.0
G1 F300.0 Z-2.0
G3 F800.0 X6.875 Y261.9486 I-0.0734 J-2.2488
G3 Y258.0514 I1.125 J-1.9486
G3 X10.25 Y260.0 I1.125 J1.9486
G3 X8.0734 Y262.2488 I-2.25 J0.0
G1 F300.0 Z-3.0
G3 F800.0 X6.875 Y261.9486 I-0.0734 J-2.2488
G3 Y258.0514 I1.125 J-1.9486
G3 X10.25 Y260.0 I1.125 J1.9486
G3 X8.0734 Y262.2488 I-2.25 J0.0
G0 Z3.0
G0 X8.0039 Y222.25
G1 F300.0 Z-1.0
G3 F800.0 X6.875 Y221.9486 I-0.0039 J-2.25
G3 Y218.0514 I1.125 J-1.9486
G3 X10.25 Y220.0 I1.125 J1.9486
G3 X8.0039 Y222.25 I-2.25 J0.0
G1 F300.0 Z-2.0
G3 F800.0 X6.875 Y221.9486 I-0.0039 J-2.25
G3 Y218.0514 I1.125 J-1.9486
G3 X10.25 Y220.0 I1.125 J1.9486
G3 X8.0039 Y222.25 I-2.25 J0.0
G1 F300.0 Z-3.0
G3 F800.0 X6.875 Y221.9486 I-0.0039 J-2.25
G3 Y218.0514 I1.125 J-1.9486
G3 X10.25 Y220.0 I1.125 J1.9486
G3 X8.0039 Y222.25 I-2.25 J0.0
G0 Z3.0
G0 X8.0003 Y192.25
G1 F300.0 Z-1.0
G3 F800.0 X6.875 Y191.9486 I-0.0003 J-2.25
G3 Y188.0514 I1.125 J-1.9486
G3 X10.25 Y190.0 I1.125 J1.9486
G3 X8.0003 Y192.25 I-2.25 J0.0
G1 F300.0 Z-2.0
G3 F800.0 X6.875 Y191.9486 I-0.0003 J-2.25
G3 Y188.0514 I1.125 J-1.9486
G3 X10.25 Y190.0 I1.125 J1.9486
G3 X8.0003 Y192.25 I-2.25 J0.0
G1 F300.0 Z-3.0
G3 F800.0 X6.875 Y191.9486 I-0.0003 J-2.25
G3 Y188.0514 I1.125 J-1.9486
G3 X10.25 Y190.0 I1.125 J1.9486
G3 X8.0003 Y192.25 I-2.25 J0.0
G0 Z3.0
G0 X8.0 Y152.25
G1 F300.0 Z-1.0
G3 F800.0 X6.875 Y151.9486 I0.0 J-2.25
G3 Y148.0514 I1.125 J-1.9486
G3 X10.25 Y150.0 I1.125 J1.9486
G3 X8.0 Y152.25 I-2.25 J0.0
G1 F300.0 Z-2.0
G3 F800.0 X6.875 Y151.9486 I0.0 J-2.25
G3 Y148.0514 I1.125 J-1.9486
G3 X10.25 Y150.0 I1.125 J1.9486
G3 X8.0 Y152.25 I-2.25 J0.0
G1 F300.0 Z-3.0
G3 F800.0 X6.875 Y151.9486 I0.0 J-2.25
G3 Y148.0514 I1.125 J-1.9486
G3 X10.25 Y150.0 I1.125 J1.9486
G3 X8.0 Y152.25 I-2.25 J0.0
G0 Z3.0
G0 Y122.25
G1 F300.0 Z-1.0
G3 F800.0 X6.875 Y121.9486 I0.0 J-2.25
G3 Y118.0514 I1.125 J-1.9486
G3 X10.25 Y120.0 I1.125 J1.9486
G3 X8.0 Y122.25 I-2.25 J0.0
G1 F300.0 Z-2.0
G3 F800.0 X6.875 Y121.9486 I0.0 J-2.25
G3 Y118.0514 I1.125 J-1.9486
G3 X10.25 Y120.0 I1.125 J1.9486
G3 X8.0 Y122.25 I-2.25 J0.0
G1 F300.0 Z-3.0
G3 F800.0 X6.875 Y121.9486 I0.0 J-2.25
G3 Y118.0514 I1.125 J-1.9486
G3 X10.25 Y120.0 I1.125 J1.9486
G3 X8.0 Y122.25 I-2.25 J0.0
G0 Z3.0
G0 Y82.25
G1 F300.0 Z-1.0
G3 F800.0 X6.875 Y81.9486 I0.0 J-2.25
G3 Y78.0514 I1.125 J-1.9486
G3 X10.25 Y80.0 I1.125 J1.9486
G3 X8.0 Y82.25 I-2.25 J0.0
G1 F300.0 Z-2.0
G3 F800.0 X6.875 Y81.9486 I0.0 J-2.25
G3 Y78.0514 I1.125 J-1.9486
G3 X10.25 Y80.0 I1.125 J1.9486
G3 X8.0 Y82.25 I-2.25 J0.0
G1 F300.0 Z-3.0
G3 F800.0 X6.875 Y81.9486 I0.0 J-2.25
G3 Y78.0514 I1.125 J-1.9486
G3 X10.25 Y80.0 I1.125 J1.9486
G3 X8.0 Y82.25 I-2.25 J0.0
G0 Z3.0
G0 Y52.25
G1 F300.0 Z-1.0
G3 F800.0 X6.875 Y51.9486 I0.0 J-2.25
G3 Y48.0514 I1.125 J-1.9486
G3 X10.25 Y50.0 I1.125 J1.9486
G3 X8.0 Y52.25 I-2.25 J0.0
G1 F300.0 Z-2.0
G3 F800.0 X6.875 Y51.9486 I0.0 J-2.25
G3 Y48.0514 I1.125 J-1.9486
G3 X10.25 Y50.0 I1.125 J1.9486
G3 X8.0 Y52.25 I-2.25 J0.0
G1 F300.0 Z-3.0
G3 F800.0 X6.875 Y51.9486 I0.0 J-2.25
G3 Y48.0514 I1.125 J-1.9486
G3 X10.25 Y50.0 I1.125 J1.9486
G3 X8.0 Y52.25 I-2.25 J0.0
G0 Z3.0
G0 X45.6542 Y9.6852
G1 F300.0 Z-1.0
G3 F800.0 X46.02 Y6.0514 I1.4908 J-1.6852
G3 X49.395 Y8.0 I1.125 J1.9486
G3 X46.02 Y9.9486 I-2.25 J0.0
G3 X45.6542 Y9.6852 I1.125 J-1.9486
G1 F300.0 Z-2.0
G3 F800.0 X46.02 Y6.0514 I1.4908 J-1.6852
G3 X49.395 Y8.0 I1.125 J1.9486
G3 X46.02 Y9.9486 I-2.25 J0.0
G3 X45.6542 Y9.6852 I1.125 J-1.9486
G1 F300.0 Z-3.0
G3 F800.0 X46.02 Y6.0514 I1.4908 J-1.6852
G3 X49.395 Y8.0 I1.125 J1.9486
G3 X46.02 Y9.9486 I-2.25 J0.0
G3 X45.6542 Y9.6852 I1.125 J-1.9486
G0 Z3.0
G0 X81.1922 Y8.1002
G1 F300.0 Z-1.0
G3 F800.0 X82.315 Y6.0514 I2.2478 J-0.1002
G3 X85.69 Y8.0 I1.125 J1.9486
G3 X82.315 Y9.9486 I-2.25 J0.0
G3 X81.1922 Y8.1002 I1.125 J-1.9486
G1 F300.0 Z-2.0
G3 F800.0 X82.315 Y6.0514 I2.2478 J-0.1002
G3 X85.69 Y8.0 I1.125 J1.9486
G3 X82.315 Y9.9486 I-2.25 J0.0
G3 X81.1922 Y8.1002 I1.125 J-1.9486
G1 F300.0 Z-3.0
G3 F800.0 X82.315 Y6.0514 I2.2478 J-0.1002
G3 X85.69 Y8.0 I1.125 J1.9486
G3 X82.315 Y9.9486 I-2.25 J0.0
G3 X81.1922 Y8.1002 I1.125 J-1.9486
G0 Z3.0
G0 X135.0459 Y54.5308
G1 F300.0 Z-1.0
G3 F800.0 X135.625 Y54.0514 I1.7041 J1.4692
G3 X139.0 Y56.0 I1.125 J1.9486
G3 X135.625 Y57.9486 I-2.25 J0.0
G3 X135.0459 Y54.5308 I1.125 J-1.9486
G1 F300.0 Z-2.0
G3 F800.0 X135.625 Y54.0514 I1.7041 J1.4692
G3 X139.0 Y56.0 I1.125 J1.9486
G3 X135.625 Y57.9486 I-2.25 J0.0
G3 X135.0459 Y54.5308 I1.125 J-1.9486
G1 F300.0 Z-3.0
G3 F800.0 X135.625 Y54.0514 I1.7041 J1.4692
G3 X139.0 Y56.0 I1.125 J1.9486
G3 X135.625 Y57.9486 I-2.25 J0.0
G3 X135.0459 Y54.5308 I1.125 J-1.9486
G0 Z3.0
G0 X136.6283 Y83.7533
G1 F300.0 Z-1.0
G3 F800.0 X139.0 Y86.0 I0.1217 J2.2467
G3 X135.625 Y87.9486 I-2.25 J0.0
G3 Y84.0514 I1.125 J-1.9486
G3 X136.6283 Y83.7533 I1.125 J1.9486
G1 F300.0 Z-2.0
G3 F800.0 X139.0 Y86.0 I0.1217 J2.2467
G3 X135.625 Y87.9486 I-2.25 J0.0
G3 Y84.0514 I1.125 J-1.9486
G3 X136.6283 Y83.7533 I1.125 J1.9486
G1 F300.0 Z-3.0
G3 F800.0 X139.0 Y86.0 I0.1217 J2.2467
G3 X135.625 Y87.9486 I-2.25 J0.0
G3 Y84.0514 I1.125 J-1.9486
G3 X136.6283 Y83.7533 I1.125 J1.9486
G0 Z3.0
G0 X136.7442 Y128.75
G1 F300.0 Z-1.0
G3 F800.0 X139.0 Y131.0 I0.0058 J2.25
G3 X135.625 Y132.9486 I-2.25 J0.0
G3 Y129.0514 I1.125 J-1.9486
G3 X136.7442 Y128.75 I1.125 J1.9486
G1 F300.0 Z-2.0
G3 F800.0 X139.0 Y131.0 I0.0058 J2.25
G3 X135.625 Y132.9486 I-2.25 J0.0
G3 Y129.0514 I1.125 J-1.9486
G3 X136.7442 Y128.75 I1.125 J1.9486
G1 F300.0 Z-3.0
G3 F800.0 X139.0 Y131.0 I0.0058 J2.25
G3 X135.625 Y132.9486 I-2.25 J0.0
G3 Y129.0514 I1.125 J-1.9486
G3 X136.7442 Y128.75 I1.125 J1.9486
G0 Z3.0
G0 X136.7496 Y158.75
G1 F300.0 Z-1.0
G3 F800.0 X139.0 Y161.0 I0.0004 J2.25
G3 X135.625 Y162.9486 I-2.25 J0.0
G3 Y159.0514 I1.125 J-1.9486
G3 X136.7496 Y158.75 I1.125 J1.9486
G1 F300.0 Z-2.0
G3 F800.0 X139.0 Y161.0 I0.0004 J2.25
G3 X135.625 Y162.9486 I-2.25 J0.0
G3 Y159.0514 I1.125 J-1.9486
G3 X136.7496 Y158.75 I1.125 J1.9486
G1 F300.0 Z-3.0
G3 F800.0 X139.0 Y161.0 I0.0004 J2.25
G3 X135.625 Y162.9486 I-2.25 J0.0
G3 Y159.0514 I1.125 J-1.9486
G3 X136.7496 Y158.75 I1.125 J1.9486
G0 Z3.0
G0 X136.75 Y176.75
G1 F300.0 Z-1.0
G3 F800.0 X139.0 Y179.0 I0.0 J2.25
G3 X135.625 Y180.9486 I-2.25 J0.0
G3 Y177.0514 I1.125 J-1.9486
G3 X136.75 Y176.75 I1.125 J1.9486
G1 F300.0 Z-2.0
G3 F800.0 X139.0 Y179.0 I0.0 J2.25
G3 X135.625 Y180.9486 I-2.25 J0.0
G3 Y177.0514 I1.125 J-1.9486
G3 X136.75 Y176.75 I1.125 J1.9486
G1 F300.0 Z-3.0
G3 F800.0 X139.0 Y179.0 I0.0 J2.25
G3 X135.625 Y180.9486 I-2.25 J0.0
G3 Y177.0514 I1.125 J-1.9486
G3 X136.75 Y176.75 I1.125 J1.9486
G0 Z3.0
G0 Y206.75
G1 F300.0 Z-1.0
G3 F800.0 X139.0 Y209.0 I0.0 J2.25
G3 X135.625 Y210.9486 I-2.25 J0.0
G3 Y207.0514 I1.125 J-1.9486
G3 X136.75 Y206.75 I1.125 J1.9486
G1 F300.0 Z-2.0
G3 F800.0 X139.0 Y209.0 I0.0 J2.25
G3 X135.625 Y210.9486 I-2.25 J0.0
G3 Y207.0514 I1.125 J-1.9486
G3 X136.75 Y206.75 I1.125 J1.9486
G1 F300.0 Z-3.0
G3 F800.0 X139.0 Y209.0 I0.0 J2.25
G3 X135.625 Y210.9486 I-2.25 J0.0
G3 Y207.0514 I1.125 J-1.9486
G3 X136.75 Y206.75 I1.125 J1.9486
G0 Z3.0
G0 Y251.75
G1 F300.0 Z-1.0
G3 F800.0 X139.0 Y254.0 I0.0 J2.25
G3 X135.625 Y255.9486 I-2.25 J0.0
G3 Y252.0514 I1.125 J-1.9486
G3 X136.75 Y251.75 I1.125 J1.9486
G1 F300.0 Z-2.0
G3 F800.0 X139.0 Y254.0 I0.0 J2.25
G3 X135.625 Y255.9486 I-2.25 J0.0
G3 Y252.0514 I1.125 J-1.9486
G3 X136.75 Y251.75 I1.125 J1.9486
G1 F300.0 Z-3.0
G3 F800.0 X139.0 Y254.0 I0.0 J2.25
G3 X135.625 Y255.9486 I-2.25 J0.0
G3 Y252.0514 I1.125 J-1.9486
G3 X136.75 Y251.75 I1.125 J1.9486
G0 Z3.0
G0 Y281.75
G1 F300.0 Z-1.0
G3 F800.0 X139.0 Y284.0 I0.0 J2.25
G3 X135.625 Y285.9486 I-2.25 J0.0
G3 Y282.0514 I1.125 J-1.9486
G3 X136.75 Y281.75 I1.125 J1.9486
G1 F300.0 Z-2.0
G3 F800.0 X139.0 Y284.0 I0.0 J2.25
G3 X135.625 Y285.9486 I-2.25 J0.0
G3 Y282.0514 I1.125 J-1.9486
G3 X136.75 Y281.75 I1.125 J1.9486
G1 F300.0 Z-3.0
G3 F800.0 X139.0 Y284.0 I0.0 J2.25
G3 X135.625 Y285.9486 I-2.25 J0.0
G3 Y282.0514 I1.125 J-1.9486
G3 X136.75 Y281.75 I1.125 J1.9486
G0 Z3.0
G0 X109.3018 Y330.0439
G1 F300.0 Z-1.0
G3 F800.0 X110.44 Y332.0 I-1.1118 J1.9561
G3 X107.065 Y333.9486 I-2.25 J0.0
G3 Y330.0514 I1.125 J-1.9486
G3 X109.3018 Y330.0439 I1.125 J1.9486
G1 F300.0 Z-2.0
G3 F800.0 X110.44 Y332.0 I-1.1118 J1.9561
G3 X107.065 Y333.9486 I-2.25 J0.0
G3 Y330.0514 I1.125 J-1.9486
G3 X109.3018 Y330.0439 I1.125 J1.9486
G1 F300.0 Z-3.0
G3 F800.0 X110.44 Y332.0 I-1.1118 J1.9561
G3 X107.065 Y333.9486 I-2.25 J0.0
G3 Y330.0514 I1.125 J-1.9486
G3 X109.3018 Y330.0439 I1.125 J1.9486
( Contour3 )
S1000
G0 Z3.0
G0 X50.552 Y81.0511
G1 F300.0 Z-1.0
G3 F800.0 X47.177 Y82.9996 I-2.25 J0.0
G3 Y79.1025 I1.125 J-1.9486
G3 X50.552 Y81.0511 I1.125 J1.9486
G1 F300.0 Z-2.0
G3 F800.0 X47.177 Y82.9996 I-2.25 J0.0
G3 Y79.1025 I1.125 J-1.9486
G3 X50.552 Y81.0511 I1.125 J1.9486
G1 F300.0 Z-3.0
G3 F800.0 X47.177 Y82.9996 I-2.25 J0.0
G3 Y79.1025 I1.125 J-1.9486
G3 X50.552 Y81.0511 I1.125 J1.9486
G1 F300.0 Z-4.0
G3 F800.0 X47.177 Y82.9996 I-2.25 J0.0
G3 Y79.1025 I1.125 J-1.9486
G3 X50.552 Y81.0511 I1.125 J1.9486
G0 Z3.0
G0 X97.052
G1 F300.0 Z-1.0
G3 F800.0 X98.177 Y79.1025 I2.25 J0.0
G3 X101.552 Y81.0511 I1.125 J1.9486
G3 X98.177 Y82.9996 I-2.25 J0.0
G3 X97.052 Y81.0511 I1.125 J-1.9486
G1 F300.0 Z-2.0
G3 F800.0 X98.177 Y79.1025 I2.25 J0.0
G3 X101.552 Y81.0511 I1.125 J1.9486
G3 X98.177 Y82.9996 I-2.25 J0.0
G3 X97.052 Y81.0511 I1.125 J-1.9486
G1 F300.0 Z-3.0
G3 F800.0 X98.177 Y79.1025 I2.25 J0.0
G3 X101.552 Y81.0511 I1.125 J1.9486
G3 X98.177 Y82.9996 I-2.25 J0.0
G3 X97.052 Y81.0511 I1.125 J-1.9486
G1 F300.0 Z-4.0
G3 F800.0 X98.177 Y79.1025 I2.25 J0.0
G3 X101.552 Y81.0511 I1.125 J1.9486
G3 X98.177 Y82.9996 I-2.25 J0.0
G3 X97.052 Y81.0511 I1.125 J-1.9486
( Contour4 )
S1000
G0 Z3.0
G0 X18.125 Y60.75
G1 F300.0 Z-1.0
G1 F800.0 Y119.25
G1 X17.9053 Y119.4697
G1 X18.125 Y119.25
G1 X126.625
G1 X126.8447 Y119.4697
G1 X126.625 Y119.25
G1 Y60.75
G1 X126.8447 Y60.5303
G1 X126.625 Y60.75
G1 X18.125
G1 X17.9053 Y60.5303
G1 X18.125 Y60.75
G1 F300.0 Z-2.0
G1 F800.0 Y119.25
G1 X17.9053 Y119.4697
G1 X18.125 Y119.25
G1 X126.625
G1 X126.8447 Y119.4697
G1 X126.625 Y119.25
G1 Y60.75
G1 X126.8447 Y60.5303
G1 X126.625 Y60.75
G1 X18.125
G1 X17.9053 Y60.5303
G1 X18.125 Y60.75
G1 F300.0 Z-3.0
G1 F800.0 Y119.25
G1 X17.9053 Y119.4697
G1 X18.125 Y119.25
G1 X126.625
G1 X126.8447 Y119.4697
G1 X126.625 Y119.25
G1 Y60.75
G1 X126.8447 Y60.5303
G1 X126.625 Y60.75
G1 X18.125
G1 X17.9053 Y60.5303
G1 X18.125 Y60.75
G1 F300.0 Z-4.0
G1 F800.0 Y119.25
G1 X17.9053 Y119.4697
G1 X18.125 Y119.25
G1 X126.625
G1 X126.8447 Y119.4697
G1 X126.625 Y119.25
G1 Y60.75
G1 X126.8447 Y60.5303
G1 X126.625 Y60.75
G1 X18.125
G1 X17.9053 Y60.5303
G1 X18.125 Y60.75
G1 F300.0 Z-5.0
G1 F800.0 Y101.75
G0 Z-4.0
G1 Y106.25
G1 F300.0 Z-5.0
G1 F800.0 Y119.25
G1 X17.9053 Y119.4697
G1 X18.125 Y119.25
G1 X102.75
G0 Z-4.0
G1 X107.25
G1 F300.0 Z-5.0
G1 F800.0 X126.625
G1 X126.8447 Y119.4697
G1 X126.625 Y119.25
G1 Y76.25
G0 Z-4.0
G1 Y71.75
G1 F300.0 Z-5.0
G1 F800.0 Y60.75
G1 X126.8447 Y60.5303
G1 X126.625 Y60.75
G1 X43.25
G0 Z-4.0
G1 X38.75
G1 F300.0 Z-5.0
G1 F800.0 X18.125
G1 X17.9053 Y60.5303
G1 X18.125 Y60.75
G1 F300.0 Z-6.0
G1 F800.0 Y101.75
G0 Z-4.0
G1 Y106.25
G1 F300.0 Z-6.0
G1 F800.0 Y119.25
G1 X17.9053 Y119.4697
G1 X18.125 Y119.25
G1 X102.75
G0 Z-4.0
G1 X107.25
G1 F300.0 Z-6.0
G1 F800.0 X126.625
G1 X126.8447 Y119.4697
G1 X126.625 Y119.25
G1 Y76.25
G0 Z-4.0
G1 Y71.75
G1 F300.0 Z-6.0
G1 F800.0 Y60.75
G1 X126.8447 Y60.5303
G1 X126.625 Y60.75
G1 X43.25
G0 Z-4.0
G1 X38.75
G1 F300.0 Z-6.0
G1 F800.0 X18.125
G1 X17.9053 Y60.5303
G1 X18.125 Y60.75
( Contour5 )
S1000
G0 Z3.0
G0 X74.54 Y10.25
G1 F300.0 Z-1.0
G1 F800.0 Y5.0
G3 X75.29 Y4.25 I0.75 J0.0
G1 X91.58
G3 X92.33 Y5.0 I0.0 J0.75
G1 Y10.25
G1 X92.1103 Y10.4697
G1 X92.33 Y10.25
G1 X110.83
G1 X111.0497 Y10.4697
G1 X110.83 Y10.25
G1 Y5.0
G3 X111.58 Y4.25 I0.75 J0.0
G1 X120.0
G3 X120.315 Y4.3194 I0.0 J0.75
G1 X140.065 Y13.4596
G3 X140.5 Y14.1403 I-0.315 J0.6806
G1 Y61.0
G3 X139.75 Y61.75 I-0.75 J0.0
G1 X134.5
G1 X134.2803 Y61.5303
G1 X134.5 Y61.75
G1 Y80.25
G1 X134.2803 Y80.4697
G1 X134.5 Y80.25
G1 X139.75
G3 X140.5 Y81.0 I0.0 J0.75
G1 Y136.0
G3 X139.75 Y136.75 I-0.75 J0.0
G1 X134.5
G1 X134.2803 Y136.5303
G1 X134.5 Y136.75
G1 Y155.25
G1 X134.2803 Y155.4697
G1 X134.5 Y155.25
G1 X139.75
G3 X140.5 Y156.0 I0.0 J0.75
G1 Y184.0
G3 X139.75 Y184.75 I-0.75 J0.0
G1 X134.5
G1 X134.2803 Y184.5303
G1 X134.5 Y184.75
G1 Y203.25
G1 X134.2803 Y203.4697
G1 X134.5 Y203.25
G1 X139.75
G3 X140.5 Y204.0 I0.0 J0.75
G1 Y259.0
G3 X139.75 Y259.75 I-0.75 J0.0
G1 X134.5
G1 X134.2803 Y259.5303
G1 X134.5 Y259.75
G1 Y278.25
G1 X134.2803 Y278.4697
G1 X134.5 Y278.25
G1 X139.75
G3 X140.5 Y279.0 I0.0 J0.75
G1 Y325.8597
G3 X140.065 Y326.5404 I-0.75 J0.0
G1 X120.315 Y335.6806
G3 X120.0 Y335.75 I-0.315 J-0.6806
G1 X104.79
G3 X104.04 Y335.0 I0.0 J-0.75
G1 Y329.75
G1 X104.2597 Y329.5303
G1 X104.04 Y329.75
G1 X90.0
G3 X89.25 Y329.0 I0.0 J-0.75
G1 Y209.75
G1 X89.4697 Y209.5303
G1 X89.25 Y209.75
G1 X32.75
G1 X32.5303 Y209.5303
G1 X32.75 Y209.75
G1 Y335.0
G3 X32.0 Y335.75 I-0.75 J0.0
G1 X23.4974
G3 X22.7474 Y335.0 I0.0 J-0.75
G1 Y329.75
G1 X22.9671 Y329.5303
G1 X22.7474 Y329.75
G1 X14.2474
G1 X14.0277 Y329.5303
G1 X14.2474 Y329.75
G1 Y335.0
G3 X13.4974 Y335.75 I-0.75 J0.0
G1 X5.0
G3 X4.25 Y335.0 I0.0 J-0.75
G1 Y285.0
G3 X5.0 Y284.25 I0.75 J0.0
G1 X10.25
G1 X10.4697 Y284.4697
G1 X10.25 Y284.25
G1 Y265.75
G1 X10.4697 Y265.5303
G1 X10.25 Y265.75
G1 X5.0
G3 X4.25 Y265.0 I0.0 J-0.75
G1 Y215.0
G3 X5.0 Y214.25 I0.75 J0.0
G1 X10.25
G1 X10.4697 Y214.4697
G1 X10.25 Y214.25
G1 Y195.75
G1 X10.4697 Y195.5303
G1 X10.25 Y195.75
G1 X5.0
G3 X4.25 Y195.0 I0.0 J-0.75
G1 Y145.0
G3 X5.0 Y144.25 I0.75 J0.0
G1 X10.25
G1 X10.4697 Y144.4697
G1 X10.25 Y144.25
G1 Y125.75
G1 X10.4697 Y125.5303
G1 X10.25 Y125.75
G1 X5.0
G3 X4.25 Y125.0 I0.0 J-0.75
G1 Y75.0
G3 X5.0 Y74.25 I0.75 J0.0
G1 X10.25
G1 X10.4697 Y74.4697
G1 X10.25 Y74.25
G1 Y55.75
G1 X10.4697 Y55.5303
G1 X10.25 Y55.75
G1 X5.0
G3 X4.25 Y55.0 I0.0 J-0.75
G1 Y5.0
G3 X5.0 Y4.25 I0.75 J0.0
G1 X19.0
G3 X19.75 Y5.0 I0.0 J0.75
G1 Y10.25
G1 X19.5303 Y10.4697
G1 X19.75 Y10.25
G1 X38.25
G1 X38.4697 Y10.4697
G1 X38.25 Y10.25
G1 Y5.0
G3 X39.0 Y4.25 I0.75 J0.0
G1 X55.29
G3 X56.04 Y5.0 I0.0 J0.75
G1 Y10.25
G1 X55.8203 Y10.4697
G1 X56.04 Y10.25
G1 X65.0
G3 X65.75 Y11.0 I0.0 J0.75
G1 Y31.25
G1 X65.5303 Y31.4697
G1 X65.75 Y31.25
G1 X72.25
G1 X72.4697 Y31.4697
G1 X72.25 Y31.25
G1 Y11.0
G3 X73.0 Y10.25 I0.75 J0.0
G1 X74.54
G1 X74.7597 Y10.4697
G1 X74.54 Y10.25
G1 F300.0 Z-2.0
G1 F800.0 Y5.0
G3 X75.29 Y4.25 I0.75 J0.0
G1 X91.58
G3 X92.33 Y5.0 I0.0 J0.75
G1 Y10.25
G1 X92.1103 Y10.4697
G1 X92.33 Y10.25
G1 X110.83
G1 X111.0497 Y10.4697
G1 X110.83 Y10.25
G1 Y5.0
G3 X111.58 Y4.25 I0.75 J0.0
G1 X120.0
G3 X120.315 Y4.3194 I0.0 J0.75
G1 X140.065 Y13.4596
G3 X140.5 Y14.1403 I-0.315 J0.6806
G1 Y61.0
G3 X139.75 Y61.75 I-0.75 J0.0
G1 X134.5
G1 X134.2803 Y61.5303
G1 X134.5 Y61.75
G1 Y80.25
G1 X134.2803 Y80.4697
G1 X134.5 Y80.25
G1 X139.75
G3 X140.5 Y81.0 I0.0 J0.75
G1 Y136.0
G3 X139.75 Y136.75 I-0.75 J0.0
G1 X134.5
G1 X134.2803 Y136.5303
G1 X134.5 Y136.75
G1 Y155.25
G1 X134.2803 Y155.4697
G1 X134.5 Y155.25
G1 X139.75
G3 X140.5 Y156.0 I0.0 J0.75
G1 Y184.0
G3 X139.75 Y184.75 I-0.75 J0.0
G1 X134.5
G1 X134.2803 Y184.5303
G1 X134.5 Y184.75
G1 Y203.25
G1 X134.2803 Y203.4697
G1 X134.5 Y203.25
G1 X139.75
G3 X140.5 Y204.0 I0.0 J0.75
G1 Y259.0
G3 X139.75 Y259.75 I-0.75 J0.0
G1 X134.5
G1 X134.2803 Y259.5303
G1 X134.5 Y259.75
G1 Y278.25
G1 X134.2803 Y278.4697
G1 X134.5 Y278.25
G1 X139.75
G3 X140.5 Y279.0 I0.0 J0.75
G1 Y325.8597
G3 X140.065 Y326.5404 I-0.75 J0.0
G1 X120.315 Y335.6806
G3 X120.0 Y335.75 I-0.315 J-0.6806
G1 X104.79
G3 X104.04 Y335.0 I0.0 J-0.75
G1 Y329.75
G1 X104.2597 Y329.5303
G1 X104.04 Y329.75
G1 X90.0
G3 X89.25 Y329.0 I0.0 J-0.75
G1 Y209.75
G1 X89.4697 Y209.5303
G1 X89.25 Y209.75
G1 X32.75
G1 X32.5303 Y209.5303
G1 X32.75 Y209.75
G1 Y335.0
G3 X32.0 Y335.75 I-0.75 J0.0
G1 X23.4974
G3 X22.7474 Y335.0 I0.0 J-0.75
G1 Y329.75
G1 X22.9671 Y329.5303
G1 X22.7474 Y329.75
G1 X14.2474
G1 X14.0277 Y329.5303
G1 X14.2474 Y329.75
G1 Y335.0
G3 X13.4974 Y335.75 I-0.75 J0.0
G1 X5.0
G3 X4.25 Y335.0 I0.0 J-0.75
G1 Y285.0
G3 X5.0 Y284.25 I0.75 J0.0
G1 X10.25
G1 X10.4697 Y284.4697
G1 X10.25 Y284.25
G1 Y265.75
G1 X10.4697 Y265.5303
G1 X10.25 Y265.75
G1 X5.0
G3 X4.25 Y265.0 I0.0 J-0.75
G1 Y215.0
G3 X5.0 Y214.25 I0.75 J0.0
G1 X10.25
G1 X10.4697 Y214.4697
G1 X10.25 Y214.25
G1 Y195.75
G1 X10.4697 Y195.5303
G1 X10.25 Y195.75
G1 X5.0
G3 X4.25 Y195.0 I0.0 J-0.75
G1 Y145.0
G3 X5.0 Y144.25 I0.75 J0.0
G1 X10.25
G1 X10.4697 Y144.4697
G1 X10.25 Y144.25
G1 Y125.75
G1 X10.4697 Y125.5303
G1 X10.25 Y125.75
G1 X5.0
G3 X4.25 Y125.0 I0.0 J-0.75
G1 Y75.0
G3 X5.0 Y74.25 I0.75 J0.0
G1 X10.25
G1 X10.4697 Y74.4697
G1 X10.25 Y74.25
G1 Y55.75
G1 X10.4697 Y55.5303
G1 X10.25 Y55.75
G1 X5.0
G3 X4.25 Y55.0 I0.0 J-0.75
G1 Y5.0
G3 X5.0 Y4.25 I0.75 J0.0
G1 X19.0
G3 X19.75 Y5.0 I0.0 J0.75
G1 Y10.25
G1 X19.5303 Y10.4697
G1 X19.75 Y10.25
G1 X38.25
G1 X38.4697 Y10.4697
G1 X38.25 Y10.25
G1 Y5.0
G3 X39.0 Y4.25 I0.75 J0.0
G1 X55.29
G3 X56.04 Y5.0 I0.0 J0.75
G1 Y10.25
G1 X55.8203 Y10.4697
G1 X56.04 Y10.25
G1 X65.0
G3 X65.75 Y11.0 I0.0 J0.75
G1 Y31.25
G1 X65.5303 Y31.4697
G1 X65.75 Y31.25
G1 X72.25
G1 X72.4697 Y31.4697
G1 X72.25 Y31.25
G1 Y11.0
G3 X73.0 Y10.25 I0.75 J0.0
G1 X74.54
G1 X74.7597 Y10.4697
G1 X74.54 Y10.25
G1 F300.0 Z-3.0
G1 F800.0 Y5.0
G3 X75.29 Y4.25 I0.75 J0.0
G1 X91.58
G3 X92.33 Y5.0 I0.0 J0.75
G1 Y10.25
G1 X92.1103 Y10.4697
G1 X92.33 Y10.25
G1 X110.83
G1 X111.0497 Y10.4697
G1 X110.83 Y10.25
G1 Y5.0
G3 X111.58 Y4.25 I0.75 J0.0
G1 X120.0
G3 X120.315 Y4.3194 I0.0 J0.75
G1 X140.065 Y13.4596
G3 X140.5 Y14.1403 I-0.315 J0.6806
G1 Y61.0
G3 X139.75 Y61.75 I-0.75 J0.0
G1 X134.5
G1 X134.2803 Y61.5303
G1 X134.5 Y61.75
G1 Y80.25
G1 X134.2803 Y80.4697
G1 X134.5 Y80.25
G1 X139.75
G3 X140.5 Y81.0 I0.0 J0.75
G1 Y136.0
G3 X139.75 Y136.75 I-0.75 J0.0
G1 X134.5
G1 X134.2803 Y136.5303
G1 X134.5 Y136.75
G1 Y155.25
G1 X134.2803 Y155.4697
G1 X134.5 Y155.25
G1 X139.75
G3 X140.5 Y156.0 I0.0 J0.75
G1 Y184.0
G3 X139.75 Y184.75 I-0.75 J0.0
G1 X134.5
G1 X134.2803 Y184.5303
G1 X134.5 Y184.75
G1 Y203.25
G1 X134.2803 Y203.4697
G1 X134.5 Y203.25
G1 X139.75
G3 X140.5 Y204.0 I0.0 J0.75
G1 Y259.0
G3 X139.75 Y259.75 I-0.75 J0.0
G1 X134.5
G1 X134.2803 Y259.5303
G1 X134.5 Y259.75
G1 Y278.25
G1 X134.2803 Y278.4697
G1 X134.5 Y278.25
G1 X139.75
G3 X140.5 Y279.0 I0.0 J0.75
G1 Y325.8597
G3 X140.065 Y326.5404 I-0.75 J0.0
G1 X120.315 Y335.6806
G3 X120.0 Y335.75 I-0.315 J-0.6806
G1 X104.79
G3 X104.04 Y335.0 I0.0 J-0.75
G1 Y329.75
G1 X104.2597 Y329.5303
G1 X104.04 Y329.75
G1 X90.0
G3 X89.25 Y329.0 I0.0 J-0.75
G1 Y209.75
G1 X89.4697 Y209.5303
G1 X89.25 Y209.75
G1 X32.75
G1 X32.5303 Y209.5303
G1 X32.75 Y209.75
G1 Y335.0
G3 X32.0 Y335.75 I-0.75 J0.0
G1 X23.4974
G3 X22.7474 Y335.0 I0.0 J-0.75
G1 Y329.75
G1 X22.9671 Y329.5303
G1 X22.7474 Y329.75
G1 X14.2474
G1 X14.0277 Y329.5303
G1 X14.2474 Y329.75
G1 Y335.0
G3 X13.4974 Y335.75 I-0.75 J0.0
G1 X5.0
G3 X4.25 Y335.0 I0.0 J-0.75
G1 Y285.0
G3 X5.0 Y284.25 I0.75 J0.0
G1 X10.25
G1 X10.4697 Y284.4697
G1 X10.25 Y284.25
G1 Y265.75
G1 X10.4697 Y265.5303
G1 X10.25 Y265.75
G1 X5.0
G3 X4.25 Y265.0 I0.0 J-0.75
G1 Y215.0
G3 X5.0 Y214.25 I0.75 J0.0
G1 X10.25
G1 X10.4697 Y214.4697
G1 X10.25 Y214.25
G1 Y195.75
G1 X10.4697 Y195.5303
G1 X10.25 Y195.75
G1 X5.0
G3 X4.25 Y195.0 I0.0 J-0.75
G1 Y145.0
G3 X5.0 Y144.25 I0.75 J0.0
G1 X10.25
G1 X10.4697 Y144.4697
G1 X10.25 Y144.25
G1 Y125.75
G1 X10.4697 Y125.5303
G1 X10.25 Y125.75
G1 X5.0
G3 X4.25 Y125.0 I0.0 J-0.75
G1 Y75.0
G3 X5.0 Y74.25 I0.75 J0.0
G1 X10.25
G1 X10.4697 Y74.4697
G1 X10.25 Y74.25
G1 Y55.75
G1 X10.4697 Y55.5303
G1 X10.25 Y55.75
G1 X5.0
G3 X4.25 Y55.0 I0.0 J-0.75
G1 Y5.0
G3 X5.0 Y4.25 I0.75 J0.0
G1 X19.0
G3 X19.75 Y5.0 I0.0 J0.75
G1 Y10.25
G1 X19.5303 Y10.4697
G1 X19.75 Y10.25
G1 X38.25
G1 X38.4697 Y10.4697
G1 X38.25 Y10.25
G1 Y5.0
G3 X39.0 Y4.25 I0.75 J0.0
G1 X55.29
G3 X56.04 Y5.0 I0.0 J0.75
G1 Y10.25
G1 X55.8203 Y10.4697
G1 X56.04 Y10.25
G1 X65.0
G3 X65.75 Y11.0 I0.0 J0.75
G1 Y31.25
G1 X65.5303 Y31.4697
G1 X65.75 Y31.25
G1 X72.25
G1 X72.4697 Y31.4697
G1 X72.25 Y31.25
G1 Y11.0
G3 X73.0 Y10.25 I0.75 J0.0
G1 X74.54
G1 X74.7597 Y10.4697
G1 X74.54 Y10.25
G1 F300.0 Z-4.0
G1 F800.0 Y5.0
G3 X75.29 Y4.25 I0.75 J0.0
G1 X91.58
G3 X92.33 Y5.0 I0.0 J0.75
G1 Y10.25
G1 X92.1103 Y10.4697
G1 X92.33 Y10.25
G1 X110.83
G1 X111.0497 Y10.4697
G1 X110.83 Y10.25
G1 Y5.0
G3 X111.58 Y4.25 I0.75 J0.0
G1 X120.0
G3 X120.315 Y4.3194 I0.0 J0.75
G1 X140.065 Y13.4596
G3 X140.5 Y14.1403 I-0.315 J0.6806
G1 Y61.0
G3 X139.75 Y61.75 I-0.75 J0.0
G1 X134.5
G1 X134.2803 Y61.5303
G1 X134.5 Y61.75
G1 Y80.25
G1 X134.2803 Y80.4697
G1 X134.5 Y80.25
G1 X139.75
G3 X140.5 Y81.0 I0.0 J0.75
G1 Y136.0
G3 X139.75 Y136.75 I-0.75 J0.0
G1 X134.5
G1 X134.2803 Y136.5303
G1 X134.5 Y136.75
G1 Y155.25
G1 X134.2803 Y155.4697
G1 X134.5 Y155.25
G1 X139.75
G3 X140.5 Y156.0 I0.0 J0.75
G1 Y184.0
G3 X139.75 Y184.75 I-0.75 J0.0
G1 X134.5
G1 X134.2803 Y184.5303
G1 X134.5 Y184.75
G1 Y203.25
G1 X134.2803 Y203.4697
G1 X134.5 Y203.25
G1 X139.75
G3 X140.5 Y204.0 I0.0 J0.75
G1 Y259.0
G3 X139.75 Y259.75 I-0.75 J0.0
G1 X134.5
G1 X134.2803 Y259.5303
G1 X134.5 Y259.75
G1 Y278.25
G1 X134.2803 Y278.4697
G1 X134.5 Y278.25
G1 X139.75
G3 X140.5 Y279.0 I0.0 J0.75
G1 Y325.8597
G3 X140.065 Y326.5404 I-0.75 J0.0
G1 X120.315 Y335.6806
G3 X120.0 Y335.75 I-0.315 J-0.6806
G1 X104.79
G3 X104.04 Y335.0 I0.0 J-0.75
G1 Y329.75
G1 X104.2597 Y329.5303
G1 X104.04 Y329.75
G1 X90.0
G3 X89.25 Y329.0 I0.0 J-0.75
G1 Y209.75
G1 X89.4697 Y209.5303
G1 X89.25 Y209.75
G1 X32.75
G1 X32.5303 Y209.5303
G1 X32.75 Y209.75
G1 Y335.0
G3 X32.0 Y335.75 I-0.75 J0.0
G1 X23.4974
G3 X22.7474 Y335.0 I0.0 J-0.75
G1 Y329.75
G1 X22.9671 Y329.5303
G1 X22.7474 Y329.75
G1 X14.2474
G1 X14.0277 Y329.5303
G1 X14.2474 Y329.75
G1 Y335.0
G3 X13.4974 Y335.75 I-0.75 J0.0
G1 X5.0
G3 X4.25 Y335.0 I0.0 J-0.75
G1 Y285.0
G3 X5.0 Y284.25 I0.75 J0.0
G1 X10.25
G1 X10.4697 Y284.4697
G1 X10.25 Y284.25
G1 Y265.75
G1 X10.4697 Y265.5303
G1 X10.25 Y265.75
G1 X5.0
G3 X4.25 Y265.0 I0.0 J-0.75
G1 Y215.0
G3 X5.0 Y214.25 I0.75 J0.0
G1 X10.25
G1 X10.4697 Y214.4697
G1 X10.25 Y214.25
G1 Y195.75
G1 X10.4697 Y195.5303
G1 X10.25 Y195.75
G1 X5.0
G3 X4.25 Y195.0 I0.0 J-0.75
G1 Y145.0
G3 X5.0 Y144.25 I0.75 J0.0
G1 X10.25
G1 X10.4697 Y144.4697
G1 X10.25 Y144.25
G1 Y125.75
G1 X10.4697 Y125.5303
G1 X10.25 Y125.75
G1 X5.0
G3 X4.25 Y125.0 I0.0 J-0.75
G1 Y75.0
G3 X5.0 Y74.25 I0.75 J0.0
G1 X10.25
G1 X10.4697 Y74.4697
G1 X10.25 Y74.25
G1 Y55.75
G1 X10.4697 Y55.5303
G1 X10.25 Y55.75
G1 X5.0
G3 X4.25 Y55.0 I0.0 J-0.75
G1 Y5.0
G3 X5.0 Y4.25 I0.75 J0.0
G1 X19.0
G3 X19.75 Y5.0 I0.0 J0.75
G1 Y10.25
G1 X19.5303 Y10.4697
G1 X19.75 Y10.25
G1 X38.25
G1 X38.4697 Y10.4697
G1 X38.25 Y10.25
G1 Y5.0
G3 X39.0 Y4.25 I0.75 J0.0
G1 X55.29
G3 X56.04 Y5.0 I0.0 J0.75
G1 Y10.25
G1 X55.8203 Y10.4697
G1 X56.04 Y10.25
G1 X65.0
G3 X65.75 Y11.0 I0.0 J0.75
G1 Y31.25
G1 X65.5303 Y31.4697
G1 X65.75 Y31.25
G1 X72.25
G1 X72.4697 Y31.4697
G1 X72.25 Y31.25
G1 Y11.0
G3 X73.0 Y10.25 I0.75 J0.0
G1 X74.54
G1 X74.7597 Y10.4697
G1 X74.54 Y10.25
G1 F300.0 Z-5.0
G1 F800.0 Y5.0
G3 X75.29 Y4.25 I0.75 J0.0
G1 X91.58
G3 X92.33 Y5.0 I0.0 J0.75
G1 Y10.25
G1 X92.1103 Y10.4697
G1 X92.33 Y10.25
G1 X110.83
G1 X111.0497 Y10.4697
G1 X110.83 Y10.25
G1 Y5.0
G3 X111.58 Y4.25 I0.75 J0.0
G1 X120.0
G3 X120.315 Y4.3194 I0.0 J0.75
G1 X126.3865 Y7.1292
G0 Z-4.0
G1 X130.4704 Y9.0192
G1 F300.0 Z-5.0
G1 F800.0 X140.065 Y13.4596
G3 X140.5 Y14.1403 I-0.315 J0.6806
G1 Y61.0
G3 X139.75 Y61.75 I-0.75 J0.0
G1 X134.5
G1 X134.2803 Y61.5303
G1 X134.5 Y61.75
G1 Y80.25
G1 X134.2803 Y80.4697
G1 X134.5 Y80.25
G1 X139.75
G3 X140.5 Y81.0 I0.0 J0.75
G1 Y136.0
G3 X139.75 Y136.75 I-0.75 J0.0
G1 X134.5
G1 X134.2803 Y136.5303
G1 X134.5 Y136.75
G1 Y155.25
G1 X134.2803 Y155.4697
G1 X134.5 Y155.25
G1 X139.75
G3 X140.5 Y156.0 I0.0 J0.75
G1 Y167.75
G0 Z-4.0
G1 Y172.25
G1 F300.0 Z-5.0
G1 F800.0 Y184.0
G3 X139.75 Y184.75 I-0.75 J0.0
G1 X134.5
G1 X134.2803 Y184.5303
G1 X134.5 Y184.75
G1 Y203.25
G1 X134.2803 Y203.4697
G1 X134.5 Y203.25
G1 X139.75
G3 X140.5 Y204.0 I0.0 J0.75
G1 Y232.75
G0 Z-4.0
G1 Y237.25
G1 F300.0 Z-5.0
G1 F800.0 Y259.0
G3 X139.75 Y259.75 I-0.75 J0.0
G1 X134.5
G1 X134.2803 Y259.5303
G1 X134.5 Y259.75
G1 Y278.25
G1 X134.2803 Y278.4697
G1 X134.5 Y278.25
G1 X139.75
G3 X140.5 Y279.0 I0.0 J0.75
G1 Y325.8597
G3 X140.065 Y326.5404 I-0.75 J0.0
G1 X130.9741 Y330.7476
G0 Z-4.0
G1 X126.8902 Y332.6376
G1 F300.0 Z-5.0
G1 F800.0 X120.315 Y335.6806
G3 X120.0 Y335.75 I-0.315 J-0.6806
G1 X104.79
G3 X104.04 Y335.0 I0.0 J-0.75
G1 Y329.75
G1 X104.2597 Y329.5303
G1 X104.04 Y329.75
G1 X90.0
G3 X89.25 Y329.0 I0.0 J-0.75
G1 Y275.25
G0 Z-4.0
G1 Y270.75
G1 F300.0 Z-5.0
G1 F800.0 Y209.75
G1 X89.4697 Y209.5303
G1 X89.25 Y209.75
G1 X32.75
G1 X32.5303 Y209.5303
G1 X32.75 Y209.75
G1 Y239.75
G0 Z-4.0
G1 Y244.25
G1 F300.0 Z-5.0
G1 F800.0 Y304.75
G0 Z-4.0
G1 Y309.25
G1 F300.0 Z-5.0
G1 F800.0 Y335.0
G3 X32.0 Y335.75 I-0.75 J0.0
G1 X23.4974
G3 X22.7474 Y335.0 I0.0 J-0.75
G1 Y329.75
G1 X22.9671 Y329.5303
G1 X22.7474 Y329.75
G1 X14.2474
G1 X14.0277 Y329.5303
G1 X14.2474 Y329.75
G1 Y335.0
G3 X13.4974 Y335.75 I-0.75 J0.0
G1 X5.0
G3 X4.25 Y335.0 I0.0 J-0.75
G1 Y324.25
G0 Z-4.0
G1 Y319.75
G1 F300.0 Z-5.0
G1 F800.0 Y285.0
G3 X5.0 Y284.25 I0.75 J0.0
G1 X10.25
G1 X10.4697 Y284.4697
G1 X10.25 Y284.25
G1 Y265.75
G1 X10.4697 Y265.5303
G1 X10.25 Y265.75
G1 X5.0
G3 X4.25 Y265.0 I0.0 J-0.75
G1 Y215.0
G3 X5.0 Y214.25 I0.75 J0.0
G1 X10.25
G1 X10.4697 Y214.4697
G1 X10.25 Y214.25
G1 Y195.75
G1 X10.4697 Y195.5303
G1 X10.25 Y195.75
G1 X5.0
G3 X4.25 Y195.0 I0.0 J-0.75
G1 Y170.25
G0 Z-4.0
G1 Y165.75
G1 F300.0 Z-5.0
G1 F800.0 Y145.0
G3 X5.0 Y144.25 I0.75 J0.0
G1 X10.25
G1 X10.4697 Y144.4697
G1 X10.25 Y144.25
G1 Y125.75
G1 X10.4697 Y125.5303
G1 X10.25 Y125.75
G1 X5.0
G3 X4.25 Y125.0 I0.0 J-0.75
G1 Y75.0
G3 X5.0 Y74.25 I0.75 J0.0
G1 X10.25
G1 X10.4697 Y74.4697
G1 X10.25 Y74.25
G1 Y55.75
G1 X10.4697 Y55.5303
G1 X10.25 Y55.75
G1 X5.0
G3 X4.25 Y55.0 I0.0 J-0.75
G1 Y19.25
G0 Z-4.0
G1 Y14.75
G1 F300.0 Z-5.0
G1 F800.0 Y5.0
G3 X5.0 Y4.25 I0.75 J0.0
G1 X19.0
G3 X19.75 Y5.0 I0.0 J0.75
G1 Y10.25
G1 X19.5303 Y10.4697
G1 X19.75 Y10.25
G1 X38.25
G1 X38.4697 Y10.4697
G1 X38.25 Y10.25
G1 Y5.0
G3 X39.0 Y4.25 I0.75 J0.0
G1 X55.29
G3 X56.04 Y5.0 I0.0 J0.75
G1 Y10.25
G1 X55.8203 Y10.4697
G1 X56.04 Y10.25
G1 X65.0
G3 X65.75 Y11.0 I0.0 J0.75
G1 Y31.25
G1 X65.5303 Y31.4697
G1 X65.75 Y31.25
G1 X72.25
G1 X72.4697 Y31.4697
G1 X72.25 Y31.25
G1 Y11.0
G3 X73.0 Y10.25 I0.75 J0.0
G1 X74.54
G1 X74.7597 Y10.4697
G1 X74.54 Y10.25
G1 F300.0 Z-6.0
G1 F800.0 Y5.0
G3 X75.29 Y4.25 I0.75 J0.0
G1 X91.58
G3 X92.33 Y5.0 I0.0 J0.75
G1 Y10.25
G1 X92.1103 Y10.4697
G1 X92.33 Y10.25
G1 X110.83
G1 X111.0497 Y10.4697
G1 X110.83 Y10.25
G1 Y5.0
G3 X111.58 Y4.25 I0.75 J0.0
G1 X120.0
G3 X120.315 Y4.3194 I0.0 J0.75
G1 X126.3865 Y7.1292
G0 Z-4.0
G1 X130.4704 Y9.0192
G1 F300.0 Z-6.0
G1 F800.0 X140.065 Y13.4596
G3 X140.5 Y14.1403 I-0.315 J0.6806
G1 Y61.0
G3 X139.75 Y61.75 I-0.75 J0.0
G1 X134.5
G1 X134.2803 Y61.5303
G1 X134.5 Y61.75
G1 Y80.25
G1 X134.2803 Y80.4697
G1 X134.5 Y80.25
G1 X139.75
G3 X140.5 Y81.0 I0.0 J0.75
G1 Y136.0
G3 X139.75 Y136.75 I-0.75 J0.0
G1 X134.5
G1 X134.2803 Y136.5303
G1 X134.5 Y136.75
G1 Y155.25
G1 X134.2803 Y155.4697
G1 X134.5 Y155.25
G1 X139.75
G3 X140.5 Y156.0 I0.0 J0.75
G1 Y167.75
G0 Z-4.0
G1 Y172.25
G1 F300.0 Z-6.0
G1 F800.0 Y184.0
G3 X139.75 Y184.75 I-0.75 J0.0
G1 X134.5
G1 X134.2803 Y184.5303
G1 X134.5 Y184.75
G1 Y203.25
G1 X134.2803 Y203.4697
G1 X134.5 Y203.25
G1 X139.75
G3 X140.5 Y204.0 I0.0 J0.75
G1 Y232.75
G0 Z-4.0
G1 Y237.25
G1 F300.0 Z-6.0
G1 F800.0 Y259.0
G3 X139.75 Y259.75 I-0.75 J0.0
G1 X134.5
G1 X134.2803 Y259.5303
G1 X134.5 Y259.75
G1 Y278.25
G1 X134.2803 Y278.4697
G1 X134.5 Y278.25
G1 X139.75
G3 X140.5 Y279.0 I0.0 J0.75
G1 Y325.8597
G3 X140.065 Y326.5404 I-0.75 J0.0
G1 X130.9741 Y330.7476
G0 Z-4.0
G1 X126.8902 Y332.6376
G1 F300.0 Z-6.0
G1 F800.0 X120.315 Y335.6806
G3 X120.0 Y335.75 I-0.315 J-0.6806
G1 X104.79
G3 X104.04 Y335.0 I0.0 J-0.75
G1 Y329.75
G1 X104.2597 Y329.5303
G1 X104.04 Y329.75
G1 X90.0
G3 X89.25 Y329.0 I0.0 J-0.75
G1 Y275.25
G0 Z-4.0
G1 Y270.75
G1 F300.0 Z-6.0
G1 F800.0 Y209.75
G1 X89.4697 Y209.5303
G1 X89.25 Y209.75
G1 X32.75
G1 X32.5303 Y209.5303
G1 X32.75 Y209.75
G1 Y239.75
G0 Z-4.0
G1 Y244.25
G1 F300.0 Z-6.0
G1 F800.0 Y304.75
G0 Z-4.0
G1 Y309.25
G1 F300.0 Z-6.0
G1 F800.0 Y335.0
G3 X32.0 Y335.75 I-0.75 J0.0
G1 X23.4974
G3 X22.7474 Y335.0 I0.0 J-0.75
G1 Y329.75
G1 X22.9671 Y329.5303
G1 X22.7474 Y329.75
G1 X14.2474
G1 X14.0277 Y329.5303
G1 X14.2474 Y329.75
G1 Y335.0
G3 X13.4974 Y335.75 I-0.75 J0.0
G1 X5.0
G3 X4.25 Y335.0 I0.0 J-0.75
G1 Y324.25
G0 Z-4.0
G1 Y319.75
G1 F300.0 Z-6.0
G1 F800.0 Y285.0
G3 X5.0 Y284.25 I0.75 J0.0
G1 X10.25
G1 X10.4697 Y284.4697
G1 X10.25 Y284.25
G1 Y265.75
G1 X10.4697 Y265.5303
G1 X10.25 Y265.75
G1 X5.0
G3 X4.25 Y265.0 I0.0 J-0.75
G1 Y215.0
G3 X5.0 Y214.25 I0.75 J0.0
G1 X10.25
G1 X10.4697 Y214.4697
G1 X10.25 Y214.25
G1 Y195.75
G1 X10.4697 Y195.5303
G1 X10.25 Y195.75
G1 X5.0
G3 X4.25 Y195.0 I0.0 J-0.75
G1 Y170.25
G0 Z-4.0
G1 Y165.75
G1 F300.0 Z-6.0
G1 F800.0 Y145.0
G3 X5.0 Y144.25 I0.75 J0.0
G1 X10.25
G1 X10.4697 Y144.4697
G1 X10.25 Y144.25
G1 Y125.75
G1 X10.4697 Y125.5303
G1 X10.25 Y125.75
G1 X5.0
G3 X4.25 Y125.0 I0.0 J-0.75
G1 Y75.0
G3 X5.0 Y74.25 I0.75 J0.0
G1 X10.25
G1 X10.4697 Y74.4697
G1 X10.25 Y74.25
G1 Y55.75
G1 X10.4697 Y55.5303
G1 X10.25 Y55.75
G1 X5.0
G3 X4.25 Y55.0 I0.0 J-0.75
G1 Y19.25
G0 Z-4.0
G1 Y14.75
G1 F300.0 Z-6.0
G1 F800.0 Y5.0
G3 X5.0 Y4.25 I0.75 J0.0
G1 X19.0
G3 X19.75 Y5.0 I0.0 J0.75
G1 Y10.25
G1 X19.5303 Y10.4697
G1 X19.75 Y10.25
G1 X38.25
G1 X38.4697 Y10.4697
G1 X38.25 Y10.25
G1 Y5.0
G3 X39.0 Y4.25 I0.75 J0.0
G1 X55.29
G3 X56.04 Y5.0 I0.0 J0.75
G1 Y10.25
G1 X55.8203 Y10.4697
G1 X56.04 Y10.25
G1 X65.0
G3 X65.75 Y11.0 I0.0 J0.75
G1 Y31.25
G1 X65.5303 Y31.4697
G1 X65.75 Y31.25
G1 X72.25
G1 X72.4697 Y31.4697
G1 X72.25 Y31.25
G1 Y11.0
G3 X73.0 Y10.25 I0.75 J0.0
G1 X74.54
G1 X74.7597 Y10.4697
G1 X74.54 Y10.25
G0 Z3.0
M5
M30
