( Made using CamBam - http://www.cambam.co.uk )
( ensemble 11 2/9/2016 4:14:28 PM )
( T0 : 1.5 )
G21 G90 G64 G40
G0 Z3.0
( T0 : 1.5 )
T0 M6
( Contour1 )
G17
M3 S1000
G0 X92.25 Y45.0
G1 F300.0 Z-1.0
G2 F800.0 X76.875 Y36.1232 I-10.25 J0.0
G2 Y53.8768 I5.125 J8.8768
G2 X92.25 Y45.0 I5.125 J-8.8768
G1 F300.0 Z-2.0
G2 F800.0 X76.875 Y36.1232 I-10.25 J0.0
G2 Y53.8768 I5.125 J8.8768
G2 X92.25 Y45.0 I5.125 J-8.8768
G1 F300.0 Z-3.0
G2 F800.0 X76.875 Y36.1232 I-10.25 J0.0
G2 Y53.8768 I5.125 J8.8768
G2 X92.25 Y45.0 I5.125 J-8.8768
G1 F300.0 Z-4.0
G2 F800.0 X76.875 Y36.1232 I-10.25 J0.0
G2 Y53.8768 I5.125 J8.8768
G2 X92.25 Y45.0 I5.125 J-8.8768
G1 F300.0 Z-5.0
G2 F800.0 X76.875 Y36.1232 I-10.25 J0.0
G2 Y53.8768 I5.125 J8.8768
G2 X92.25 Y45.0 I5.125 J-8.8768
G1 F300.0 Z-6.0
G2 F800.0 X76.875 Y36.1232 I-10.25 J0.0
G2 Y53.8768 I5.125 J8.8768
G2 X92.25 Y45.0 I5.125 J-8.8768
G0 Z3.0
G0 X99.8462 Y8.7341
G1 F300.0 Z-1.0
G2 F800.0 X100.75 Y8.0 I0.1538 J-0.7341
G2 X99.625 Y7.3505 I-0.75 J0.0
G2 Y8.6495 I0.375 J0.6495
G2 X99.8462 Y8.7341 I0.375 J-0.6495
G1 F300.0 Z-2.0
G2 F800.0 X100.75 Y8.0 I0.1538 J-0.7341
G2 X99.625 Y7.3505 I-0.75 J0.0
G2 Y8.6495 I0.375 J0.6495
G2 X99.8462 Y8.7341 I0.375 J-0.6495
G1 F300.0 Z-3.0
G2 F800.0 X100.75 Y8.0 I0.1538 J-0.7341
G2 X99.625 Y7.3505 I-0.75 J0.0
G2 Y8.6495 I0.375 J0.6495
G2 X99.8462 Y8.7341 I0.375 J-0.6495
G1 F300.0 Z-4.0
G2 F800.0 X100.75 Y8.0 I0.1538 J-0.7341
G2 X99.625 Y7.3505 I-0.75 J0.0
G2 Y8.6495 I0.375 J0.6495
G2 X99.8462 Y8.7341 I0.375 J-0.6495
G1 F300.0 Z-5.0
G2 F800.0 X100.75 Y8.0 I0.1538 J-0.7341
G2 X99.625 Y7.3505 I-0.75 J0.0
G2 Y8.6495 I0.375 J0.6495
G2 X99.8462 Y8.7341 I0.375 J-0.6495
G1 F300.0 Z-6.0
G2 F800.0 X100.75 Y8.0 I0.1538 J-0.7341
G2 X99.625 Y7.3505 I-0.75 J0.0
G2 Y8.6495 I0.375 J0.6495
G2 X99.8462 Y8.7341 I0.375 J-0.6495
G0 Z3.0
G0 X119.2505 Y8.0273
G1 F300.0 Z-1.0
G2 F800.0 X119.625 Y8.6495 I0.7495 J-0.0273
G2 X120.75 Y8.0 I0.375 J-0.6495
G2 X119.625 Y7.3505 I-0.75 J0.0
G2 X119.2505 Y8.0273 I0.375 J0.6495
G1 F300.0 Z-2.0
G2 F800.0 X119.625 Y8.6495 I0.7495 J-0.0273
G2 X120.75 Y8.0 I0.375 J-0.6495
G2 X119.625 Y7.3505 I-0.75 J0.0
G2 X119.2505 Y8.0273 I0.375 J0.6495
G1 F300.0 Z-3.0
G2 F800.0 X119.625 Y8.6495 I0.7495 J-0.0273
G2 X120.75 Y8.0 I0.375 J-0.6495
G2 X119.625 Y7.3505 I-0.75 J0.0
G2 X119.2505 Y8.0273 I0.375 J0.6495
G1 F300.0 Z-4.0
G2 F800.0 X119.625 Y8.6495 I0.7495 J-0.0273
G2 X120.75 Y8.0 I0.375 J-0.6495
G2 X119.625 Y7.3505 I-0.75 J0.0
G2 X119.2505 Y8.0273 I0.375 J0.6495
G1 F300.0 Z-5.0
G2 F800.0 X119.625 Y8.6495 I0.7495 J-0.0273
G2 X120.75 Y8.0 I0.375 J-0.6495
G2 X119.625 Y7.3505 I-0.75 J0.0
G2 X119.2505 Y8.0273 I0.375 J0.6495
G1 F300.0 Z-6.0
G2 F800.0 X119.625 Y8.6495 I0.7495 J-0.0273
G2 X120.75 Y8.0 I0.375 J-0.6495
G2 X119.625 Y7.3505 I-0.75 J0.0
G2 X119.2505 Y8.0273 I0.375 J0.6495
G0 Z3.0
G0 X70.75 Y8.0004
G1 F300.0 Z-1.0
G2 F800.0 Y8.0 I-0.75 J-0.0004
G2 X69.625 Y7.3505 I-0.75 J0.0
G2 Y8.6495 I0.375 J0.6495
G2 X70.75 Y8.0004 I0.375 J-0.6495
G1 F300.0 Z-2.0
G2 F800.0 Y8.0 I-0.75 J-0.0004
G2 X69.625 Y7.3505 I-0.75 J0.0
G2 Y8.6495 I0.375 J0.6495
G2 X70.75 Y8.0004 I0.375 J-0.6495
G1 F300.0 Z-3.0
G2 F800.0 Y8.0 I-0.75 J-0.0004
G2 X69.625 Y7.3505 I-0.75 J0.0
G2 Y8.6495 I0.375 J0.6495
G2 X70.75 Y8.0004 I0.375 J-0.6495
G1 F300.0 Z-4.0
G2 F800.0 Y8.0 I-0.75 J-0.0004
G2 X69.625 Y7.3505 I-0.75 J0.0
G2 Y8.6495 I0.375 J0.6495
G2 X70.75 Y8.0004 I0.375 J-0.6495
G1 F300.0 Z-5.0
G2 F800.0 Y8.0 I-0.75 J-0.0004
G2 X69.625 Y7.3505 I-0.75 J0.0
G2 Y8.6495 I0.375 J0.6495
G2 X70.75 Y8.0004 I0.375 J-0.6495
G1 F300.0 Z-6.0
G2 F800.0 Y8.0 I-0.75 J-0.0004
G2 X69.625 Y7.3505 I-0.75 J0.0
G2 Y8.6495 I0.375 J0.6495
G2 X70.75 Y8.0004 I0.375 J-0.6495
G0 Z3.0
G0 X40.75 Y8.0
G1 F300.0 Z-1.0
G2 F800.0 X39.625 Y7.3505 I-0.75 J0.0
G2 Y8.6495 I0.375 J0.6495
G2 X40.75 Y8.0 I0.375 J-0.6495
G1 F300.0 Z-2.0
G2 F800.0 X39.625 Y7.3505 I-0.75 J0.0
G2 Y8.6495 I0.375 J0.6495
G2 X40.75 Y8.0 I0.375 J-0.6495
G1 F300.0 Z-3.0
G2 F800.0 X39.625 Y7.3505 I-0.75 J0.0
G2 Y8.6495 I0.375 J0.6495
G2 X40.75 Y8.0 I0.375 J-0.6495
G1 F300.0 Z-4.0
G2 F800.0 X39.625 Y7.3505 I-0.75 J0.0
G2 Y8.6495 I0.375 J0.6495
G2 X40.75 Y8.0 I0.375 J-0.6495
G1 F300.0 Z-5.0
G2 F800.0 X39.625 Y7.3505 I-0.75 J0.0
G2 Y8.6495 I0.375 J0.6495
G2 X40.75 Y8.0 I0.375 J-0.6495
G1 F300.0 Z-6.0
G2 F800.0 X39.625 Y7.3505 I-0.75 J0.0
G2 Y8.6495 I0.375 J0.6495
G2 X40.75 Y8.0 I0.375 J-0.6495
G0 Z3.0
G0 X10.75
G1 F300.0 Z-1.0
G2 F800.0 X9.625 Y7.3505 I-0.75 J0.0
G2 Y8.6495 I0.375 J0.6495
G2 X10.75 Y8.0 I0.375 J-0.6495
G1 F300.0 Z-2.0
G2 F800.0 X9.625 Y7.3505 I-0.75 J0.0
G2 Y8.6495 I0.375 J0.6495
G2 X10.75 Y8.0 I0.375 J-0.6495
G1 F300.0 Z-3.0
G2 F800.0 X9.625 Y7.3505 I-0.75 J0.0
G2 Y8.6495 I0.375 J0.6495
G2 X10.75 Y8.0 I0.375 J-0.6495
G1 F300.0 Z-4.0
G2 F800.0 X9.625 Y7.3505 I-0.75 J0.0
G2 Y8.6495 I0.375 J0.6495
G2 X10.75 Y8.0 I0.375 J-0.6495
G1 F300.0 Z-5.0
G2 F800.0 X9.625 Y7.3505 I-0.75 J0.0
G2 Y8.6495 I0.375 J0.6495
G2 X10.75 Y8.0 I0.375 J-0.6495
G1 F300.0 Z-6.0
G2 F800.0 X9.625 Y7.3505 I-0.75 J0.0
G2 Y8.6495 I0.375 J0.6495
G2 X10.75 Y8.0 I0.375 J-0.6495
G0 Z3.0
G0 X101.4421 Y89.4987
G1 F300.0 Z-1.0
G2 F800.0 X101.625 Y90.6495 I0.5579 J0.5013
G2 X102.75 Y90.0 I0.375 J-0.6495
G2 X101.625 Y89.3505 I-0.75 J0.0
G2 X101.4421 Y89.4987 I0.375 J0.6495
G1 F300.0 Z-2.0
G2 F800.0 X101.625 Y90.6495 I0.5579 J0.5013
G2 X102.75 Y90.0 I0.375 J-0.6495
G2 X101.625 Y89.3505 I-0.75 J0.0
G2 X101.4421 Y89.4987 I0.375 J0.6495
G1 F300.0 Z-3.0
G2 F800.0 X101.625 Y90.6495 I0.5579 J0.5013
G2 X102.75 Y90.0 I0.375 J-0.6495
G2 X101.625 Y89.3505 I-0.75 J0.0
G2 X101.4421 Y89.4987 I0.375 J0.6495
G1 F300.0 Z-4.0
G2 F800.0 X101.625 Y90.6495 I0.5579 J0.5013
G2 X102.75 Y90.0 I0.375 J-0.6495
G2 X101.625 Y89.3505 I-0.75 J0.0
G2 X101.4421 Y89.4987 I0.375 J0.6495
G1 F300.0 Z-5.0
G2 F800.0 X101.625 Y90.6495 I0.5579 J0.5013
G2 X102.75 Y90.0 I0.375 J-0.6495
G2 X101.625 Y89.3505 I-0.75 J0.0
G2 X101.4421 Y89.4987 I0.375 J0.6495
G1 F300.0 Z-6.0
G2 F800.0 X101.625 Y90.6495 I0.5579 J0.5013
G2 X102.75 Y90.0 I0.375 J-0.6495
G2 X101.625 Y89.3505 I-0.75 J0.0
G2 X101.4421 Y89.4987 I0.375 J0.6495
G0 Z3.0
G0 X127.4487 Y65.5085
G1 F300.0 Z-1.0
G2 F800.0 X127.625 Y65.6495 I0.5513 J-0.5085
G2 X128.75 Y65.0 I0.375 J-0.6495
G2 X127.625 Y64.3505 I-0.75 J0.0
G2 X127.4487 Y65.5085 I0.375 J0.6495
G1 F300.0 Z-2.0
G2 F800.0 X127.625 Y65.6495 I0.5513 J-0.5085
G2 X128.75 Y65.0 I0.375 J-0.6495
G2 X127.625 Y64.3505 I-0.75 J0.0
G2 X127.4487 Y65.5085 I0.375 J0.6495
G1 F300.0 Z-3.0
G2 F800.0 X127.625 Y65.6495 I0.5513 J-0.5085
G2 X128.75 Y65.0 I0.375 J-0.6495
G2 X127.625 Y64.3505 I-0.75 J0.0
G2 X127.4487 Y65.5085 I0.375 J0.6495
G1 F300.0 Z-4.0
G2 F800.0 X127.625 Y65.6495 I0.5513 J-0.5085
G2 X128.75 Y65.0 I0.375 J-0.6495
G2 X127.625 Y64.3505 I-0.75 J0.0
G2 X127.4487 Y65.5085 I0.375 J0.6495
G1 F300.0 Z-5.0
G2 F800.0 X127.625 Y65.6495 I0.5513 J-0.5085
G2 X128.75 Y65.0 I0.375 J-0.6495
G2 X127.625 Y64.3505 I-0.75 J0.0
G2 X127.4487 Y65.5085 I0.375 J0.6495
G1 F300.0 Z-6.0
G2 F800.0 X127.625 Y65.6495 I0.5513 J-0.5085
G2 X128.75 Y65.0 I0.375 J-0.6495
G2 X127.625 Y64.3505 I-0.75 J0.0
G2 X127.4487 Y65.5085 I0.375 J0.6495
G0 Z3.0
G0 X127.9941 Y134.25
G1 F300.0 Z-1.0
G2 F800.0 X127.625 Y134.3505 I0.0059 J0.75
G2 Y135.6495 I0.375 J0.6495
G2 X128.75 Y135.0 I0.375 J-0.6495
G2 X127.9941 Y134.25 I-0.75 J0.0
G1 F300.0 Z-2.0
G2 F800.0 X127.625 Y134.3505 I0.0059 J0.75
G2 Y135.6495 I0.375 J0.6495
G2 X128.75 Y135.0 I0.375 J-0.6495
G2 X127.9941 Y134.25 I-0.75 J0.0
G1 F300.0 Z-3.0
G2 F800.0 X127.625 Y134.3505 I0.0059 J0.75
G2 Y135.6495 I0.375 J0.6495
G2 X128.75 Y135.0 I0.375 J-0.6495
G2 X127.9941 Y134.25 I-0.75 J0.0
G1 F300.0 Z-4.0
G2 F800.0 X127.625 Y134.3505 I0.0059 J0.75
G2 Y135.6495 I0.375 J0.6495
G2 X128.75 Y135.0 I0.375 J-0.6495
G2 X127.9941 Y134.25 I-0.75 J0.0
G1 F300.0 Z-5.0
G2 F800.0 X127.625 Y134.3505 I0.0059 J0.75
G2 Y135.6495 I0.375 J0.6495
G2 X128.75 Y135.0 I0.375 J-0.6495
G2 X127.9941 Y134.25 I-0.75 J0.0
G1 F300.0 Z-6.0
G2 F800.0 X127.625 Y134.3505 I0.0059 J0.75
G2 Y135.6495 I0.375 J0.6495
G2 X128.75 Y135.0 I0.375 J-0.6495
G2 X127.9941 Y134.25 I-0.75 J0.0
G0 Z3.0
G0 X109.3423 Y167.5999
G1 F300.0 Z-1.0
G2 F800.0 X106.625 Y167.6184 I-1.3423 J2.4001
G2 Y172.3816 I1.375 J2.3816
G2 X110.75 Y170.0 I1.375 J-2.3816
G2 X109.3423 Y167.5999 I-2.75 J0.0
G1 F300.0 Z-2.0
G2 F800.0 X106.625 Y167.6184 I-1.3423 J2.4001
G2 Y172.3816 I1.375 J2.3816
G2 X110.75 Y170.0 I1.375 J-2.3816
G2 X109.3423 Y167.5999 I-2.75 J0.0
G1 F300.0 Z-3.0
G2 F800.0 X106.625 Y167.6184 I-1.3423 J2.4001
G2 Y172.3816 I1.375 J2.3816
G2 X110.75 Y170.0 I1.375 J-2.3816
G2 X109.3423 Y167.5999 I-2.75 J0.0
G1 F300.0 Z-4.0
G2 F800.0 X106.625 Y167.6184 I-1.3423 J2.4001
G2 Y172.3816 I1.375 J2.3816
G2 X110.75 Y170.0 I1.375 J-2.3816
G2 X109.3423 Y167.5999 I-2.75 J0.0
G1 F300.0 Z-5.0
G2 F800.0 X106.625 Y167.6184 I-1.3423 J2.4001
G2 Y172.3816 I1.375 J2.3816
G2 X110.75 Y170.0 I1.375 J-2.3816
G2 X109.3423 Y167.5999 I-2.75 J0.0
G1 F300.0 Z-6.0
G2 F800.0 X106.625 Y167.6184 I-1.3423 J2.4001
G2 Y172.3816 I1.375 J2.3816
G2 X110.75 Y170.0 I1.375 J-2.3816
G2 X109.3423 Y167.5999 I-2.75 J0.0
G0 Z3.0
G0 X127.6652 Y204.3289
G1 F300.0 Z-1.0
G2 F800.0 X127.625 Y204.3505 I0.3348 J0.6711
G2 Y205.6495 I0.375 J0.6495
G2 X128.75 Y205.0 I0.375 J-0.6495
G2 X127.6652 Y204.3289 I-0.75 J0.0
G1 F300.0 Z-2.0
G2 F800.0 X127.625 Y204.3505 I0.3348 J0.6711
G2 Y205.6495 I0.375 J0.6495
G2 X128.75 Y205.0 I0.375 J-0.6495
G2 X127.6652 Y204.3289 I-0.75 J0.0
G1 F300.0 Z-3.0
G2 F800.0 X127.625 Y204.3505 I0.3348 J0.6711
G2 Y205.6495 I0.375 J0.6495
G2 X128.75 Y205.0 I0.375 J-0.6495
G2 X127.6652 Y204.3289 I-0.75 J0.0
G1 F300.0 Z-4.0
G2 F800.0 X127.625 Y204.3505 I0.3348 J0.6711
G2 Y205.6495 I0.375 J0.6495
G2 X128.75 Y205.0 I0.375 J-0.6495
G2 X127.6652 Y204.3289 I-0.75 J0.0
G1 F300.0 Z-5.0
G2 F800.0 X127.625 Y204.3505 I0.3348 J0.6711
G2 Y205.6495 I0.375 J0.6495
G2 X128.75 Y205.0 I0.375 J-0.6495
G2 X127.6652 Y204.3289 I-0.75 J0.0
G1 F300.0 Z-6.0
G2 F800.0 X127.625 Y204.3505 I0.3348 J0.6711
G2 Y205.6495 I0.375 J0.6495
G2 X128.75 Y205.0 I0.375 J-0.6495
G2 X127.6652 Y204.3289 I-0.75 J0.0
G0 Z3.0
G0 X127.9964 Y274.25
G1 F300.0 Z-1.0
G2 F800.0 X127.625 Y274.3505 I0.0036 J0.75
G2 Y275.6495 I0.375 J0.6495
G2 X128.75 Y275.0 I0.375 J-0.6495
G2 X127.9964 Y274.25 I-0.75 J0.0
G1 F300.0 Z-2.0
G2 F800.0 X127.625 Y274.3505 I0.0036 J0.75
G2 Y275.6495 I0.375 J0.6495
G2 X128.75 Y275.0 I0.375 J-0.6495
G2 X127.9964 Y274.25 I-0.75 J0.0
G1 F300.0 Z-3.0
G2 F800.0 X127.625 Y274.3505 I0.0036 J0.75
G2 Y275.6495 I0.375 J0.6495
G2 X128.75 Y275.0 I0.375 J-0.6495
G2 X127.9964 Y274.25 I-0.75 J0.0
G1 F300.0 Z-4.0
G2 F800.0 X127.625 Y274.3505 I0.0036 J0.75
G2 Y275.6495 I0.375 J0.6495
G2 X128.75 Y275.0 I0.375 J-0.6495
G2 X127.9964 Y274.25 I-0.75 J0.0
G1 F300.0 Z-5.0
G2 F800.0 X127.625 Y274.3505 I0.0036 J0.75
G2 Y275.6495 I0.375 J0.6495
G2 X128.75 Y275.0 I0.375 J-0.6495
G2 X127.9964 Y274.25 I-0.75 J0.0
G1 F300.0 Z-6.0
G2 F800.0 X127.625 Y274.3505 I0.0036 J0.75
G2 Y275.6495 I0.375 J0.6495
G2 X128.75 Y275.0 I0.375 J-0.6495
G2 X127.9964 Y274.25 I-0.75 J0.0
G0 Z3.0
G0 X91.3433 Y290.785
G1 F300.0 Z-1.0
G2 F800.0 X76.875 Y286.1232 I-9.3433 J4.215
G2 Y303.8768 I5.125 J8.8768
G2 X92.25 Y295.0 I5.125 J-8.8768
G2 X91.3433 Y290.785 I-10.25 J0.0
G1 F300.0 Z-2.0
G2 F800.0 X76.875 Y286.1232 I-9.3433 J4.215
G2 Y303.8768 I5.125 J8.8768
G2 X92.25 Y295.0 I5.125 J-8.8768
G2 X91.3433 Y290.785 I-10.25 J0.0
G1 F300.0 Z-3.0
G2 F800.0 X76.875 Y286.1232 I-9.3433 J4.215
G2 Y303.8768 I5.125 J8.8768
G2 X92.25 Y295.0 I5.125 J-8.8768
G2 X91.3433 Y290.785 I-10.25 J0.0
G1 F300.0 Z-4.0
G2 F800.0 X76.875 Y286.1232 I-9.3433 J4.215
G2 Y303.8768 I5.125 J8.8768
G2 X92.25 Y295.0 I5.125 J-8.8768
G2 X91.3433 Y290.785 I-10.25 J0.0
G1 F300.0 Z-5.0
G2 F800.0 X76.875 Y286.1232 I-9.3433 J4.215
G2 Y303.8768 I5.125 J8.8768
G2 X92.25 Y295.0 I5.125 J-8.8768
G2 X91.3433 Y290.785 I-10.25 J0.0
G1 F300.0 Z-6.0
G2 F800.0 X76.875 Y286.1232 I-9.3433 J4.215
G2 Y303.8768 I5.125 J8.8768
G2 X92.25 Y295.0 I5.125 J-8.8768
G2 X91.3433 Y290.785 I-10.25 J0.0
G0 Z3.0
G0 X99.8458 Y331.266
G1 F300.0 Z-1.0
G2 F800.0 X99.625 Y331.3505 I0.1542 J0.734
G2 Y332.6495 I0.375 J0.6495
G2 X100.75 Y332.0 I0.375 J-0.6495
G2 X99.8458 Y331.266 I-0.75 J0.0
G1 F300.0 Z-2.0
G2 F800.0 X99.625 Y331.3505 I0.1542 J0.734
G2 Y332.6495 I0.375 J0.6495
G2 X100.75 Y332.0 I0.375 J-0.6495
G2 X99.8458 Y331.266 I-0.75 J0.0
G1 F300.0 Z-3.0
G2 F800.0 X99.625 Y331.3505 I0.1542 J0.734
G2 Y332.6495 I0.375 J0.6495
G2 X100.75 Y332.0 I0.375 J-0.6495
G2 X99.8458 Y331.266 I-0.75 J0.0
G1 F300.0 Z-4.0
G2 F800.0 X99.625 Y331.3505 I0.1542 J0.734
G2 Y332.6495 I0.375 J0.6495
G2 X100.75 Y332.0 I0.375 J-0.6495
G2 X99.8458 Y331.266 I-0.75 J0.0
G1 F300.0 Z-5.0
G2 F800.0 X99.625 Y331.3505 I0.1542 J0.734
G2 Y332.6495 I0.375 J0.6495
G2 X100.75 Y332.0 I0.375 J-0.6495
G2 X99.8458 Y331.266 I-0.75 J0.0
G1 F300.0 Z-6.0
G2 F800.0 X99.625 Y331.3505 I0.1542 J0.734
G2 Y332.6495 I0.375 J0.6495
G2 X100.75 Y332.0 I0.375 J-0.6495
G2 X99.8458 Y331.266 I-0.75 J0.0
G0 Z3.0
G0 X119.2505 Y331.9727
G1 F300.0 Z-1.0
G2 F800.0 X119.625 Y332.6495 I0.7495 J0.0273
G2 X120.75 Y332.0 I0.375 J-0.6495
G2 X119.625 Y331.3505 I-0.75 J0.0
G2 X119.2505 Y331.9727 I0.375 J0.6495
G1 F300.0 Z-2.0
G2 F800.0 X119.625 Y332.6495 I0.7495 J0.0273
G2 X120.75 Y332.0 I0.375 J-0.6495
G2 X119.625 Y331.3505 I-0.75 J0.0
G2 X119.2505 Y331.9727 I0.375 J0.6495
G1 F300.0 Z-3.0
G2 F800.0 X119.625 Y332.6495 I0.7495 J0.0273
G2 X120.75 Y332.0 I0.375 J-0.6495
G2 X119.625 Y331.3505 I-0.75 J0.0
G2 X119.2505 Y331.9727 I0.375 J0.6495
G1 F300.0 Z-4.0
G2 F800.0 X119.625 Y332.6495 I0.7495 J0.0273
G2 X120.75 Y332.0 I0.375 J-0.6495
G2 X119.625 Y331.3505 I-0.75 J0.0
G2 X119.2505 Y331.9727 I0.375 J0.6495
G1 F300.0 Z-5.0
G2 F800.0 X119.625 Y332.6495 I0.7495 J0.0273
G2 X120.75 Y332.0 I0.375 J-0.6495
G2 X119.625 Y331.3505 I-0.75 J0.0
G2 X119.2505 Y331.9727 I0.375 J0.6495
G1 F300.0 Z-6.0
G2 F800.0 X119.625 Y332.6495 I0.7495 J0.0273
G2 X120.75 Y332.0 I0.375 J-0.6495
G2 X119.625 Y331.3505 I-0.75 J0.0
G2 X119.2505 Y331.9727 I0.375 J0.6495
G0 Z3.0
G0 X70.75 Y331.9996
G1 F300.0 Z-1.0
G2 F800.0 X69.625 Y331.3505 I-0.75 J0.0004
G2 Y332.6495 I0.375 J0.6495
G2 X70.75 Y332.0 I0.375 J-0.6495
G2 Y331.9996 I-0.75 J0.0
G1 F300.0 Z-2.0
G2 F800.0 X69.625 Y331.3505 I-0.75 J0.0004
G2 Y332.6495 I0.375 J0.6495
G2 X70.75 Y332.0 I0.375 J-0.6495
G2 Y331.9996 I-0.75 J0.0
G1 F300.0 Z-3.0
G2 F800.0 X69.625 Y331.3505 I-0.75 J0.0004
G2 Y332.6495 I0.375 J0.6495
G2 X70.75 Y332.0 I0.375 J-0.6495
G2 Y331.9996 I-0.75 J0.0
G1 F300.0 Z-4.0
G2 F800.0 X69.625 Y331.3505 I-0.75 J0.0004
G2 Y332.6495 I0.375 J0.6495
G2 X70.75 Y332.0 I0.375 J-0.6495
G2 Y331.9996 I-0.75 J0.0
G1 F300.0 Z-5.0
G2 F800.0 X69.625 Y331.3505 I-0.75 J0.0004
G2 Y332.6495 I0.375 J0.6495
G2 X70.75 Y332.0 I0.375 J-0.6495
G2 Y331.9996 I-0.75 J0.0
G1 F300.0 Z-6.0
G2 F800.0 X69.625 Y331.3505 I-0.75 J0.0004
G2 Y332.6495 I0.375 J0.6495
G2 X70.75 Y332.0 I0.375 J-0.6495
G2 Y331.9996 I-0.75 J0.0
G0 Z3.0
G0 X40.75 Y332.0
G1 F300.0 Z-1.0
G2 F800.0 X39.625 Y331.3505 I-0.75 J0.0
G2 Y332.6495 I0.375 J0.6495
G2 X40.75 Y332.0 I0.375 J-0.6495
G1 F300.0 Z-2.0
G2 F800.0 X39.625 Y331.3505 I-0.75 J0.0
G2 Y332.6495 I0.375 J0.6495
G2 X40.75 Y332.0 I0.375 J-0.6495
G1 F300.0 Z-3.0
G2 F800.0 X39.625 Y331.3505 I-0.75 J0.0
G2 Y332.6495 I0.375 J0.6495
G2 X40.75 Y332.0 I0.375 J-0.6495
G1 F300.0 Z-4.0
G2 F800.0 X39.625 Y331.3505 I-0.75 J0.0
G2 Y332.6495 I0.375 J0.6495
G2 X40.75 Y332.0 I0.375 J-0.6495
G1 F300.0 Z-5.0
G2 F800.0 X39.625 Y331.3505 I-0.75 J0.0
G2 Y332.6495 I0.375 J0.6495
G2 X40.75 Y332.0 I0.375 J-0.6495
G1 F300.0 Z-6.0
G2 F800.0 X39.625 Y331.3505 I-0.75 J0.0
G2 Y332.6495 I0.375 J0.6495
G2 X40.75 Y332.0 I0.375 J-0.6495
G0 Z3.0
G0 X10.75
G1 F300.0 Z-1.0
G2 F800.0 X9.625 Y331.3505 I-0.75 J0.0
G2 Y332.6495 I0.375 J0.6495
G2 X10.75 Y332.0 I0.375 J-0.6495
G1 F300.0 Z-2.0
G2 F800.0 X9.625 Y331.3505 I-0.75 J0.0
G2 Y332.6495 I0.375 J0.6495
G2 X10.75 Y332.0 I0.375 J-0.6495
G1 F300.0 Z-3.0
G2 F800.0 X9.625 Y331.3505 I-0.75 J0.0
G2 Y332.6495 I0.375 J0.6495
G2 X10.75 Y332.0 I0.375 J-0.6495
G1 F300.0 Z-4.0
G2 F800.0 X9.625 Y331.3505 I-0.75 J0.0
G2 Y332.6495 I0.375 J0.6495
G2 X10.75 Y332.0 I0.375 J-0.6495
G1 F300.0 Z-5.0
G2 F800.0 X9.625 Y331.3505 I-0.75 J0.0
G2 Y332.6495 I0.375 J0.6495
G2 X10.75 Y332.0 I0.375 J-0.6495
G1 F300.0 Z-6.0
G2 F800.0 X9.625 Y331.3505 I-0.75 J0.0
G2 Y332.6495 I0.375 J0.6495
G2 X10.75 Y332.0 I0.375 J-0.6495
( Contour2 )
S1000
G0 Z3.0
G0 X122.25
G1 F300.0 Z-1.0
G3 F800.0 X118.875 Y333.9486 I-2.25 J0.0
G3 Y330.0514 I1.125 J-1.9486
G3 X122.25 Y332.0 I1.125 J1.9486
G1 F300.0 Z-2.0
G3 F800.0 X118.875 Y333.9486 I-2.25 J0.0
G3 Y330.0514 I1.125 J-1.9486
G3 X122.25 Y332.0 I1.125 J1.9486
G1 F300.0 Z-3.0
G3 F800.0 X118.875 Y333.9486 I-2.25 J0.0
G3 Y330.0514 I1.125 J-1.9486
G3 X122.25 Y332.0 I1.125 J1.9486
G0 Z3.0
G0 X102.25
G1 F300.0 Z-1.0
G3 F800.0 X98.875 Y333.9486 I-2.25 J0.0
G3 Y330.0514 I1.125 J-1.9486
G3 X102.25 Y332.0 I1.125 J1.9486
G1 F300.0 Z-2.0
G3 F800.0 X98.875 Y333.9486 I-2.25 J0.0
G3 Y330.0514 I1.125 J-1.9486
G3 X102.25 Y332.0 I1.125 J1.9486
G1 F300.0 Z-3.0
G3 F800.0 X98.875 Y333.9486 I-2.25 J0.0
G3 Y330.0514 I1.125 J-1.9486
G3 X102.25 Y332.0 I1.125 J1.9486
G0 Z3.0
G0 X72.25
G1 F300.0 Z-1.0
G3 F800.0 X68.875 Y333.9486 I-2.25 J0.0
G3 Y330.0514 I1.125 J-1.9486
G3 X72.25 Y332.0 I1.125 J1.9486
G1 F300.0 Z-2.0
G3 F800.0 X68.875 Y333.9486 I-2.25 J0.0
G3 Y330.0514 I1.125 J-1.9486
G3 X72.25 Y332.0 I1.125 J1.9486
G1 F300.0 Z-3.0
G3 F800.0 X68.875 Y333.9486 I-2.25 J0.0
G3 Y330.0514 I1.125 J-1.9486
G3 X72.25 Y332.0 I1.125 J1.9486
G0 Z3.0
G0 X42.25
G1 F300.0 Z-1.0
G3 F800.0 X38.875 Y333.9486 I-2.25 J0.0
G3 Y330.0514 I1.125 J-1.9486
G3 X42.25 Y332.0 I1.125 J1.9486
G1 F300.0 Z-2.0
G3 F800.0 X38.875 Y333.9486 I-2.25 J0.0
G3 Y330.0514 I1.125 J-1.9486
G3 X42.25 Y332.0 I1.125 J1.9486
G1 F300.0 Z-3.0
G3 F800.0 X38.875 Y333.9486 I-2.25 J0.0
G3 Y330.0514 I1.125 J-1.9486
G3 X42.25 Y332.0 I1.125 J1.9486
G0 Z3.0
G0 X12.25
G1 F300.0 Z-1.0
G3 F800.0 X8.875 Y333.9486 I-2.25 J0.0
G3 Y330.0514 I1.125 J-1.9486
G3 X12.25 Y332.0 I1.125 J1.9486
G1 F300.0 Z-2.0
G3 F800.0 X8.875 Y333.9486 I-2.25 J0.0
G3 Y330.0514 I1.125 J-1.9486
G3 X12.25 Y332.0 I1.125 J1.9486
G1 F300.0 Z-3.0
G3 F800.0 X8.875 Y333.9486 I-2.25 J0.0
G3 Y330.0514 I1.125 J-1.9486
G3 X12.25 Y332.0 I1.125 J1.9486
G0 Z3.0
G0 X125.9815 Y275.994
G1 F300.0 Z-1.0
G3 F800.0 X126.875 Y273.0514 I2.0185 J-0.994
G3 X130.25 Y275.0 I1.125 J1.9486
G3 X126.875 Y276.9486 I-2.25 J0.0
G3 X125.9815 Y275.994 I1.125 J-1.9486
G1 F300.0 Z-2.0
G3 F800.0 X126.875 Y273.0514 I2.0185 J-0.994
G3 X130.25 Y275.0 I1.125 J1.9486
G3 X126.875 Y276.9486 I-2.25 J0.0
G3 X125.9815 Y275.994 I1.125 J-1.9486
G1 F300.0 Z-3.0
G3 F800.0 X126.875 Y273.0514 I2.0185 J-0.994
G3 X130.25 Y275.0 I1.125 J1.9486
G3 X126.875 Y276.9486 I-2.25 J0.0
G3 X125.9815 Y275.994 I1.125 J-1.9486
G0 Z3.0
G0 X127.9361 Y207.2491
G1 F300.0 Z-1.0
G3 F800.0 X126.875 Y206.9486 I0.0639 J-2.2491
G3 Y203.0514 I1.125 J-1.9486
G3 X130.25 Y205.0 I1.125 J1.9486
G3 X127.9361 Y207.2491 I-2.25 J0.0
G1 F300.0 Z-2.0
G3 F800.0 X126.875 Y206.9486 I0.0639 J-2.2491
G3 Y203.0514 I1.125 J-1.9486
G3 X130.25 Y205.0 I1.125 J1.9486
G3 X127.9361 Y207.2491 I-2.25 J0.0
G1 F300.0 Z-3.0
G3 F800.0 X126.875 Y206.9486 I0.0639 J-2.2491
G3 Y203.0514 I1.125 J-1.9486
G3 X130.25 Y205.0 I1.125 J1.9486
G3 X127.9361 Y207.2491 I-2.25 J0.0
G0 Z3.0
G0 X127.998 Y137.25
G1 F300.0 Z-1.0
G3 F800.0 X126.875 Y136.9486 I0.002 J-2.25
G3 Y133.0514 I1.125 J-1.9486
G3 X130.25 Y135.0 I1.125 J1.9486
G3 X127.998 Y137.25 I-2.25 J0.0
G1 F300.0 Z-2.0
G3 F800.0 X126.875 Y136.9486 I0.002 J-2.25
G3 Y133.0514 I1.125 J-1.9486
G3 X130.25 Y135.0 I1.125 J1.9486
G3 X127.998 Y137.25 I-2.25 J0.0
G1 F300.0 Z-3.0
G3 F800.0 X126.875 Y136.9486 I0.002 J-2.25
G3 Y133.0514 I1.125 J-1.9486
G3 X130.25 Y135.0 I1.125 J1.9486
G3 X127.998 Y137.25 I-2.25 J0.0
G0 Z3.0
G0 X103.0847 Y91.9713
G1 F300.0 Z-1.0
G3 F800.0 X100.875 Y91.9486 I-1.0847 J-1.9713
G3 Y88.0514 I1.125 J-1.9486
G3 X104.25 Y90.0 I1.125 J1.9486
G3 X103.0847 Y91.9713 I-2.25 J0.0
G1 F300.0 Z-2.0
G3 F800.0 X100.875 Y91.9486 I-1.0847 J-1.9713
G3 Y88.0514 I1.125 J-1.9486
G3 X104.25 Y90.0 I1.125 J1.9486
G3 X103.0847 Y91.9713 I-2.25 J0.0
G1 F300.0 Z-3.0
G3 F800.0 X100.875 Y91.9486 I-1.0847 J-1.9713
G3 Y88.0514 I1.125 J-1.9486
G3 X104.25 Y90.0 I1.125 J1.9486
G3 X103.0847 Y91.9713 I-2.25 J0.0
G0 Z3.0
G0 X126.4732 Y66.6527
G1 F300.0 Z-1.0
G3 F800.0 X126.875 Y63.0514 I1.5268 J-1.6527
G3 X130.25 Y65.0 I1.125 J1.9486
G3 X126.875 Y66.9486 I-2.25 J0.0
G3 X126.4732 Y66.6527 I1.125 J-1.9486
G1 F300.0 Z-2.0
G3 F800.0 X126.875 Y63.0514 I1.5268 J-1.6527
G3 X130.25 Y65.0 I1.125 J1.9486
G3 X126.875 Y66.9486 I-2.25 J0.0
G3 X126.4732 Y66.6527 I1.125 J-1.9486
G1 F300.0 Z-3.0
G3 F800.0 X126.875 Y63.0514 I1.5268 J-1.6527
G3 X130.25 Y65.0 I1.125 J1.9486
G3 X126.875 Y66.9486 I-2.25 J0.0
G3 X126.4732 Y66.6527 I1.125 J-1.9486
G0 Z3.0
G0 X120.2468 Y10.2364
G1 F300.0 Z-1.0
G3 F800.0 X118.875 Y9.9486 I-0.2468 J-2.2364
G3 Y6.0514 I1.125 J-1.9486
G3 X122.25 Y8.0 I1.125 J1.9486
G3 X120.2468 Y10.2364 I-2.25 J0.0
G1 F300.0 Z-2.0
G3 F800.0 X118.875 Y9.9486 I-0.2468 J-2.2364
G3 Y6.0514 I1.125 J-1.9486
G3 X122.25 Y8.0 I1.125 J1.9486
G3 X120.2468 Y10.2364 I-2.25 J0.0
G1 F300.0 Z-3.0
G3 F800.0 X118.875 Y9.9486 I-0.2468 J-2.2364
G3 Y6.0514 I1.125 J-1.9486
G3 X122.25 Y8.0 I1.125 J1.9486
G3 X120.2468 Y10.2364 I-2.25 J0.0
G0 Z3.0
G0 X102.2364 Y8.247
G1 F300.0 Z-1.0
G3 F800.0 X98.875 Y9.9486 I-2.2364 J-0.247
G3 Y6.0514 I1.125 J-1.9486
G3 X102.25 Y8.0 I1.125 J1.9486
G3 X102.2364 Y8.247 I-2.25 J0.0
G1 F300.0 Z-2.0
G3 F800.0 X98.875 Y9.9486 I-2.2364 J-0.247
G3 Y6.0514 I1.125 J-1.9486
G3 X102.25 Y8.0 I1.125 J1.9486
G3 X102.2364 Y8.247 I-2.25 J0.0
G1 F300.0 Z-3.0
G3 F800.0 X98.875 Y9.9486 I-2.2364 J-0.247
G3 Y6.0514 I1.125 J-1.9486
G3 X102.25 Y8.0 I1.125 J1.9486
G3 X102.2364 Y8.247 I-2.25 J0.0
G0 Z3.0
G0 X72.2499 Y8.0172
G1 F300.0 Z-1.0
G3 F800.0 X68.875 Y9.9486 I-2.2499 J-0.0172
G3 Y6.0514 I1.125 J-1.9486
G3 X72.25 Y8.0 I1.125 J1.9486
G3 X72.2499 Y8.0172 I-2.25 J0.0
G1 F300.0 Z-2.0
G3 F800.0 X68.875 Y9.9486 I-2.2499 J-0.0172
G3 Y6.0514 I1.125 J-1.9486
G3 X72.25 Y8.0 I1.125 J1.9486
G3 X72.2499 Y8.0172 I-2.25 J0.0
G1 F300.0 Z-3.0
G3 F800.0 X68.875 Y9.9486 I-2.2499 J-0.0172
G3 Y6.0514 I1.125 J-1.9486
G3 X72.25 Y8.0 I1.125 J1.9486
G3 X72.2499 Y8.0172 I-2.25 J0.0
G0 Z3.0
G0 X42.25 Y8.0012
G1 F300.0 Z-1.0
G3 F800.0 X38.875 Y9.9486 I-2.25 J-0.0012
G3 Y6.0514 I1.125 J-1.9486
G3 X42.25 Y8.0 I1.125 J1.9486
G3 Y8.0012 I-2.25 J0.0
G1 F300.0 Z-2.0
G3 F800.0 X38.875 Y9.9486 I-2.25 J-0.0012
G3 Y6.0514 I1.125 J-1.9486
G3 X42.25 Y8.0 I1.125 J1.9486
G3 Y8.0012 I-2.25 J0.0
G1 F300.0 Z-3.0
G3 F800.0 X38.875 Y9.9486 I-2.25 J-0.0012
G3 Y6.0514 I1.125 J-1.9486
G3 X42.25 Y8.0 I1.125 J1.9486
G3 Y8.0012 I-2.25 J0.0
G0 Z3.0
G0 X12.25 Y8.0001
G1 F300.0 Z-1.0
G3 F800.0 X8.875 Y9.9486 I-2.25 J-0.0001
G3 Y6.0514 I1.125 J-1.9486
G3 X12.25 Y8.0 I1.125 J1.9486
G1 Y8.0001
G1 F300.0 Z-2.0
G3 F800.0 X8.875 Y9.9486 I-2.25 J-0.0001
G3 Y6.0514 I1.125 J-1.9486
G3 X12.25 Y8.0 I1.125 J1.9486
G1 Y8.0001
G1 F300.0 Z-3.0
G3 F800.0 X8.875 Y9.9486 I-2.25 J-0.0001
G3 Y6.0514 I1.125 J-1.9486
G3 X12.25 Y8.0 I1.125 J1.9486
G1 Y8.0001
( Contour3 )
S1000
G0 Z3.0
G0 X99.75 Y114.25
G1 F300.0 Z-1.0
G1 F800.0 X104.25
G1 X104.4697 Y114.4697
G1 X104.25 Y114.25
G1 Y95.75
G1 X104.4697 Y95.5303
G1 X104.25 Y95.75
G1 X99.75
G1 X99.5303 Y95.5303
G1 X99.75 Y95.75
G1 Y114.25
G1 X99.5303 Y114.4697
G1 X99.75 Y114.25
G1 F300.0 Z-2.0
G1 F800.0 X104.25
G1 X104.4697 Y114.4697
G1 X104.25 Y114.25
G1 Y95.75
G1 X104.4697 Y95.5303
G1 X104.25 Y95.75
G1 X99.75
G1 X99.5303 Y95.5303
G1 X99.75 Y95.75
G1 Y114.25
G1 X99.5303 Y114.4697
G1 X99.75 Y114.25
G1 F300.0 Z-3.0
G1 F800.0 X104.25
G1 X104.4697 Y114.4697
G1 X104.25 Y114.25
G1 Y95.75
G1 X104.4697 Y95.5303
G1 X104.25 Y95.75
G1 X99.75
G1 X99.5303 Y95.5303
G1 X99.75 Y95.75
G1 Y114.25
G1 X99.5303 Y114.4697
G1 X99.75 Y114.25
G1 F300.0 Z-4.0
G1 F800.0 X104.25
G1 X104.4697 Y114.4697
G1 X104.25 Y114.25
G1 Y95.75
G1 X104.4697 Y95.5303
G1 X104.25 Y95.75
G1 X99.75
G1 X99.5303 Y95.5303
G1 X99.75 Y95.75
G1 Y114.25
G1 X99.5303 Y114.4697
G1 X99.75 Y114.25
G1 F300.0 Z-5.0
G1 F800.0 X104.25
G1 X104.4697 Y114.4697
G1 X104.25 Y114.25
G1 Y95.75
G1 X104.4697 Y95.5303
G1 X104.25 Y95.75
G1 X99.75
G1 X99.5303 Y95.5303
G1 X99.75 Y95.75
G1 Y114.25
G1 X99.5303 Y114.4697
G1 X99.75 Y114.25
G1 F300.0 Z-6.0
G1 F800.0 X104.25
G1 X104.4697 Y114.4697
G1 X104.25 Y114.25
G1 Y95.75
G1 X104.4697 Y95.5303
G1 X104.25 Y95.75
G1 X99.75
G1 X99.5303 Y95.5303
G1 X99.75 Y95.75
G1 Y114.25
G1 X99.5303 Y114.4697
G1 X99.75 Y114.25
G0 Z3.0
G0 X99.5303 Y84.4697
G1 F300.0 Z-1.0
G1 F800.0 X99.75 Y84.25
G1 X104.25
G1 X104.4697 Y84.4697
G1 X104.25 Y84.25
G1 Y65.75
G1 X104.4697 Y65.5303
G1 X104.25 Y65.75
G1 X99.75
G1 X99.5303 Y65.5303
G1 X99.75 Y65.75
G1 Y84.25
G1 X99.5303 Y84.4697
G1 F300.0 Z-2.0
G1 F800.0 X99.75 Y84.25
G1 X104.25
G1 X104.4697 Y84.4697
G1 X104.25 Y84.25
G1 Y65.75
G1 X104.4697 Y65.5303
G1 X104.25 Y65.75
G1 X99.75
G1 X99.5303 Y65.5303
G1 X99.75 Y65.75
G1 Y84.25
G1 X99.5303 Y84.4697
G1 F300.0 Z-3.0
G1 F800.0 X99.75 Y84.25
G1 X104.25
G1 X104.4697 Y84.4697
G1 X104.25 Y84.25
G1 Y65.75
G1 X104.4697 Y65.5303
G1 X104.25 Y65.75
G1 X99.75
G1 X99.5303 Y65.5303
G1 X99.75 Y65.75
G1 Y84.25
G1 X99.5303 Y84.4697
G1 F300.0 Z-4.0
G1 F800.0 X99.75 Y84.25
G1 X104.25
G1 X104.4697 Y84.4697
G1 X104.25 Y84.25
G1 Y65.75
G1 X104.4697 Y65.5303
G1 X104.25 Y65.75
G1 X99.75
G1 X99.5303 Y65.5303
G1 X99.75 Y65.75
G1 Y84.25
G1 X99.5303 Y84.4697
G1 F300.0 Z-5.0
G1 F800.0 X99.75 Y84.25
G1 X104.25
G1 X104.4697 Y84.4697
G1 X104.25 Y84.25
G1 Y65.75
G1 X104.4697 Y65.5303
G1 X104.25 Y65.75
G1 X99.75
G1 X99.5303 Y65.5303
G1 X99.75 Y65.75
G1 Y84.25
G1 X99.5303 Y84.4697
G1 F300.0 Z-6.0
G1 F800.0 X99.75 Y84.25
G1 X104.25
G1 X104.4697 Y84.4697
G1 X104.25 Y84.25
G1 Y65.75
G1 X104.4697 Y65.5303
G1 X104.25 Y65.75
G1 X99.75
G1 X99.5303 Y65.5303
G1 X99.75 Y65.75
G1 Y84.25
G1 X99.5303 Y84.4697
( Poche1 )
S1000
G0 Z3.0
G0 X86.7071 Y277.4544
G1 F300.0 Z-1.0
G1 F800.0 X88.45
G1 Y275.7115
G3 X86.7071 Y277.4544 I-2.45 J-0.7071
G0 Z3.0
G0 X88.45 Y64.2973
G1 F300.0 Z-1.0
G1 F800.0 Y62.5544
G1 X86.7071
G3 X88.45 Y64.2973 I-0.7071 J2.45
G1 F300.0 X87.8735 Y64.4637
G3 F800.0 X87.95 Y65.0044 I-1.8735 J0.5407
G1 Y275.0044
G3 X86.0 Y276.9544 I-1.95 J0.0
G1 X7.95
G1 Y278.0544
G1 X89.05
G1 Y61.9544
G1 X7.95
G1 Y63.0544
G1 X86.0
G3 X87.8735 Y64.4637 I0.0 J1.95
G1 F300.0 X87.2971 Y64.6301
G3 F800.0 X87.35 Y65.0044 I-1.2971 J0.3744
G1 Y275.0044
G3 X86.0 Y276.3544 I-1.35 J0.0
G1 X7.35
G1 Y278.6544
G1 X89.65
G1 Y61.3544
G1 X7.35
G1 Y63.6544
G1 X86.0
G3 X87.2971 Y64.6301 I0.0 J1.35
G1 F300.0 X86.7206 Y64.7965
G3 F800.0 X86.75 Y65.0044 I-0.7206 J0.208
G1 Y275.0044
G3 X86.0 Y275.7544 I-0.75 J0.0
G1 X6.75
G1 Y279.2544
G1 X90.25
G1 Y60.7544
G1 X6.75
G1 Y64.2544
G1 X86.0
G3 X86.7206 Y64.7965 I0.0 J0.75
G0 Z3.0
G0 X88.45 Y64.2973
G1 F300.0 Z-2.0
G1 F800.0 Y62.5544
G1 X86.7071
G3 X88.45 Y64.2973 I-0.7071 J2.45
G0 Z3.0
G0 Y275.7115
G1 F300.0 Z-2.0
G3 F800.0 X86.7071 Y277.4544 I-2.45 J-0.7071
G1 X88.45
G1 Y275.7115
G1 F300.0 X89.05
G1 F800.0 Y61.9544
G1 X7.95
G1 Y63.0544
G1 X86.0
G3 X87.95 Y65.0044 I0.0 J1.95
G1 Y275.0044
G3 X86.0 Y276.9544 I-1.95 J0.0
G1 X7.95
G1 Y278.0544
G1 X89.05
G1 Y275.7115
G1 F300.0 X89.65
G1 F800.0 Y61.3544
G1 X7.35
G1 Y63.6544
G1 X86.0
G3 X87.35 Y65.0044 I0.0 J1.35
G1 Y275.0044
G3 X86.0 Y276.3544 I-1.35 J0.0
G1 X7.35
G1 Y278.6544
G1 X89.65
G1 Y275.7115
G1 F300.0 X90.25
G1 F800.0 Y60.7544
G1 X6.75
G1 Y64.2544
G1 X86.0
G3 X86.75 Y65.0044 I0.0 J0.75
G1 Y275.0044
G3 X86.0 Y275.7544 I-0.75 J0.0
G1 X6.75
G1 Y279.2544
G1 X90.25
G1 Y275.7115
G0 Z3.0
G0 X88.45
G1 F300.0 Z-3.0
G3 F800.0 X86.7071 Y277.4544 I-2.45 J-0.7071
G1 X88.45
G1 Y275.7115
G0 Z3.0
G0 Y64.2973
G1 F300.0 Z-3.0
G1 F800.0 Y62.5544
G1 X86.7071
G3 X88.45 Y64.2973 I-0.7071 J2.45
G1 F300.0 X87.8735 Y64.4637
G3 F800.0 X87.95 Y65.0044 I-1.8735 J0.5407
G1 Y275.0044
G3 X86.0 Y276.9544 I-1.95 J0.0
G1 X7.95
G1 Y278.0544
G1 X89.05
G1 Y61.9544
G1 X7.95
G1 Y63.0544
G1 X86.0
G3 X87.8735 Y64.4637 I0.0 J1.95
G1 F300.0 X87.2971 Y64.6301
G3 F800.0 X87.35 Y65.0044 I-1.2971 J0.3744
G1 Y275.0044
G3 X86.0 Y276.3544 I-1.35 J0.0
G1 X7.35
G1 Y278.6544
G1 X89.65
G1 Y61.3544
G1 X7.35
G1 Y63.6544
G1 X86.0
G3 X87.2971 Y64.6301 I0.0 J1.35
G1 F300.0 X86.7206 Y64.7965
G3 F800.0 X86.75 Y65.0044 I-0.7206 J0.208
G1 Y275.0044
G3 X86.0 Y275.7544 I-0.75 J0.0
G1 X6.75
G1 Y279.2544
G1 X90.25
G1 Y60.7544
G1 X6.75
G1 Y64.2544
G1 X86.0
G3 X86.7206 Y64.7965 I0.0 J0.75
( Contour4 )
S1000
G0 Z3.0
G0 X15.75 Y5.0
G1 F300.0 Z-1.0
G1 F800.0 Y10.25
G1 X15.5303 Y10.4697
G1 X15.75 Y10.25
G1 X34.25
G1 X34.4697 Y10.4697
G1 X34.25 Y10.25
G1 Y5.0
G3 X35.0 Y4.25 I0.75 J0.0
G1 X75.0
G3 X75.75 Y5.0 I0.0 J0.75
G1 Y10.25
G1 X75.5303 Y10.4697
G1 X75.75 Y10.25
G1 X94.25
G1 X94.4697 Y10.4697
G1 X94.25 Y10.25
G1 Y5.0
G3 X95.0 Y4.25 I0.75 J0.0
G1 X125.0
G3 X125.75 Y5.0 I0.0 J0.75
G1 Y54.25
G1 X125.5303 Y54.4697
G1 X125.75 Y54.25
G1 X131.0
G3 X131.75 Y55.0 I0.0 J0.75
G1 Y75.0
G3 X131.0 Y75.75 I-0.75 J0.0
G1 X125.75
G1 X125.5303 Y75.5303
G1 X125.75 Y75.75
G1 Y124.25
G1 X125.5303 Y124.4697
G1 X125.75 Y124.25
G1 X131.0
G3 X131.75 Y125.0 I0.0 J0.75
G1 Y145.0
G3 X131.0 Y145.75 I-0.75 J0.0
G1 X125.75
G1 X125.5303 Y145.5303
G1 X125.75 Y145.75
G1 Y194.25
G1 X125.5303 Y194.4697
G1 X125.75 Y194.25
G1 X131.0
G3 X131.75 Y195.0 I0.0 J0.75
G1 Y215.0
G3 X131.0 Y215.75 I-0.75 J0.0
G1 X125.75
G1 X125.5303 Y215.5303
G1 X125.75 Y215.75
G1 Y264.25
G1 X125.5303 Y264.4697
G1 X125.75 Y264.25
G1 X131.0
G3 X131.75 Y265.0 I0.0 J0.75
G1 Y285.0
G3 X131.0 Y285.75 I-0.75 J0.0
G1 X125.75
G1 X125.5303 Y285.5303
G1 X125.75 Y285.75
G1 Y335.0
G3 X125.0 Y335.75 I-0.75 J0.0
G1 X95.0
G3 X94.25 Y335.0 I0.0 J-0.75
G1 Y329.75
G1 X94.4697 Y329.5303
G1 X94.25 Y329.75
G1 X75.75
G1 X75.5303 Y329.5303
G1 X75.75 Y329.75
G1 Y335.0
G3 X75.0 Y335.75 I-0.75 J0.0
G1 X35.0
G3 X34.25 Y335.0 I0.0 J-0.75
G1 Y329.75
G1 X34.4697 Y329.5303
G1 X34.25 Y329.75
G1 X15.75
G1 X15.5303 Y329.5303
G1 X15.75 Y329.75
G1 Y335.0
G3 X15.0 Y335.75 I-0.75 J0.0
G1 X6.0
G3 X5.25 Y335.0 I0.0 J-0.75
G1 Y275.0044
G3 X6.0 Y274.2544 I0.75 J0.0
G1 X85.25
G1 X85.4697 Y274.4741
G1 X85.25 Y274.2544
G1 Y65.7544
G1 X85.4697 Y65.5348
G1 X85.25 Y65.7544
G1 X6.0
G3 X5.25 Y65.0044 I0.0 J-0.75
G1 Y5.0
G3 X6.0 Y4.25 I0.75 J0.0
G1 X15.0
G3 X15.75 Y5.0 I0.0 J0.75
G1 F300.0 Z-2.0
G1 F800.0 Y10.25
G1 X15.5303 Y10.4697
G1 X15.75 Y10.25
G1 X34.25
G1 X34.4697 Y10.4697
G1 X34.25 Y10.25
G1 Y5.0
G3 X35.0 Y4.25 I0.75 J0.0
G1 X75.0
G3 X75.75 Y5.0 I0.0 J0.75
G1 Y10.25
G1 X75.5303 Y10.4697
G1 X75.75 Y10.25
G1 X94.25
G1 X94.4697 Y10.4697
G1 X94.25 Y10.25
G1 Y5.0
G3 X95.0 Y4.25 I0.75 J0.0
G1 X125.0
G3 X125.75 Y5.0 I0.0 J0.75
G1 Y54.25
G1 X125.5303 Y54.4697
G1 X125.75 Y54.25
G1 X131.0
G3 X131.75 Y55.0 I0.0 J0.75
G1 Y75.0
G3 X131.0 Y75.75 I-0.75 J0.0
G1 X125.75
G1 X125.5303 Y75.5303
G1 X125.75 Y75.75
G1 Y124.25
G1 X125.5303 Y124.4697
G1 X125.75 Y124.25
G1 X131.0
G3 X131.75 Y125.0 I0.0 J0.75
G1 Y145.0
G3 X131.0 Y145.75 I-0.75 J0.0
G1 X125.75
G1 X125.5303 Y145.5303
G1 X125.75 Y145.75
G1 Y194.25
G1 X125.5303 Y194.4697
G1 X125.75 Y194.25
G1 X131.0
G3 X131.75 Y195.0 I0.0 J0.75
G1 Y215.0
G3 X131.0 Y215.75 I-0.75 J0.0
G1 X125.75
G1 X125.5303 Y215.5303
G1 X125.75 Y215.75
G1 Y264.25
G1 X125.5303 Y264.4697
G1 X125.75 Y264.25
G1 X131.0
G3 X131.75 Y265.0 I0.0 J0.75
G1 Y285.0
G3 X131.0 Y285.75 I-0.75 J0.0
G1 X125.75
G1 X125.5303 Y285.5303
G1 X125.75 Y285.75
G1 Y335.0
G3 X125.0 Y335.75 I-0.75 J0.0
G1 X95.0
G3 X94.25 Y335.0 I0.0 J-0.75
G1 Y329.75
G1 X94.4697 Y329.5303
G1 X94.25 Y329.75
G1 X75.75
G1 X75.5303 Y329.5303
G1 X75.75 Y329.75
G1 Y335.0
G3 X75.0 Y335.75 I-0.75 J0.0
G1 X35.0
G3 X34.25 Y335.0 I0.0 J-0.75
G1 Y329.75
G1 X34.4697 Y329.5303
G1 X34.25 Y329.75
G1 X15.75
G1 X15.5303 Y329.5303
G1 X15.75 Y329.75
G1 Y335.0
G3 X15.0 Y335.75 I-0.75 J0.0
G1 X6.0
G3 X5.25 Y335.0 I0.0 J-0.75
G1 Y275.0044
G3 X6.0 Y274.2544 I0.75 J0.0
G1 X85.25
G1 X85.4697 Y274.4741
G1 X85.25 Y274.2544
G1 Y65.7544
G1 X85.4697 Y65.5348
G1 X85.25 Y65.7544
G1 X6.0
G3 X5.25 Y65.0044 I0.0 J-0.75
G1 Y5.0
G3 X6.0 Y4.25 I0.75 J0.0
G1 X15.0
G3 X15.75 Y5.0 I0.0 J0.75
G1 F300.0 Z-3.0
G1 F800.0 Y10.25
G1 X15.5303 Y10.4697
G1 X15.75 Y10.25
G1 X34.25
G1 X34.4697 Y10.4697
G1 X34.25 Y10.25
G1 Y5.0
G3 X35.0 Y4.25 I0.75 J0.0
G1 X75.0
G3 X75.75 Y5.0 I0.0 J0.75
G1 Y10.25
G1 X75.5303 Y10.4697
G1 X75.75 Y10.25
G1 X94.25
G1 X94.4697 Y10.4697
G1 X94.25 Y10.25
G1 Y5.0
G3 X95.0 Y4.25 I0.75 J0.0
G1 X125.0
G3 X125.75 Y5.0 I0.0 J0.75
G1 Y54.25
G1 X125.5303 Y54.4697
G1 X125.75 Y54.25
G1 X131.0
G3 X131.75 Y55.0 I0.0 J0.75
G1 Y75.0
G3 X131.0 Y75.75 I-0.75 J0.0
G1 X125.75
G1 X125.5303 Y75.5303
G1 X125.75 Y75.75
G1 Y124.25
G1 X125.5303 Y124.4697
G1 X125.75 Y124.25
G1 X131.0
G3 X131.75 Y125.0 I0.0 J0.75
G1 Y145.0
G3 X131.0 Y145.75 I-0.75 J0.0
G1 X125.75
G1 X125.5303 Y145.5303
G1 X125.75 Y145.75
G1 Y194.25
G1 X125.5303 Y194.4697
G1 X125.75 Y194.25
G1 X131.0
G3 X131.75 Y195.0 I0.0 J0.75
G1 Y215.0
G3 X131.0 Y215.75 I-0.75 J0.0
G1 X125.75
G1 X125.5303 Y215.5303
G1 X125.75 Y215.75
G1 Y264.25
G1 X125.5303 Y264.4697
G1 X125.75 Y264.25
G1 X131.0
G3 X131.75 Y265.0 I0.0 J0.75
G1 Y285.0
G3 X131.0 Y285.75 I-0.75 J0.0
G1 X125.75
G1 X125.5303 Y285.5303
G1 X125.75 Y285.75
G1 Y335.0
G3 X125.0 Y335.75 I-0.75 J0.0
G1 X95.0
G3 X94.25 Y335.0 I0.0 J-0.75
G1 Y329.75
G1 X94.4697 Y329.5303
G1 X94.25 Y329.75
G1 X75.75
G1 X75.5303 Y329.5303
G1 X75.75 Y329.75
G1 Y335.0
G3 X75.0 Y335.75 I-0.75 J0.0
G1 X35.0
G3 X34.25 Y335.0 I0.0 J-0.75
G1 Y329.75
G1 X34.4697 Y329.5303
G1 X34.25 Y329.75
G1 X15.75
G1 X15.5303 Y329.5303
G1 X15.75 Y329.75
G1 Y335.0
G3 X15.0 Y335.75 I-0.75 J0.0
G1 X6.0
G3 X5.25 Y335.0 I0.0 J-0.75
G1 Y275.0044
G3 X6.0 Y274.2544 I0.75 J0.0
G1 X85.25
G1 X85.4697 Y274.4741
G1 X85.25 Y274.2544
G1 Y65.7544
G1 X85.4697 Y65.5348
G1 X85.25 Y65.7544
G1 X6.0
G3 X5.25 Y65.0044 I0.0 J-0.75
G1 Y5.0
G3 X6.0 Y4.25 I0.75 J0.0
G1 X15.0
G3 X15.75 Y5.0 I0.0 J0.75
G1 F300.0 Z-4.0
G1 F800.0 Y10.25
G1 X15.5303 Y10.4697
G1 X15.75 Y10.25
G1 X34.25
G1 X34.4697 Y10.4697
G1 X34.25 Y10.25
G1 Y5.0
G3 X35.0 Y4.25 I0.75 J0.0
G1 X75.0
G3 X75.75 Y5.0 I0.0 J0.75
G1 Y10.25
G1 X75.5303 Y10.4697
G1 X75.75 Y10.25
G1 X94.25
G1 X94.4697 Y10.4697
G1 X94.25 Y10.25
G1 Y5.0
G3 X95.0 Y4.25 I0.75 J0.0
G1 X125.0
G3 X125.75 Y5.0 I0.0 J0.75
G1 Y54.25
G1 X125.5303 Y54.4697
G1 X125.75 Y54.25
G1 X131.0
G3 X131.75 Y55.0 I0.0 J0.75
G1 Y75.0
G3 X131.0 Y75.75 I-0.75 J0.0
G1 X125.75
G1 X125.5303 Y75.5303
G1 X125.75 Y75.75
G1 Y124.25
G1 X125.5303 Y124.4697
G1 X125.75 Y124.25
G1 X131.0
G3 X131.75 Y125.0 I0.0 J0.75
G1 Y145.0
G3 X131.0 Y145.75 I-0.75 J0.0
G1 X125.75
G1 X125.5303 Y145.5303
G1 X125.75 Y145.75
G1 Y194.25
G1 X125.5303 Y194.4697
G1 X125.75 Y194.25
G1 X131.0
G3 X131.75 Y195.0 I0.0 J0.75
G1 Y215.0
G3 X131.0 Y215.75 I-0.75 J0.0
G1 X125.75
G1 X125.5303 Y215.5303
G1 X125.75 Y215.75
G1 Y264.25
G1 X125.5303 Y264.4697
G1 X125.75 Y264.25
G1 X131.0
G3 X131.75 Y265.0 I0.0 J0.75
G1 Y285.0
G3 X131.0 Y285.75 I-0.75 J0.0
G1 X125.75
G1 X125.5303 Y285.5303
G1 X125.75 Y285.75
G1 Y335.0
G3 X125.0 Y335.75 I-0.75 J0.0
G1 X95.0
G3 X94.25 Y335.0 I0.0 J-0.75
G1 Y329.75
G1 X94.4697 Y329.5303
G1 X94.25 Y329.75
G1 X75.75
G1 X75.5303 Y329.5303
G1 X75.75 Y329.75
G1 Y335.0
G3 X75.0 Y335.75 I-0.75 J0.0
G1 X35.0
G3 X34.25 Y335.0 I0.0 J-0.75
G1 Y329.75
G1 X34.4697 Y329.5303
G1 X34.25 Y329.75
G1 X15.75
G1 X15.5303 Y329.5303
G1 X15.75 Y329.75
G1 Y335.0
G3 X15.0 Y335.75 I-0.75 J0.0
G1 X6.0
G3 X5.25 Y335.0 I0.0 J-0.75
G1 Y275.0044
G3 X6.0 Y274.2544 I0.75 J0.0
G1 X85.25
G1 X85.4697 Y274.4741
G1 X85.25 Y274.2544
G1 Y65.7544
G1 X85.4697 Y65.5348
G1 X85.25 Y65.7544
G1 X6.0
G3 X5.25 Y65.0044 I0.0 J-0.75
G1 Y5.0
G3 X6.0 Y4.25 I0.75 J0.0
G1 X15.0
G3 X15.75 Y5.0 I0.0 J0.75
G1 F300.0 Z-5.0
G1 F800.0 Y10.25
G1 X15.5303 Y10.4697
G1 X15.75 Y10.25
G1 X34.25
G1 X34.4697 Y10.4697
G1 X34.25 Y10.25
G1 Y5.0
G3 X35.0 Y4.25 I0.75 J0.0
G1 X53.75
G0 Z-4.0
G1 X58.25
G1 F300.0 Z-5.0
G1 F800.0 X75.0
G3 X75.75 Y5.0 I0.0 J0.75
G1 Y10.25
G1 X75.5303 Y10.4697
G1 X75.75 Y10.25
G1 X94.25
G1 X94.4697 Y10.4697
G1 X94.25 Y10.25
G1 Y5.0
G3 X95.0 Y4.25 I0.75 J0.0
G1 X125.0
G3 X125.75 Y5.0 I0.0 J0.75
G1 Y28.75
G0 Z-4.0
G1 Y33.25
G1 F300.0 Z-5.0
G1 F800.0 Y54.25
G1 X125.5303 Y54.4697
G1 X125.75 Y54.25
G1 X131.0
G3 X131.75 Y55.0 I0.0 J0.75
G1 Y75.0
G3 X131.0 Y75.75 I-0.75 J0.0
G1 X125.75
G1 X125.5303 Y75.5303
G1 X125.75 Y75.75
G1 Y124.25
G1 X125.5303 Y124.4697
G1 X125.75 Y124.25
G1 X131.0
G3 X131.75 Y125.0 I0.0 J0.75
G1 Y145.0
G3 X131.0 Y145.75 I-0.75 J0.0
G1 X125.75
G1 X125.5303 Y145.5303
G1 X125.75 Y145.75
G1 Y194.25
G1 X125.5303 Y194.4697
G1 X125.75 Y194.25
G1 X131.0
G3 X131.75 Y195.0 I0.0 J0.75
G1 Y215.0
G3 X131.0 Y215.75 I-0.75 J0.0
G1 X125.75
G1 X125.5303 Y215.5303
G1 X125.75 Y215.75
G1 Y232.75
G0 Z-4.0
G1 Y237.25
G1 F300.0 Z-5.0
G1 F800.0 Y264.25
G1 X125.5303 Y264.4697
G1 X125.75 Y264.25
G1 X131.0
G3 X131.75 Y265.0 I0.0 J0.75
G1 Y285.0
G3 X131.0 Y285.75 I-0.75 J0.0
G1 X125.75
G1 X125.5303 Y285.5303
G1 X125.75 Y285.75
G1 Y335.0
G3 X125.0 Y335.75 I-0.75 J0.0
G1 X95.0
G3 X94.25 Y335.0 I0.0 J-0.75
G1 Y329.75
G1 X94.4697 Y329.5303
G1 X94.25 Y329.75
G1 X75.75
G1 X75.5303 Y329.5303
G1 X75.75 Y329.75
G1 Y335.0
G3 X75.0 Y335.75 I-0.75 J0.0
G1 X55.25
G0 Z-4.0
G1 X50.75
G1 F300.0 Z-5.0
G1 F800.0 X35.0
G3 X34.25 Y335.0 I0.0 J-0.75
G1 Y329.75
G1 X34.4697 Y329.5303
G1 X34.25 Y329.75
G1 X15.75
G1 X15.5303 Y329.5303
G1 X15.75 Y329.75
G1 Y335.0
G3 X15.0 Y335.75 I-0.75 J0.0
G1 X6.0
G3 X5.25 Y335.0 I0.0 J-0.75
G1 Y307.25
G0 Z-4.0
G1 Y302.75
G1 F300.0 Z-5.0
G1 F800.0 Y275.0044
G3 X6.0 Y274.2544 I0.75 J0.0
G1 X44.75
G0 Z-4.0
G1 X49.25
G1 F300.0 Z-5.0
G1 F800.0 X85.25
G1 X85.4697 Y274.4741
G1 X85.25 Y274.2544
G1 Y179.25
G0 Z-4.0
G1 Y174.75
G1 F300.0 Z-5.0
G1 F800.0 Y65.7544
G1 X85.4697 Y65.5348
G1 X85.25 Y65.7544
G1 X52.25
G0 Z-4.0
G1 X47.75
G1 F300.0 Z-5.0
G1 F800.0 X6.0
G3 X5.25 Y65.0044 I0.0 J-0.75
G1 Y5.0
G3 X6.0 Y4.25 I0.75 J0.0
G1 X15.0
G3 X15.75 Y5.0 I0.0 J0.75
G1 F300.0 Z-6.0
G1 F800.0 Y10.25
G1 X15.5303 Y10.4697
G1 X15.75 Y10.25
G1 X34.25
G1 X34.4697 Y10.4697
G1 X34.25 Y10.25
G1 Y5.0
G3 X35.0 Y4.25 I0.75 J0.0
G1 X53.75
G0 Z-4.0
G1 X58.25
G1 F300.0 Z-6.0
G1 F800.0 X75.0
G3 X75.75 Y5.0 I0.0 J0.75
G1 Y10.25
G1 X75.5303 Y10.4697
G1 X75.75 Y10.25
G1 X94.25
G1 X94.4697 Y10.4697
G1 X94.25 Y10.25
G1 Y5.0
G3 X95.0 Y4.25 I0.75 J0.0
G1 X125.0
G3 X125.75 Y5.0 I0.0 J0.75
G1 Y28.75
G0 Z-4.0
G1 Y33.25
G1 F300.0 Z-6.0
G1 F800.0 Y54.25
G1 X125.5303 Y54.4697
G1 X125.75 Y54.25
G1 X131.0
G3 X131.75 Y55.0 I0.0 J0.75
G1 Y75.0
G3 X131.0 Y75.75 I-0.75 J0.0
G1 X125.75
G1 X125.5303 Y75.5303
G1 X125.75 Y75.75
G1 Y124.25
G1 X125.5303 Y124.4697
G1 X125.75 Y124.25
G1 X131.0
G3 X131.75 Y125.0 I0.0 J0.75
G1 Y145.0
G3 X131.0 Y145.75 I-0.75 J0.0
G1 X125.75
G1 X125.5303 Y145.5303
G1 X125.75 Y145.75
G1 Y194.25
G1 X125.5303 Y194.4697
G1 X125.75 Y194.25
G1 X131.0
G3 X131.75 Y195.0 I0.0 J0.75
G1 Y215.0
G3 X131.0 Y215.75 I-0.75 J0.0
G1 X125.75
G1 X125.5303 Y215.5303
G1 X125.75 Y215.75
G1 Y232.75
G0 Z-4.0
G1 Y237.25
G1 F300.0 Z-6.0
G1 F800.0 Y264.25
G1 X125.5303 Y264.4697
G1 X125.75 Y264.25
G1 X131.0
G3 X131.75 Y265.0 I0.0 J0.75
G1 Y285.0
G3 X131.0 Y285.75 I-0.75 J0.0
G1 X125.75
G1 X125.5303 Y285.5303
G1 X125.75 Y285.75
G1 Y335.0
G3 X125.0 Y335.75 I-0.75 J0.0
G1 X95.0
G3 X94.25 Y335.0 I0.0 J-0.75
G1 Y329.75
G1 X94.4697 Y329.5303
G1 X94.25 Y329.75
G1 X75.75
G1 X75.5303 Y329.5303
G1 X75.75 Y329.75
G1 Y335.0
G3 X75.0 Y335.75 I-0.75 J0.0
G1 X55.25
G0 Z-4.0
G1 X50.75
G1 F300.0 Z-6.0
G1 F800.0 X35.0
G3 X34.25 Y335.0 I0.0 J-0.75
G1 Y329.75
G1 X34.4697 Y329.5303
G1 X34.25 Y329.75
G1 X15.75
G1 X15.5303 Y329.5303
G1 X15.75 Y329.75
G1 Y335.0
G3 X15.0 Y335.75 I-0.75 J0.0
G1 X6.0
G3 X5.25 Y335.0 I0.0 J-0.75
G1 Y307.25
G0 Z-4.0
G1 Y302.75
G1 F300.0 Z-6.0
G1 F800.0 Y275.0044
G3 X6.0 Y274.2544 I0.75 J0.0
G1 X44.75
G0 Z-4.0
G1 X49.25
G1 F300.0 Z-6.0
G1 F800.0 X85.25
G1 X85.4697 Y274.4741
G1 X85.25 Y274.2544
G1 Y179.25
G0 Z-4.0
G1 Y174.75
G1 F300.0 Z-6.0
G1 F800.0 Y65.7544
G1 X85.4697 Y65.5348
G1 X85.25 Y65.7544
G1 X52.25
G0 Z-4.0
G1 X47.75
G1 F300.0 Z-6.0
G1 F800.0 X6.0
G3 X5.25 Y65.0044 I0.0 J-0.75
G1 Y5.0
G3 X6.0 Y4.25 I0.75 J0.0
G1 X15.0
G3 X15.75 Y5.0 I0.0 J0.75
G0 Z3.0
M5
M30
