( Made using CamBam - http://www.cambam.co.uk )
( Ensemble 9 2/3/2016 4:11:51 PM )
( T0 : 1.5 )
G21 G90 G64 G40
G0 Z3.0
( T0 : 1.5 )
T0 M6
( Contour1 )
G17
M3 S1000
G0 X30.7684 Y72.8019
G1 F300.0 Z-1.0
G2 F800.0 X25.8934 Y69.9873 I-3.25 J0.0
G2 Y75.6165 I1.625 J2.8146
G2 X30.7684 Y72.8019 I1.625 J-2.8146
G1 F300.0 Z-2.0
G2 F800.0 X25.8934 Y69.9873 I-3.25 J0.0
G2 Y75.6165 I1.625 J2.8146
G2 X30.7684 Y72.8019 I1.625 J-2.8146
G1 F300.0 Z-3.0
G2 F800.0 X25.8934 Y69.9873 I-3.25 J0.0
G2 Y75.6165 I1.625 J2.8146
G2 X30.7684 Y72.8019 I1.625 J-2.8146
G1 F300.0 Z-4.0
G2 F800.0 X25.8934 Y69.9873 I-3.25 J0.0
G2 Y75.6165 I1.625 J2.8146
G2 X30.7684 Y72.8019 I1.625 J-2.8146
G1 F300.0 Z-5.0
G2 F800.0 X25.8934 Y69.9873 I-3.25 J0.0
G2 Y75.6165 I1.625 J2.8146
G2 X30.7684 Y72.8019 I1.625 J-2.8146
G1 F300.0 Z-6.0
G2 F800.0 X25.8934 Y69.9873 I-3.25 J0.0
G2 Y75.6165 I1.625 J2.8146
G2 X30.7684 Y72.8019 I1.625 J-2.8146
G0 Z3.0
G0 X89.2724 Y80.9849
G1 F300.0 Z-1.0
G2 F800.0 X89.395 Y81.2361 I0.2476 J0.0346
G2 X89.77 Y81.0196 I0.125 J-0.2165
G2 X89.395 Y80.8031 I-0.25 J0.0
G2 X89.2724 Y80.9849 I0.125 J0.2165
G1 F300.0 Z-2.0
G2 F800.0 X89.395 Y81.2361 I0.2476 J0.0346
G2 X89.77 Y81.0196 I0.125 J-0.2165
G2 X89.395 Y80.8031 I-0.25 J0.0
G2 X89.2724 Y80.9849 I0.125 J0.2165
G1 F300.0 Z-3.0
G2 F800.0 X89.395 Y81.2361 I0.2476 J0.0346
G2 X89.77 Y81.0196 I0.125 J-0.2165
G2 X89.395 Y80.8031 I-0.25 J0.0
G2 X89.2724 Y80.9849 I0.125 J0.2165
G1 F300.0 Z-4.0
G2 F800.0 X89.395 Y81.2361 I0.2476 J0.0346
G2 X89.77 Y81.0196 I0.125 J-0.2165
G2 X89.395 Y80.8031 I-0.25 J0.0
G2 X89.2724 Y80.9849 I0.125 J0.2165
G1 F300.0 Z-5.0
G2 F800.0 X89.395 Y81.2361 I0.2476 J0.0346
G2 X89.77 Y81.0196 I0.125 J-0.2165
G2 X89.395 Y80.8031 I-0.25 J0.0
G2 X89.2724 Y80.9849 I0.125 J0.2165
G1 F300.0 Z-6.0
G2 F800.0 X89.395 Y81.2361 I0.2476 J0.0346
G2 X89.77 Y81.0196 I0.125 J-0.2165
G2 X89.395 Y80.8031 I-0.25 J0.0
G2 X89.2724 Y80.9849 I0.125 J0.2165
G0 Z3.0
G0 X96.0499 Y73.9135
G1 F300.0 Z-1.0
G2 F800.0 X98.0225 Y75.3942 I7.1113 J-7.4197
G2 X113.4384 Y66.4938 I5.1386 J-8.9004
G2 X98.0225 Y57.5935 I-10.2772 J0.0
G2 X96.0499 Y73.9135 I5.1386 J8.9004
G1 F300.0 Z-2.0
G2 F800.0 X98.0225 Y75.3942 I7.1113 J-7.4197
G2 X113.4384 Y66.4938 I5.1386 J-8.9004
G2 X98.0225 Y57.5935 I-10.2772 J0.0
G2 X96.0499 Y73.9135 I5.1386 J8.9004
G1 F300.0 Z-3.0
G2 F800.0 X98.0225 Y75.3942 I7.1113 J-7.4197
G2 X113.4384 Y66.4938 I5.1386 J-8.9004
G2 X98.0225 Y57.5935 I-10.2772 J0.0
G2 X96.0499 Y73.9135 I5.1386 J8.9004
G1 F300.0 Z-4.0
G2 F800.0 X98.0225 Y75.3942 I7.1113 J-7.4197
G2 X113.4384 Y66.4938 I5.1386 J-8.9004
G2 X98.0225 Y57.5935 I-10.2772 J0.0
G2 X96.0499 Y73.9135 I5.1386 J8.9004
G1 F300.0 Z-5.0
G2 F800.0 X98.0225 Y75.3942 I7.1113 J-7.4197
G2 X113.4384 Y66.4938 I5.1386 J-8.9004
G2 X98.0225 Y57.5935 I-10.2772 J0.0
G2 X96.0499 Y73.9135 I5.1386 J8.9004
G1 F300.0 Z-6.0
G2 F800.0 X98.0225 Y75.3942 I7.1113 J-7.4197
G2 X113.4384 Y66.4938 I5.1386 J-8.9004
G2 X98.0225 Y57.5935 I-10.2772 J0.0
G2 X96.0499 Y73.9135 I5.1386 J8.9004
G0 Z3.0
G0 X116.2838 Y80.9376
G1 F300.0 Z-1.0
G2 F800.0 X116.395 Y81.2361 I0.2362 J0.082
G2 X116.77 Y81.0196 I0.125 J-0.2165
G2 X116.395 Y80.8031 I-0.25 J0.0
G2 X116.2838 Y80.9376 I0.125 J0.2165
G1 F300.0 Z-2.0
G2 F800.0 X116.395 Y81.2361 I0.2362 J0.082
G2 X116.77 Y81.0196 I0.125 J-0.2165
G2 X116.395 Y80.8031 I-0.25 J0.0
G2 X116.2838 Y80.9376 I0.125 J0.2165
G1 F300.0 Z-3.0
G2 F800.0 X116.395 Y81.2361 I0.2362 J0.082
G2 X116.77 Y81.0196 I0.125 J-0.2165
G2 X116.395 Y80.8031 I-0.25 J0.0
G2 X116.2838 Y80.9376 I0.125 J0.2165
G1 F300.0 Z-4.0
G2 F800.0 X116.395 Y81.2361 I0.2362 J0.082
G2 X116.77 Y81.0196 I0.125 J-0.2165
G2 X116.395 Y80.8031 I-0.25 J0.0
G2 X116.2838 Y80.9376 I0.125 J0.2165
G1 F300.0 Z-5.0
G2 F800.0 X116.395 Y81.2361 I0.2362 J0.082
G2 X116.77 Y81.0196 I0.125 J-0.2165
G2 X116.395 Y80.8031 I-0.25 J0.0
G2 X116.2838 Y80.9376 I0.125 J0.2165
G1 F300.0 Z-6.0
G2 F800.0 X116.395 Y81.2361 I0.2362 J0.082
G2 X116.77 Y81.0196 I0.125 J-0.2165
G2 X116.395 Y80.8031 I-0.25 J0.0
G2 X116.2838 Y80.9376 I0.125 J0.2165
G0 Z3.0
G0 X116.5163 Y96.7696
G1 F300.0 Z-1.0
G2 F800.0 X116.395 Y96.8031 I0.0037 J0.25
G2 Y97.2361 I0.125 J0.2165
G2 X116.77 Y97.0196 I0.125 J-0.2165
G2 X116.5163 Y96.7696 I-0.25 J0.0
G1 F300.0 Z-2.0
G2 F800.0 X116.395 Y96.8031 I0.0037 J0.25
G2 Y97.2361 I0.125 J0.2165
G2 X116.77 Y97.0196 I0.125 J-0.2165
G2 X116.5163 Y96.7696 I-0.25 J0.0
G1 F300.0 Z-3.0
G2 F800.0 X116.395 Y96.8031 I0.0037 J0.25
G2 Y97.2361 I0.125 J0.2165
G2 X116.77 Y97.0196 I0.125 J-0.2165
G2 X116.5163 Y96.7696 I-0.25 J0.0
G1 F300.0 Z-4.0
G2 F800.0 X116.395 Y96.8031 I0.0037 J0.25
G2 Y97.2361 I0.125 J0.2165
G2 X116.77 Y97.0196 I0.125 J-0.2165
G2 X116.5163 Y96.7696 I-0.25 J0.0
G1 F300.0 Z-5.0
G2 F800.0 X116.395 Y96.8031 I0.0037 J0.25
G2 Y97.2361 I0.125 J0.2165
G2 X116.77 Y97.0196 I0.125 J-0.2165
G2 X116.5163 Y96.7696 I-0.25 J0.0
G1 F300.0 Z-6.0
G2 F800.0 X116.395 Y96.8031 I0.0037 J0.25
G2 Y97.2361 I0.125 J0.2165
G2 X116.77 Y97.0196 I0.125 J-0.2165
G2 X116.5163 Y96.7696 I-0.25 J0.0
G0 Z3.0
G0 X89.77 Y97.0173
G1 F300.0 Z-1.0
G2 F800.0 X89.395 Y96.8031 I-0.25 J0.0023
G2 Y97.2361 I0.125 J0.2165
G2 X89.77 Y97.0196 I0.125 J-0.2165
G2 Y97.0173 I-0.25 J0.0
G1 F300.0 Z-2.0
G2 F800.0 X89.395 Y96.8031 I-0.25 J0.0023
G2 Y97.2361 I0.125 J0.2165
G2 X89.77 Y97.0196 I0.125 J-0.2165
G2 Y97.0173 I-0.25 J0.0
G1 F300.0 Z-3.0
G2 F800.0 X89.395 Y96.8031 I-0.25 J0.0023
G2 Y97.2361 I0.125 J0.2165
G2 X89.77 Y97.0196 I0.125 J-0.2165
G2 Y97.0173 I-0.25 J0.0
G1 F300.0 Z-4.0
G2 F800.0 X89.395 Y96.8031 I-0.25 J0.0023
G2 Y97.2361 I0.125 J0.2165
G2 X89.77 Y97.0196 I0.125 J-0.2165
G2 Y97.0173 I-0.25 J0.0
G1 F300.0 Z-5.0
G2 F800.0 X89.395 Y96.8031 I-0.25 J0.0023
G2 Y97.2361 I0.125 J0.2165
G2 X89.77 Y97.0196 I0.125 J-0.2165
G2 Y97.0173 I-0.25 J0.0
G1 F300.0 Z-6.0
G2 F800.0 X89.395 Y96.8031 I-0.25 J0.0023
G2 Y97.2361 I0.125 J0.2165
G2 X89.77 Y97.0196 I0.125 J-0.2165
G2 Y97.0173 I-0.25 J0.0
G0 Z3.0
G0 X132.7994 Y128.257
G1 F300.0 Z-1.0
G2 F800.0 X132.8767 Y128.6204 I0.2023 J0.1469
G2 X133.2517 Y128.4039 I0.125 J-0.2165
G2 X132.8767 Y128.1874 I-0.25 J0.0
G2 X132.7994 Y128.257 I0.125 J0.2165
G1 F300.0 Z-2.0
G2 F800.0 X132.8767 Y128.6204 I0.2023 J0.1469
G2 X133.2517 Y128.4039 I0.125 J-0.2165
G2 X132.8767 Y128.1874 I-0.25 J0.0
G2 X132.7994 Y128.257 I0.125 J0.2165
G1 F300.0 Z-3.0
G2 F800.0 X132.8767 Y128.6204 I0.2023 J0.1469
G2 X133.2517 Y128.4039 I0.125 J-0.2165
G2 X132.8767 Y128.1874 I-0.25 J0.0
G2 X132.7994 Y128.257 I0.125 J0.2165
G1 F300.0 Z-4.0
G2 F800.0 X132.8767 Y128.6204 I0.2023 J0.1469
G2 X133.2517 Y128.4039 I0.125 J-0.2165
G2 X132.8767 Y128.1874 I-0.25 J0.0
G2 X132.7994 Y128.257 I0.125 J0.2165
G1 F300.0 Z-5.0
G2 F800.0 X132.8767 Y128.6204 I0.2023 J0.1469
G2 X133.2517 Y128.4039 I0.125 J-0.2165
G2 X132.8767 Y128.1874 I-0.25 J0.0
G2 X132.7994 Y128.257 I0.125 J0.2165
G1 F300.0 Z-6.0
G2 F800.0 X132.8767 Y128.6204 I0.2023 J0.1469
G2 X133.2517 Y128.4039 I0.125 J-0.2165
G2 X132.8767 Y128.1874 I-0.25 J0.0
G2 X132.7994 Y128.257 I0.125 J0.2165
G0 Z3.0
G0 X137.7523 Y128.3457
G1 F300.0 Z-1.0
G2 F800.0 X139.3767 Y131.2185 I3.2495 J0.0582
G2 X144.2517 Y128.4039 I1.625 J-2.8146
G2 X139.3767 Y125.5893 I-3.25 J0.0
G2 X137.7523 Y128.3457 I1.625 J2.8146
G1 F300.0 Z-2.0
G2 F800.0 X139.3767 Y131.2185 I3.2495 J0.0582
G2 X144.2517 Y128.4039 I1.625 J-2.8146
G2 X139.3767 Y125.5893 I-3.25 J0.0
G2 X137.7523 Y128.3457 I1.625 J2.8146
G1 F300.0 Z-3.0
G2 F800.0 X139.3767 Y131.2185 I3.2495 J0.0582
G2 X144.2517 Y128.4039 I1.625 J-2.8146
G2 X139.3767 Y125.5893 I-3.25 J0.0
G2 X137.7523 Y128.3457 I1.625 J2.8146
G1 F300.0 Z-4.0
G2 F800.0 X139.3767 Y131.2185 I3.2495 J0.0582
G2 X144.2517 Y128.4039 I1.625 J-2.8146
G2 X139.3767 Y125.5893 I-3.25 J0.0
G2 X137.7523 Y128.3457 I1.625 J2.8146
G1 F300.0 Z-5.0
G2 F800.0 X139.3767 Y131.2185 I3.2495 J0.0582
G2 X144.2517 Y128.4039 I1.625 J-2.8146
G2 X139.3767 Y125.5893 I-3.25 J0.0
G2 X137.7523 Y128.3457 I1.625 J2.8146
G1 F300.0 Z-6.0
G2 F800.0 X139.3767 Y131.2185 I3.2495 J0.0582
G2 X144.2517 Y128.4039 I1.625 J-2.8146
G2 X139.3767 Y125.5893 I-3.25 J0.0
G2 X137.7523 Y128.3457 I1.625 J2.8146
G0 Z3.0
G0 X140.9071 Y120.6353
G1 F300.0 Z-1.0
G2 F800.0 X141.2517 Y120.4039 I0.0947 J-0.2314
G2 X140.8767 Y120.1874 I-0.25 J0.0
G2 Y120.6204 I0.125 J0.2165
G2 X140.9071 Y120.6353 I0.125 J-0.2165
G1 F300.0 Z-2.0
G2 F800.0 X141.2517 Y120.4039 I0.0947 J-0.2314
G2 X140.8767 Y120.1874 I-0.25 J0.0
G2 Y120.6204 I0.125 J0.2165
G2 X140.9071 Y120.6353 I0.125 J-0.2165
G1 F300.0 Z-3.0
G2 F800.0 X141.2517 Y120.4039 I0.0947 J-0.2314
G2 X140.8767 Y120.1874 I-0.25 J0.0
G2 Y120.6204 I0.125 J0.2165
G2 X140.9071 Y120.6353 I0.125 J-0.2165
G1 F300.0 Z-4.0
G2 F800.0 X141.2517 Y120.4039 I0.0947 J-0.2314
G2 X140.8767 Y120.1874 I-0.25 J0.0
G2 Y120.6204 I0.125 J0.2165
G2 X140.9071 Y120.6353 I0.125 J-0.2165
G1 F300.0 Z-5.0
G2 F800.0 X141.2517 Y120.4039 I0.0947 J-0.2314
G2 X140.8767 Y120.1874 I-0.25 J0.0
G2 Y120.6204 I0.125 J0.2165
G2 X140.9071 Y120.6353 I0.125 J-0.2165
G1 F300.0 Z-6.0
G2 F800.0 X141.2517 Y120.4039 I0.0947 J-0.2314
G2 X140.8767 Y120.1874 I-0.25 J0.0
G2 Y120.6204 I0.125 J0.2165
G2 X140.9071 Y120.6353 I0.125 J-0.2165
G0 Z3.0
G0 X148.8214 Y128.2308
G1 F300.0 Z-1.0
G2 F800.0 X148.8767 Y128.6204 I0.1804 J0.1731
G2 X149.2517 Y128.4039 I0.125 J-0.2165
G2 X148.8767 Y128.1874 I-0.25 J0.0
G2 X148.8214 Y128.2308 I0.125 J0.2165
G1 F300.0 Z-2.0
G2 F800.0 X148.8767 Y128.6204 I0.1804 J0.1731
G2 X149.2517 Y128.4039 I0.125 J-0.2165
G2 X148.8767 Y128.1874 I-0.25 J0.0
G2 X148.8214 Y128.2308 I0.125 J0.2165
G1 F300.0 Z-3.0
G2 F800.0 X148.8767 Y128.6204 I0.1804 J0.1731
G2 X149.2517 Y128.4039 I0.125 J-0.2165
G2 X148.8767 Y128.1874 I-0.25 J0.0
G2 X148.8214 Y128.2308 I0.125 J0.2165
G1 F300.0 Z-4.0
G2 F800.0 X148.8767 Y128.6204 I0.1804 J0.1731
G2 X149.2517 Y128.4039 I0.125 J-0.2165
G2 X148.8767 Y128.1874 I-0.25 J0.0
G2 X148.8214 Y128.2308 I0.125 J0.2165
G1 F300.0 Z-5.0
G2 F800.0 X148.8767 Y128.6204 I0.1804 J0.1731
G2 X149.2517 Y128.4039 I0.125 J-0.2165
G2 X148.8767 Y128.1874 I-0.25 J0.0
G2 X148.8214 Y128.2308 I0.125 J0.2165
G1 F300.0 Z-6.0
G2 F800.0 X148.8767 Y128.6204 I0.1804 J0.1731
G2 X149.2517 Y128.4039 I0.125 J-0.2165
G2 X148.8767 Y128.1874 I-0.25 J0.0
G2 X148.8214 Y128.2308 I0.125 J0.2165
G0 Z3.0
G0 X141.1746 Y136.2232
G1 F300.0 Z-1.0
G2 F800.0 X140.8767 Y136.1874 I-0.1728 J0.1806
G2 Y136.6204 I0.125 J0.2165
G2 X141.2517 Y136.4039 I0.125 J-0.2165
G2 X141.1746 Y136.2232 I-0.25 J0.0
G1 F300.0 Z-2.0
G2 F800.0 X140.8767 Y136.1874 I-0.1728 J0.1806
G2 Y136.6204 I0.125 J0.2165
G2 X141.2517 Y136.4039 I0.125 J-0.2165
G2 X141.1746 Y136.2232 I-0.25 J0.0
G1 F300.0 Z-3.0
G2 F800.0 X140.8767 Y136.1874 I-0.1728 J0.1806
G2 Y136.6204 I0.125 J0.2165
G2 X141.2517 Y136.4039 I0.125 J-0.2165
G2 X141.1746 Y136.2232 I-0.25 J0.0
G1 F300.0 Z-4.0
G2 F800.0 X140.8767 Y136.1874 I-0.1728 J0.1806
G2 Y136.6204 I0.125 J0.2165
G2 X141.2517 Y136.4039 I0.125 J-0.2165
G2 X141.1746 Y136.2232 I-0.25 J0.0
G1 F300.0 Z-5.0
G2 F800.0 X140.8767 Y136.1874 I-0.1728 J0.1806
G2 Y136.6204 I0.125 J0.2165
G2 X141.2517 Y136.4039 I0.125 J-0.2165
G2 X141.1746 Y136.2232 I-0.25 J0.0
G1 F300.0 Z-6.0
G2 F800.0 X140.8767 Y136.1874 I-0.1728 J0.1806
G2 Y136.6204 I0.125 J0.2165
G2 X141.2517 Y136.4039 I0.125 J-0.2165
G2 X141.1746 Y136.2232 I-0.25 J0.0
G0 Z3.0
G0 X130.0205 Y196.2598
G1 F300.0 Z-1.0
G2 F800.0 X129.5085 Y196.3476 I-0.137 J0.7374
G2 Y197.6467 I0.375 J0.6495
G2 X130.6335 Y196.9971 I0.375 J-0.6495
G2 X130.0205 Y196.2598 I-0.75 J0.0
G1 F300.0 Z-2.0
G2 F800.0 X129.5085 Y196.3476 I-0.137 J0.7374
G2 Y197.6467 I0.375 J0.6495
G2 X130.6335 Y196.9971 I0.375 J-0.6495
G2 X130.0205 Y196.2598 I-0.75 J0.0
G1 F300.0 Z-3.0
G2 F800.0 X129.5085 Y196.3476 I-0.137 J0.7374
G2 Y197.6467 I0.375 J0.6495
G2 X130.6335 Y196.9971 I0.375 J-0.6495
G2 X130.0205 Y196.2598 I-0.75 J0.0
G1 F300.0 Z-4.0
G2 F800.0 X129.5085 Y196.3476 I-0.137 J0.7374
G2 Y197.6467 I0.375 J0.6495
G2 X130.6335 Y196.9971 I0.375 J-0.6495
G2 X130.0205 Y196.2598 I-0.75 J0.0
G1 F300.0 Z-5.0
G2 F800.0 X129.5085 Y196.3476 I-0.137 J0.7374
G2 Y197.6467 I0.375 J0.6495
G2 X130.6335 Y196.9971 I0.375 J-0.6495
G2 X130.0205 Y196.2598 I-0.75 J0.0
G1 F300.0 Z-6.0
G2 F800.0 X129.5085 Y196.3476 I-0.137 J0.7374
G2 Y197.6467 I0.375 J0.6495
G2 X130.6335 Y196.9971 I0.375 J-0.6495
G2 X130.0205 Y196.2598 I-0.75 J0.0
G0 Z3.0
G0 X116.5894 Y242.7403
G1 F300.0 Z-1.0
G2 F800.0 X116.395 Y242.7639 I-0.0694 J0.2402
G2 Y243.1969 I0.125 J0.2165
G2 X116.77 Y242.9804 I0.125 J-0.2165
G2 X116.5894 Y242.7403 I-0.25 J0.0
G1 F300.0 Z-2.0
G2 F800.0 X116.395 Y242.7639 I-0.0694 J0.2402
G2 Y243.1969 I0.125 J0.2165
G2 X116.77 Y242.9804 I0.125 J-0.2165
G2 X116.5894 Y242.7403 I-0.25 J0.0
G1 F300.0 Z-3.0
G2 F800.0 X116.395 Y242.7639 I-0.0694 J0.2402
G2 Y243.1969 I0.125 J0.2165
G2 X116.77 Y242.9804 I0.125 J-0.2165
G2 X116.5894 Y242.7403 I-0.25 J0.0
G1 F300.0 Z-4.0
G2 F800.0 X116.395 Y242.7639 I-0.0694 J0.2402
G2 Y243.1969 I0.125 J0.2165
G2 X116.77 Y242.9804 I0.125 J-0.2165
G2 X116.5894 Y242.7403 I-0.25 J0.0
G1 F300.0 Z-5.0
G2 F800.0 X116.395 Y242.7639 I-0.0694 J0.2402
G2 Y243.1969 I0.125 J0.2165
G2 X116.77 Y242.9804 I0.125 J-0.2165
G2 X116.5894 Y242.7403 I-0.25 J0.0
G1 F300.0 Z-6.0
G2 F800.0 X116.395 Y242.7639 I-0.0694 J0.2402
G2 Y243.1969 I0.125 J0.2165
G2 X116.77 Y242.9804 I0.125 J-0.2165
G2 X116.5894 Y242.7403 I-0.25 J0.0
G0 Z3.0
G0 X129.268 Y251.5686
G1 F300.0 Z-1.0
G2 F800.0 X129.5085 Y252.6467 I0.6155 J0.4286
G2 X130.6335 Y251.9971 I0.375 J-0.6495
G2 X129.5085 Y251.3476 I-0.75 J0.0
G2 X129.268 Y251.5686 I0.375 J0.6495
G1 F300.0 Z-2.0
G2 F800.0 X129.5085 Y252.6467 I0.6155 J0.4286
G2 X130.6335 Y251.9971 I0.375 J-0.6495
G2 X129.5085 Y251.3476 I-0.75 J0.0
G2 X129.268 Y251.5686 I0.375 J0.6495
G1 F300.0 Z-3.0
G2 F800.0 X129.5085 Y252.6467 I0.6155 J0.4286
G2 X130.6335 Y251.9971 I0.375 J-0.6495
G2 X129.5085 Y251.3476 I-0.75 J0.0
G2 X129.268 Y251.5686 I0.375 J0.6495
G1 F300.0 Z-4.0
G2 F800.0 X129.5085 Y252.6467 I0.6155 J0.4286
G2 X130.6335 Y251.9971 I0.375 J-0.6495
G2 X129.5085 Y251.3476 I-0.75 J0.0
G2 X129.268 Y251.5686 I0.375 J0.6495
G1 F300.0 Z-5.0
G2 F800.0 X129.5085 Y252.6467 I0.6155 J0.4286
G2 X130.6335 Y251.9971 I0.375 J-0.6495
G2 X129.5085 Y251.3476 I-0.75 J0.0
G2 X129.268 Y251.5686 I0.375 J0.6495
G1 F300.0 Z-6.0
G2 F800.0 X129.5085 Y252.6467 I0.6155 J0.4286
G2 X130.6335 Y251.9971 I0.375 J-0.6495
G2 X129.5085 Y251.3476 I-0.75 J0.0
G2 X129.268 Y251.5686 I0.375 J0.6495
G0 Z3.0
G0 X137.1351 Y251.0468
G1 F300.0 Z-1.0
G2 F800.0 X137.5085 Y251.6467 I0.7484 J-0.0496
G2 X138.6335 Y250.9971 I0.375 J-0.6495
G2 X137.5085 Y250.3476 I-0.75 J0.0
G2 X137.1351 Y251.0468 I0.375 J0.6495
G1 F300.0 Z-2.0
G2 F800.0 X137.5085 Y251.6467 I0.7484 J-0.0496
G2 X138.6335 Y250.9971 I0.375 J-0.6495
G2 X137.5085 Y250.3476 I-0.75 J0.0
G2 X137.1351 Y251.0468 I0.375 J0.6495
G1 F300.0 Z-3.0
G2 F800.0 X137.5085 Y251.6467 I0.7484 J-0.0496
G2 X138.6335 Y250.9971 I0.375 J-0.6495
G2 X137.5085 Y250.3476 I-0.75 J0.0
G2 X137.1351 Y251.0468 I0.375 J0.6495
G1 F300.0 Z-4.0
G2 F800.0 X137.5085 Y251.6467 I0.7484 J-0.0496
G2 X138.6335 Y250.9971 I0.375 J-0.6495
G2 X137.5085 Y250.3476 I-0.75 J0.0
G2 X137.1351 Y251.0468 I0.375 J0.6495
G1 F300.0 Z-5.0
G2 F800.0 X137.5085 Y251.6467 I0.7484 J-0.0496
G2 X138.6335 Y250.9971 I0.375 J-0.6495
G2 X137.5085 Y250.3476 I-0.75 J0.0
G2 X137.1351 Y251.0468 I0.375 J0.6495
G1 F300.0 Z-6.0
G2 F800.0 X137.5085 Y251.6467 I0.7484 J-0.0496
G2 X138.6335 Y250.9971 I0.375 J-0.6495
G2 X137.5085 Y250.3476 I-0.75 J0.0
G2 X137.1351 Y251.0468 I0.375 J0.6495
G0 Z3.0
G0 X157.1335 Y250.9989
G1 F300.0 Z-1.0
G2 F800.0 X157.5085 Y251.6467 I0.75 J-0.0018
G2 X158.6335 Y250.9971 I0.375 J-0.6495
G2 X157.5085 Y250.3476 I-0.75 J0.0
G2 X157.1335 Y250.9989 I0.375 J0.6495
G1 F300.0 Z-2.0
G2 F800.0 X157.5085 Y251.6467 I0.75 J-0.0018
G2 X158.6335 Y250.9971 I0.375 J-0.6495
G2 X157.5085 Y250.3476 I-0.75 J0.0
G2 X157.1335 Y250.9989 I0.375 J0.6495
G1 F300.0 Z-3.0
G2 F800.0 X157.5085 Y251.6467 I0.75 J-0.0018
G2 X158.6335 Y250.9971 I0.375 J-0.6495
G2 X157.5085 Y250.3476 I-0.75 J0.0
G2 X157.1335 Y250.9989 I0.375 J0.6495
G1 F300.0 Z-4.0
G2 F800.0 X157.5085 Y251.6467 I0.75 J-0.0018
G2 X158.6335 Y250.9971 I0.375 J-0.6495
G2 X157.5085 Y250.3476 I-0.75 J0.0
G2 X157.1335 Y250.9989 I0.375 J0.6495
G1 F300.0 Z-5.0
G2 F800.0 X157.5085 Y251.6467 I0.75 J-0.0018
G2 X158.6335 Y250.9971 I0.375 J-0.6495
G2 X157.5085 Y250.3476 I-0.75 J0.0
G2 X157.1335 Y250.9989 I0.375 J0.6495
G1 F300.0 Z-6.0
G2 F800.0 X157.5085 Y251.6467 I0.75 J-0.0018
G2 X158.6335 Y250.9971 I0.375 J-0.6495
G2 X157.5085 Y250.3476 I-0.75 J0.0
G2 X157.1335 Y250.9989 I0.375 J0.6495
G0 Z3.0
G0 X116.7653 Y258.9322
G1 F300.0 Z-1.0
G2 F800.0 X116.395 Y258.7639 I-0.2453 J0.0482
G2 Y259.1969 I0.125 J0.2165
G2 X116.77 Y258.9804 I0.125 J-0.2165
G2 X116.7653 Y258.9322 I-0.25 J0.0
G1 F300.0 Z-2.0
G2 F800.0 X116.395 Y258.7639 I-0.2453 J0.0482
G2 Y259.1969 I0.125 J0.2165
G2 X116.77 Y258.9804 I0.125 J-0.2165
G2 X116.7653 Y258.9322 I-0.25 J0.0
G1 F300.0 Z-3.0
G2 F800.0 X116.395 Y258.7639 I-0.2453 J0.0482
G2 Y259.1969 I0.125 J0.2165
G2 X116.77 Y258.9804 I0.125 J-0.2165
G2 X116.7653 Y258.9322 I-0.25 J0.0
G1 F300.0 Z-4.0
G2 F800.0 X116.395 Y258.7639 I-0.2453 J0.0482
G2 Y259.1969 I0.125 J0.2165
G2 X116.77 Y258.9804 I0.125 J-0.2165
G2 X116.7653 Y258.9322 I-0.25 J0.0
G1 F300.0 Z-5.0
G2 F800.0 X116.395 Y258.7639 I-0.2453 J0.0482
G2 Y259.1969 I0.125 J0.2165
G2 X116.77 Y258.9804 I0.125 J-0.2165
G2 X116.7653 Y258.9322 I-0.25 J0.0
G1 F300.0 Z-6.0
G2 F800.0 X116.395 Y258.7639 I-0.2453 J0.0482
G2 Y259.1969 I0.125 J0.2165
G2 X116.77 Y258.9804 I0.125 J-0.2165
G2 X116.7653 Y258.9322 I-0.25 J0.0
G0 Z3.0
G0 X110.1684 Y265.9915
G1 F300.0 Z-1.0
G2 F800.0 X98.045 Y264.6037 I-6.9984 J7.489
G2 Y282.3572 I5.125 J8.8768
G2 X113.42 Y273.4804 I5.125 J-8.8768
G2 X110.1684 Y265.9915 I-10.25 J0.0
G1 F300.0 Z-2.0
G2 F800.0 X98.045 Y264.6037 I-6.9984 J7.489
G2 Y282.3572 I5.125 J8.8768
G2 X113.42 Y273.4804 I5.125 J-8.8768
G2 X110.1684 Y265.9915 I-10.25 J0.0
G1 F300.0 Z-3.0
G2 F800.0 X98.045 Y264.6037 I-6.9984 J7.489
G2 Y282.3572 I5.125 J8.8768
G2 X113.42 Y273.4804 I5.125 J-8.8768
G2 X110.1684 Y265.9915 I-10.25 J0.0
G1 F300.0 Z-4.0
G2 F800.0 X98.045 Y264.6037 I-6.9984 J7.489
G2 Y282.3572 I5.125 J8.8768
G2 X113.42 Y273.4804 I5.125 J-8.8768
G2 X110.1684 Y265.9915 I-10.25 J0.0
G1 F300.0 Z-5.0
G2 F800.0 X98.045 Y264.6037 I-6.9984 J7.489
G2 Y282.3572 I5.125 J8.8768
G2 X113.42 Y273.4804 I5.125 J-8.8768
G2 X110.1684 Y265.9915 I-10.25 J0.0
G1 F300.0 Z-6.0
G2 F800.0 X98.045 Y264.6037 I-6.9984 J7.489
G2 Y282.3572 I5.125 J8.8768
G2 X113.42 Y273.4804 I5.125 J-8.8768
G2 X110.1684 Y265.9915 I-10.25 J0.0
G0 Z3.0
G0 X89.7567 Y259.0608
G1 F300.0 Z-1.0
G2 F800.0 X89.77 Y258.9804 I-0.2367 J-0.0804
G2 X89.395 Y258.7639 I-0.25 J0.0
G2 Y259.1969 I0.125 J0.2165
G2 X89.7567 Y259.0608 I0.125 J-0.2165
G1 F300.0 Z-2.0
G2 F800.0 X89.77 Y258.9804 I-0.2367 J-0.0804
G2 X89.395 Y258.7639 I-0.25 J0.0
G2 Y259.1969 I0.125 J0.2165
G2 X89.7567 Y259.0608 I0.125 J-0.2165
G1 F300.0 Z-3.0
G2 F800.0 X89.77 Y258.9804 I-0.2367 J-0.0804
G2 X89.395 Y258.7639 I-0.25 J0.0
G2 Y259.1969 I0.125 J0.2165
G2 X89.7567 Y259.0608 I0.125 J-0.2165
G1 F300.0 Z-4.0
G2 F800.0 X89.77 Y258.9804 I-0.2367 J-0.0804
G2 X89.395 Y258.7639 I-0.25 J0.0
G2 Y259.1969 I0.125 J0.2165
G2 X89.7567 Y259.0608 I0.125 J-0.2165
G1 F300.0 Z-5.0
G2 F800.0 X89.77 Y258.9804 I-0.2367 J-0.0804
G2 X89.395 Y258.7639 I-0.25 J0.0
G2 Y259.1969 I0.125 J0.2165
G2 X89.7567 Y259.0608 I0.125 J-0.2165
G1 F300.0 Z-6.0
G2 F800.0 X89.77 Y258.9804 I-0.2367 J-0.0804
G2 X89.395 Y258.7639 I-0.25 J0.0
G2 Y259.1969 I0.125 J0.2165
G2 X89.7567 Y259.0608 I0.125 J-0.2165
G0 Z3.0
G0 X89.5237 Y243.2304
G1 F300.0 Z-1.0
G2 F800.0 X89.77 Y242.9804 I-0.0037 J-0.25
G2 X89.395 Y242.7639 I-0.25 J0.0
G2 Y243.1969 I0.125 J0.2165
G2 X89.5237 Y243.2304 I0.125 J-0.2165
G1 F300.0 Z-2.0
G2 F800.0 X89.77 Y242.9804 I-0.0037 J-0.25
G2 X89.395 Y242.7639 I-0.25 J0.0
G2 Y243.1969 I0.125 J0.2165
G2 X89.5237 Y243.2304 I0.125 J-0.2165
G1 F300.0 Z-3.0
G2 F800.0 X89.77 Y242.9804 I-0.0037 J-0.25
G2 X89.395 Y242.7639 I-0.25 J0.0
G2 Y243.1969 I0.125 J0.2165
G2 X89.5237 Y243.2304 I0.125 J-0.2165
G1 F300.0 Z-4.0
G2 F800.0 X89.77 Y242.9804 I-0.0037 J-0.25
G2 X89.395 Y242.7639 I-0.25 J0.0
G2 Y243.1969 I0.125 J0.2165
G2 X89.5237 Y243.2304 I0.125 J-0.2165
G1 F300.0 Z-5.0
G2 F800.0 X89.77 Y242.9804 I-0.0037 J-0.25
G2 X89.395 Y242.7639 I-0.25 J0.0
G2 Y243.1969 I0.125 J0.2165
G2 X89.5237 Y243.2304 I0.125 J-0.2165
G1 F300.0 Z-6.0
G2 F800.0 X89.77 Y242.9804 I-0.0037 J-0.25
G2 X89.395 Y242.7639 I-0.25 J0.0
G2 Y243.1969 I0.125 J0.2165
G2 X89.5237 Y243.2304 I0.125 J-0.2165
G0 Z3.0
G0 X38.1063 Y247.0443
G1 F300.0 Z-1.0
G2 F800.0 X36.9834 Y246.4503 I-0.7479 J0.0555
G2 Y247.7493 I0.375 J0.6495
G2 X38.1084 Y247.0998 I0.375 J-0.6495
G2 X38.1063 Y247.0443 I-0.75 J0.0
G1 F300.0 Z-2.0
G2 F800.0 X36.9834 Y246.4503 I-0.7479 J0.0555
G2 Y247.7493 I0.375 J0.6495
G2 X38.1084 Y247.0998 I0.375 J-0.6495
G2 X38.1063 Y247.0443 I-0.75 J0.0
G1 F300.0 Z-3.0
G2 F800.0 X36.9834 Y246.4503 I-0.7479 J0.0555
G2 Y247.7493 I0.375 J0.6495
G2 X38.1084 Y247.0998 I0.375 J-0.6495
G2 X38.1063 Y247.0443 I-0.75 J0.0
G1 F300.0 Z-4.0
G2 F800.0 X36.9834 Y246.4503 I-0.7479 J0.0555
G2 Y247.7493 I0.375 J0.6495
G2 X38.1084 Y247.0998 I0.375 J-0.6495
G2 X38.1063 Y247.0443 I-0.75 J0.0
G1 F300.0 Z-5.0
G2 F800.0 X36.9834 Y246.4503 I-0.7479 J0.0555
G2 Y247.7493 I0.375 J0.6495
G2 X38.1084 Y247.0998 I0.375 J-0.6495
G2 X38.1063 Y247.0443 I-0.75 J0.0
G1 F300.0 Z-6.0
G2 F800.0 X36.9834 Y246.4503 I-0.7479 J0.0555
G2 Y247.7493 I0.375 J0.6495
G2 X38.1084 Y247.0998 I0.375 J-0.6495
G2 X38.1063 Y247.0443 I-0.75 J0.0
G0 Z3.0
G0 X18.1084 Y247.0978
G1 F300.0 Z-1.0
G2 F800.0 X16.9834 Y246.4503 I-0.75 J0.002
G2 Y247.7493 I0.375 J0.6495
G2 X18.1084 Y247.0998 I0.375 J-0.6495
G2 Y247.0978 I-0.75 J0.0
G1 F300.0 Z-2.0
G2 F800.0 X16.9834 Y246.4503 I-0.75 J0.002
G2 Y247.7493 I0.375 J0.6495
G2 X18.1084 Y247.0998 I0.375 J-0.6495
G2 Y247.0978 I-0.75 J0.0
G1 F300.0 Z-3.0
G2 F800.0 X16.9834 Y246.4503 I-0.75 J0.002
G2 Y247.7493 I0.375 J0.6495
G2 X18.1084 Y247.0998 I0.375 J-0.6495
G2 Y247.0978 I-0.75 J0.0
G1 F300.0 Z-4.0
G2 F800.0 X16.9834 Y246.4503 I-0.75 J0.002
G2 Y247.7493 I0.375 J0.6495
G2 X18.1084 Y247.0998 I0.375 J-0.6495
G2 Y247.0978 I-0.75 J0.0
G1 F300.0 Z-5.0
G2 F800.0 X16.9834 Y246.4503 I-0.75 J0.002
G2 Y247.7493 I0.375 J0.6495
G2 X18.1084 Y247.0998 I0.375 J-0.6495
G2 Y247.0978 I-0.75 J0.0
G1 F300.0 Z-6.0
G2 F800.0 X16.9834 Y246.4503 I-0.75 J0.002
G2 Y247.7493 I0.375 J0.6495
G2 X18.1084 Y247.0998 I0.375 J-0.6495
G2 Y247.0978 I-0.75 J0.0
G0 Z3.0
G0 X10.1035 Y248.0145
G1 F300.0 Z-1.0
G2 F800.0 X8.9834 Y247.4503 I-0.7451 J0.0853
G2 Y248.7493 I0.375 J0.6495
G2 X10.1084 Y248.0998 I0.375 J-0.6495
G2 X10.1035 Y248.0145 I-0.75 J0.0
G1 F300.0 Z-2.0
G2 F800.0 X8.9834 Y247.4503 I-0.7451 J0.0853
G2 Y248.7493 I0.375 J0.6495
G2 X10.1084 Y248.0998 I0.375 J-0.6495
G2 X10.1035 Y248.0145 I-0.75 J0.0
G1 F300.0 Z-3.0
G2 F800.0 X8.9834 Y247.4503 I-0.7451 J0.0853
G2 Y248.7493 I0.375 J0.6495
G2 X10.1084 Y248.0998 I0.375 J-0.6495
G2 X10.1035 Y248.0145 I-0.75 J0.0
G1 F300.0 Z-4.0
G2 F800.0 X8.9834 Y247.4503 I-0.7451 J0.0853
G2 Y248.7493 I0.375 J0.6495
G2 X10.1084 Y248.0998 I0.375 J-0.6495
G2 X10.1035 Y248.0145 I-0.75 J0.0
G1 F300.0 Z-5.0
G2 F800.0 X8.9834 Y247.4503 I-0.7451 J0.0853
G2 Y248.7493 I0.375 J0.6495
G2 X10.1084 Y248.0998 I0.375 J-0.6495
G2 X10.1035 Y248.0145 I-0.75 J0.0
G1 F300.0 Z-6.0
G2 F800.0 X8.9834 Y247.4503 I-0.7451 J0.0853
G2 Y248.7493 I0.375 J0.6495
G2 X10.1084 Y248.0998 I0.375 J-0.6495
G2 X10.1035 Y248.0145 I-0.75 J0.0
G0 Z3.0
G0 X9.3685 Y193.8498
G1 F300.0 Z-1.0
G2 F800.0 X10.1084 Y193.0998 I-0.0102 J-0.7499
G2 X8.9834 Y192.4503 I-0.75 J0.0
G2 Y193.7493 I0.375 J0.6495
G2 X9.3685 Y193.8498 I0.375 J-0.6495
G1 F300.0 Z-2.0
G2 F800.0 X10.1084 Y193.0998 I-0.0102 J-0.7499
G2 X8.9834 Y192.4503 I-0.75 J0.0
G2 Y193.7493 I0.375 J0.6495
G2 X9.3685 Y193.8498 I0.375 J-0.6495
G1 F300.0 Z-3.0
G2 F800.0 X10.1084 Y193.0998 I-0.0102 J-0.7499
G2 X8.9834 Y192.4503 I-0.75 J0.0
G2 Y193.7493 I0.375 J0.6495
G2 X9.3685 Y193.8498 I0.375 J-0.6495
G1 F300.0 Z-4.0
G2 F800.0 X10.1084 Y193.0998 I-0.0102 J-0.7499
G2 X8.9834 Y192.4503 I-0.75 J0.0
G2 Y193.7493 I0.375 J0.6495
G2 X9.3685 Y193.8498 I0.375 J-0.6495
G1 F300.0 Z-5.0
G2 F800.0 X10.1084 Y193.0998 I-0.0102 J-0.7499
G2 X8.9834 Y192.4503 I-0.75 J0.0
G2 Y193.7493 I0.375 J0.6495
G2 X9.3685 Y193.8498 I0.375 J-0.6495
G1 F300.0 Z-6.0
G2 F800.0 X10.1084 Y193.0998 I-0.0102 J-0.7499
G2 X8.9834 Y192.4503 I-0.75 J0.0
G2 Y193.7493 I0.375 J0.6495
G2 X9.3685 Y193.8498 I0.375 J-0.6495
G0 Z3.0
G0 X140.2135 Y59.4738
G1 F300.0 Z-1.0
G2 F800.0 X140.2629 Y59.5112 I0.1744 J-0.1791
G2 X140.6379 Y59.2947 I0.125 J-0.2165
G2 X140.2629 Y59.0782 I-0.25 J0.0
G2 X140.2135 Y59.4738 I0.125 J0.2165
G1 F300.0 Z-2.0
G2 F800.0 X140.2629 Y59.5112 I0.1744 J-0.1791
G2 X140.6379 Y59.2947 I0.125 J-0.2165
G2 X140.2629 Y59.0782 I-0.25 J0.0
G2 X140.2135 Y59.4738 I0.125 J0.2165
G1 F300.0 Z-3.0
G2 F800.0 X140.2629 Y59.5112 I0.1744 J-0.1791
G2 X140.6379 Y59.2947 I0.125 J-0.2165
G2 X140.2629 Y59.0782 I-0.25 J0.0
G2 X140.2135 Y59.4738 I0.125 J0.2165
G1 F300.0 Z-4.0
G2 F800.0 X140.2629 Y59.5112 I0.1744 J-0.1791
G2 X140.6379 Y59.2947 I0.125 J-0.2165
G2 X140.2629 Y59.0782 I-0.25 J0.0
G2 X140.2135 Y59.4738 I0.125 J0.2165
G1 F300.0 Z-5.0
G2 F800.0 X140.2629 Y59.5112 I0.1744 J-0.1791
G2 X140.6379 Y59.2947 I0.125 J-0.2165
G2 X140.2629 Y59.0782 I-0.25 J0.0
G2 X140.2135 Y59.4738 I0.125 J0.2165
G1 F300.0 Z-6.0
G2 F800.0 X140.2629 Y59.5112 I0.1744 J-0.1791
G2 X140.6379 Y59.2947 I0.125 J-0.2165
G2 X140.2629 Y59.0782 I-0.25 J0.0
G2 X140.2135 Y59.4738 I0.125 J0.2165
G0 Z3.0
G0 X140.3186 Y54.5439
G1 F300.0 Z-1.0
G2 F800.0 X143.6379 Y51.2947 I0.0693 J-3.2493
G2 X138.7629 Y48.4801 I-3.25 J0.0
G2 Y54.1092 I1.625 J2.8146
G2 X140.3186 Y54.5439 I1.625 J-2.8146
G1 F300.0 Z-2.0
G2 F800.0 X143.6379 Y51.2947 I0.0693 J-3.2493
G2 X138.7629 Y48.4801 I-3.25 J0.0
G2 Y54.1092 I1.625 J2.8146
G2 X140.3186 Y54.5439 I1.625 J-2.8146
G1 F300.0 Z-3.0
G2 F800.0 X143.6379 Y51.2947 I0.0693 J-3.2493
G2 X138.7629 Y48.4801 I-3.25 J0.0
G2 Y54.1092 I1.625 J2.8146
G2 X140.3186 Y54.5439 I1.625 J-2.8146
G1 F300.0 Z-4.0
G2 F800.0 X143.6379 Y51.2947 I0.0693 J-3.2493
G2 X138.7629 Y48.4801 I-3.25 J0.0
G2 Y54.1092 I1.625 J2.8146
G2 X140.3186 Y54.5439 I1.625 J-2.8146
G1 F300.0 Z-5.0
G2 F800.0 X143.6379 Y51.2947 I0.0693 J-3.2493
G2 X138.7629 Y48.4801 I-3.25 J0.0
G2 Y54.1092 I1.625 J2.8146
G2 X140.3186 Y54.5439 I1.625 J-2.8146
G1 F300.0 Z-6.0
G2 F800.0 X143.6379 Y51.2947 I0.0693 J-3.2493
G2 X138.7629 Y48.4801 I-3.25 J0.0
G2 Y54.1092 I1.625 J2.8146
G2 X140.3186 Y54.5439 I1.625 J-2.8146
G0 Z3.0
G0 X132.6192 Y51.3894
G1 F300.0 Z-1.0
G2 F800.0 X132.6379 Y51.2947 I-0.2313 J-0.0948
G2 X132.2629 Y51.0782 I-0.25 J0.0
G2 Y51.5112 I0.125 J0.2165
G2 X132.6192 Y51.3894 I0.125 J-0.2165
G1 F300.0 Z-2.0
G2 F800.0 X132.6379 Y51.2947 I-0.2313 J-0.0948
G2 X132.2629 Y51.0782 I-0.25 J0.0
G2 Y51.5112 I0.125 J0.2165
G2 X132.6192 Y51.3894 I0.125 J-0.2165
G1 F300.0 Z-3.0
G2 F800.0 X132.6379 Y51.2947 I-0.2313 J-0.0948
G2 X132.2629 Y51.0782 I-0.25 J0.0
G2 Y51.5112 I0.125 J0.2165
G2 X132.6192 Y51.3894 I0.125 J-0.2165
G1 F300.0 Z-4.0
G2 F800.0 X132.6379 Y51.2947 I-0.2313 J-0.0948
G2 X132.2629 Y51.0782 I-0.25 J0.0
G2 Y51.5112 I0.125 J0.2165
G2 X132.6192 Y51.3894 I0.125 J-0.2165
G1 F300.0 Z-5.0
G2 F800.0 X132.6379 Y51.2947 I-0.2313 J-0.0948
G2 X132.2629 Y51.0782 I-0.25 J0.0
G2 Y51.5112 I0.125 J0.2165
G2 X132.6192 Y51.3894 I0.125 J-0.2165
G1 F300.0 Z-6.0
G2 F800.0 X132.6379 Y51.2947 I-0.2313 J-0.0948
G2 X132.2629 Y51.0782 I-0.25 J0.0
G2 Y51.5112 I0.125 J0.2165
G2 X132.6192 Y51.3894 I0.125 J-0.2165
G0 Z3.0
G0 X140.2148 Y43.475
G1 F300.0 Z-1.0
G2 F800.0 X140.2629 Y43.5112 I0.1731 J-0.1804
G2 X140.6379 Y43.2947 I0.125 J-0.2165
G2 X140.2629 Y43.0782 I-0.25 J0.0
G2 X140.2148 Y43.475 I0.125 J0.2165
G1 F300.0 Z-2.0
G2 F800.0 X140.2629 Y43.5112 I0.1731 J-0.1804
G2 X140.6379 Y43.2947 I0.125 J-0.2165
G2 X140.2629 Y43.0782 I-0.25 J0.0
G2 X140.2148 Y43.475 I0.125 J0.2165
G1 F300.0 Z-3.0
G2 F800.0 X140.2629 Y43.5112 I0.1731 J-0.1804
G2 X140.6379 Y43.2947 I0.125 J-0.2165
G2 X140.2629 Y43.0782 I-0.25 J0.0
G2 X140.2148 Y43.475 I0.125 J0.2165
G1 F300.0 Z-4.0
G2 F800.0 X140.2629 Y43.5112 I0.1731 J-0.1804
G2 X140.6379 Y43.2947 I0.125 J-0.2165
G2 X140.2629 Y43.0782 I-0.25 J0.0
G2 X140.2148 Y43.475 I0.125 J0.2165
G1 F300.0 Z-5.0
G2 F800.0 X140.2629 Y43.5112 I0.1731 J-0.1804
G2 X140.6379 Y43.2947 I0.125 J-0.2165
G2 X140.2629 Y43.0782 I-0.25 J0.0
G2 X140.2148 Y43.475 I0.125 J0.2165
G1 F300.0 Z-6.0
G2 F800.0 X140.2629 Y43.5112 I0.1731 J-0.1804
G2 X140.6379 Y43.2947 I0.125 J-0.2165
G2 X140.2629 Y43.0782 I-0.25 J0.0
G2 X140.2148 Y43.475 I0.125 J0.2165
G0 Z3.0
G0 X148.2073 Y51.1218
G1 F300.0 Z-1.0
G2 F800.0 X148.2629 Y51.5112 I0.1806 J0.1728
G2 X148.6379 Y51.2947 I0.125 J-0.2165
G2 X148.2629 Y51.0782 I-0.25 J0.0
G2 X148.2073 Y51.1218 I0.125 J0.2165
G1 F300.0 Z-2.0
G2 F800.0 X148.2629 Y51.5112 I0.1806 J0.1728
G2 X148.6379 Y51.2947 I0.125 J-0.2165
G2 X148.2629 Y51.0782 I-0.25 J0.0
G2 X148.2073 Y51.1218 I0.125 J0.2165
G1 F300.0 Z-3.0
G2 F800.0 X148.2629 Y51.5112 I0.1806 J0.1728
G2 X148.6379 Y51.2947 I0.125 J-0.2165
G2 X148.2629 Y51.0782 I-0.25 J0.0
G2 X148.2073 Y51.1218 I0.125 J0.2165
G1 F300.0 Z-4.0
G2 F800.0 X148.2629 Y51.5112 I0.1806 J0.1728
G2 X148.6379 Y51.2947 I0.125 J-0.2165
G2 X148.2629 Y51.0782 I-0.25 J0.0
G2 X148.2073 Y51.1218 I0.125 J0.2165
G1 F300.0 Z-5.0
G2 F800.0 X148.2629 Y51.5112 I0.1806 J0.1728
G2 X148.6379 Y51.2947 I0.125 J-0.2165
G2 X148.2629 Y51.0782 I-0.25 J0.0
G2 X148.2073 Y51.1218 I0.125 J0.2165
G1 F300.0 Z-6.0
G2 F800.0 X148.2629 Y51.5112 I0.1806 J0.1728
G2 X148.6379 Y51.2947 I0.125 J-0.2165
G2 X148.2629 Y51.0782 I-0.25 J0.0
G2 X148.2073 Y51.1218 I0.125 J0.2165
( Contour2 )
S1000
G0 Z3.0
G0 X11.6084 Y248.0998
G1 F300.0 Z-1.0
G3 F800.0 X8.2334 Y250.0484 I-2.25 J0.0
G3 Y246.1513 I1.125 J-1.9486
G3 X11.6084 Y248.0998 I1.125 J1.9486
G1 F300.0 Z-2.0
G3 F800.0 X8.2334 Y250.0484 I-2.25 J0.0
G3 Y246.1513 I1.125 J-1.9486
G3 X11.6084 Y248.0998 I1.125 J1.9486
G1 F300.0 Z-3.0
G3 F800.0 X8.2334 Y250.0484 I-2.25 J0.0
G3 Y246.1513 I1.125 J-1.9486
G3 X11.6084 Y248.0998 I1.125 J1.9486
G0 Z3.0
G0 X9.4503 Y195.3479
G1 F300.0 Z-1.0
G3 F800.0 X8.2334 Y195.0484 I-0.092 J-2.2481
G3 Y191.1513 I1.125 J-1.9486
G3 X11.6084 Y193.0998 I1.125 J1.9486
G3 X9.4503 Y195.3479 I-2.25 J0.0
G1 F300.0 Z-2.0
G3 F800.0 X8.2334 Y195.0484 I-0.092 J-2.2481
G3 Y191.1513 I1.125 J-1.9486
G3 X11.6084 Y193.0998 I1.125 J1.9486
G3 X9.4503 Y195.3479 I-2.25 J0.0
G1 F300.0 Z-3.0
G3 F800.0 X8.2334 Y195.0484 I-0.092 J-2.2481
G3 Y191.1513 I1.125 J-1.9486
G3 X11.6084 Y193.0998 I1.125 J1.9486
G3 X9.4503 Y195.3479 I-2.25 J0.0
G0 Z3.0
G0 X27.2613 Y82.4317
G1 F300.0 Z-1.0
G3 F800.0 X26.6934 Y82.2308 I0.2571 J-1.6298
G3 Y79.3729 I0.825 J-1.4289
G3 X29.1684 Y80.8019 I0.825 J1.4289
G3 X27.2613 Y82.4317 I-1.65 J0.0
G1 F300.0 Z-2.0
G3 F800.0 X26.6934 Y82.2308 I0.2571 J-1.6298
G3 Y79.3729 I0.825 J-1.4289
G3 X29.1684 Y80.8019 I0.825 J1.4289
G3 X27.2613 Y82.4317 I-1.65 J0.0
G1 F300.0 Z-3.0
G3 F800.0 X26.6934 Y82.2308 I0.2571 J-1.6298
G3 Y79.3729 I0.825 J-1.4289
G3 X29.1684 Y80.8019 I0.825 J1.4289
G3 X27.2613 Y82.4317 I-1.65 J0.0
G0 Z3.0
G0 X20.5523 Y74.0878
G1 F300.0 Z-1.0
G3 F800.0 X18.6934 Y74.2308 I-1.0339 J-1.2859
G3 Y71.3729 I0.825 J-1.4289
G3 X21.1684 Y72.8019 I0.825 J1.4289
G3 X20.5523 Y74.0878 I-1.65 J0.0
G1 F300.0 Z-2.0
G3 F800.0 X18.6934 Y74.2308 I-1.0339 J-1.2859
G3 Y71.3729 I0.825 J-1.4289
G3 X21.1684 Y72.8019 I0.825 J1.4289
G3 X20.5523 Y74.0878 I-1.65 J0.0
G1 F300.0 Z-3.0
G3 F800.0 X18.6934 Y74.2308 I-1.0339 J-1.2859
G3 Y71.3729 I0.825 J-1.4289
G3 X21.1684 Y72.8019 I0.825 J1.4289
G3 X20.5523 Y74.0878 I-1.65 J0.0
G0 Z3.0
G0 X26.5282 Y66.1218
G1 F300.0 Z-1.0
G3 F800.0 X26.6934 Y63.3729 I0.9902 J-1.3199
G3 X29.1684 Y64.8019 I0.825 J1.4289
G3 X26.6934 Y66.2308 I-1.65 J0.0
G3 X26.5282 Y66.1218 I0.825 J-1.4289
G1 F300.0 Z-2.0
G3 F800.0 X26.6934 Y63.3729 I0.9902 J-1.3199
G3 X29.1684 Y64.8019 I0.825 J1.4289
G3 X26.6934 Y66.2308 I-1.65 J0.0
G3 X26.5282 Y66.1218 I0.825 J-1.4289
G1 F300.0 Z-3.0
G3 F800.0 X26.6934 Y63.3729 I0.9902 J-1.3199
G3 X29.1684 Y64.8019 I0.825 J1.4289
G3 X26.6934 Y66.2308 I-1.65 J0.0
G3 X26.5282 Y66.1218 I0.825 J-1.4289
G0 Z3.0
G0 X34.194 Y71.8178
G1 F300.0 Z-1.0
G3 F800.0 X34.6934 Y71.3729 I1.3244 J0.9841
G3 X37.1684 Y72.8019 I0.825 J1.4289
G3 X34.6934 Y74.2308 I-1.65 J0.0
G3 X34.194 Y71.8178 I0.825 J-1.4289
G1 F300.0 Z-2.0
G3 F800.0 X34.6934 Y71.3729 I1.3244 J0.9841
G3 X37.1684 Y72.8019 I0.825 J1.4289
G3 X34.6934 Y74.2308 I-1.65 J0.0
G3 X34.194 Y71.8178 I0.825 J-1.4289
G1 F300.0 Z-3.0
G3 F800.0 X34.6934 Y71.3729 I1.3244 J0.9841
G3 X37.1684 Y72.8019 I0.825 J1.4289
G3 X34.6934 Y74.2308 I-1.65 J0.0
G3 X34.194 Y71.8178 I0.825 J-1.4289
G0 Z3.0
G0 X130.6749 Y51.6527
G1 F300.0 Z-1.0
G3 F800.0 X131.5129 Y49.7791 I1.713 J-0.358
G3 X134.1379 Y51.2947 I0.875 J1.5155
G3 X131.5129 Y52.8102 I-1.75 J0.0
G3 X130.6749 Y51.6527 I0.875 J-1.5155
G1 F300.0 Z-2.0
G3 F800.0 X131.5129 Y49.7791 I1.713 J-0.358
G3 X134.1379 Y51.2947 I0.875 J1.5155
G3 X131.5129 Y52.8102 I-1.75 J0.0
G3 X130.6749 Y51.6527 I0.875 J-1.5155
G1 F300.0 Z-3.0
G3 F800.0 X131.5129 Y49.7791 I1.713 J-0.358
G3 X134.1379 Y51.2947 I0.875 J1.5155
G3 X131.5129 Y52.8102 I-1.75 J0.0
G3 X130.6749 Y51.6527 I0.875 J-1.5155
G0 Z3.0
G0 X139.0126 Y58.2126
G1 F300.0 Z-1.0
G3 F800.0 X139.5129 Y57.7791 I1.3753 J1.0821
G3 X142.1379 Y59.2947 I0.875 J1.5155
G3 X139.5129 Y60.8102 I-1.75 J0.0
G3 X139.0126 Y58.2126 I0.875 J-1.5155
G1 F300.0 Z-2.0
G3 F800.0 X139.5129 Y57.7791 I1.3753 J1.0821
G3 X142.1379 Y59.2947 I0.875 J1.5155
G3 X139.5129 Y60.8102 I-1.75 J0.0
G3 X139.0126 Y58.2126 I0.875 J-1.5155
G1 F300.0 Z-3.0
G3 F800.0 X139.5129 Y57.7791 I1.3753 J1.0821
G3 X142.1379 Y59.2947 I0.875 J1.5155
G3 X139.5129 Y60.8102 I-1.75 J0.0
G3 X139.0126 Y58.2126 I0.875 J-1.5155
G0 Z3.0
G0 X146.9798 Y52.3337
G1 F300.0 Z-1.0
G3 F800.0 X147.5129 Y49.7791 I1.4081 J-1.039
G3 X150.1379 Y51.2947 I0.875 J1.5155
G3 X147.5129 Y52.8102 I-1.75 J0.0
G3 X146.9798 Y52.3337 I0.875 J-1.5155
G1 F300.0 Z-2.0
G3 F800.0 X147.5129 Y49.7791 I1.4081 J-1.039
G3 X150.1379 Y51.2947 I0.875 J1.5155
G3 X147.5129 Y52.8102 I-1.75 J0.0
G3 X146.9798 Y52.3337 I0.875 J-1.5155
G1 F300.0 Z-3.0
G3 F800.0 X147.5129 Y49.7791 I1.4081 J-1.039
G3 X150.1379 Y51.2947 I0.875 J1.5155
G3 X147.5129 Y52.8102 I-1.75 J0.0
G3 X146.9798 Y52.3337 I0.875 J-1.5155
G0 Z3.0
G0 X141.419 Y44.7086
G1 F300.0 Z-1.0
G3 F800.0 X139.5129 Y44.8102 I-1.0311 J-1.4139
G3 Y41.7791 I0.875 J-1.5155
G3 X142.1379 Y43.2947 I0.875 J1.5155
G3 X141.419 Y44.7086 I-1.75 J0.0
G1 F300.0 Z-2.0
G3 F800.0 X139.5129 Y44.8102 I-1.0311 J-1.4139
G3 Y41.7791 I0.875 J-1.5155
G3 X142.1379 Y43.2947 I0.875 J1.5155
G3 X141.419 Y44.7086 I-1.75 J0.0
G1 F300.0 Z-3.0
G3 F800.0 X139.5129 Y44.8102 I-1.0311 J-1.4139
G3 Y41.7791 I0.875 J-1.5155
G3 X142.1379 Y43.2947 I0.875 J1.5155
G3 X141.419 Y44.7086 I-1.75 J0.0
G0 Z3.0
G0 X141.0114 Y118.6539
G1 F300.0 Z-1.0
G3 F800.0 X142.7517 Y120.4039 I-0.0096 J1.75
G3 X140.1267 Y121.9194 I-1.75 J0.0
G3 Y118.8883 I0.875 J-1.5155
G3 X141.0114 Y118.6539 I0.875 J1.5155
G1 F300.0 Z-2.0
G3 F800.0 X142.7517 Y120.4039 I-0.0096 J1.75
G3 X140.1267 Y121.9194 I-1.75 J0.0
G3 Y118.8883 I0.875 J-1.5155
G3 X141.0114 Y118.6539 I0.875 J1.5155
G1 F300.0 Z-3.0
G3 F800.0 X142.7517 Y120.4039 I-0.0096 J1.75
G3 X140.1267 Y121.9194 I-1.75 J0.0
G3 Y118.8883 I0.875 J-1.5155
G3 X141.0114 Y118.6539 I0.875 J1.5155
G0 Z3.0
G0 X147.8925 Y127.0503
G1 F300.0 Z-1.0
G3 F800.0 X148.1267 Y126.8883 I1.1093 J1.3535
G3 X150.7517 Y128.4039 I0.875 J1.5155
G3 X148.1267 Y129.9194 I-1.75 J0.0
G3 X147.8925 Y127.0503 I0.875 J-1.5155
G1 F300.0 Z-2.0
G3 F800.0 X148.1267 Y126.8883 I1.1093 J1.3535
G3 X150.7517 Y128.4039 I0.875 J1.5155
G3 X148.1267 Y129.9194 I-1.75 J0.0
G3 X147.8925 Y127.0503 I0.875 J-1.5155
G1 F300.0 Z-3.0
G3 F800.0 X148.1267 Y126.8883 I1.1093 J1.3535
G3 X150.7517 Y128.4039 I0.875 J1.5155
G3 X148.1267 Y129.9194 I-1.75 J0.0
G3 X147.8925 Y127.0503 I0.875 J-1.5155
G0 Z3.0
G0 X142.0397 Y134.9949
G1 F300.0 Z-1.0
G3 F800.0 X142.7517 Y136.4039 I-1.038 J1.4089
G3 X140.1267 Y137.9194 I-1.75 J0.0
G3 Y134.8883 I0.875 J-1.5155
G3 X142.0397 Y134.9949 I0.875 J1.5155
G1 F300.0 Z-2.0
G3 F800.0 X142.7517 Y136.4039 I-1.038 J1.4089
G3 X140.1267 Y137.9194 I-1.75 J0.0
G3 Y134.8883 I0.875 J-1.5155
G3 X142.0397 Y134.9949 I0.875 J1.5155
G1 F300.0 Z-3.0
G3 F800.0 X142.7517 Y136.4039 I-1.038 J1.4089
G3 X140.1267 Y137.9194 I-1.75 J0.0
G3 Y134.8883 I0.875 J-1.5155
G3 X142.0397 Y134.9949 I0.875 J1.5155
G0 Z3.0
G0 X134.4157 Y129.435
G1 F300.0 Z-1.0
G3 F800.0 X132.1267 Y129.9194 I-1.4139 J-1.0311
G3 Y126.8883 I0.875 J-1.5155
G3 X134.7517 Y128.4039 I0.875 J1.5155
G3 X134.4157 Y129.435 I-1.75 J0.0
G1 F300.0 Z-2.0
G3 F800.0 X132.1267 Y129.9194 I-1.4139 J-1.0311
G3 Y126.8883 I0.875 J-1.5155
G3 X134.7517 Y128.4039 I0.875 J1.5155
G3 X134.4157 Y129.435 I-1.75 J0.0
G1 F300.0 Z-3.0
G3 F800.0 X132.1267 Y129.9194 I-1.4139 J-1.0311
G3 Y126.8883 I0.875 J-1.5155
G3 X134.7517 Y128.4039 I0.875 J1.5155
G3 X134.4157 Y129.435 I-1.75 J0.0
G0 Z3.0
G0 X130.0341 Y194.7522
G1 F300.0 Z-1.0
G3 F800.0 X132.1335 Y196.9971 I-0.1506 J2.245
G3 X128.7585 Y198.9457 I-2.25 J0.0
G3 Y195.0486 I1.125 J-1.9486
G3 X130.0341 Y194.7522 I1.125 J1.9486
G1 F300.0 Z-2.0
G3 F800.0 X132.1335 Y196.9971 I-0.1506 J2.245
G3 X128.7585 Y198.9457 I-2.25 J0.0
G3 Y195.0486 I1.125 J-1.9486
G3 X130.0341 Y194.7522 I1.125 J1.9486
G1 F300.0 Z-3.0
G3 F800.0 X132.1335 Y196.9971 I-0.1506 J2.245
G3 X128.7585 Y198.9457 I-2.25 J0.0
G3 Y195.0486 I1.125 J-1.9486
G3 X130.0341 Y194.7522 I1.125 J1.9486
G0 Z3.0
G0 X129.8894 Y249.7471
G1 F300.0 Z-1.0
G3 F800.0 X132.1335 Y251.9971 I-0.0059 J2.25
G3 X128.7585 Y253.9457 I-2.25 J0.0
G3 Y250.0486 I1.125 J-1.9486
G3 X129.8894 Y249.7471 I1.125 J1.9486
G1 F300.0 Z-2.0
G3 F800.0 X132.1335 Y251.9971 I-0.0059 J2.25
G3 X128.7585 Y253.9457 I-2.25 J0.0
G3 Y250.0486 I1.125 J-1.9486
G3 X129.8894 Y249.7471 I1.125 J1.9486
G1 F300.0 Z-3.0
G3 F800.0 X132.1335 Y251.9971 I-0.0059 J2.25
G3 X128.7585 Y253.9457 I-2.25 J0.0
G3 Y250.0486 I1.125 J-1.9486
G3 X129.8894 Y249.7471 I1.125 J1.9486
( Poche1 )
S1000
G0 Z3.0
G0 X102.82 Y250.7304
G1 F300.0 Z-1.0
G1 F800.0 Y252.7334
G3 X103.52 I0.35 J20.747
G1 Y250.7304
G1 X102.82
G1 F300.0 X102.22
G1 F800.0 Y253.3528
G3 X104.12 I0.95 J20.1276
G1 Y250.1304
G1 X102.22
G1 Y250.7304
G1 F300.0 X101.62
G1 F800.0 Y253.992
G3 X104.72 I1.55 J19.4885
G1 Y249.5304
G1 X101.62
G1 Y250.7304
G1 F300.0 X101.02
G1 F800.0 Y254.6528
G3 X105.32 I2.15 J18.8276
G1 Y248.9304
G1 X101.02
G1 Y250.7304
G1 F300.0 X100.42
G1 F800.0 Y255.3377
G3 X105.92 I2.75 J18.1428
G1 Y248.3304
G1 X100.42
G1 Y250.7304
G1 F300.0 X99.82
G1 F800.0 Y256.0494
G3 X106.52 I3.35 J17.431
G1 Y247.7304
G1 X99.82
G1 Y250.7304
G1 F300.0 X99.22
G1 F800.0 Y256.7915
G3 X107.12 I3.95 J16.6889
G1 Y247.1304
G1 X99.22
G1 Y250.7304
G1 F300.0 X98.62
G1 F800.0 Y257.5682
G3 X107.72 I4.55 J15.9123
G1 Y246.5304
G1 X98.62
G1 Y250.7304
G1 F300.0 X98.02
G1 F800.0 Y258.3847
G3 X108.32 I5.15 J15.0957
G1 Y245.9304
G1 X98.02
G1 Y250.7304
G1 F300.0 X97.42
G1 F800.0 Y259.2481
G3 X108.92 I5.75 J14.2324
G1 Y245.3304
G1 X97.42
G1 Y250.7304
G1 F300.0 X96.82
G1 F800.0 Y260.1673
G3 X109.52 I6.35 J13.3132
G1 Y244.7304
G1 X96.82
G1 Y250.7304
G1 F300.0 X96.22
G1 F800.0 Y261.1548
G3 X110.12 I6.95 J12.3256
G1 Y244.1304
G1 X96.22
G1 Y250.7304
G1 F300.0 X95.62
G1 F800.0 Y262.2288
G3 X110.72 I7.55 J11.2517
G1 Y243.5304
G1 X95.62
G1 Y250.7304
G1 F300.0 X95.02
G1 F800.0 Y263.4166
G3 X111.32 I8.15 J10.0638
G1 Y242.9304
G1 X95.02
G1 Y250.7304
G1 F300.0 X94.42
G1 F800.0 Y264.7649
G3 X111.92 I8.75 J8.7155
G1 Y242.3304
G1 X94.42
G1 Y250.7304
G1 F300.0 X93.82
G1 F800.0 Y266.3642
G3 X112.52 I9.35 J7.1162
G1 Y241.7304
G1 X93.82
G1 Y250.7304
G0 Z3.0
G0 X102.82
G1 F300.0 Z-2.0
G1 F800.0 Y252.7334
G3 X103.52 I0.35 J20.747
G1 Y250.7304
G1 X102.82
G1 F300.0 X102.22
G1 F800.0 Y253.3528
G3 X104.12 I0.95 J20.1276
G1 Y250.1304
G1 X102.22
G1 Y250.7304
G1 F300.0 X101.62
G1 F800.0 Y253.992
G3 X104.72 I1.55 J19.4885
G1 Y249.5304
G1 X101.62
G1 Y250.7304
G1 F300.0 X101.02
G1 F800.0 Y254.6528
G3 X105.32 I2.15 J18.8276
G1 Y248.9304
G1 X101.02
G1 Y250.7304
G1 F300.0 X100.42
G1 F800.0 Y255.3377
G3 X105.92 I2.75 J18.1428
G1 Y248.3304
G1 X100.42
G1 Y250.7304
G1 F300.0 X99.82
G1 F800.0 Y256.0494
G3 X106.52 I3.35 J17.431
G1 Y247.7304
G1 X99.82
G1 Y250.7304
G1 F300.0 X99.22
G1 F800.0 Y256.7915
G3 X107.12 I3.95 J16.6889
G1 Y247.1304
G1 X99.22
G1 Y250.7304
G1 F300.0 X98.62
G1 F800.0 Y257.5682
G3 X107.72 I4.55 J15.9123
G1 Y246.5304
G1 X98.62
G1 Y250.7304
G1 F300.0 X98.02
G1 F800.0 Y258.3847
G3 X108.32 I5.15 J15.0957
G1 Y245.9304
G1 X98.02
G1 Y250.7304
G1 F300.0 X97.42
G1 F800.0 Y259.2481
G3 X108.92 I5.75 J14.2324
G1 Y245.3304
G1 X97.42
G1 Y250.7304
G1 F300.0 X96.82
G1 F800.0 Y260.1673
G3 X109.52 I6.35 J13.3132
G1 Y244.7304
G1 X96.82
G1 Y250.7304
G1 F300.0 X96.22
G1 F800.0 Y261.1548
G3 X110.12 I6.95 J12.3256
G1 Y244.1304
G1 X96.22
G1 Y250.7304
G1 F300.0 X95.62
G1 F800.0 Y262.2288
G3 X110.72 I7.55 J11.2517
G1 Y243.5304
G1 X95.62
G1 Y250.7304
G1 F300.0 X95.02
G1 F800.0 Y263.4166
G3 X111.32 I8.15 J10.0638
G1 Y242.9304
G1 X95.02
G1 Y250.7304
G1 F300.0 X94.42
G1 F800.0 Y264.7649
G3 X111.92 I8.75 J8.7155
G1 Y242.3304
G1 X94.42
G1 Y250.7304
G1 F300.0 X93.82
G1 F800.0 Y266.3642
G3 X112.52 I9.35 J7.1162
G1 Y241.7304
G1 X93.82
G1 Y250.7304
G0 Z3.0
G0 X102.82
G1 F300.0 Z-3.0
G1 F800.0 Y252.7334
G3 X103.52 I0.35 J20.747
G1 Y250.7304
G1 X102.82
G1 F300.0 X102.22
G1 F800.0 Y253.3528
G3 X104.12 I0.95 J20.1276
G1 Y250.1304
G1 X102.22
G1 Y250.7304
G1 F300.0 X101.62
G1 F800.0 Y253.992
G3 X104.72 I1.55 J19.4885
G1 Y249.5304
G1 X101.62
G1 Y250.7304
G1 F300.0 X101.02
G1 F800.0 Y254.6528
G3 X105.32 I2.15 J18.8276
G1 Y248.9304
G1 X101.02
G1 Y250.7304
G1 F300.0 X100.42
G1 F800.0 Y255.3377
G3 X105.92 I2.75 J18.1428
G1 Y248.3304
G1 X100.42
G1 Y250.7304
G1 F300.0 X99.82
G1 F800.0 Y256.0494
G3 X106.52 I3.35 J17.431
G1 Y247.7304
G1 X99.82
G1 Y250.7304
G1 F300.0 X99.22
G1 F800.0 Y256.7915
G3 X107.12 I3.95 J16.6889
G1 Y247.1304
G1 X99.22
G1 Y250.7304
G1 F300.0 X98.62
G1 F800.0 Y257.5682
G3 X107.72 I4.55 J15.9123
G1 Y246.5304
G1 X98.62
G1 Y250.7304
G1 F300.0 X98.02
G1 F800.0 Y258.3847
G3 X108.32 I5.15 J15.0957
G1 Y245.9304
G1 X98.02
G1 Y250.7304
G1 F300.0 X97.42
G1 F800.0 Y259.2481
G3 X108.92 I5.75 J14.2324
G1 Y245.3304
G1 X97.42
G1 Y250.7304
G1 F300.0 X96.82
G1 F800.0 Y260.1673
G3 X109.52 I6.35 J13.3132
G1 Y244.7304
G1 X96.82
G1 Y250.7304
G1 F300.0 X96.22
G1 F800.0 Y261.1548
G3 X110.12 I6.95 J12.3256
G1 Y244.1304
G1 X96.22
G1 Y250.7304
G1 F300.0 X95.62
G1 F800.0 Y262.2288
G3 X110.72 I7.55 J11.2517
G1 Y243.5304
G1 X95.62
G1 Y250.7304
G1 F300.0 X95.02
G1 F800.0 Y263.4166
G3 X111.32 I8.15 J10.0638
G1 Y242.9304
G1 X95.02
G1 Y250.7304
G1 F300.0 X94.42
G1 F800.0 Y264.7649
G3 X111.92 I8.75 J8.7155
G1 Y242.3304
G1 X94.42
G1 Y250.7304
G1 F300.0 X93.82
G1 F800.0 Y266.3642
G3 X112.52 I9.35 J7.1162
G1 Y241.7304
G1 X93.82
G1 Y250.7304
G0 Z3.0
G0 X102.82
G1 F300.0 Z-4.0
G1 F800.0 Y252.7334
G3 X103.52 I0.35 J20.747
G1 Y250.7304
G1 X102.82
G1 F300.0 X102.22
G1 F800.0 Y253.3528
G3 X104.12 I0.95 J20.1276
G1 Y250.1304
G1 X102.22
G1 Y250.7304
G1 F300.0 X101.62
G1 F800.0 Y253.992
G3 X104.72 I1.55 J19.4885
G1 Y249.5304
G1 X101.62
G1 Y250.7304
G1 F300.0 X101.02
G1 F800.0 Y254.6528
G3 X105.32 I2.15 J18.8276
G1 Y248.9304
G1 X101.02
G1 Y250.7304
G1 F300.0 X100.42
G1 F800.0 Y255.3377
G3 X105.92 I2.75 J18.1428
G1 Y248.3304
G1 X100.42
G1 Y250.7304
G1 F300.0 X99.82
G1 F800.0 Y256.0494
G3 X106.52 I3.35 J17.431
G1 Y247.7304
G1 X99.82
G1 Y250.7304
G1 F300.0 X99.22
G1 F800.0 Y256.7915
G3 X107.12 I3.95 J16.6889
G1 Y247.1304
G1 X99.22
G1 Y250.7304
G1 F300.0 X98.62
G1 F800.0 Y257.5682
G3 X107.72 I4.55 J15.9123
G1 Y246.5304
G1 X98.62
G1 Y250.7304
G1 F300.0 X98.02
G1 F800.0 Y258.3847
G3 X108.32 I5.15 J15.0957
G1 Y245.9304
G1 X98.02
G1 Y250.7304
G1 F300.0 X97.42
G1 F800.0 Y259.2481
G3 X108.92 I5.75 J14.2324
G1 Y245.3304
G1 X97.42
G1 Y250.7304
G1 F300.0 X96.82
G1 F800.0 Y260.1673
G3 X109.52 I6.35 J13.3132
G1 Y244.7304
G1 X96.82
G1 Y250.7304
G1 F300.0 X96.22
G1 F800.0 Y261.1548
G3 X110.12 I6.95 J12.3256
G1 Y244.1304
G1 X96.22
G1 Y250.7304
G1 F300.0 X95.62
G1 F800.0 Y262.2288
G3 X110.72 I7.55 J11.2517
G1 Y243.5304
G1 X95.62
G1 Y250.7304
G1 F300.0 X95.02
G1 F800.0 Y263.4166
G3 X111.32 I8.15 J10.0638
G1 Y242.9304
G1 X95.02
G1 Y250.7304
G1 F300.0 X94.42
G1 F800.0 Y264.7649
G3 X111.92 I8.75 J8.7155
G1 Y242.3304
G1 X94.42
G1 Y250.7304
G1 F300.0 X93.82
G1 F800.0 Y266.3642
G3 X112.52 I9.35 J7.1162
G1 Y241.7304
G1 X93.82
G1 Y250.7304
G0 Z3.0
G0 X102.82 Y89.2696
G1 F300.0 Z-1.0
G1 F800.0 X103.52
G1 Y87.2666
G3 X102.82 I-0.35 J-20.747
G1 Y89.2696
G1 F300.0 X102.22
G1 F800.0 Y89.8696
G1 X104.12
G1 Y86.6472
G3 X102.22 I-0.95 J-20.1276
G1 Y89.2696
G1 F300.0 X101.62
G1 F800.0 Y90.4696
G1 X104.72
G1 Y86.008
G3 X101.62 I-1.55 J-19.4885
G1 Y89.2696
G1 F300.0 X101.02
G1 F800.0 Y91.0696
G1 X105.32
G1 Y85.3472
G3 X101.02 I-2.15 J-18.8276
G1 Y89.2696
G1 F300.0 X100.42
G1 F800.0 Y91.6696
G1 X105.92
G1 Y84.6623
G3 X100.42 I-2.75 J-18.1428
G1 Y89.2696
G1 F300.0 X99.82
G1 F800.0 Y92.2696
G1 X106.52
G1 Y83.9506
G3 X99.82 I-3.35 J-17.431
G1 Y89.2696
G1 F300.0 X99.22
G1 F800.0 Y92.8696
G1 X107.12
G1 Y83.2085
G3 X99.22 I-3.95 J-16.6889
G1 Y89.2696
G1 F300.0 X98.62
G1 F800.0 Y93.4696
G1 X107.72
G1 Y82.4318
G3 X98.62 I-4.55 J-15.9123
G1 Y89.2696
G1 F300.0 X98.02
G1 F800.0 Y94.0696
G1 X108.32
G1 Y81.6153
G3 X98.02 I-5.15 J-15.0957
G1 Y89.2696
G1 F300.0 X97.42
G1 F800.0 Y94.6696
G1 X108.92
G1 Y80.7519
G3 X97.42 I-5.75 J-14.2324
G1 Y89.2696
G1 F300.0 X96.82
G1 F800.0 Y95.2696
G1 X109.52
G1 Y79.8327
G3 X96.82 I-6.35 J-13.3132
G1 Y89.2696
G1 F300.0 X96.22
G1 F800.0 Y95.8696
G1 X110.12
G1 Y78.8452
G3 X96.22 I-6.95 J-12.3256
G1 Y89.2696
G1 F300.0 X95.62
G1 F800.0 Y96.4696
G1 X110.72
G1 Y77.7712
G3 X95.62 I-7.55 J-11.2517
G1 Y89.2696
G1 F300.0 X95.02
G1 F800.0 Y97.0696
G1 X111.32
G1 Y76.5834
G3 X95.02 I-8.15 J-10.0638
G1 Y89.2696
G1 F300.0 X94.42
G1 F800.0 Y97.6696
G1 X111.92
G1 Y75.2351
G3 X94.42 I-8.75 J-8.7155
G1 Y89.2696
G1 F300.0 X93.82
G1 F800.0 Y98.2696
G1 X112.52
G1 Y73.6358
G3 X93.82 I-9.35 J-7.1162
G1 Y89.2696
G0 Z3.0
G0 X102.82
G1 F300.0 Z-2.0
G1 F800.0 X103.52
G1 Y87.2666
G3 X102.82 I-0.35 J-20.747
G1 Y89.2696
G1 F300.0 X102.22
G1 F800.0 Y89.8696
G1 X104.12
G1 Y86.6472
G3 X102.22 I-0.95 J-20.1276
G1 Y89.2696
G1 F300.0 X101.62
G1 F800.0 Y90.4696
G1 X104.72
G1 Y86.008
G3 X101.62 I-1.55 J-19.4885
G1 Y89.2696
G1 F300.0 X101.02
G1 F800.0 Y91.0696
G1 X105.32
G1 Y85.3472
G3 X101.02 I-2.15 J-18.8276
G1 Y89.2696
G1 F300.0 X100.42
G1 F800.0 Y91.6696
G1 X105.92
G1 Y84.6623
G3 X100.42 I-2.75 J-18.1428
G1 Y89.2696
G1 F300.0 X99.82
G1 F800.0 Y92.2696
G1 X106.52
G1 Y83.9506
G3 X99.82 I-3.35 J-17.431
G1 Y89.2696
G1 F300.0 X99.22
G1 F800.0 Y92.8696
G1 X107.12
G1 Y83.2085
G3 X99.22 I-3.95 J-16.6889
G1 Y89.2696
G1 F300.0 X98.62
G1 F800.0 Y93.4696
G1 X107.72
G1 Y82.4318
G3 X98.62 I-4.55 J-15.9123
G1 Y89.2696
G1 F300.0 X98.02
G1 F800.0 Y94.0696
G1 X108.32
G1 Y81.6153
G3 X98.02 I-5.15 J-15.0957
G1 Y89.2696
G1 F300.0 X97.42
G1 F800.0 Y94.6696
G1 X108.92
G1 Y80.7519
G3 X97.42 I-5.75 J-14.2324
G1 Y89.2696
G1 F300.0 X96.82
G1 F800.0 Y95.2696
G1 X109.52
G1 Y79.8327
G3 X96.82 I-6.35 J-13.3132
G1 Y89.2696
G1 F300.0 X96.22
G1 F800.0 Y95.8696
G1 X110.12
G1 Y78.8452
G3 X96.22 I-6.95 J-12.3256
G1 Y89.2696
G1 F300.0 X95.62
G1 F800.0 Y96.4696
G1 X110.72
G1 Y77.7712
G3 X95.62 I-7.55 J-11.2517
G1 Y89.2696
G1 F300.0 X95.02
G1 F800.0 Y97.0696
G1 X111.32
G1 Y76.5834
G3 X95.02 I-8.15 J-10.0638
G1 Y89.2696
G1 F300.0 X94.42
G1 F800.0 Y97.6696
G1 X111.92
G1 Y75.2351
G3 X94.42 I-8.75 J-8.7155
G1 Y89.2696
G1 F300.0 X93.82
G1 F800.0 Y98.2696
G1 X112.52
G1 Y73.6358
G3 X93.82 I-9.35 J-7.1162
G1 Y89.2696
G0 Z3.0
G0 X102.82
G1 F300.0 Z-3.0
G1 F800.0 X103.52
G1 Y87.2666
G3 X102.82 I-0.35 J-20.747
G1 Y89.2696
G1 F300.0 X102.22
G1 F800.0 Y89.8696
G1 X104.12
G1 Y86.6472
G3 X102.22 I-0.95 J-20.1276
G1 Y89.2696
G1 F300.0 X101.62
G1 F800.0 Y90.4696
G1 X104.72
G1 Y86.008
G3 X101.62 I-1.55 J-19.4885
G1 Y89.2696
G1 F300.0 X101.02
G1 F800.0 Y91.0696
G1 X105.32
G1 Y85.3472
G3 X101.02 I-2.15 J-18.8276
G1 Y89.2696
G1 F300.0 X100.42
G1 F800.0 Y91.6696
G1 X105.92
G1 Y84.6623
G3 X100.42 I-2.75 J-18.1428
G1 Y89.2696
G1 F300.0 X99.82
G1 F800.0 Y92.2696
G1 X106.52
G1 Y83.9506
G3 X99.82 I-3.35 J-17.431
G1 Y89.2696
G1 F300.0 X99.22
G1 F800.0 Y92.8696
G1 X107.12
G1 Y83.2085
G3 X99.22 I-3.95 J-16.6889
G1 Y89.2696
G1 F300.0 X98.62
G1 F800.0 Y93.4696
G1 X107.72
G1 Y82.4318
G3 X98.62 I-4.55 J-15.9123
G1 Y89.2696
G1 F300.0 X98.02
G1 F800.0 Y94.0696
G1 X108.32
G1 Y81.6153
G3 X98.02 I-5.15 J-15.0957
G1 Y89.2696
G1 F300.0 X97.42
G1 F800.0 Y94.6696
G1 X108.92
G1 Y80.7519
G3 X97.42 I-5.75 J-14.2324
G1 Y89.2696
G1 F300.0 X96.82
G1 F800.0 Y95.2696
G1 X109.52
G1 Y79.8327
G3 X96.82 I-6.35 J-13.3132
G1 Y89.2696
G1 F300.0 X96.22
G1 F800.0 Y95.8696
G1 X110.12
G1 Y78.8452
G3 X96.22 I-6.95 J-12.3256
G1 Y89.2696
G1 F300.0 X95.62
G1 F800.0 Y96.4696
G1 X110.72
G1 Y77.7712
G3 X95.62 I-7.55 J-11.2517
G1 Y89.2696
G1 F300.0 X95.02
G1 F800.0 Y97.0696
G1 X111.32
G1 Y76.5834
G3 X95.02 I-8.15 J-10.0638
G1 Y89.2696
G1 F300.0 X94.42
G1 F800.0 Y97.6696
G1 X111.92
G1 Y75.2351
G3 X94.42 I-8.75 J-8.7155
G1 Y89.2696
G1 F300.0 X93.82
G1 F800.0 Y98.2696
G1 X112.52
G1 Y73.6358
G3 X93.82 I-9.35 J-7.1162
G1 Y89.2696
G0 Z3.0
G0 X102.82
G1 F300.0 Z-4.0
G1 F800.0 X103.52
G1 Y87.2666
G3 X102.82 I-0.35 J-20.747
G1 Y89.2696
G1 F300.0 X102.22
G1 F800.0 Y89.8696
G1 X104.12
G1 Y86.6472
G3 X102.22 I-0.95 J-20.1276
G1 Y89.2696
G1 F300.0 X101.62
G1 F800.0 Y90.4696
G1 X104.72
G1 Y86.008
G3 X101.62 I-1.55 J-19.4885
G1 Y89.2696
G1 F300.0 X101.02
G1 F800.0 Y91.0696
G1 X105.32
G1 Y85.3472
G3 X101.02 I-2.15 J-18.8276
G1 Y89.2696
G1 F300.0 X100.42
G1 F800.0 Y91.6696
G1 X105.92
G1 Y84.6623
G3 X100.42 I-2.75 J-18.1428
G1 Y89.2696
G1 F300.0 X99.82
G1 F800.0 Y92.2696
G1 X106.52
G1 Y83.9506
G3 X99.82 I-3.35 J-17.431
G1 Y89.2696
G1 F300.0 X99.22
G1 F800.0 Y92.8696
G1 X107.12
G1 Y83.2085
G3 X99.22 I-3.95 J-16.6889
G1 Y89.2696
G1 F300.0 X98.62
G1 F800.0 Y93.4696
G1 X107.72
G1 Y82.4318
G3 X98.62 I-4.55 J-15.9123
G1 Y89.2696
G1 F300.0 X98.02
G1 F800.0 Y94.0696
G1 X108.32
G1 Y81.6153
G3 X98.02 I-5.15 J-15.0957
G1 Y89.2696
G1 F300.0 X97.42
G1 F800.0 Y94.6696
G1 X108.92
G1 Y80.7519
G3 X97.42 I-5.75 J-14.2324
G1 Y89.2696
G1 F300.0 X96.82
G1 F800.0 Y95.2696
G1 X109.52
G1 Y79.8327
G3 X96.82 I-6.35 J-13.3132
G1 Y89.2696
G1 F300.0 X96.22
G1 F800.0 Y95.8696
G1 X110.12
G1 Y78.8452
G3 X96.22 I-6.95 J-12.3256
G1 Y89.2696
G1 F300.0 X95.62
G1 F800.0 Y96.4696
G1 X110.72
G1 Y77.7712
G3 X95.62 I-7.55 J-11.2517
G1 Y89.2696
G1 F300.0 X95.02
G1 F800.0 Y97.0696
G1 X111.32
G1 Y76.5834
G3 X95.02 I-8.15 J-10.0638
G1 Y89.2696
G1 F300.0 X94.42
G1 F800.0 Y97.6696
G1 X111.92
G1 Y75.2351
G3 X94.42 I-8.75 J-8.7155
G1 Y89.2696
G1 F300.0 X93.82
G1 F800.0 Y98.2696
G1 X112.52
G1 Y73.6358
G3 X93.82 I-9.35 J-7.1162
G1 Y89.2696
( Contour3 )
S1000
G0 Z3.0
G0 X39.9499 Y61.467
G1 F300.0 Z-1.0
G1 F800.0 Y181.467
G3 X39.1999 Y182.217 I-0.75 J0.0
G1 X14.1999
G3 X13.45 Y181.4597 I0.0 J-0.75
G1 X14.6303 Y61.4597
G3 X15.3803 Y60.717 I0.75 J0.0074
G1 X39.1999
G3 X39.9499 Y61.467 I0.0 J0.75
G1 F300.0 Z-2.0
G1 F800.0 Y181.467
G3 X39.1999 Y182.217 I-0.75 J0.0
G1 X14.1999
G3 X13.45 Y181.4597 I0.0 J-0.75
G1 X14.6303 Y61.4597
G3 X15.3803 Y60.717 I0.75 J0.0074
G1 X39.1999
G3 X39.9499 Y61.467 I0.0 J0.75
G1 F300.0 Z-3.0
G1 F800.0 Y181.467
G3 X39.1999 Y182.217 I-0.75 J0.0
G1 X14.1999
G3 X13.45 Y181.4597 I0.0 J-0.75
G1 X14.6303 Y61.4597
G3 X15.3803 Y60.717 I0.75 J0.0074
G1 X39.1999
G3 X39.9499 Y61.467 I0.0 J0.75
G1 F300.0 Z-4.0
G1 F800.0 Y181.467
G3 X39.1999 Y182.217 I-0.75 J0.0
G1 X14.1999
G3 X13.45 Y181.4597 I0.0 J-0.75
G1 X14.6303 Y61.4597
G3 X15.3803 Y60.717 I0.75 J0.0074
G1 X39.1999
G3 X39.9499 Y61.467 I0.0 J0.75
G1 F300.0 Z-5.0
G1 F800.0 Y87.75
G0 Z-4.0
G1 Y92.25
G1 F300.0 Z-5.0
G1 F800.0 Y170.75
G0 Z-4.0
G1 Y175.25
G1 F300.0 Z-5.0
G1 F800.0 Y181.467
G3 X39.1999 Y182.217 I-0.75 J0.0
G1 X14.1999
G3 X13.45 Y181.4597 I0.0 J-0.75
G1 X13.9931 Y126.2402
G0 Z-4.0
G1 X14.0374 Y121.7404
G1 F300.0 Z-5.0
G1 F800.0 X14.5634 Y68.2655
G0 Z-4.0
G1 X14.6077 Y63.7657
G1 F300.0 Z-5.0
G1 F800.0 X14.6303 Y61.4597
G3 X15.3803 Y60.717 I0.75 J0.0074
G1 X39.1999
G3 X39.9499 Y61.467 I0.0 J0.75
G1 F300.0 Z-6.0
G1 F800.0 Y87.75
G0 Z-4.0
G1 Y92.25
G1 F300.0 Z-6.0
G1 F800.0 Y170.75
G0 Z-4.0
G1 Y175.25
G1 F300.0 Z-6.0
G1 F800.0 Y181.467
G3 X39.1999 Y182.217 I-0.75 J0.0
G1 X14.1999
G3 X13.45 Y181.4597 I0.0 J-0.75
G1 X13.9931 Y126.2402
G0 Z-4.0
G1 X14.0374 Y121.7404
G1 F300.0 Z-6.0
G1 F800.0 X14.5634 Y68.2655
G0 Z-4.0
G1 X14.6077 Y63.7657
G1 F300.0 Z-6.0
G1 F800.0 X14.6303 Y61.4597
G3 X15.3803 Y60.717 I0.75 J0.0074
G1 X39.1999
G3 X39.9499 Y61.467 I0.0 J0.75
G0 Z3.0
G0 X126.6379
G1 F300.0 Z-1.0
G1 F800.0 Y11.2947
G3 X127.3879 Y10.5447 I0.75 J0.0
G1 X152.3879
G3 X153.1379 Y11.2947 I0.0 J0.75
G1 Y76.2947
G3 X152.3879 Y77.0447 I-0.75 J0.0
G1 X127.3879
G3 X126.6379 Y76.2947 I0.0 J-0.75
G1 Y61.467
G1 F300.0 Z-2.0
G1 F800.0 Y11.2947
G3 X127.3879 Y10.5447 I0.75 J0.0
G1 X152.3879
G3 X153.1379 Y11.2947 I0.0 J0.75
G1 Y76.2947
G3 X152.3879 Y77.0447 I-0.75 J0.0
G1 X127.3879
G3 X126.6379 Y76.2947 I0.0 J-0.75
G1 Y61.467
G1 F300.0 Z-3.0
G1 F800.0 Y11.2947
G3 X127.3879 Y10.5447 I0.75 J0.0
G1 X152.3879
G3 X153.1379 Y11.2947 I0.0 J0.75
G1 Y76.2947
G3 X152.3879 Y77.0447 I-0.75 J0.0
G1 X127.3879
G3 X126.6379 Y76.2947 I0.0 J-0.75
G1 Y61.467
G1 F300.0 Z-4.0
G1 F800.0 Y11.2947
G3 X127.3879 Y10.5447 I0.75 J0.0
G1 X152.3879
G3 X153.1379 Y11.2947 I0.0 J0.75
G1 Y76.2947
G3 X152.3879 Y77.0447 I-0.75 J0.0
G1 X127.3879
G3 X126.6379 Y76.2947 I0.0 J-0.75
G1 Y61.467
G1 F300.0 Z-5.0
G1 F800.0 Y11.2947
G3 X127.3879 Y10.5447 I0.75 J0.0
G1 X138.75
G0 Z-4.0
G1 X143.25
G1 F300.0 Z-5.0
G1 F800.0 X152.3879
G3 X153.1379 Y11.2947 I0.0 J0.75
G1 Y20.75
G0 Z-4.0
G1 Y25.25
G1 F300.0 Z-5.0
G1 F800.0 Y76.2947
G3 X152.3879 Y77.0447 I-0.75 J0.0
G1 X142.25
G0 Z-4.0
G1 X137.75
G1 F300.0 Z-5.0
G1 F800.0 X127.3879
G3 X126.6379 Y76.2947 I0.0 J-0.75
G1 Y71.25
G0 Z-4.0
G1 Y66.75
G1 F300.0 Z-5.0
G1 F800.0 Y61.467
G1 F300.0 Z-6.0
G1 F800.0 Y11.2947
G3 X127.3879 Y10.5447 I0.75 J0.0
G1 X138.75
G0 Z-4.0
G1 X143.25
G1 F300.0 Z-6.0
G1 F800.0 X152.3879
G3 X153.1379 Y11.2947 I0.0 J0.75
G1 Y20.75
G0 Z-4.0
G1 Y25.25
G1 F300.0 Z-6.0
G1 F800.0 Y76.2947
G3 X152.3879 Y77.0447 I-0.75 J0.0
G1 X142.25
G0 Z-4.0
G1 X137.75
G1 F300.0 Z-6.0
G1 F800.0 X127.3879
G3 X126.6379 Y76.2947 I0.0 J-0.75
G1 Y71.25
G0 Z-4.0
G1 Y66.75
G1 F300.0 Z-6.0
G1 F800.0 Y61.467
G0 Z3.0
G0 X127.9638 Y87.6548
G1 F300.0 Z-1.0
G3 F800.0 X128.0017 Y87.6539 I0.0379 J0.749
G1 X153.0017
G3 X153.7517 Y88.4039 I0.0 J0.75
G1 Y153.4039
G3 X153.0017 Y154.1539 I-0.75 J0.0
G1 X128.0017
G3 X127.2517 Y153.4039 I0.0 J-0.75
G1 Y88.4039
G3 X127.9638 Y87.6548 I0.75 J0.0
G1 F300.0 Z-2.0
G3 F800.0 X128.0017 Y87.6539 I0.0379 J0.749
G1 X153.0017
G3 X153.7517 Y88.4039 I0.0 J0.75
G1 Y153.4039
G3 X153.0017 Y154.1539 I-0.75 J0.0
G1 X128.0017
G3 X127.2517 Y153.4039 I0.0 J-0.75
G1 Y88.4039
G3 X127.9638 Y87.6548 I0.75 J0.0
G1 F300.0 Z-3.0
G3 F800.0 X128.0017 Y87.6539 I0.0379 J0.749
G1 X153.0017
G3 X153.7517 Y88.4039 I0.0 J0.75
G1 Y153.4039
G3 X153.0017 Y154.1539 I-0.75 J0.0
G1 X128.0017
G3 X127.2517 Y153.4039 I0.0 J-0.75
G1 Y88.4039
G3 X127.9638 Y87.6548 I0.75 J0.0
G1 F300.0 Z-4.0
G3 F800.0 X128.0017 Y87.6539 I0.0379 J0.749
G1 X153.0017
G3 X153.7517 Y88.4039 I0.0 J0.75
G1 Y153.4039
G3 X153.0017 Y154.1539 I-0.75 J0.0
G1 X128.0017
G3 X127.2517 Y153.4039 I0.0 J-0.75
G1 Y88.4039
G3 X127.9638 Y87.6548 I0.75 J0.0
G1 F300.0 Z-5.0
G3 F800.0 X128.0017 Y87.6539 I0.0379 J0.749
G1 X138.75
G0 Z-4.0
G1 X143.25
G1 F300.0 Z-5.0
G1 F800.0 X153.0017
G3 X153.7517 Y88.4039 I0.0 J0.75
G1 Y102.75
G0 Z-4.0
G1 Y107.25
G1 F300.0 Z-5.0
G1 F800.0 Y153.4039
G3 X153.0017 Y154.1539 I-0.75 J0.0
G1 X142.25
G0 Z-4.0
G1 X137.75
G1 F300.0 Z-5.0
G1 F800.0 X128.0017
G3 X127.2517 Y153.4039 I0.0 J-0.75
G1 Y147.25
G0 Z-4.0
G1 Y142.75
G1 F300.0 Z-5.0
G1 F800.0 Y88.4039
G3 X127.9638 Y87.6548 I0.75 J0.0
G1 F300.0 Z-6.0
G3 F800.0 X128.0017 Y87.6539 I0.0379 J0.749
G1 X138.75
G0 Z-4.0
G1 X143.25
G1 F300.0 Z-6.0
G1 F800.0 X153.0017
G3 X153.7517 Y88.4039 I0.0 J0.75
G1 Y102.75
G0 Z-4.0
G1 Y107.25
G1 F300.0 Z-6.0
G1 F800.0 Y153.4039
G3 X153.0017 Y154.1539 I-0.75 J0.0
G1 X142.25
G0 Z-4.0
G1 X137.75
G1 F300.0 Z-6.0
G1 F800.0 X128.0017
G3 X127.2517 Y153.4039 I0.0 J-0.75
G1 Y147.25
G0 Z-4.0
G1 Y142.75
G1 F300.0 Z-6.0
G1 F800.0 Y88.4039
G3 X127.9638 Y87.6548 I0.75 J0.0
G0 Z3.0
G0 Y191.2471
G1 F300.0 Z-1.0
G1 F800.0 X162.8835
G3 X163.6335 Y191.9971 I0.0 J0.75
G1 Y256.9971
G3 X162.8835 Y257.7471 I-0.75 J0.0
G1 X126.8835
G3 X126.1335 Y256.9971 I0.0 J-0.75
G1 Y191.9971
G3 X126.8835 Y191.2471 I0.75 J0.0
G1 X127.9638
G1 F300.0 Z-2.0
G1 F800.0 X162.8835
G3 X163.6335 Y191.9971 I0.0 J0.75
G1 Y256.9971
G3 X162.8835 Y257.7471 I-0.75 J0.0
G1 X126.8835
G3 X126.1335 Y256.9971 I0.0 J-0.75
G1 Y191.9971
G3 X126.8835 Y191.2471 I0.75 J0.0
G1 X127.9638
G1 F300.0 Z-3.0
G1 F800.0 X162.8835
G3 X163.6335 Y191.9971 I0.0 J0.75
G1 Y256.9971
G3 X162.8835 Y257.7471 I-0.75 J0.0
G1 X126.8835
G3 X126.1335 Y256.9971 I0.0 J-0.75
G1 Y191.9971
G3 X126.8835 Y191.2471 I0.75 J0.0
G1 X127.9638
G1 F300.0 Z-4.0
G1 F800.0 X162.8835
G3 X163.6335 Y191.9971 I0.0 J0.75
G1 Y256.9971
G3 X162.8835 Y257.7471 I-0.75 J0.0
G1 X126.8835
G3 X126.1335 Y256.9971 I0.0 J-0.75
G1 Y191.9971
G3 X126.8835 Y191.2471 I0.75 J0.0
G1 X127.9638
G1 F300.0 Z-5.0
G1 F800.0 X137.75
G0 Z-4.0
G1 X142.25
G1 F300.0 Z-5.0
G1 F800.0 X162.8835
G3 X163.6335 Y191.9971 I0.0 J0.75
G1 Y237.75
G0 Z-4.0
G1 Y242.25
G1 F300.0 Z-5.0
G1 F800.0 Y256.9971
G3 X162.8835 Y257.7471 I-0.75 J0.0
G1 X153.25
G0 Z-4.0
G1 X148.75
G1 F300.0 Z-5.0
G1 F800.0 X126.8835
G3 X126.1335 Y256.9971 I0.0 J-0.75
G1 Y211.25
G0 Z-4.0
G1 Y206.75
G1 F300.0 Z-5.0
G1 F800.0 Y191.9971
G3 X126.8835 Y191.2471 I0.75 J0.0
G1 X127.9638
G1 F300.0 Z-6.0
G1 F800.0 X137.75
G0 Z-4.0
G1 X142.25
G1 F300.0 Z-6.0
G1 F800.0 X162.8835
G3 X163.6335 Y191.9971 I0.0 J0.75
G1 Y237.75
G0 Z-4.0
G1 Y242.25
G1 F300.0 Z-6.0
G1 F800.0 Y256.9971
G3 X162.8835 Y257.7471 I-0.75 J0.0
G1 X153.25
G0 Z-4.0
G1 X148.75
G1 F300.0 Z-6.0
G1 F800.0 X126.8835
G3 X126.1335 Y256.9971 I0.0 J-0.75
G1 Y211.25
G0 Z-4.0
G1 Y206.75
G1 F300.0 Z-6.0
G1 F800.0 Y191.9971
G3 X126.8835 Y191.2471 I0.75 J0.0
G1 X127.9638
G0 Z3.0
G0 X43.1084
G1 F300.0 Z-1.0
G1 F800.0 Y253.0998
G3 X42.3584 Y253.8498 I-0.75 J0.0
G1 X6.3584
G3 X5.6084 Y253.0998 I0.0 J-0.75
G1 Y188.0998
G3 X6.3584 Y187.3498 I0.75 J0.0
G1 X42.3584
G3 X43.1084 Y188.0998 I0.0 J0.75
G1 Y191.2471
G1 F300.0 Z-2.0
G1 F800.0 Y253.0998
G3 X42.3584 Y253.8498 I-0.75 J0.0
G1 X6.3584
G3 X5.6084 Y253.0998 I0.0 J-0.75
G1 Y188.0998
G3 X6.3584 Y187.3498 I0.75 J0.0
G1 X42.3584
G3 X43.1084 Y188.0998 I0.0 J0.75
G1 Y191.2471
G1 F300.0 Z-3.0
G1 F800.0 Y253.0998
G3 X42.3584 Y253.8498 I-0.75 J0.0
G1 X6.3584
G3 X5.6084 Y253.0998 I0.0 J-0.75
G1 Y188.0998
G3 X6.3584 Y187.3498 I0.75 J0.0
G1 X42.3584
G3 X43.1084 Y188.0998 I0.0 J0.75
G1 Y191.2471
G1 F300.0 Z-4.0
G1 F800.0 Y253.0998
G3 X42.3584 Y253.8498 I-0.75 J0.0
G1 X6.3584
G3 X5.6084 Y253.0998 I0.0 J-0.75
G1 Y188.0998
G3 X6.3584 Y187.3498 I0.75 J0.0
G1 X42.3584
G3 X43.1084 Y188.0998 I0.0 J0.75
G1 Y191.2471
G1 F300.0 Z-5.0
G1 F800.0 Y232.75
G0 Z-4.0
G1 Y237.25
G1 F300.0 Z-5.0
G1 F800.0 Y253.0998
G3 X42.3584 Y253.8498 I-0.75 J0.0
G1 X35.25
G0 Z-4.0
G1 X30.75
G1 F300.0 Z-5.0
G1 F800.0 X6.3584
G3 X5.6084 Y253.0998 I0.0 J-0.75
G1 Y208.25
G0 Z-4.0
G1 Y203.75
G1 F300.0 Z-5.0
G1 F800.0 Y188.0998
G3 X6.3584 Y187.3498 I0.75 J0.0
G1 X17.75
G0 Z-4.0
G1 X22.25
G1 F300.0 Z-5.0
G1 F800.0 X42.3584
G3 X43.1084 Y188.0998 I0.0 J0.75
G1 Y191.2471
G1 F300.0 Z-6.0
G1 F800.0 Y232.75
G0 Z-4.0
G1 Y237.25
G1 F300.0 Z-6.0
G1 F800.0 Y253.0998
G3 X42.3584 Y253.8498 I-0.75 J0.0
G1 X35.25
G0 Z-4.0
G1 X30.75
G1 F300.0 Z-6.0
G1 F800.0 X6.3584
G3 X5.6084 Y253.0998 I0.0 J-0.75
G1 Y208.25
G0 Z-4.0
G1 Y203.75
G1 F300.0 Z-6.0
G1 F800.0 Y188.0998
G3 X6.3584 Y187.3498 I0.75 J0.0
G1 X17.75
G0 Z-4.0
G1 X22.25
G1 F300.0 Z-6.0
G1 F800.0 X42.3584
G3 X43.1084 Y188.0998 I0.0 J0.75
G1 Y191.2471
( Contour4 )
S1000
G0 Z3.0
G0 X53.42 Y92.75
G1 F300.0 Z-1.0
G1 F800.0 Y89.5
G3 X54.17 Y88.75 I0.75 J0.0
G1 X65.42
G1 X65.6397 Y88.9697
G1 X65.42 Y88.75
G1 Y69.25
G1 X65.6397 Y69.0303
G1 X65.42 Y69.25
G1 X54.17
G3 X53.42 Y68.5 I0.0 J-0.75
G1 Y51.75
G1 X53.6397 Y51.5303
G1 X53.42 Y51.75
G1 X7.0
G3 X6.25 Y51.0 I0.0 J-0.75
G1 Y5.0
G3 X7.0 Y4.25 I0.75 J0.0
G1 X17.0
G3 X17.75 Y5.0 I0.0 J0.75
G1 Y10.25
G1 X17.5303 Y10.4697
G1 X17.75 Y10.25
G1 X34.42
G3 X34.737 Y10.3203 I0.0 J0.75
G1 X119.487 Y49.8398
G3 X119.92 Y50.5196 I-0.317 J0.6797
G1 Y159.25
G1 X119.7003 Y159.4697
G1 X119.92 Y159.25
G1 X125.17
G3 X125.92 Y160.0 I0.0 J0.75
G1 Y180.0
G3 X125.17 Y180.75 I-0.75 J0.0
G1 X119.92
G1 X119.7003 Y180.5303
G1 X119.92 Y180.75
G1 Y289.4804
G3 X119.487 Y290.1602 I-0.75 J0.0
G1 X34.737 Y329.6797
G3 X34.42 Y329.75 I-0.317 J-0.6797
G1 X17.75
G1 X17.5303 Y329.5303
G1 X17.75 Y329.75
G1 Y335.0
G3 X17.0 Y335.75 I-0.75 J0.0
G1 X7.0
G3 X6.25 Y335.0 I0.0 J-0.75
G1 Y289.0
G3 X7.0 Y288.25 I0.75 J0.0
G1 X53.42
G1 X53.6397 Y288.4697
G1 X53.42 Y288.25
G1 Y271.5
G3 X54.17 Y270.75 I0.75 J0.0
G1 X65.42
G1 X65.6397 Y270.9697
G1 X65.42 Y270.75
G1 Y251.25
G1 X65.6397 Y251.0303
G1 X65.42 Y251.25
G1 X54.17
G3 X53.42 Y250.5 I0.0 J-0.75
G1 Y247.25
G1 X53.6397 Y247.0303
G1 X53.42 Y247.25
G1 X48.17
G3 X47.42 Y246.5 I0.0 J-0.75
G1 Y226.5
G3 X48.17 Y225.75 I0.75 J0.0
G1 X53.42
G1 X53.6397 Y225.9697
G1 X53.42 Y225.75
G1 Y114.25
G1 X53.6397 Y114.0303
G1 X53.42 Y114.25
G1 X48.17
G3 X47.42 Y113.5 I0.0 J-0.75
G1 Y93.5
G3 X48.17 Y92.75 I0.75 J0.0
G1 X53.42
G1 X53.6397 Y92.9697
G1 X53.42 Y92.75
G1 F300.0 Z-2.0
G1 F800.0 Y89.5
G3 X54.17 Y88.75 I0.75 J0.0
G1 X65.42
G1 X65.6397 Y88.9697
G1 X65.42 Y88.75
G1 Y69.25
G1 X65.6397 Y69.0303
G1 X65.42 Y69.25
G1 X54.17
G3 X53.42 Y68.5 I0.0 J-0.75
G1 Y51.75
G1 X53.6397 Y51.5303
G1 X53.42 Y51.75
G1 X7.0
G3 X6.25 Y51.0 I0.0 J-0.75
G1 Y5.0
G3 X7.0 Y4.25 I0.75 J0.0
G1 X17.0
G3 X17.75 Y5.0 I0.0 J0.75
G1 Y10.25
G1 X17.5303 Y10.4697
G1 X17.75 Y10.25
G1 X34.42
G3 X34.737 Y10.3203 I0.0 J0.75
G1 X119.487 Y49.8398
G3 X119.92 Y50.5196 I-0.317 J0.6797
G1 Y159.25
G1 X119.7003 Y159.4697
G1 X119.92 Y159.25
G1 X125.17
G3 X125.92 Y160.0 I0.0 J0.75
G1 Y180.0
G3 X125.17 Y180.75 I-0.75 J0.0
G1 X119.92
G1 X119.7003 Y180.5303
G1 X119.92 Y180.75
G1 Y289.4804
G3 X119.487 Y290.1602 I-0.75 J0.0
G1 X34.737 Y329.6797
G3 X34.42 Y329.75 I-0.317 J-0.6797
G1 X17.75
G1 X17.5303 Y329.5303
G1 X17.75 Y329.75
G1 Y335.0
G3 X17.0 Y335.75 I-0.75 J0.0
G1 X7.0
G3 X6.25 Y335.0 I0.0 J-0.75
G1 Y289.0
G3 X7.0 Y288.25 I0.75 J0.0
G1 X53.42
G1 X53.6397 Y288.4697
G1 X53.42 Y288.25
G1 Y271.5
G3 X54.17 Y270.75 I0.75 J0.0
G1 X65.42
G1 X65.6397 Y270.9697
G1 X65.42 Y270.75
G1 Y251.25
G1 X65.6397 Y251.0303
G1 X65.42 Y251.25
G1 X54.17
G3 X53.42 Y250.5 I0.0 J-0.75
G1 Y247.25
G1 X53.6397 Y247.0303
G1 X53.42 Y247.25
G1 X48.17
G3 X47.42 Y246.5 I0.0 J-0.75
G1 Y226.5
G3 X48.17 Y225.75 I0.75 J0.0
G1 X53.42
G1 X53.6397 Y225.9697
G1 X53.42 Y225.75
G1 Y114.25
G1 X53.6397 Y114.0303
G1 X53.42 Y114.25
G1 X48.17
G3 X47.42 Y113.5 I0.0 J-0.75
G1 Y93.5
G3 X48.17 Y92.75 I0.75 J0.0
G1 X53.42
G1 X53.6397 Y92.9697
G1 X53.42 Y92.75
G1 F300.0 Z-3.0
G1 F800.0 Y89.5
G3 X54.17 Y88.75 I0.75 J0.0
G1 X65.42
G1 X65.6397 Y88.9697
G1 X65.42 Y88.75
G1 Y69.25
G1 X65.6397 Y69.0303
G1 X65.42 Y69.25
G1 X54.17
G3 X53.42 Y68.5 I0.0 J-0.75
G1 Y51.75
G1 X53.6397 Y51.5303
G1 X53.42 Y51.75
G1 X7.0
G3 X6.25 Y51.0 I0.0 J-0.75
G1 Y5.0
G3 X7.0 Y4.25 I0.75 J0.0
G1 X17.0
G3 X17.75 Y5.0 I0.0 J0.75
G1 Y10.25
G1 X17.5303 Y10.4697
G1 X17.75 Y10.25
G1 X34.42
G3 X34.737 Y10.3203 I0.0 J0.75
G1 X119.487 Y49.8398
G3 X119.92 Y50.5196 I-0.317 J0.6797
G1 Y159.25
G1 X119.7003 Y159.4697
G1 X119.92 Y159.25
G1 X125.17
G3 X125.92 Y160.0 I0.0 J0.75
G1 Y180.0
G3 X125.17 Y180.75 I-0.75 J0.0
G1 X119.92
G1 X119.7003 Y180.5303
G1 X119.92 Y180.75
G1 Y289.4804
G3 X119.487 Y290.1602 I-0.75 J0.0
G1 X34.737 Y329.6797
G3 X34.42 Y329.75 I-0.317 J-0.6797
G1 X17.75
G1 X17.5303 Y329.5303
G1 X17.75 Y329.75
G1 Y335.0
G3 X17.0 Y335.75 I-0.75 J0.0
G1 X7.0
G3 X6.25 Y335.0 I0.0 J-0.75
G1 Y289.0
G3 X7.0 Y288.25 I0.75 J0.0
G1 X53.42
G1 X53.6397 Y288.4697
G1 X53.42 Y288.25
G1 Y271.5
G3 X54.17 Y270.75 I0.75 J0.0
G1 X65.42
G1 X65.6397 Y270.9697
G1 X65.42 Y270.75
G1 Y251.25
G1 X65.6397 Y251.0303
G1 X65.42 Y251.25
G1 X54.17
G3 X53.42 Y250.5 I0.0 J-0.75
G1 Y247.25
G1 X53.6397 Y247.0303
G1 X53.42 Y247.25
G1 X48.17
G3 X47.42 Y246.5 I0.0 J-0.75
G1 Y226.5
G3 X48.17 Y225.75 I0.75 J0.0
G1 X53.42
G1 X53.6397 Y225.9697
G1 X53.42 Y225.75
G1 Y114.25
G1 X53.6397 Y114.0303
G1 X53.42 Y114.25
G1 X48.17
G3 X47.42 Y113.5 I0.0 J-0.75
G1 Y93.5
G3 X48.17 Y92.75 I0.75 J0.0
G1 X53.42
G1 X53.6397 Y92.9697
G1 X53.42 Y92.75
G1 F300.0 Z-4.0
G1 F800.0 Y89.5
G3 X54.17 Y88.75 I0.75 J0.0
G1 X65.42
G1 X65.6397 Y88.9697
G1 X65.42 Y88.75
G1 Y69.25
G1 X65.6397 Y69.0303
G1 X65.42 Y69.25
G1 X54.17
G3 X53.42 Y68.5 I0.0 J-0.75
G1 Y51.75
G1 X53.6397 Y51.5303
G1 X53.42 Y51.75
G1 X7.0
G3 X6.25 Y51.0 I0.0 J-0.75
G1 Y5.0
G3 X7.0 Y4.25 I0.75 J0.0
G1 X17.0
G3 X17.75 Y5.0 I0.0 J0.75
G1 Y10.25
G1 X17.5303 Y10.4697
G1 X17.75 Y10.25
G1 X34.42
G3 X34.737 Y10.3203 I0.0 J0.75
G1 X119.487 Y49.8398
G3 X119.92 Y50.5196 I-0.317 J0.6797
G1 Y159.25
G1 X119.7003 Y159.4697
G1 X119.92 Y159.25
G1 X125.17
G3 X125.92 Y160.0 I0.0 J0.75
G1 Y180.0
G3 X125.17 Y180.75 I-0.75 J0.0
G1 X119.92
G1 X119.7003 Y180.5303
G1 X119.92 Y180.75
G1 Y289.4804
G3 X119.487 Y290.1602 I-0.75 J0.0
G1 X34.737 Y329.6797
G3 X34.42 Y329.75 I-0.317 J-0.6797
G1 X17.75
G1 X17.5303 Y329.5303
G1 X17.75 Y329.75
G1 Y335.0
G3 X17.0 Y335.75 I-0.75 J0.0
G1 X7.0
G3 X6.25 Y335.0 I0.0 J-0.75
G1 Y289.0
G3 X7.0 Y288.25 I0.75 J0.0
G1 X53.42
G1 X53.6397 Y288.4697
G1 X53.42 Y288.25
G1 Y271.5
G3 X54.17 Y270.75 I0.75 J0.0
G1 X65.42
G1 X65.6397 Y270.9697
G1 X65.42 Y270.75
G1 Y251.25
G1 X65.6397 Y251.0303
G1 X65.42 Y251.25
G1 X54.17
G3 X53.42 Y250.5 I0.0 J-0.75
G1 Y247.25
G1 X53.6397 Y247.0303
G1 X53.42 Y247.25
G1 X48.17
G3 X47.42 Y246.5 I0.0 J-0.75
G1 Y226.5
G3 X48.17 Y225.75 I0.75 J0.0
G1 X53.42
G1 X53.6397 Y225.9697
G1 X53.42 Y225.75
G1 Y114.25
G1 X53.6397 Y114.0303
G1 X53.42 Y114.25
G1 X48.17
G3 X47.42 Y113.5 I0.0 J-0.75
G1 Y93.5
G3 X48.17 Y92.75 I0.75 J0.0
G1 X53.42
G1 X53.6397 Y92.9697
G1 X53.42 Y92.75
G1 F300.0 Z-5.0
G1 F800.0 Y89.5
G3 X54.17 Y88.75 I0.75 J0.0
G1 X65.42
G1 X65.6397 Y88.9697
G1 X65.42 Y88.75
G1 Y69.25
G1 X65.6397 Y69.0303
G1 X65.42 Y69.25
G1 X54.17
G3 X53.42 Y68.5 I0.0 J-0.75
G1 Y62.25
G0 Z-4.0
G1 Y57.75
G1 F300.0 Z-5.0
G1 F800.0 Y51.75
G1 X53.6397 Y51.5303
G1 X53.42 Y51.75
G1 X7.0
G3 X6.25 Y51.0 I0.0 J-0.75
G1 Y5.0
G3 X7.0 Y4.25 I0.75 J0.0
G1 X17.0
G3 X17.75 Y5.0 I0.0 J0.75
G1 Y10.25
G1 X17.5303 Y10.4697
G1 X17.75 Y10.25
G1 X24.75
G0 Z-4.0
G1 X29.25
G1 F300.0 Z-5.0
G1 F800.0 X34.42
G3 X34.737 Y10.3203 I0.0 J0.75
G1 X73.7457 Y28.5104
G0 Z-4.0
G1 X77.8241 Y30.4121
G1 F300.0 Z-5.0
G1 F800.0 X119.487 Y49.8398
G3 X119.92 Y50.5196 I-0.317 J0.6797
G1 Y138.75
G0 Z-4.0
G1 Y143.25
G1 F300.0 Z-5.0
G1 F800.0 Y159.25
G1 X119.7003 Y159.4697
G1 X119.92 Y159.25
G1 X125.17
G3 X125.92 Y160.0 I0.0 J0.75
G1 Y180.0
G3 X125.17 Y180.75 I-0.75 J0.0
G1 X119.92
G1 X119.7003 Y180.5303
G1 X119.92 Y180.75
G1 Y216.75
G0 Z-4.0
G1 Y221.25
G1 F300.0 Z-5.0
G1 F800.0 Y289.4804
G3 X119.487 Y290.1602 I-0.75 J0.0
G1 X84.6122 Y306.4225
G0 Z-4.0
G1 X80.5339 Y308.3243
G1 F300.0 Z-5.0
G1 F800.0 X34.737 Y329.6797
G3 X34.42 Y329.75 I-0.317 J-0.6797
G1 X17.75
G1 X17.5303 Y329.5303
G1 X17.75 Y329.75
G1 Y335.0
G3 X17.0 Y335.75 I-0.75 J0.0
G1 X7.0
G3 X6.25 Y335.0 I0.0 J-0.75
G1 Y289.0
G3 X7.0 Y288.25 I0.75 J0.0
G1 X30.75
G0 Z-4.0
G1 X35.25
G1 F300.0 Z-5.0
G1 F800.0 X53.42
G1 X53.6397 Y288.4697
G1 X53.42 Y288.25
G1 Y271.5
G3 X54.17 Y270.75 I0.75 J0.0
G1 X65.42
G1 X65.6397 Y270.9697
G1 X65.42 Y270.75
G1 Y251.25
G1 X65.6397 Y251.0303
G1 X65.42 Y251.25
G1 X54.17
G3 X53.42 Y250.5 I0.0 J-0.75
G1 Y247.25
G1 X53.6397 Y247.0303
G1 X53.42 Y247.25
G1 X48.17
G3 X47.42 Y246.5 I0.0 J-0.75
G1 Y226.5
G3 X48.17 Y225.75 I0.75 J0.0
G1 X53.42
G1 X53.6397 Y225.9697
G1 X53.42 Y225.75
G1 Y218.25
G0 Z-4.0
G1 Y213.75
G1 F300.0 Z-5.0
G1 F800.0 Y127.25
G0 Z-4.0
G1 Y122.75
G1 F300.0 Z-5.0
G1 F800.0 Y114.25
G1 X53.6397 Y114.0303
G1 X53.42 Y114.25
G1 X48.17
G3 X47.42 Y113.5 I0.0 J-0.75
G1 Y93.5
G3 X48.17 Y92.75 I0.75 J0.0
G1 X53.42
G1 X53.6397 Y92.9697
G1 X53.42 Y92.75
G1 F300.0 Z-6.0
G1 F800.0 Y89.5
G3 X54.17 Y88.75 I0.75 J0.0
G1 X65.42
G1 X65.6397 Y88.9697
G1 X65.42 Y88.75
G1 Y69.25
G1 X65.6397 Y69.0303
G1 X65.42 Y69.25
G1 X54.17
G3 X53.42 Y68.5 I0.0 J-0.75
G1 Y62.25
G0 Z-4.0
G1 Y57.75
G1 F300.0 Z-6.0
G1 F800.0 Y51.75
G1 X53.6397 Y51.5303
G1 X53.42 Y51.75
G1 X7.0
G3 X6.25 Y51.0 I0.0 J-0.75
G1 Y5.0
G3 X7.0 Y4.25 I0.75 J0.0
G1 X17.0
G3 X17.75 Y5.0 I0.0 J0.75
G1 Y10.25
G1 X17.5303 Y10.4697
G1 X17.75 Y10.25
G1 X24.75
G0 Z-4.0
G1 X29.25
G1 F300.0 Z-6.0
G1 F800.0 X34.42
G3 X34.737 Y10.3203 I0.0 J0.75
G1 X73.7457 Y28.5104
G0 Z-4.0
G1 X77.8241 Y30.4121
G1 F300.0 Z-6.0
G1 F800.0 X119.487 Y49.8398
G3 X119.92 Y50.5196 I-0.317 J0.6797
G1 Y138.75
G0 Z-4.0
G1 Y143.25
G1 F300.0 Z-6.0
G1 F800.0 Y159.25
G1 X119.7003 Y159.4697
G1 X119.92 Y159.25
G1 X125.17
G3 X125.92 Y160.0 I0.0 J0.75
G1 Y180.0
G3 X125.17 Y180.75 I-0.75 J0.0
G1 X119.92
G1 X119.7003 Y180.5303
G1 X119.92 Y180.75
G1 Y216.75
G0 Z-4.0
G1 Y221.25
G1 F300.0 Z-6.0
G1 F800.0 Y289.4804
G3 X119.487 Y290.1602 I-0.75 J0.0
G1 X84.6122 Y306.4225
G0 Z-4.0
G1 X80.5339 Y308.3243
G1 F300.0 Z-6.0
G1 F800.0 X34.737 Y329.6797
G3 X34.42 Y329.75 I-0.317 J-0.6797
G1 X17.75
G1 X17.5303 Y329.5303
G1 X17.75 Y329.75
G1 Y335.0
G3 X17.0 Y335.75 I-0.75 J0.0
G1 X7.0
G3 X6.25 Y335.0 I0.0 J-0.75
G1 Y289.0
G3 X7.0 Y288.25 I0.75 J0.0
G1 X30.75
G0 Z-4.0
G1 X35.25
G1 F300.0 Z-6.0
G1 F800.0 X53.42
G1 X53.6397 Y288.4697
G1 X53.42 Y288.25
G1 Y271.5
G3 X54.17 Y270.75 I0.75 J0.0
G1 X65.42
G1 X65.6397 Y270.9697
G1 X65.42 Y270.75
G1 Y251.25
G1 X65.6397 Y251.0303
G1 X65.42 Y251.25
G1 X54.17
G3 X53.42 Y250.5 I0.0 J-0.75
G1 Y247.25
G1 X53.6397 Y247.0303
G1 X53.42 Y247.25
G1 X48.17
G3 X47.42 Y246.5 I0.0 J-0.75
G1 Y226.5
G3 X48.17 Y225.75 I0.75 J0.0
G1 X53.42
G1 X53.6397 Y225.9697
G1 X53.42 Y225.75
G1 Y218.25
G0 Z-4.0
G1 Y213.75
G1 F300.0 Z-6.0
G1 F800.0 Y127.25
G0 Z-4.0
G1 Y122.75
G1 F300.0 Z-6.0
G1 F800.0 Y114.25
G1 X53.6397 Y114.0303
G1 X53.42 Y114.25
G1 X48.17
G3 X47.42 Y113.5 I0.0 J-0.75
G1 Y93.5
G3 X48.17 Y92.75 I0.75 J0.0
G1 X53.42
G1 X53.6397 Y92.9697
G1 X53.42 Y92.75
G0 Z3.0
M5
M30
