( Made using CamBam - http://www.cambam.co.uk )
( Ensemble 3 1/26/2016 4:58:04 PM )
( T0 : 1.5 )
G21 G90 G64 G40
G0 Z3.0
( T0 : 1.5 )
T0 M6
( Contour1 )
G17
M3 S1000
G0 X119.9105 Y93.5947
G1 F300.0 Z-1.0
G1 F800.0 Y113.5947
G3 X119.1605 Y114.3447 I-0.75 J0.0
G1 X84.9105
G1 Y138.5947
G3 X84.1605 Y139.3447 I-0.75 J0.0
G1 X49.1605
G3 X3.4105 Y93.5947 I0.0 J-45.75
G1 Y53.5947
G3 X49.1605 Y7.8447 I45.75 J0.0
G1 X84.1605
G3 X84.9105 Y8.5947 I0.0 J0.75
G1 Y32.8447
G1 X119.1605
G3 X119.9105 Y33.5947 I0.0 J0.75
G1 Y53.5947
G3 X119.1605 Y54.3447 I-0.75 J0.0
G1 X84.9105
G1 Y92.8447
G1 X119.1605
G3 X119.9105 Y93.5947 I0.0 J0.75
G1 F300.0 Z-2.0
G1 F800.0 Y113.5947
G3 X119.1605 Y114.3447 I-0.75 J0.0
G1 X84.9105
G1 Y138.5947
G3 X84.1605 Y139.3447 I-0.75 J0.0
G1 X49.1605
G3 X3.4105 Y93.5947 I0.0 J-45.75
G1 Y53.5947
G3 X49.1605 Y7.8447 I45.75 J0.0
G1 X84.1605
G3 X84.9105 Y8.5947 I0.0 J0.75
G1 Y32.8447
G1 X119.1605
G3 X119.9105 Y33.5947 I0.0 J0.75
G1 Y53.5947
G3 X119.1605 Y54.3447 I-0.75 J0.0
G1 X84.9105
G1 Y92.8447
G1 X119.1605
G3 X119.9105 Y93.5947 I0.0 J0.75
G1 F300.0 Z-3.0
G1 F800.0 Y113.5947
G3 X119.1605 Y114.3447 I-0.75 J0.0
G1 X84.9105
G1 Y138.5947
G3 X84.1605 Y139.3447 I-0.75 J0.0
G1 X49.1605
G3 X3.4105 Y93.5947 I0.0 J-45.75
G1 Y53.5947
G3 X49.1605 Y7.8447 I45.75 J0.0
G1 X84.1605
G3 X84.9105 Y8.5947 I0.0 J0.75
G1 Y32.8447
G1 X119.1605
G3 X119.9105 Y33.5947 I0.0 J0.75
G1 Y53.5947
G3 X119.1605 Y54.3447 I-0.75 J0.0
G1 X84.9105
G1 Y92.8447
G1 X119.1605
G3 X119.9105 Y93.5947 I0.0 J0.75
G1 F300.0 Z-4.0
G1 F800.0 Y113.5947
G3 X119.1605 Y114.3447 I-0.75 J0.0
G1 X84.9105
G1 Y138.5947
G3 X84.1605 Y139.3447 I-0.75 J0.0
G1 X49.1605
G3 X3.4105 Y93.5947 I0.0 J-45.75
G1 Y53.5947
G3 X49.1605 Y7.8447 I45.75 J0.0
G1 X84.1605
G3 X84.9105 Y8.5947 I0.0 J0.75
G1 Y32.8447
G1 X119.1605
G3 X119.9105 Y33.5947 I0.0 J0.75
G1 Y53.5947
G3 X119.1605 Y54.3447 I-0.75 J0.0
G1 X84.9105
G1 Y92.8447
G1 X119.1605
G3 X119.9105 Y93.5947 I0.0 J0.75
G1 F300.0 Z-5.0
G1 F800.0 Y113.5947
G3 X119.1605 Y114.3447 I-0.75 J0.0
G1 X84.9105
G1 Y138.5947
G3 X84.1605 Y139.3447 I-0.75 J0.0
G1 X49.1605
G3 X3.4105 Y93.5947 I0.0 J-45.75
G1 Y53.5947
G3 X49.1605 Y7.8447 I45.75 J0.0
G1 X84.1605
G3 X84.9105 Y8.5947 I0.0 J0.75
G1 Y32.8447
G1 X119.1605
G3 X119.9105 Y33.5947 I0.0 J0.75
G1 Y53.5947
G3 X119.1605 Y54.3447 I-0.75 J0.0
G1 X84.9105
G1 Y92.8447
G1 X119.1605
G3 X119.9105 Y93.5947 I0.0 J0.75
G1 F300.0 Z-6.0
G1 F800.0 Y113.5947
G3 X119.1605 Y114.3447 I-0.75 J0.0
G1 X84.9105
G1 Y138.5947
G3 X84.1605 Y139.3447 I-0.75 J0.0
G1 X49.1605
G3 X3.4105 Y93.5947 I0.0 J-45.75
G1 Y53.5947
G3 X49.1605 Y7.8447 I45.75 J0.0
G1 X84.1605
G3 X84.9105 Y8.5947 I0.0 J0.75
G1 Y32.8447
G1 X119.1605
G3 X119.9105 Y33.5947 I0.0 J0.75
G1 Y53.5947
G3 X119.1605 Y54.3447 I-0.75 J0.0
G1 X84.9105
G1 Y92.8447
G1 X119.1605
G3 X119.9105 Y93.5947 I0.0 J0.75
G1 F300.0 Z-7.0
G1 F800.0 Y113.5947
G3 X119.1605 Y114.3447 I-0.75 J0.0
G1 X84.9105
G1 Y138.5947
G3 X84.1605 Y139.3447 I-0.75 J0.0
G1 X49.1605
G3 X3.4105 Y93.5947 I0.0 J-45.75
G1 Y53.5947
G3 X49.1605 Y7.8447 I45.75 J0.0
G1 X84.1605
G3 X84.9105 Y8.5947 I0.0 J0.75
G1 Y32.8447
G1 X119.1605
G3 X119.9105 Y33.5947 I0.0 J0.75
G1 Y53.5947
G3 X119.1605 Y54.3447 I-0.75 J0.0
G1 X84.9105
G1 Y92.8447
G1 X119.1605
G3 X119.9105 Y93.5947 I0.0 J0.75
G1 F300.0 Z-8.0
G1 F800.0 Y113.5947
G3 X119.1605 Y114.3447 I-0.75 J0.0
G1 X84.9105
G1 Y138.5947
G3 X84.1605 Y139.3447 I-0.75 J0.0
G1 X49.1605
G3 X3.4105 Y93.5947 I0.0 J-45.75
G1 Y53.5947
G3 X49.1605 Y7.8447 I45.75 J0.0
G1 X84.1605
G3 X84.9105 Y8.5947 I0.0 J0.75
G1 Y32.8447
G1 X119.1605
G3 X119.9105 Y33.5947 I0.0 J0.75
G1 Y53.5947
G3 X119.1605 Y54.3447 I-0.75 J0.0
G1 X84.9105
G1 Y92.8447
G1 X119.1605
G3 X119.9105 Y93.5947 I0.0 J0.75
G1 F300.0 Z-9.0
G1 F800.0 Y113.5947
G3 X119.1605 Y114.3447 I-0.75 J0.0
G1 X84.9105
G1 Y138.5947
G3 X84.1605 Y139.3447 I-0.75 J0.0
G1 X49.1605
G3 X3.4105 Y93.5947 I0.0 J-45.75
G1 Y53.5947
G3 X49.1605 Y7.8447 I45.75 J0.0
G1 X84.1605
G3 X84.9105 Y8.5947 I0.0 J0.75
G1 Y32.8447
G1 X119.1605
G3 X119.9105 Y33.5947 I0.0 J0.75
G1 Y53.5947
G3 X119.1605 Y54.3447 I-0.75 J0.0
G1 X84.9105
G1 Y92.8447
G1 X119.1605
G3 X119.9105 Y93.5947 I0.0 J0.75
G1 F300.0 Z-10.0
G1 F800.0 Y113.5947
G3 X119.1605 Y114.3447 I-0.75 J0.0
G1 X84.9105
G1 Y138.5947
G3 X84.1605 Y139.3447 I-0.75 J0.0
G1 X49.1605
G3 X3.4105 Y93.5947 I0.0 J-45.75
G1 Y53.5947
G3 X49.1605 Y7.8447 I45.75 J0.0
G1 X84.1605
G3 X84.9105 Y8.5947 I0.0 J0.75
G1 Y32.8447
G1 X119.1605
G3 X119.9105 Y33.5947 I0.0 J0.75
G1 Y53.5947
G3 X119.1605 Y54.3447 I-0.75 J0.0
G1 X84.9105
G1 Y92.8447
G1 X119.1605
G3 X119.9105 Y93.5947 I0.0 J0.75
G0 Z3.0
G0 X125.25
G1 F300.0 Z-1.0
G1 F800.0 Y57.0
G3 X171.0 Y11.25 I45.75 J0.0
G1 X206.0
G3 X206.75 Y12.0 I0.0 J0.75
G1 Y36.25
G1 X241.0
G3 X241.75 Y37.0 I0.0 J0.75
G1 Y57.0
G3 X241.0 Y57.75 I-0.75 J0.0
G1 X206.75
G1 Y96.25
G1 X241.0
G3 X241.75 Y97.0 I0.0 J0.75
G1 Y117.0
G3 X241.0 Y117.75 I-0.75 J0.0
G1 X206.75
G1 Y142.0
G3 X206.0 Y142.75 I-0.75 J0.0
G1 X171.0
G3 X125.25 Y97.0 I0.0 J-45.75
G1 Y93.5947
G1 F300.0 Z-2.0
G1 F800.0 Y57.0
G3 X171.0 Y11.25 I45.75 J0.0
G1 X206.0
G3 X206.75 Y12.0 I0.0 J0.75
G1 Y36.25
G1 X241.0
G3 X241.75 Y37.0 I0.0 J0.75
G1 Y57.0
G3 X241.0 Y57.75 I-0.75 J0.0
G1 X206.75
G1 Y96.25
G1 X241.0
G3 X241.75 Y97.0 I0.0 J0.75
G1 Y117.0
G3 X241.0 Y117.75 I-0.75 J0.0
G1 X206.75
G1 Y142.0
G3 X206.0 Y142.75 I-0.75 J0.0
G1 X171.0
G3 X125.25 Y97.0 I0.0 J-45.75
G1 Y93.5947
G1 F300.0 Z-3.0
G1 F800.0 Y57.0
G3 X171.0 Y11.25 I45.75 J0.0
G1 X206.0
G3 X206.75 Y12.0 I0.0 J0.75
G1 Y36.25
G1 X241.0
G3 X241.75 Y37.0 I0.0 J0.75
G1 Y57.0
G3 X241.0 Y57.75 I-0.75 J0.0
G1 X206.75
G1 Y96.25
G1 X241.0
G3 X241.75 Y97.0 I0.0 J0.75
G1 Y117.0
G3 X241.0 Y117.75 I-0.75 J0.0
G1 X206.75
G1 Y142.0
G3 X206.0 Y142.75 I-0.75 J0.0
G1 X171.0
G3 X125.25 Y97.0 I0.0 J-45.75
G1 Y93.5947
G1 F300.0 Z-4.0
G1 F800.0 Y57.0
G3 X171.0 Y11.25 I45.75 J0.0
G1 X206.0
G3 X206.75 Y12.0 I0.0 J0.75
G1 Y36.25
G1 X241.0
G3 X241.75 Y37.0 I0.0 J0.75
G1 Y57.0
G3 X241.0 Y57.75 I-0.75 J0.0
G1 X206.75
G1 Y96.25
G1 X241.0
G3 X241.75 Y97.0 I0.0 J0.75
G1 Y117.0
G3 X241.0 Y117.75 I-0.75 J0.0
G1 X206.75
G1 Y142.0
G3 X206.0 Y142.75 I-0.75 J0.0
G1 X171.0
G3 X125.25 Y97.0 I0.0 J-45.75
G1 Y93.5947
G1 F300.0 Z-5.0
G1 F800.0 Y57.0
G3 X171.0 Y11.25 I45.75 J0.0
G1 X206.0
G3 X206.75 Y12.0 I0.0 J0.75
G1 Y36.25
G1 X241.0
G3 X241.75 Y37.0 I0.0 J0.75
G1 Y57.0
G3 X241.0 Y57.75 I-0.75 J0.0
G1 X206.75
G1 Y96.25
G1 X241.0
G3 X241.75 Y97.0 I0.0 J0.75
G1 Y117.0
G3 X241.0 Y117.75 I-0.75 J0.0
G1 X206.75
G1 Y142.0
G3 X206.0 Y142.75 I-0.75 J0.0
G1 X171.0
G3 X125.25 Y97.0 I0.0 J-45.75
G1 Y93.5947
G1 F300.0 Z-6.0
G1 F800.0 Y57.0
G3 X171.0 Y11.25 I45.75 J0.0
G1 X206.0
G3 X206.75 Y12.0 I0.0 J0.75
G1 Y36.25
G1 X241.0
G3 X241.75 Y37.0 I0.0 J0.75
G1 Y57.0
G3 X241.0 Y57.75 I-0.75 J0.0
G1 X206.75
G1 Y96.25
G1 X241.0
G3 X241.75 Y97.0 I0.0 J0.75
G1 Y117.0
G3 X241.0 Y117.75 I-0.75 J0.0
G1 X206.75
G1 Y142.0
G3 X206.0 Y142.75 I-0.75 J0.0
G1 X171.0
G3 X125.25 Y97.0 I0.0 J-45.75
G1 Y93.5947
G1 F300.0 Z-7.0
G1 F800.0 Y57.0
G3 X171.0 Y11.25 I45.75 J0.0
G1 X206.0
G3 X206.75 Y12.0 I0.0 J0.75
G1 Y36.25
G1 X241.0
G3 X241.75 Y37.0 I0.0 J0.75
G1 Y57.0
G3 X241.0 Y57.75 I-0.75 J0.0
G1 X206.75
G1 Y96.25
G1 X241.0
G3 X241.75 Y97.0 I0.0 J0.75
G1 Y117.0
G3 X241.0 Y117.75 I-0.75 J0.0
G1 X206.75
G1 Y142.0
G3 X206.0 Y142.75 I-0.75 J0.0
G1 X171.0
G3 X125.25 Y97.0 I0.0 J-45.75
G1 Y93.5947
G1 F300.0 Z-8.0
G1 F800.0 Y57.0
G3 X171.0 Y11.25 I45.75 J0.0
G1 X206.0
G3 X206.75 Y12.0 I0.0 J0.75
G1 Y36.25
G1 X241.0
G3 X241.75 Y37.0 I0.0 J0.75
G1 Y57.0
G3 X241.0 Y57.75 I-0.75 J0.0
G1 X206.75
G1 Y96.25
G1 X241.0
G3 X241.75 Y97.0 I0.0 J0.75
G1 Y117.0
G3 X241.0 Y117.75 I-0.75 J0.0
G1 X206.75
G1 Y142.0
G3 X206.0 Y142.75 I-0.75 J0.0
G1 X171.0
G3 X125.25 Y97.0 I0.0 J-45.75
G1 Y93.5947
G1 F300.0 Z-9.0
G1 F800.0 Y57.0
G3 X171.0 Y11.25 I45.75 J0.0
G1 X206.0
G3 X206.75 Y12.0 I0.0 J0.75
G1 Y36.25
G1 X241.0
G3 X241.75 Y37.0 I0.0 J0.75
G1 Y57.0
G3 X241.0 Y57.75 I-0.75 J0.0
G1 X206.75
G1 Y96.25
G1 X241.0
G3 X241.75 Y97.0 I0.0 J0.75
G1 Y117.0
G3 X241.0 Y117.75 I-0.75 J0.0
G1 X206.75
G1 Y142.0
G3 X206.0 Y142.75 I-0.75 J0.0
G1 X171.0
G3 X125.25 Y97.0 I0.0 J-45.75
G1 Y93.5947
G1 F300.0 Z-10.0
G1 F800.0 Y57.0
G3 X171.0 Y11.25 I45.75 J0.0
G1 X206.0
G3 X206.75 Y12.0 I0.0 J0.75
G1 Y36.25
G1 X241.0
G3 X241.75 Y37.0 I0.0 J0.75
G1 Y57.0
G3 X241.0 Y57.75 I-0.75 J0.0
G1 X206.75
G1 Y96.25
G1 X241.0
G3 X241.75 Y97.0 I0.0 J0.75
G1 Y117.0
G3 X241.0 Y117.75 I-0.75 J0.0
G1 X206.75
G1 Y142.0
G3 X206.0 Y142.75 I-0.75 J0.0
G1 X171.0
G3 X125.25 Y97.0 I0.0 J-45.75
G1 Y93.5947
( Contour2 )
S1000
G0 Z3.0
G0 X19.9105 Y98.5947
G1 F300.0 Z-1.0
G2 F800.0 X44.1605 Y122.8447 I24.25 J0.0
G1 X68.4105
G1 Y24.3447
G1 X44.1605
G2 X19.9105 Y48.5947 I0.0 J24.25
G1 Y98.5947
G1 F300.0 Z-2.0
G2 F800.0 X44.1605 Y122.8447 I24.25 J0.0
G1 X68.4105
G1 Y24.3447
G1 X44.1605
G2 X19.9105 Y48.5947 I0.0 J24.25
G1 Y98.5947
G1 F300.0 Z-3.0
G2 F800.0 X44.1605 Y122.8447 I24.25 J0.0
G1 X68.4105
G1 Y24.3447
G1 X44.1605
G2 X19.9105 Y48.5947 I0.0 J24.25
G1 Y98.5947
G1 F300.0 Z-4.0
G2 F800.0 X44.1605 Y122.8447 I24.25 J0.0
G1 X68.4105
G1 Y24.3447
G1 X44.1605
G2 X19.9105 Y48.5947 I0.0 J24.25
G1 Y98.5947
G1 F300.0 Z-5.0
G2 F800.0 X44.1605 Y122.8447 I24.25 J0.0
G1 X68.4105
G1 Y24.3447
G1 X44.1605
G2 X19.9105 Y48.5947 I0.0 J24.25
G1 Y98.5947
G1 F300.0 Z-6.0
G2 F800.0 X44.1605 Y122.8447 I24.25 J0.0
G1 X68.4105
G1 Y24.3447
G1 X44.1605
G2 X19.9105 Y48.5947 I0.0 J24.25
G1 Y98.5947
G1 F300.0 Z-7.0
G2 F800.0 X44.1605 Y122.8447 I24.25 J0.0
G1 X68.4105
G1 Y24.3447
G1 X44.1605
G2 X19.9105 Y48.5947 I0.0 J24.25
G1 Y98.5947
G1 F300.0 Z-8.0
G2 F800.0 X44.1605 Y122.8447 I24.25 J0.0
G1 X68.4105
G1 Y24.3447
G1 X44.1605
G2 X19.9105 Y48.5947 I0.0 J24.25
G1 Y98.5947
G1 F300.0 Z-9.0
G2 F800.0 X44.1605 Y122.8447 I24.25 J0.0
G1 X68.4105
G1 Y24.3447
G1 X44.1605
G2 X19.9105 Y48.5947 I0.0 J24.25
G1 Y98.5947
G1 F300.0 Z-10.0
G2 F800.0 X44.1605 Y122.8447 I24.25 J0.0
G1 X68.4105
G1 Y24.3447
G1 X44.1605
G2 X19.9105 Y48.5947 I0.0 J24.25
G1 Y98.5947
G0 Z3.0
G0 X141.75
G1 F300.0 Z-1.0
G1 F800.0 Y102.0
G2 X166.0 Y126.25 I24.25 J0.0
G1 X190.25
G1 Y27.75
G1 X166.0
G2 X141.75 Y52.0 I0.0 J24.25
G1 Y98.5947
G1 F300.0 Z-2.0
G1 F800.0 Y102.0
G2 X166.0 Y126.25 I24.25 J0.0
G1 X190.25
G1 Y27.75
G1 X166.0
G2 X141.75 Y52.0 I0.0 J24.25
G1 Y98.5947
G1 F300.0 Z-3.0
G1 F800.0 Y102.0
G2 X166.0 Y126.25 I24.25 J0.0
G1 X190.25
G1 Y27.75
G1 X166.0
G2 X141.75 Y52.0 I0.0 J24.25
G1 Y98.5947
G1 F300.0 Z-4.0
G1 F800.0 Y102.0
G2 X166.0 Y126.25 I24.25 J0.0
G1 X190.25
G1 Y27.75
G1 X166.0
G2 X141.75 Y52.0 I0.0 J24.25
G1 Y98.5947
G1 F300.0 Z-5.0
G1 F800.0 Y102.0
G2 X166.0 Y126.25 I24.25 J0.0
G1 X190.25
G1 Y27.75
G1 X166.0
G2 X141.75 Y52.0 I0.0 J24.25
G1 Y98.5947
G1 F300.0 Z-6.0
G1 F800.0 Y102.0
G2 X166.0 Y126.25 I24.25 J0.0
G1 X190.25
G1 Y27.75
G1 X166.0
G2 X141.75 Y52.0 I0.0 J24.25
G1 Y98.5947
G1 F300.0 Z-7.0
G1 F800.0 Y102.0
G2 X166.0 Y126.25 I24.25 J0.0
G1 X190.25
G1 Y27.75
G1 X166.0
G2 X141.75 Y52.0 I0.0 J24.25
G1 Y98.5947
G1 F300.0 Z-8.0
G1 F800.0 Y102.0
G2 X166.0 Y126.25 I24.25 J0.0
G1 X190.25
G1 Y27.75
G1 X166.0
G2 X141.75 Y52.0 I0.0 J24.25
G1 Y98.5947
G1 F300.0 Z-9.0
G1 F800.0 Y102.0
G2 X166.0 Y126.25 I24.25 J0.0
G1 X190.25
G1 Y27.75
G1 X166.0
G2 X141.75 Y52.0 I0.0 J24.25
G1 Y98.5947
G1 F300.0 Z-10.0
G1 F800.0 Y102.0
G2 X166.0 Y126.25 I24.25 J0.0
G1 X190.25
G1 Y27.75
G1 X166.0
G2 X141.75 Y52.0 I0.0 J24.25
G1 Y98.5947
G0 Z3.0
M5
M30
