( Made using CamBam - http://www.cambam.co.uk )
( Ensemble 8 2/2/2016 6:49:35 PM )
( T0 : 1.5 )
G21 G90 G64 G40
G0 Z3.0
( T0 : 1.5 )
T0 M6
( Contour1 )
G17
M3 S1000
G0 X45.0628 Y185.8907
G1 F300.0 Z-1.0
G2 F800.0 X43.9378 Y185.2412 I-0.75 J0.0
G2 Y186.5402 I0.375 J0.6495
G2 X45.0628 Y185.8907 I0.375 J-0.6495
G1 F300.0 Z-2.0
G2 F800.0 X43.9378 Y185.2412 I-0.75 J0.0
G2 Y186.5402 I0.375 J0.6495
G2 X45.0628 Y185.8907 I0.375 J-0.6495
G1 F300.0 Z-3.0
G2 F800.0 X43.9378 Y185.2412 I-0.75 J0.0
G2 Y186.5402 I0.375 J0.6495
G2 X45.0628 Y185.8907 I0.375 J-0.6495
G1 F300.0 Z-4.0
G2 F800.0 X43.9378 Y185.2412 I-0.75 J0.0
G2 Y186.5402 I0.375 J0.6495
G2 X45.0628 Y185.8907 I0.375 J-0.6495
G1 F300.0 Z-5.0
G2 F800.0 X43.9378 Y185.2412 I-0.75 J0.0
G2 Y186.5402 I0.375 J0.6495
G2 X45.0628 Y185.8907 I0.375 J-0.6495
G1 F300.0 Z-6.0
G2 F800.0 X43.9378 Y185.2412 I-0.75 J0.0
G2 Y186.5402 I0.375 J0.6495
G2 X45.0628 Y185.8907 I0.375 J-0.6495
G0 Z3.0
G0 X32.0048 Y208.4043
G1 F300.0 Z-1.0
G2 F800.0 X31.2536 Y208.4036 I-0.3763 J0.6488
G2 Y209.7026 I0.375 J0.6495
G2 X32.3786 Y209.0531 I0.375 J-0.6495
G2 X32.0048 Y208.4043 I-0.75 J0.0
G1 F300.0 Z-2.0
G2 F800.0 X31.2536 Y208.4036 I-0.3763 J0.6488
G2 Y209.7026 I0.375 J0.6495
G2 X32.3786 Y209.0531 I0.375 J-0.6495
G2 X32.0048 Y208.4043 I-0.75 J0.0
G1 F300.0 Z-3.0
G2 F800.0 X31.2536 Y208.4036 I-0.3763 J0.6488
G2 Y209.7026 I0.375 J0.6495
G2 X32.3786 Y209.0531 I0.375 J-0.6495
G2 X32.0048 Y208.4043 I-0.75 J0.0
G1 F300.0 Z-4.0
G2 F800.0 X31.2536 Y208.4036 I-0.3763 J0.6488
G2 Y209.7026 I0.375 J0.6495
G2 X32.3786 Y209.0531 I0.375 J-0.6495
G2 X32.0048 Y208.4043 I-0.75 J0.0
G1 F300.0 Z-5.0
G2 F800.0 X31.2536 Y208.4036 I-0.3763 J0.6488
G2 Y209.7026 I0.375 J0.6495
G2 X32.3786 Y209.0531 I0.375 J-0.6495
G2 X32.0048 Y208.4043 I-0.75 J0.0
G1 F300.0 Z-6.0
G2 F800.0 X31.2536 Y208.4036 I-0.3763 J0.6488
G2 Y209.7026 I0.375 J0.6495
G2 X32.3786 Y209.0531 I0.375 J-0.6495
G2 X32.0048 Y208.4043 I-0.75 J0.0
G0 Z3.0
G0 X31.6349 Y252.3031
G1 F300.0 Z-1.0
G2 F800.0 X31.2536 Y252.4036 I-0.0063 J0.75
G2 Y253.7026 I0.375 J0.6495
G2 X32.3786 Y253.0531 I0.375 J-0.6495
G2 X31.6349 Y252.3031 I-0.75 J0.0
G1 F300.0 Z-2.0
G2 F800.0 X31.2536 Y252.4036 I-0.0063 J0.75
G2 Y253.7026 I0.375 J0.6495
G2 X32.3786 Y253.0531 I0.375 J-0.6495
G2 X31.6349 Y252.3031 I-0.75 J0.0
G1 F300.0 Z-3.0
G2 F800.0 X31.2536 Y252.4036 I-0.0063 J0.75
G2 Y253.7026 I0.375 J0.6495
G2 X32.3786 Y253.0531 I0.375 J-0.6495
G2 X31.6349 Y252.3031 I-0.75 J0.0
G1 F300.0 Z-4.0
G2 F800.0 X31.2536 Y252.4036 I-0.0063 J0.75
G2 Y253.7026 I0.375 J0.6495
G2 X32.3786 Y253.0531 I0.375 J-0.6495
G2 X31.6349 Y252.3031 I-0.75 J0.0
G1 F300.0 Z-5.0
G2 F800.0 X31.2536 Y252.4036 I-0.0063 J0.75
G2 Y253.7026 I0.375 J0.6495
G2 X32.3786 Y253.0531 I0.375 J-0.6495
G2 X31.6349 Y252.3031 I-0.75 J0.0
G1 F300.0 Z-6.0
G2 F800.0 X31.2536 Y252.4036 I-0.0063 J0.75
G2 Y253.7026 I0.375 J0.6495
G2 X32.3786 Y253.0531 I0.375 J-0.6495
G2 X31.6349 Y252.3031 I-0.75 J0.0
G0 Z3.0
G0 X73.9074 Y186.5217
G1 F300.0 Z-1.0
G2 F800.0 X73.9378 Y186.5402 I0.4055 J-0.631
G2 X75.0628 Y185.8907 I0.375 J-0.6495
G2 X73.9378 Y185.2412 I-0.75 J0.0
G2 X73.9074 Y186.5217 I0.375 J0.6495
G1 F300.0 Z-2.0
G2 F800.0 X73.9378 Y186.5402 I0.4055 J-0.631
G2 X75.0628 Y185.8907 I0.375 J-0.6495
G2 X73.9378 Y185.2412 I-0.75 J0.0
G2 X73.9074 Y186.5217 I0.375 J0.6495
G1 F300.0 Z-3.0
G2 F800.0 X73.9378 Y186.5402 I0.4055 J-0.631
G2 X75.0628 Y185.8907 I0.375 J-0.6495
G2 X73.9378 Y185.2412 I-0.75 J0.0
G2 X73.9074 Y186.5217 I0.375 J0.6495
G1 F300.0 Z-4.0
G2 F800.0 X73.9378 Y186.5402 I0.4055 J-0.631
G2 X75.0628 Y185.8907 I0.375 J-0.6495
G2 X73.9378 Y185.2412 I-0.75 J0.0
G2 X73.9074 Y186.5217 I0.375 J0.6495
G1 F300.0 Z-5.0
G2 F800.0 X73.9378 Y186.5402 I0.4055 J-0.631
G2 X75.0628 Y185.8907 I0.375 J-0.6495
G2 X73.9378 Y185.2412 I-0.75 J0.0
G2 X73.9074 Y186.5217 I0.375 J0.6495
G1 F300.0 Z-6.0
G2 F800.0 X73.9378 Y186.5402 I0.4055 J-0.631
G2 X75.0628 Y185.8907 I0.375 J-0.6495
G2 X73.9378 Y185.2412 I-0.75 J0.0
G2 X73.9074 Y186.5217 I0.375 J0.6495
G0 Z3.0
G0 X124.941 Y208.7535
G1 F300.0 Z-1.0
G2 F800.0 X125.2536 Y209.7026 I0.6876 J0.2995
G2 X126.3786 Y209.0531 I0.375 J-0.6495
G2 X125.2536 Y208.4036 I-0.75 J0.0
G2 X124.941 Y208.7535 I0.375 J0.6495
G1 F300.0 Z-2.0
G2 F800.0 X125.2536 Y209.7026 I0.6876 J0.2995
G2 X126.3786 Y209.0531 I0.375 J-0.6495
G2 X125.2536 Y208.4036 I-0.75 J0.0
G2 X124.941 Y208.7535 I0.375 J0.6495
G1 F300.0 Z-3.0
G2 F800.0 X125.2536 Y209.7026 I0.6876 J0.2995
G2 X126.3786 Y209.0531 I0.375 J-0.6495
G2 X125.2536 Y208.4036 I-0.75 J0.0
G2 X124.941 Y208.7535 I0.375 J0.6495
G1 F300.0 Z-4.0
G2 F800.0 X125.2536 Y209.7026 I0.6876 J0.2995
G2 X126.3786 Y209.0531 I0.375 J-0.6495
G2 X125.2536 Y208.4036 I-0.75 J0.0
G2 X124.941 Y208.7535 I0.375 J0.6495
G1 F300.0 Z-5.0
G2 F800.0 X125.2536 Y209.7026 I0.6876 J0.2995
G2 X126.3786 Y209.0531 I0.375 J-0.6495
G2 X125.2536 Y208.4036 I-0.75 J0.0
G2 X124.941 Y208.7535 I0.375 J0.6495
G1 F300.0 Z-6.0
G2 F800.0 X125.2536 Y209.7026 I0.6876 J0.2995
G2 X126.3786 Y209.0531 I0.375 J-0.6495
G2 X125.2536 Y208.4036 I-0.75 J0.0
G2 X124.941 Y208.7535 I0.375 J0.6495
G0 Z3.0
G0 X125.6169 Y252.3032
G1 F300.0 Z-1.0
G2 F800.0 X125.2536 Y252.4036 I0.0116 J0.7499
G2 Y253.7026 I0.375 J0.6495
G2 X126.3786 Y253.0531 I0.375 J-0.6495
G2 X125.6169 Y252.3032 I-0.75 J0.0
G1 F300.0 Z-2.0
G2 F800.0 X125.2536 Y252.4036 I0.0116 J0.7499
G2 Y253.7026 I0.375 J0.6495
G2 X126.3786 Y253.0531 I0.375 J-0.6495
G2 X125.6169 Y252.3032 I-0.75 J0.0
G1 F300.0 Z-3.0
G2 F800.0 X125.2536 Y252.4036 I0.0116 J0.7499
G2 Y253.7026 I0.375 J0.6495
G2 X126.3786 Y253.0531 I0.375 J-0.6495
G2 X125.6169 Y252.3032 I-0.75 J0.0
G1 F300.0 Z-4.0
G2 F800.0 X125.2536 Y252.4036 I0.0116 J0.7499
G2 Y253.7026 I0.375 J0.6495
G2 X126.3786 Y253.0531 I0.375 J-0.6495
G2 X125.6169 Y252.3032 I-0.75 J0.0
G1 F300.0 Z-5.0
G2 F800.0 X125.2536 Y252.4036 I0.0116 J0.7499
G2 Y253.7026 I0.375 J0.6495
G2 X126.3786 Y253.0531 I0.375 J-0.6495
G2 X125.6169 Y252.3032 I-0.75 J0.0
G1 F300.0 Z-6.0
G2 F800.0 X125.2536 Y252.4036 I0.0116 J0.7499
G2 Y253.7026 I0.375 J0.6495
G2 X126.3786 Y253.0531 I0.375 J-0.6495
G2 X125.6169 Y252.3032 I-0.75 J0.0
G0 Z3.0
G0 X122.0336 Y278.7523
G1 F300.0 Z-1.0
G2 F800.0 X121.875 Y278.7835 I-0.0336 J0.2477
G2 Y279.2165 I0.125 J0.2165
G2 X122.25 Y279.0 I0.125 J-0.2165
G2 X122.0336 Y278.7523 I-0.25 J0.0
G1 F300.0 Z-2.0
G2 F800.0 X121.875 Y278.7835 I-0.0336 J0.2477
G2 Y279.2165 I0.125 J0.2165
G2 X122.25 Y279.0 I0.125 J-0.2165
G2 X122.0336 Y278.7523 I-0.25 J0.0
G1 F300.0 Z-3.0
G2 F800.0 X121.875 Y278.7835 I-0.0336 J0.2477
G2 Y279.2165 I0.125 J0.2165
G2 X122.25 Y279.0 I0.125 J-0.2165
G2 X122.0336 Y278.7523 I-0.25 J0.0
G1 F300.0 Z-4.0
G2 F800.0 X121.875 Y278.7835 I-0.0336 J0.2477
G2 Y279.2165 I0.125 J0.2165
G2 X122.25 Y279.0 I0.125 J-0.2165
G2 X122.0336 Y278.7523 I-0.25 J0.0
G1 F300.0 Z-5.0
G2 F800.0 X121.875 Y278.7835 I-0.0336 J0.2477
G2 Y279.2165 I0.125 J0.2165
G2 X122.25 Y279.0 I0.125 J-0.2165
G2 X122.0336 Y278.7523 I-0.25 J0.0
G1 F300.0 Z-6.0
G2 F800.0 X121.875 Y278.7835 I-0.0336 J0.2477
G2 Y279.2165 I0.125 J0.2165
G2 X122.25 Y279.0 I0.125 J-0.2165
G2 X122.0336 Y278.7523 I-0.25 J0.0
G0 Z3.0
G0 X122.0153 Y283.25
G1 F300.0 Z-1.0
G2 F800.0 X120.125 Y283.7524 I-0.0153 J3.75
G2 Y290.2476 I1.875 J3.2476
G2 X125.75 Y287.0 I1.875 J-3.2476
G2 X122.0153 Y283.25 I-3.75 J0.0
G1 F300.0 Z-2.0
G2 F800.0 X120.125 Y283.7524 I-0.0153 J3.75
G2 Y290.2476 I1.875 J3.2476
G2 X125.75 Y287.0 I1.875 J-3.2476
G2 X122.0153 Y283.25 I-3.75 J0.0
G1 F300.0 Z-3.0
G2 F800.0 X120.125 Y283.7524 I-0.0153 J3.75
G2 Y290.2476 I1.875 J3.2476
G2 X125.75 Y287.0 I1.875 J-3.2476
G2 X122.0153 Y283.25 I-3.75 J0.0
G1 F300.0 Z-4.0
G2 F800.0 X120.125 Y283.7524 I-0.0153 J3.75
G2 Y290.2476 I1.875 J3.2476
G2 X125.75 Y287.0 I1.875 J-3.2476
G2 X122.0153 Y283.25 I-3.75 J0.0
G1 F300.0 Z-5.0
G2 F800.0 X120.125 Y283.7524 I-0.0153 J3.75
G2 Y290.2476 I1.875 J3.2476
G2 X125.75 Y287.0 I1.875 J-3.2476
G2 X122.0153 Y283.25 I-3.75 J0.0
G1 F300.0 Z-6.0
G2 F800.0 X120.125 Y283.7524 I-0.0153 J3.75
G2 Y290.2476 I1.875 J3.2476
G2 X125.75 Y287.0 I1.875 J-3.2476
G2 X122.0153 Y283.25 I-3.75 J0.0
G0 Z3.0
G0 X129.7737 Y286.8937
G1 F300.0 Z-1.0
G2 F800.0 X129.875 Y287.2165 I0.2263 J0.1063
G2 X130.25 Y287.0 I0.125 J-0.2165
G2 X129.875 Y286.7835 I-0.25 J0.0
G2 X129.7737 Y286.8937 I0.125 J0.2165
G1 F300.0 Z-2.0
G2 F800.0 X129.875 Y287.2165 I0.2263 J0.1063
G2 X130.25 Y287.0 I0.125 J-0.2165
G2 X129.875 Y286.7835 I-0.25 J0.0
G2 X129.7737 Y286.8937 I0.125 J0.2165
G1 F300.0 Z-3.0
G2 F800.0 X129.875 Y287.2165 I0.2263 J0.1063
G2 X130.25 Y287.0 I0.125 J-0.2165
G2 X129.875 Y286.7835 I-0.25 J0.0
G2 X129.7737 Y286.8937 I0.125 J0.2165
G1 F300.0 Z-4.0
G2 F800.0 X129.875 Y287.2165 I0.2263 J0.1063
G2 X130.25 Y287.0 I0.125 J-0.2165
G2 X129.875 Y286.7835 I-0.25 J0.0
G2 X129.7737 Y286.8937 I0.125 J0.2165
G1 F300.0 Z-5.0
G2 F800.0 X129.875 Y287.2165 I0.2263 J0.1063
G2 X130.25 Y287.0 I0.125 J-0.2165
G2 X129.875 Y286.7835 I-0.25 J0.0
G2 X129.7737 Y286.8937 I0.125 J0.2165
G1 F300.0 Z-6.0
G2 F800.0 X129.875 Y287.2165 I0.2263 J0.1063
G2 X130.25 Y287.0 I0.125 J-0.2165
G2 X129.875 Y286.7835 I-0.25 J0.0
G2 X129.7737 Y286.8937 I0.125 J0.2165
G0 Z3.0
G0 X122.173 Y294.8196
G1 F300.0 Z-1.0
G2 F800.0 X121.875 Y294.7835 I-0.173 J0.1804
G2 Y295.2165 I0.125 J0.2165
G2 X122.25 Y295.0 I0.125 J-0.2165
G2 X122.173 Y294.8196 I-0.25 J0.0
G1 F300.0 Z-2.0
G2 F800.0 X121.875 Y294.7835 I-0.173 J0.1804
G2 Y295.2165 I0.125 J0.2165
G2 X122.25 Y295.0 I0.125 J-0.2165
G2 X122.173 Y294.8196 I-0.25 J0.0
G1 F300.0 Z-3.0
G2 F800.0 X121.875 Y294.7835 I-0.173 J0.1804
G2 Y295.2165 I0.125 J0.2165
G2 X122.25 Y295.0 I0.125 J-0.2165
G2 X122.173 Y294.8196 I-0.25 J0.0
G1 F300.0 Z-4.0
G2 F800.0 X121.875 Y294.7835 I-0.173 J0.1804
G2 Y295.2165 I0.125 J0.2165
G2 X122.25 Y295.0 I0.125 J-0.2165
G2 X122.173 Y294.8196 I-0.25 J0.0
G1 F300.0 Z-5.0
G2 F800.0 X121.875 Y294.7835 I-0.173 J0.1804
G2 Y295.2165 I0.125 J0.2165
G2 X122.25 Y295.0 I0.125 J-0.2165
G2 X122.173 Y294.8196 I-0.25 J0.0
G1 F300.0 Z-6.0
G2 F800.0 X121.875 Y294.7835 I-0.173 J0.1804
G2 Y295.2165 I0.125 J0.2165
G2 X122.25 Y295.0 I0.125 J-0.2165
G2 X122.173 Y294.8196 I-0.25 J0.0
G0 Z3.0
G0 X114.1806 Y287.1728
G1 F300.0 Z-1.0
G2 F800.0 X114.25 Y287.0 I-0.1806 J-0.1728
G2 X113.875 Y286.7835 I-0.25 J0.0
G2 Y287.2165 I0.125 J0.2165
G2 X114.1806 Y287.1728 I0.125 J-0.2165
G1 F300.0 Z-2.0
G2 F800.0 X114.25 Y287.0 I-0.1806 J-0.1728
G2 X113.875 Y286.7835 I-0.25 J0.0
G2 Y287.2165 I0.125 J0.2165
G2 X114.1806 Y287.1728 I0.125 J-0.2165
G1 F300.0 Z-3.0
G2 F800.0 X114.25 Y287.0 I-0.1806 J-0.1728
G2 X113.875 Y286.7835 I-0.25 J0.0
G2 Y287.2165 I0.125 J0.2165
G2 X114.1806 Y287.1728 I0.125 J-0.2165
G1 F300.0 Z-4.0
G2 F800.0 X114.25 Y287.0 I-0.1806 J-0.1728
G2 X113.875 Y286.7835 I-0.25 J0.0
G2 Y287.2165 I0.125 J0.2165
G2 X114.1806 Y287.1728 I0.125 J-0.2165
G1 F300.0 Z-5.0
G2 F800.0 X114.25 Y287.0 I-0.1806 J-0.1728
G2 X113.875 Y286.7835 I-0.25 J0.0
G2 Y287.2165 I0.125 J0.2165
G2 X114.1806 Y287.1728 I0.125 J-0.2165
G1 F300.0 Z-6.0
G2 F800.0 X114.25 Y287.0 I-0.1806 J-0.1728
G2 X113.875 Y286.7835 I-0.25 J0.0
G2 Y287.2165 I0.125 J0.2165
G2 X114.1806 Y287.1728 I0.125 J-0.2165
G0 Z3.0
G0 X83.8954 Y13.6362
G1 F300.0 Z-1.0
G2 F800.0 X84.5628 Y12.8907 I-0.0825 J-0.7454
G2 X83.4378 Y12.2412 I-0.75 J0.0
G2 Y13.5402 I0.375 J0.6495
G2 X83.8954 Y13.6362 I0.375 J-0.6495
G1 F300.0 Z-2.0
G2 F800.0 X84.5628 Y12.8907 I-0.0825 J-0.7454
G2 X83.4378 Y12.2412 I-0.75 J0.0
G2 Y13.5402 I0.375 J0.6495
G2 X83.8954 Y13.6362 I0.375 J-0.6495
G1 F300.0 Z-3.0
G2 F800.0 X84.5628 Y12.8907 I-0.0825 J-0.7454
G2 X83.4378 Y12.2412 I-0.75 J0.0
G2 Y13.5402 I0.375 J0.6495
G2 X83.8954 Y13.6362 I0.375 J-0.6495
G1 F300.0 Z-4.0
G2 F800.0 X84.5628 Y12.8907 I-0.0825 J-0.7454
G2 X83.4378 Y12.2412 I-0.75 J0.0
G2 Y13.5402 I0.375 J0.6495
G2 X83.8954 Y13.6362 I0.375 J-0.6495
G1 F300.0 Z-5.0
G2 F800.0 X84.5628 Y12.8907 I-0.0825 J-0.7454
G2 X83.4378 Y12.2412 I-0.75 J0.0
G2 Y13.5402 I0.375 J0.6495
G2 X83.8954 Y13.6362 I0.375 J-0.6495
G1 F300.0 Z-6.0
G2 F800.0 X84.5628 Y12.8907 I-0.0825 J-0.7454
G2 X83.4378 Y12.2412 I-0.75 J0.0
G2 Y13.5402 I0.375 J0.6495
G2 X83.8954 Y13.6362 I0.375 J-0.6495
G0 Z3.0
G0 X35.5627 Y12.9021
G1 F300.0 Z-1.0
G2 F800.0 X35.5628 Y12.8907 I-0.7499 J-0.0114
G2 X34.4378 Y12.2412 I-0.75 J0.0
G2 Y13.5402 I0.375 J0.6495
G2 X35.5627 Y12.9021 I0.375 J-0.6495
G1 F300.0 Z-2.0
G2 F800.0 X35.5628 Y12.8907 I-0.7499 J-0.0114
G2 X34.4378 Y12.2412 I-0.75 J0.0
G2 Y13.5402 I0.375 J0.6495
G2 X35.5627 Y12.9021 I0.375 J-0.6495
G1 F300.0 Z-3.0
G2 F800.0 X35.5628 Y12.8907 I-0.7499 J-0.0114
G2 X34.4378 Y12.2412 I-0.75 J0.0
G2 Y13.5402 I0.375 J0.6495
G2 X35.5627 Y12.9021 I0.375 J-0.6495
G1 F300.0 Z-4.0
G2 F800.0 X35.5628 Y12.8907 I-0.7499 J-0.0114
G2 X34.4378 Y12.2412 I-0.75 J0.0
G2 Y13.5402 I0.375 J0.6495
G2 X35.5627 Y12.9021 I0.375 J-0.6495
G1 F300.0 Z-5.0
G2 F800.0 X35.5628 Y12.8907 I-0.7499 J-0.0114
G2 X34.4378 Y12.2412 I-0.75 J0.0
G2 Y13.5402 I0.375 J0.6495
G2 X35.5627 Y12.9021 I0.375 J-0.6495
G1 F300.0 Z-6.0
G2 F800.0 X35.5628 Y12.8907 I-0.7499 J-0.0114
G2 X34.4378 Y12.2412 I-0.75 J0.0
G2 Y13.5402 I0.375 J0.6495
G2 X35.5627 Y12.9021 I0.375 J-0.6495
( Contour2 )
S1000
G0 Z3.0
G0 X115.75 Y287.0
G1 F300.0 Z-1.0
G3 F800.0 X113.125 Y288.5155 I-1.75 J0.0
G3 Y285.4845 I0.875 J-1.5155
G3 X115.75 Y287.0 I0.875 J1.5155
G1 F300.0 Z-2.0
G3 F800.0 X113.125 Y288.5155 I-1.75 J0.0
G3 Y285.4845 I0.875 J-1.5155
G3 X115.75 Y287.0 I0.875 J1.5155
G1 F300.0 Z-3.0
G3 F800.0 X113.125 Y288.5155 I-1.75 J0.0
G3 Y285.4845 I0.875 J-1.5155
G3 X115.75 Y287.0 I0.875 J1.5155
G0 Z3.0
G0 X120.9226 Y280.379
G1 F300.0 Z-1.0
G3 F800.0 X121.125 Y277.4845 I1.0774 J-1.379
G3 X123.75 Y279.0 I0.875 J1.5155
G3 X121.125 Y280.5155 I-1.75 J0.0
G3 X120.9226 Y280.379 I0.875 J-1.5155
G1 F300.0 Z-2.0
G3 F800.0 X121.125 Y277.4845 I1.0774 J-1.379
G3 X123.75 Y279.0 I0.875 J1.5155
G3 X121.125 Y280.5155 I-1.75 J0.0
G3 X120.9226 Y280.379 I0.875 J-1.5155
G1 F300.0 Z-3.0
G3 F800.0 X121.125 Y277.4845 I1.0774 J-1.379
G3 X123.75 Y279.0 I0.875 J1.5155
G3 X121.125 Y280.5155 I-1.75 J0.0
G3 X120.9226 Y280.379 I0.875 J-1.5155
G0 Z3.0
G0 X128.5861 Y285.9687
G1 F300.0 Z-1.0
G3 F800.0 X129.125 Y285.4845 I1.4139 J1.0313
G3 X131.75 Y287.0 I0.875 J1.5155
G3 X129.125 Y288.5155 I-1.75 J0.0
G3 X128.5861 Y285.9687 I0.875 J-1.5155
G1 F300.0 Z-2.0
G3 F800.0 X129.125 Y285.4845 I1.4139 J1.0313
G3 X131.75 Y287.0 I0.875 J1.5155
G3 X129.125 Y288.5155 I-1.75 J0.0
G3 X128.5861 Y285.9687 I0.875 J-1.5155
G1 F300.0 Z-3.0
G3 F800.0 X129.125 Y285.4845 I1.4139 J1.0313
G3 X131.75 Y287.0 I0.875 J1.5155
G3 X129.125 Y288.5155 I-1.75 J0.0
G3 X128.5861 Y285.9687 I0.875 J-1.5155
G0 Z3.0
G0 X123.0311 Y293.586
G1 F300.0 Z-1.0
G3 F800.0 X123.75 Y295.0 I-1.0311 J1.414
G3 X121.125 Y296.5155 I-1.75 J0.0
G3 Y293.4845 I0.875 J-1.5155
G3 X123.0311 Y293.586 I0.875 J1.5155
G1 F300.0 Z-2.0
G3 F800.0 X123.75 Y295.0 I-1.0311 J1.414
G3 X121.125 Y296.5155 I-1.75 J0.0
G3 Y293.4845 I0.875 J-1.5155
G3 X123.0311 Y293.586 I0.875 J1.5155
G1 F300.0 Z-3.0
G3 F800.0 X123.75 Y295.0 I-1.0311 J1.414
G3 X121.125 Y296.5155 I-1.75 J0.0
G3 Y293.4845 I0.875 J-1.5155
G3 X123.0311 Y293.586 I0.875 J1.5155
G0 Z3.0
G0 X125.4847 Y255.2985
G1 F300.0 Z-1.0
G3 F800.0 X124.5036 Y255.0016 I0.1439 J-2.2454
G3 Y251.1045 I1.125 J-1.9486
G3 X127.8786 Y253.0531 I1.125 J1.9486
G3 X125.4847 Y255.2985 I-2.25 J0.0
G1 F300.0 Z-2.0
G3 F800.0 X124.5036 Y255.0016 I0.1439 J-2.2454
G3 Y251.1045 I1.125 J-1.9486
G3 X127.8786 Y253.0531 I1.125 J1.9486
G3 X125.4847 Y255.2985 I-2.25 J0.0
G1 F300.0 Z-3.0
G3 F800.0 X124.5036 Y255.0016 I0.1439 J-2.2454
G3 Y251.1045 I1.125 J-1.9486
G3 X127.8786 Y253.0531 I1.125 J1.9486
G3 X125.4847 Y255.2985 I-2.25 J0.0
G0 Z3.0
G0 X125.6216 Y211.3031
G1 F300.0 Z-1.0
G3 F800.0 X124.5036 Y211.0016 I0.007 J-2.25
G3 Y207.1045 I1.125 J-1.9486
G3 X127.8786 Y209.0531 I1.125 J1.9486
G3 X125.6216 Y211.3031 I-2.25 J0.0
G1 F300.0 Z-2.0
G3 F800.0 X124.5036 Y211.0016 I0.007 J-2.25
G3 Y207.1045 I1.125 J-1.9486
G3 X127.8786 Y209.0531 I1.125 J1.9486
G3 X125.6216 Y211.3031 I-2.25 J0.0
G1 F300.0 Z-3.0
G3 F800.0 X124.5036 Y211.0016 I0.007 J-2.25
G3 Y207.1045 I1.125 J-1.9486
G3 X127.8786 Y209.0531 I1.125 J1.9486
G3 X125.6216 Y211.3031 I-2.25 J0.0
G0 Z3.0
G0 X76.3291 Y186.8893
G1 F300.0 Z-1.0
G3 F800.0 X73.1878 Y187.8393 I-2.0163 J-0.9986
G3 Y183.9422 I1.125 J-1.9486
G3 X76.5628 Y185.8907 I1.125 J1.9486
G3 X76.3291 Y186.8893 I-2.25 J0.0
G1 F300.0 Z-2.0
G3 F800.0 X73.1878 Y187.8393 I-2.0163 J-0.9986
G3 Y183.9422 I1.125 J-1.9486
G3 X76.5628 Y185.8907 I1.125 J1.9486
G3 X76.3291 Y186.8893 I-2.25 J0.0
G1 F300.0 Z-3.0
G3 F800.0 X73.1878 Y187.8393 I-2.0163 J-0.9986
G3 Y183.9422 I1.125 J-1.9486
G3 X76.5628 Y185.8907 I1.125 J1.9486
G3 X76.3291 Y186.8893 I-2.25 J0.0
G0 Z3.0
G0 X46.5617 Y185.9609
G1 F300.0 Z-1.0
G3 F800.0 X43.1878 Y187.8393 I-2.2489 J-0.0701
G3 Y183.9422 I1.125 J-1.9486
G3 X46.5628 Y185.8907 I1.125 J1.9486
G3 X46.5617 Y185.9609 I-2.25 J0.0
G1 F300.0 Z-2.0
G3 F800.0 X43.1878 Y187.8393 I-2.2489 J-0.0701
G3 Y183.9422 I1.125 J-1.9486
G3 X46.5628 Y185.8907 I1.125 J1.9486
G3 X46.5617 Y185.9609 I-2.25 J0.0
G1 F300.0 Z-3.0
G3 F800.0 X43.1878 Y187.8393 I-2.2489 J-0.0701
G3 Y183.9422 I1.125 J-1.9486
G3 X46.5628 Y185.8907 I1.125 J1.9486
G3 X46.5617 Y185.9609 I-2.25 J0.0
G0 Z3.0
G0 X32.8504 Y207.1637
G1 F300.0 Z-1.0
G3 F800.0 X33.8786 Y209.0531 I-1.2218 J1.8894
G3 X30.5036 Y211.0016 I-2.25 J0.0
G3 Y207.1045 I1.125 J-1.9486
G3 X32.8504 Y207.1637 I1.125 J1.9486
G1 F300.0 Z-2.0
G3 F800.0 X33.8786 Y209.0531 I-1.2218 J1.8894
G3 X30.5036 Y211.0016 I-2.25 J0.0
G3 Y207.1045 I1.125 J-1.9486
G3 X32.8504 Y207.1637 I1.125 J1.9486
G1 F300.0 Z-3.0
G3 F800.0 X33.8786 Y209.0531 I-1.2218 J1.8894
G3 X30.5036 Y211.0016 I-2.25 J0.0
G3 Y207.1045 I1.125 J-1.9486
G3 X32.8504 Y207.1637 I1.125 J1.9486
G0 Z3.0
G0 X31.6884 Y250.8039
G1 F300.0 Z-1.0
G3 F800.0 X33.8786 Y253.0531 I-0.0599 J2.2492
G3 X30.5036 Y255.0016 I-2.25 J0.0
G3 Y251.1045 I1.125 J-1.9486
G3 X31.6884 Y250.8039 I1.125 J1.9486
G1 F300.0 Z-2.0
G3 F800.0 X33.8786 Y253.0531 I-0.0599 J2.2492
G3 X30.5036 Y255.0016 I-2.25 J0.0
G3 Y251.1045 I1.125 J-1.9486
G3 X31.6884 Y250.8039 I1.125 J1.9486
G1 F300.0 Z-3.0
G3 F800.0 X33.8786 Y253.0531 I-0.0599 J2.2492
G3 X30.5036 Y255.0016 I-2.25 J0.0
G3 Y251.1045 I1.125 J-1.9486
G3 X31.6884 Y250.8039 I1.125 J1.9486
G0 Z3.0
G0 X34.7833 Y15.1405
G1 F300.0 Z-1.0
G3 F800.0 X33.6878 Y14.8393 I0.0295 J-2.2498
G3 Y10.9422 I1.125 J-1.9486
G3 X37.0628 Y12.8907 I1.125 J1.9486
G3 X34.7833 Y15.1405 I-2.25 J0.0
G1 F300.0 Z-2.0
G3 F800.0 X33.6878 Y14.8393 I0.0295 J-2.2498
G3 Y10.9422 I1.125 J-1.9486
G3 X37.0628 Y12.8907 I1.125 J1.9486
G3 X34.7833 Y15.1405 I-2.25 J0.0
G1 F300.0 Z-3.0
G3 F800.0 X33.6878 Y14.8393 I0.0295 J-2.2498
G3 Y10.9422 I1.125 J-1.9486
G3 X37.0628 Y12.8907 I1.125 J1.9486
G3 X34.7833 Y15.1405 I-2.25 J0.0
G0 Z3.0
G0 X81.5652 Y12.9939
G1 F300.0 Z-1.0
G3 F800.0 X82.6878 Y10.9422 I2.2476 J-0.1031
G3 X86.0628 Y12.8907 I1.125 J1.9486
G3 X82.6878 Y14.8393 I-2.25 J0.0
G3 X81.5652 Y12.9939 I1.125 J-1.9486
G1 F300.0 Z-2.0
G3 F800.0 X82.6878 Y10.9422 I2.2476 J-0.1031
G3 X86.0628 Y12.8907 I1.125 J1.9486
G3 X82.6878 Y14.8393 I-2.25 J0.0
G3 X81.5652 Y12.9939 I1.125 J-1.9486
G1 F300.0 Z-3.0
G3 F800.0 X82.6878 Y10.9422 I2.2476 J-0.1031
G3 X86.0628 Y12.8907 I1.125 J1.9486
G3 X82.6878 Y14.8393 I-2.25 J0.0
G3 X81.5652 Y12.9939 I1.125 J-1.9486
( Contour3 )
S1000
G0 Z3.0
G0 X20.0628 Y76.6407
G1 F300.0 Z-1.0
G1 F800.0 Y85.1407
G1 X19.8432 Y85.3604
G1 X20.0628 Y85.1407
G1 X38.5628
G1 X38.7825 Y85.3604
G1 X38.5628 Y85.1407
G1 Y76.6407
G1 X38.7825 Y76.421
G1 X38.5628 Y76.6407
G1 X20.0628
G1 X19.8432 Y76.421
G1 X20.0628 Y76.6407
G1 F300.0 Z-2.0
G1 F800.0 Y85.1407
G1 X19.8432 Y85.3604
G1 X20.0628 Y85.1407
G1 X38.5628
G1 X38.7825 Y85.3604
G1 X38.5628 Y85.1407
G1 Y76.6407
G1 X38.7825 Y76.421
G1 X38.5628 Y76.6407
G1 X20.0628
G1 X19.8432 Y76.421
G1 X20.0628 Y76.6407
G1 F300.0 Z-3.0
G1 F800.0 Y85.1407
G1 X19.8432 Y85.3604
G1 X20.0628 Y85.1407
G1 X38.5628
G1 X38.7825 Y85.3604
G1 X38.5628 Y85.1407
G1 Y76.6407
G1 X38.7825 Y76.421
G1 X38.5628 Y76.6407
G1 X20.0628
G1 X19.8432 Y76.421
G1 X20.0628 Y76.6407
G1 F300.0 Z-4.0
G1 F800.0 Y85.1407
G1 X19.8432 Y85.3604
G1 X20.0628 Y85.1407
G1 X38.5628
G1 X38.7825 Y85.3604
G1 X38.5628 Y85.1407
G1 Y76.6407
G1 X38.7825 Y76.421
G1 X38.5628 Y76.6407
G1 X20.0628
G1 X19.8432 Y76.421
G1 X20.0628 Y76.6407
G1 F300.0 Z-5.0
G1 F800.0 Y85.1407
G1 X19.8432 Y85.3604
G1 X20.0628 Y85.1407
G1 X38.5628
G1 X38.7825 Y85.3604
G1 X38.5628 Y85.1407
G1 Y76.6407
G1 X38.7825 Y76.421
G1 X38.5628 Y76.6407
G1 X20.0628
G1 X19.8432 Y76.421
G1 X20.0628 Y76.6407
G1 F300.0 Z-6.0
G1 F800.0 Y85.1407
G1 X19.8432 Y85.3604
G1 X20.0628 Y85.1407
G1 X38.5628
G1 X38.7825 Y85.3604
G1 X38.5628 Y85.1407
G1 Y76.6407
G1 X38.7825 Y76.421
G1 X38.5628 Y76.6407
G1 X20.0628
G1 X19.8432 Y76.421
G1 X20.0628 Y76.6407
G0 Z3.0
G0 X79.8432 Y76.421
G1 F300.0 Z-1.0
G1 F800.0 X80.0628 Y76.6407
G1 Y85.1407
G1 X79.8432 Y85.3604
G1 X80.0628 Y85.1407
G1 X98.5628
G1 X98.7825 Y85.3604
G1 X98.5628 Y85.1407
G1 Y76.6407
G1 X98.7825 Y76.421
G1 X98.5628 Y76.6407
G1 X80.0628
G1 X79.8432 Y76.421
G1 F300.0 Z-2.0
G1 F800.0 X80.0628 Y76.6407
G1 Y85.1407
G1 X79.8432 Y85.3604
G1 X80.0628 Y85.1407
G1 X98.5628
G1 X98.7825 Y85.3604
G1 X98.5628 Y85.1407
G1 Y76.6407
G1 X98.7825 Y76.421
G1 X98.5628 Y76.6407
G1 X80.0628
G1 X79.8432 Y76.421
G1 F300.0 Z-3.0
G1 F800.0 X80.0628 Y76.6407
G1 Y85.1407
G1 X79.8432 Y85.3604
G1 X80.0628 Y85.1407
G1 X98.5628
G1 X98.7825 Y85.3604
G1 X98.5628 Y85.1407
G1 Y76.6407
G1 X98.7825 Y76.421
G1 X98.5628 Y76.6407
G1 X80.0628
G1 X79.8432 Y76.421
G1 F300.0 Z-4.0
G1 F800.0 X80.0628 Y76.6407
G1 Y85.1407
G1 X79.8432 Y85.3604
G1 X80.0628 Y85.1407
G1 X98.5628
G1 X98.7825 Y85.3604
G1 X98.5628 Y85.1407
G1 Y76.6407
G1 X98.7825 Y76.421
G1 X98.5628 Y76.6407
G1 X80.0628
G1 X79.8432 Y76.421
G1 F300.0 Z-5.0
G1 F800.0 X80.0628 Y76.6407
G1 Y85.1407
G1 X79.8432 Y85.3604
G1 X80.0628 Y85.1407
G1 X98.5628
G1 X98.7825 Y85.3604
G1 X98.5628 Y85.1407
G1 Y76.6407
G1 X98.7825 Y76.421
G1 X98.5628 Y76.6407
G1 X80.0628
G1 X79.8432 Y76.421
G1 F300.0 Z-6.0
G1 F800.0 X80.0628 Y76.6407
G1 Y85.1407
G1 X79.8432 Y85.3604
G1 X80.0628 Y85.1407
G1 X98.5628
G1 X98.7825 Y85.3604
G1 X98.5628 Y85.1407
G1 Y76.6407
G1 X98.7825 Y76.421
G1 X98.5628 Y76.6407
G1 X80.0628
G1 X79.8432 Y76.421
( Contour4 )
S1000
G0 Z3.0
G0 X11.25 Y306.0
G1 F300.0 Z-1.0
G1 F800.0 Y291.0
G3 X12.0 Y290.25 I0.75 J0.0
G1 X97.0
G3 X97.75 Y291.0 I0.0 J0.75
G1 Y306.0
G3 X97.0 Y306.75 I-0.75 J0.0
G1 X12.0
G3 X11.25 Y306.0 I0.0 J-0.75
G1 F300.0 Z-2.0
G1 F800.0 Y291.0
G3 X12.0 Y290.25 I0.75 J0.0
G1 X97.0
G3 X97.75 Y291.0 I0.0 J0.75
G1 Y306.0
G3 X97.0 Y306.75 I-0.75 J0.0
G1 X12.0
G3 X11.25 Y306.0 I0.0 J-0.75
G1 F300.0 Z-3.0
G1 F800.0 Y291.0
G3 X12.0 Y290.25 I0.75 J0.0
G1 X97.0
G3 X97.75 Y291.0 I0.0 J0.75
G1 Y306.0
G3 X97.0 Y306.75 I-0.75 J0.0
G1 X12.0
G3 X11.25 Y306.0 I0.0 J-0.75
G1 F300.0 Z-4.0
G1 F800.0 Y291.0
G3 X12.0 Y290.25 I0.75 J0.0
G1 X28.0833
G1 X30.3333 Z-3.0
G1 X32.5833 Z-4.0
G1 X77.75
G1 X80.0 Z-3.0
G1 X82.25 Z-4.0
G1 X97.0
G3 X97.75 Y291.0 I0.0 J0.75
G1 Y306.0
G3 X97.0 Y306.75 I-0.75 J0.0
G1 X61.25
G1 X59.0 Z-3.0
G1 X56.75 Z-4.0
G1 X12.0
G3 X11.25 Y306.0 I0.0 J-0.75
G1 F300.0 Z-5.0
G1 F800.0 Y291.0
G3 X12.0 Y290.25 I0.75 J0.0
G1 X28.0833
G1 X30.3333 Z-3.0
G1 X32.5833 Z-5.0
G1 X77.75
G1 X80.0 Z-3.0
G1 X82.25 Z-5.0
G1 X97.0
G3 X97.75 Y291.0 I0.0 J0.75
G1 Y306.0
G3 X97.0 Y306.75 I-0.75 J0.0
G1 X61.25
G1 X59.0 Z-3.0
G1 X56.75 Z-5.0
G1 X12.0
G3 X11.25 Y306.0 I0.0 J-0.75
G1 F300.0 Z-6.0
G1 F800.0 Y291.0
G3 X12.0 Y290.25 I0.75 J0.0
G1 X28.0833
G1 X30.3333 Z-3.0
G1 X32.5833 Z-6.0
G1 X77.75
G1 X80.0 Z-3.0
G1 X82.25 Z-6.0
G1 X97.0
G3 X97.75 Y291.0 I0.0 J0.75
G1 Y306.0
G3 X97.0 Y306.75 I-0.75 J0.0
G1 X61.25
G1 X59.0 Z-3.0
G1 X56.75 Z-6.0
G1 X12.0
G3 X11.25 Y306.0 I0.0 J-0.75
G0 Z3.0
G0 X11.9766 Y282.7496
G1 F300.0 Z-1.0
G3 F800.0 X11.25 Y282.0 I0.0234 J-0.7496
G1 Y267.0
G3 X12.0 Y266.25 I0.75 J0.0
G1 X97.0
G3 X97.75 Y267.0 I0.0 J0.75
G1 Y282.0
G3 X97.0 Y282.75 I-0.75 J0.0
G1 X12.0
G3 X11.9766 Y282.7496 I0.0 J-0.75
G1 F300.0 Z-2.0
G3 F800.0 X11.25 Y282.0 I0.0234 J-0.7496
G1 Y267.0
G3 X12.0 Y266.25 I0.75 J0.0
G1 X97.0
G3 X97.75 Y267.0 I0.0 J0.75
G1 Y282.0
G3 X97.0 Y282.75 I-0.75 J0.0
G1 X12.0
G3 X11.9766 Y282.7496 I0.0 J-0.75
G1 F300.0 Z-3.0
G3 F800.0 X11.25 Y282.0 I0.0234 J-0.7496
G1 Y267.0
G3 X12.0 Y266.25 I0.75 J0.0
G1 X97.0
G3 X97.75 Y267.0 I0.0 J0.75
G1 Y282.0
G3 X97.0 Y282.75 I-0.75 J0.0
G1 X12.0
G3 X11.9766 Y282.7496 I0.0 J-0.75
G1 F300.0 Z-4.0
G3 F800.0 X11.25 Y282.0 I0.0234 J-0.7496
G1 Y267.0
G3 X12.0 Y266.25 I0.75 J0.0
G1 X28.0833
G1 X30.3333 Z-3.0
G1 X32.5833 Z-4.0
G1 X71.75
G1 X74.0 Z-3.0
G1 X76.25 Z-4.0
G1 X97.0
G3 X97.75 Y267.0 I0.0 J0.75
G1 Y282.0
G3 X97.0 Y282.75 I-0.75 J0.0
G1 X61.25
G1 X59.0 Z-3.0
G1 X56.75 Z-4.0
G1 X12.0
G3 X11.9766 Y282.7496 I0.0 J-0.75
G1 F300.0 Z-5.0
G3 F800.0 X11.25 Y282.0 I0.0234 J-0.7496
G1 Y267.0
G3 X12.0 Y266.25 I0.75 J0.0
G1 X28.0833
G1 X30.3333 Z-3.0
G1 X32.5833 Z-5.0
G1 X71.75
G1 X74.0 Z-3.0
G1 X76.25 Z-5.0
G1 X97.0
G3 X97.75 Y267.0 I0.0 J0.75
G1 Y282.0
G3 X97.0 Y282.75 I-0.75 J0.0
G1 X61.25
G1 X59.0 Z-3.0
G1 X56.75 Z-5.0
G1 X12.0
G3 X11.9766 Y282.7496 I0.0 J-0.75
G1 F300.0 Z-6.0
G3 F800.0 X11.25 Y282.0 I0.0234 J-0.7496
G1 Y267.0
G3 X12.0 Y266.25 I0.75 J0.0
G1 X28.0833
G1 X30.3333 Z-3.0
G1 X32.5833 Z-6.0
G1 X71.75
G1 X74.0 Z-3.0
G1 X76.25 Z-6.0
G1 X97.0
G3 X97.75 Y267.0 I0.0 J0.75
G1 Y282.0
G3 X97.0 Y282.75 I-0.75 J0.0
G1 X61.25
G1 X59.0 Z-3.0
G1 X56.75 Z-6.0
G1 X12.0
G3 X11.9766 Y282.7496 I0.0 J-0.75
G0 Z3.0
G0 X104.8961 Y284.7937
G1 F300.0 Z-1.0
G3 F800.0 X104.9026 Y284.7107 I0.7498 J0.0165
G3 X105.032 Y283.8939 I17.0974 J2.2893
G3 X105.4739 Y283.3397 I0.7377 J0.135
G3 X108.7699 Y282.8225 I2.6619 J6.203
G1 X108.9023 Y283.028
G1 X108.7699 Y282.8225
G3 X108.8411 Y282.6032 I13.2301 J4.1775
G1 X109.069 Y282.5148
G1 X108.8411 Y282.6032
G3 X106.4787 Y280.2475 I3.4371 J-5.8094
G3 X106.4468 Y279.5393 I0.6444 J-0.3837
G3 X106.8223 Y278.8025 I15.5532 J7.4607
G3 X107.4139 Y278.412 I0.6599 J0.3564
G3 X110.7083 Y278.9386 I0.6148 J6.7219
G1 X110.7707 Y279.1749
G1 X110.7083 Y278.9386
G3 X110.8439 Y278.7521 I11.2917 J8.0614
G1 X111.0879 Y278.7384
G1 X110.8439 Y278.7521
G3 X109.325 Y275.7816 I5.0641 J-4.4629
G3 X109.5135 Y275.0983 I0.7314 J-0.1658
G3 X110.0983 Y274.5135 I12.4865 J11.9017
G3 X110.7816 Y274.325 I0.5175 J0.5429
G3 X113.7521 Y275.8439 I-1.4925 J6.5829
G1 X113.7384 Y276.0879
G1 X113.7521 Y275.8439
G3 X113.9386 Y275.7083 I8.2479 J11.1561
G1 X114.1749 Y275.7707
G1 X113.9386 Y275.7083
G3 X113.412 Y272.4139 I6.1953 J-2.6796
G3 X113.8025 Y271.8223 I0.7469 J0.0683
G3 X114.5393 Y271.4468 I8.1975 J15.1777
G3 X115.2475 Y271.4787 I0.3244 J0.6762
G3 X117.6032 Y273.8411 I-3.4537 J5.7995
G1 X117.5148 Y274.069
G1 X117.6032 Y273.8411
G3 X117.8225 Y273.7699 I4.3968 J13.1589
G1 X118.028 Y273.9023
G1 X117.8225 Y273.7699
G3 X118.3397 Y270.4739 I6.7202 J-0.634
G3 X118.8939 Y270.032 I0.6892 J0.2958
G3 X119.7107 Y269.9026 I3.1061 J16.968
G3 X120.3743 Y270.1517 I0.0995 J0.7434
G3 X121.8847 Y273.1265 I-5.0768 J4.4485
G1 X121.7302 Y273.3159
G1 X121.8847 Y273.1265
G3 X122.1153 I0.1153 J13.8735
G1 X122.2698 Y273.3159
G1 X122.1153 Y273.1265
G3 X123.6257 Y270.1517 I6.5872 J1.4737
G3 X124.2893 Y269.9026 I0.5641 J0.4943
G3 X125.1061 Y270.032 I-2.2893 J17.0974
G3 X125.6603 Y270.4739 I-0.135 J0.7377
G3 X126.1775 Y273.7699 I-6.203 J2.6619
G1 X125.972 Y273.9023
G1 X126.1775 Y273.7699
G3 X126.3968 Y273.8411 I-4.1775 J13.2301
G1 X126.4852 Y274.069
G1 X126.3968 Y273.8411
G3 X128.7525 Y271.4787 I5.8094 J3.4371
G3 X129.4607 Y271.4468 I0.3837 J0.6444
G3 X130.1975 Y271.8223 I-7.4607 J15.5532
G3 X130.588 Y272.4139 I-0.3564 J0.6599
G3 X130.0614 Y275.7083 I-6.7219 J0.6148
G1 X129.8251 Y275.7707
G1 X130.0614 Y275.7083
G3 X130.2479 Y275.8439 I-8.0614 J11.2917
G1 X130.2616 Y276.0879
G1 X130.2479 Y275.8439
G3 X133.2184 Y274.325 I4.4629 J5.0641
G3 X133.9017 Y274.5135 I0.1658 J0.7314
G3 X134.4865 Y275.0983 I-11.9017 J12.4865
G3 X134.675 Y275.7816 I-0.5429 J0.5175
G3 X133.1561 Y278.7521 I-6.5829 J-1.4925
G1 X132.9121 Y278.7384
G1 X133.1561 Y278.7521
G3 X133.2917 Y278.9386 I-11.1561 J8.2479
G1 X133.2293 Y279.1749
G1 X133.2917 Y278.9386
G3 X136.5861 Y278.412 I2.6796 J6.1953
G3 X137.1777 Y278.8025 I-0.0683 J0.7469
G3 X137.5532 Y279.5393 I-15.1777 J8.1975
G3 X137.5213 Y280.2475 I-0.6762 J0.3244
G3 X135.1589 Y282.6032 I-5.7995 J-3.4537
G1 X134.931 Y282.5148
G1 X135.1589 Y282.6032
G3 X135.2301 Y282.8225 I-13.1589 J4.3968
G1 X135.0977 Y283.028
G1 X135.2301 Y282.8225
G3 X138.5261 Y283.3397 I0.634 J6.7202
G3 X138.968 Y283.8939 I-0.2958 J0.6892
G3 X139.0974 Y284.7107 I-16.968 J3.1061
G3 X138.8483 Y285.3743 I-0.7434 J0.0995
G3 X135.8735 Y286.8847 I-4.4485 J-5.0768
G1 X135.6841 Y286.7302
G1 X135.8735 Y286.8847
G3 Y287.1153 I-13.8735 J0.1153
G1 X135.6841 Y287.2698
G1 X135.8735 Y287.1153
G3 X138.8483 Y288.6257 I-1.4737 J6.5872
G3 X139.0974 Y289.2893 I-0.4943 J0.5641
G3 X138.968 Y290.1061 I-17.0974 J-2.2893
G3 X138.5261 Y290.6603 I-0.7377 J-0.135
G3 X135.2301 Y291.1775 I-2.6619 J-6.203
G1 X135.0977 Y290.972
G1 X135.2301 Y291.1775
G3 X135.1589 Y291.3968 I-13.2301 J-4.1775
G1 X134.931 Y291.4852
G1 X135.1589 Y291.3968
G3 X137.5213 Y293.7525 I-3.4371 J5.8094
G3 X137.5532 Y294.4607 I-0.6444 J0.3837
G3 X137.1777 Y295.1975 I-15.5532 J-7.4607
G3 X136.5861 Y295.588 I-0.6599 J-0.3564
G3 X133.2917 Y295.0614 I-0.6148 J-6.7219
G1 X133.2293 Y294.8251
G1 X133.2917 Y295.0614
G3 X133.1561 Y295.2479 I-11.2917 J-8.0614
G1 X132.9121 Y295.2616
G1 X133.1561 Y295.2479
G3 X134.675 Y298.2184 I-5.0641 J4.4629
G3 X134.4865 Y298.9017 I-0.7314 J0.1658
G3 X133.9017 Y299.4865 I-12.4865 J-11.9017
G3 X133.2184 Y299.675 I-0.5175 J-0.5429
G3 X130.2479 Y298.1561 I1.4925 J-6.5829
G1 X130.2616 Y297.9121
G1 X130.2479 Y298.1561
G3 X130.0614 Y298.2917 I-8.2479 J-11.1561
G1 X129.8251 Y298.2293
G1 X130.0614 Y298.2917
G3 X130.588 Y301.5861 I-6.1953 J2.6796
G3 X130.1975 Y302.1777 I-0.7469 J-0.0683
G3 X129.4607 Y302.5532 I-8.1975 J-15.1777
G3 X128.7525 Y302.5213 I-0.3244 J-0.6762
G3 X126.3968 Y300.1589 I3.4537 J-5.7995
G1 X126.4852 Y299.931
G1 X126.3968 Y300.1589
G3 X126.1775 Y300.2301 I-4.3968 J-13.1589
G1 X125.972 Y300.0977
G1 X126.1775 Y300.2301
G3 X125.6603 Y303.5261 I-6.7202 J0.634
G3 X125.1061 Y303.968 I-0.6892 J-0.2958
G3 X124.2893 Y304.0974 I-3.1061 J-16.968
G3 X123.6257 Y303.8483 I-0.0995 J-0.7434
G3 X122.1153 Y300.8735 I5.0768 J-4.4485
G1 X122.2698 Y300.6841
G1 X122.1153 Y300.8735
G3 X121.8847 I-0.1153 J-13.8735
G1 X121.7302 Y300.6841
G1 X121.8847 Y300.8735
G3 X120.3743 Y303.8483 I-6.5872 J-1.4737
G3 X119.7107 Y304.0974 I-0.5641 J-0.4943
G3 X118.8939 Y303.968 I2.2893 J-17.0974
G3 X118.3397 Y303.5261 I0.135 J-0.7377
G3 X117.8225 Y300.2301 I6.203 J-2.6619
G1 X118.028 Y300.0977
G1 X117.8225 Y300.2301
G3 X117.6032 Y300.1589 I4.1775 J-13.2301
G1 X117.5148 Y299.931
G1 X117.6032 Y300.1589
G3 X115.2475 Y302.5213 I-5.8094 J-3.4371
G3 X114.5393 Y302.5532 I-0.3837 J-0.6444
G3 X113.8025 Y302.1777 I7.4607 J-15.5532
G3 X113.412 Y301.5861 I0.3564 J-0.6599
G3 X113.9386 Y298.2917 I6.7219 J-0.6148
G1 X114.1749 Y298.2293
G1 X113.9386 Y298.2917
G3 X113.7521 Y298.1561 I8.0614 J-11.2917
G1 X113.7384 Y297.9121
G1 X113.7521 Y298.1561
G3 X110.7816 Y299.675 I-4.4629 J-5.0641
G3 X110.0983 Y299.4865 I-0.1658 J-0.7314
G3 X109.5135 Y298.9017 I11.9017 J-12.4865
G3 X109.325 Y298.2184 I0.5429 J-0.5175
G3 X110.8439 Y295.2479 I6.5829 J1.4925
G1 X111.0879 Y295.2616
G1 X110.8439 Y295.2479
G3 X110.7083 Y295.0614 I11.1561 J-8.2479
G1 X110.7707 Y294.8251
G1 X110.7083 Y295.0614
G3 X107.4139 Y295.588 I-2.6796 J-6.1953
G3 X106.8223 Y295.1975 I0.0683 J-0.7469
G3 X106.4468 Y294.4607 I15.1777 J-8.1975
G3 X106.4787 Y293.7525 I0.6762 J-0.3244
G3 X108.8411 Y291.3968 I5.7995 J3.4537
G1 X109.069 Y291.4852
G1 X108.8411 Y291.3968
G3 X108.7699 Y291.1775 I13.1589 J-4.3968
G1 X108.9023 Y290.972
G1 X108.7699 Y291.1775
G3 X105.4739 Y290.6603 I-0.634 J-6.7202
G3 X105.032 Y290.1061 I0.2958 J-0.6892
G3 X104.9026 Y289.2893 I16.968 J-3.1061
G3 X105.1517 Y288.6257 I0.7434 J-0.0995
G3 X108.1265 Y287.1153 I4.4485 J5.0768
G1 X108.3159 Y287.2698
G1 X108.1265 Y287.1153
G3 Y286.8847 I13.8735 J-0.1153
G1 X108.3159 Y286.7302
G1 X108.1265 Y286.8847
G3 X105.1517 Y285.3743 I1.4737 J-6.5872
G3 X104.8961 Y284.7937 I0.4943 J-0.5641
G1 F300.0 Z-2.0
G3 F800.0 X104.9026 Y284.7107 I0.7498 J0.0165
G3 X105.032 Y283.8939 I17.0974 J2.2893
G3 X105.4739 Y283.3397 I0.7377 J0.135
G3 X108.7699 Y282.8225 I2.6619 J6.203
G1 X108.9023 Y283.028
G1 X108.7699 Y282.8225
G3 X108.8411 Y282.6032 I13.2301 J4.1775
G1 X109.069 Y282.5148
G1 X108.8411 Y282.6032
G3 X106.4787 Y280.2475 I3.4371 J-5.8094
G3 X106.4468 Y279.5393 I0.6444 J-0.3837
G3 X106.8223 Y278.8025 I15.5532 J7.4607
G3 X107.4139 Y278.412 I0.6599 J0.3564
G3 X110.7083 Y278.9386 I0.6148 J6.7219
G1 X110.7707 Y279.1749
G1 X110.7083 Y278.9386
G3 X110.8439 Y278.7521 I11.2917 J8.0614
G1 X111.0879 Y278.7384
G1 X110.8439 Y278.7521
G3 X109.325 Y275.7816 I5.0641 J-4.4629
G3 X109.5135 Y275.0983 I0.7314 J-0.1658
G3 X110.0983 Y274.5135 I12.4865 J11.9017
G3 X110.7816 Y274.325 I0.5175 J0.5429
G3 X113.7521 Y275.8439 I-1.4925 J6.5829
G1 X113.7384 Y276.0879
G1 X113.7521 Y275.8439
G3 X113.9386 Y275.7083 I8.2479 J11.1561
G1 X114.1749 Y275.7707
G1 X113.9386 Y275.7083
G3 X113.412 Y272.4139 I6.1953 J-2.6796
G3 X113.8025 Y271.8223 I0.7469 J0.0683
G3 X114.5393 Y271.4468 I8.1975 J15.1777
G3 X115.2475 Y271.4787 I0.3244 J0.6762
G3 X117.6032 Y273.8411 I-3.4537 J5.7995
G1 X117.5148 Y274.069
G1 X117.6032 Y273.8411
G3 X117.8225 Y273.7699 I4.3968 J13.1589
G1 X118.028 Y273.9023
G1 X117.8225 Y273.7699
G3 X118.3397 Y270.4739 I6.7202 J-0.634
G3 X118.8939 Y270.032 I0.6892 J0.2958
G3 X119.7107 Y269.9026 I3.1061 J16.968
G3 X120.3743 Y270.1517 I0.0995 J0.7434
G3 X121.8847 Y273.1265 I-5.0768 J4.4485
G1 X121.7302 Y273.3159
G1 X121.8847 Y273.1265
G3 X122.1153 I0.1153 J13.8735
G1 X122.2698 Y273.3159
G1 X122.1153 Y273.1265
G3 X123.6257 Y270.1517 I6.5872 J1.4737
G3 X124.2893 Y269.9026 I0.5641 J0.4943
G3 X125.1061 Y270.032 I-2.2893 J17.0974
G3 X125.6603 Y270.4739 I-0.135 J0.7377
G3 X126.1775 Y273.7699 I-6.203 J2.6619
G1 X125.972 Y273.9023
G1 X126.1775 Y273.7699
G3 X126.3968 Y273.8411 I-4.1775 J13.2301
G1 X126.4852 Y274.069
G1 X126.3968 Y273.8411
G3 X128.7525 Y271.4787 I5.8094 J3.4371
G3 X129.4607 Y271.4468 I0.3837 J0.6444
G3 X130.1975 Y271.8223 I-7.4607 J15.5532
G3 X130.588 Y272.4139 I-0.3564 J0.6599
G3 X130.0614 Y275.7083 I-6.7219 J0.6148
G1 X129.8251 Y275.7707
G1 X130.0614 Y275.7083
G3 X130.2479 Y275.8439 I-8.0614 J11.2917
G1 X130.2616 Y276.0879
G1 X130.2479 Y275.8439
G3 X133.2184 Y274.325 I4.4629 J5.0641
G3 X133.9017 Y274.5135 I0.1658 J0.7314
G3 X134.4865 Y275.0983 I-11.9017 J12.4865
G3 X134.675 Y275.7816 I-0.5429 J0.5175
G3 X133.1561 Y278.7521 I-6.5829 J-1.4925
G1 X132.9121 Y278.7384
G1 X133.1561 Y278.7521
G3 X133.2917 Y278.9386 I-11.1561 J8.2479
G1 X133.2293 Y279.1749
G1 X133.2917 Y278.9386
G3 X136.5861 Y278.412 I2.6796 J6.1953
G3 X137.1777 Y278.8025 I-0.0683 J0.7469
G3 X137.5532 Y279.5393 I-15.1777 J8.1975
G3 X137.5213 Y280.2475 I-0.6762 J0.3244
G3 X135.1589 Y282.6032 I-5.7995 J-3.4537
G1 X134.931 Y282.5148
G1 X135.1589 Y282.6032
G3 X135.2301 Y282.8225 I-13.1589 J4.3968
G1 X135.0977 Y283.028
G1 X135.2301 Y282.8225
G3 X138.5261 Y283.3397 I0.634 J6.7202
G3 X138.968 Y283.8939 I-0.2958 J0.6892
G3 X139.0974 Y284.7107 I-16.968 J3.1061
G3 X138.8483 Y285.3743 I-0.7434 J0.0995
G3 X135.8735 Y286.8847 I-4.4485 J-5.0768
G1 X135.6841 Y286.7302
G1 X135.8735 Y286.8847
G3 Y287.1153 I-13.8735 J0.1153
G1 X135.6841 Y287.2698
G1 X135.8735 Y287.1153
G3 X138.8483 Y288.6257 I-1.4737 J6.5872
G3 X139.0974 Y289.2893 I-0.4943 J0.5641
G3 X138.968 Y290.1061 I-17.0974 J-2.2893
G3 X138.5261 Y290.6603 I-0.7377 J-0.135
G3 X135.2301 Y291.1775 I-2.6619 J-6.203
G1 X135.0977 Y290.972
G1 X135.2301 Y291.1775
G3 X135.1589 Y291.3968 I-13.2301 J-4.1775
G1 X134.931 Y291.4852
G1 X135.1589 Y291.3968
G3 X137.5213 Y293.7525 I-3.4371 J5.8094
G3 X137.5532 Y294.4607 I-0.6444 J0.3837
G3 X137.1777 Y295.1975 I-15.5532 J-7.4607
G3 X136.5861 Y295.588 I-0.6599 J-0.3564
G3 X133.2917 Y295.0614 I-0.6148 J-6.7219
G1 X133.2293 Y294.8251
G1 X133.2917 Y295.0614
G3 X133.1561 Y295.2479 I-11.2917 J-8.0614
G1 X132.9121 Y295.2616
G1 X133.1561 Y295.2479
G3 X134.675 Y298.2184 I-5.0641 J4.4629
G3 X134.4865 Y298.9017 I-0.7314 J0.1658
G3 X133.9017 Y299.4865 I-12.4865 J-11.9017
G3 X133.2184 Y299.675 I-0.5175 J-0.5429
G3 X130.2479 Y298.1561 I1.4925 J-6.5829
G1 X130.2616 Y297.9121
G1 X130.2479 Y298.1561
G3 X130.0614 Y298.2917 I-8.2479 J-11.1561
G1 X129.8251 Y298.2293
G1 X130.0614 Y298.2917
G3 X130.588 Y301.5861 I-6.1953 J2.6796
G3 X130.1975 Y302.1777 I-0.7469 J-0.0683
G3 X129.4607 Y302.5532 I-8.1975 J-15.1777
G3 X128.7525 Y302.5213 I-0.3244 J-0.6762
G3 X126.3968 Y300.1589 I3.4537 J-5.7995
G1 X126.4852 Y299.931
G1 X126.3968 Y300.1589
G3 X126.1775 Y300.2301 I-4.3968 J-13.1589
G1 X125.972 Y300.0977
G1 X126.1775 Y300.2301
G3 X125.6603 Y303.5261 I-6.7202 J0.634
G3 X125.1061 Y303.968 I-0.6892 J-0.2958
G3 X124.2893 Y304.0974 I-3.1061 J-16.968
G3 X123.6257 Y303.8483 I-0.0995 J-0.7434
G3 X122.1153 Y300.8735 I5.0768 J-4.4485
G1 X122.2698 Y300.6841
G1 X122.1153 Y300.8735
G3 X121.8847 I-0.1153 J-13.8735
G1 X121.7302 Y300.6841
G1 X121.8847 Y300.8735
G3 X120.3743 Y303.8483 I-6.5872 J-1.4737
G3 X119.7107 Y304.0974 I-0.5641 J-0.4943
G3 X118.8939 Y303.968 I2.2893 J-17.0974
G3 X118.3397 Y303.5261 I0.135 J-0.7377
G3 X117.8225 Y300.2301 I6.203 J-2.6619
G1 X118.028 Y300.0977
G1 X117.8225 Y300.2301
G3 X117.6032 Y300.1589 I4.1775 J-13.2301
G1 X117.5148 Y299.931
G1 X117.6032 Y300.1589
G3 X115.2475 Y302.5213 I-5.8094 J-3.4371
G3 X114.5393 Y302.5532 I-0.3837 J-0.6444
G3 X113.8025 Y302.1777 I7.4607 J-15.5532
G3 X113.412 Y301.5861 I0.3564 J-0.6599
G3 X113.9386 Y298.2917 I6.7219 J-0.6148
G1 X114.1749 Y298.2293
G1 X113.9386 Y298.2917
G3 X113.7521 Y298.1561 I8.0614 J-11.2917
G1 X113.7384 Y297.9121
G1 X113.7521 Y298.1561
G3 X110.7816 Y299.675 I-4.4629 J-5.0641
G3 X110.0983 Y299.4865 I-0.1658 J-0.7314
G3 X109.5135 Y298.9017 I11.9017 J-12.4865
G3 X109.325 Y298.2184 I0.5429 J-0.5175
G3 X110.8439 Y295.2479 I6.5829 J1.4925
G1 X111.0879 Y295.2616
G1 X110.8439 Y295.2479
G3 X110.7083 Y295.0614 I11.1561 J-8.2479
G1 X110.7707 Y294.8251
G1 X110.7083 Y295.0614
G3 X107.4139 Y295.588 I-2.6796 J-6.1953
G3 X106.8223 Y295.1975 I0.0683 J-0.7469
G3 X106.4468 Y294.4607 I15.1777 J-8.1975
G3 X106.4787 Y293.7525 I0.6762 J-0.3244
G3 X108.8411 Y291.3968 I5.7995 J3.4537
G1 X109.069 Y291.4852
G1 X108.8411 Y291.3968
G3 X108.7699 Y291.1775 I13.1589 J-4.3968
G1 X108.9023 Y290.972
G1 X108.7699 Y291.1775
G3 X105.4739 Y290.6603 I-0.634 J-6.7202
G3 X105.032 Y290.1061 I0.2958 J-0.6892
G3 X104.9026 Y289.2893 I16.968 J-3.1061
G3 X105.1517 Y288.6257 I0.7434 J-0.0995
G3 X108.1265 Y287.1153 I4.4485 J5.0768
G1 X108.3159 Y287.2698
G1 X108.1265 Y287.1153
G3 Y286.8847 I13.8735 J-0.1153
G1 X108.3159 Y286.7302
G1 X108.1265 Y286.8847
G3 X105.1517 Y285.3743 I1.4737 J-6.5872
G3 X104.8961 Y284.7937 I0.4943 J-0.5641
G1 F300.0 Z-3.0
G3 F800.0 X104.9026 Y284.7107 I0.7498 J0.0165
G3 X105.032 Y283.8939 I17.0974 J2.2893
G3 X105.4739 Y283.3397 I0.7377 J0.135
G3 X108.7699 Y282.8225 I2.6619 J6.203
G1 X108.9023 Y283.028
G1 X108.7699 Y282.8225
G3 X108.8411 Y282.6032 I13.2301 J4.1775
G1 X109.069 Y282.5148
G1 X108.8411 Y282.6032
G3 X106.4787 Y280.2475 I3.4371 J-5.8094
G3 X106.4468 Y279.5393 I0.6444 J-0.3837
G3 X106.8223 Y278.8025 I15.5532 J7.4607
G3 X107.4139 Y278.412 I0.6599 J0.3564
G3 X110.7083 Y278.9386 I0.6148 J6.7219
G1 X110.7707 Y279.1749
G1 X110.7083 Y278.9386
G3 X110.8439 Y278.7521 I11.2917 J8.0614
G1 X111.0879 Y278.7384
G1 X110.8439 Y278.7521
G3 X109.325 Y275.7816 I5.0641 J-4.4629
G3 X109.5135 Y275.0983 I0.7314 J-0.1658
G3 X110.0983 Y274.5135 I12.4865 J11.9017
G3 X110.7816 Y274.325 I0.5175 J0.5429
G3 X113.7521 Y275.8439 I-1.4925 J6.5829
G1 X113.7384 Y276.0879
G1 X113.7521 Y275.8439
G3 X113.9386 Y275.7083 I8.2479 J11.1561
G1 X114.1749 Y275.7707
G1 X113.9386 Y275.7083
G3 X113.412 Y272.4139 I6.1953 J-2.6796
G3 X113.8025 Y271.8223 I0.7469 J0.0683
G3 X114.5393 Y271.4468 I8.1975 J15.1777
G3 X115.2475 Y271.4787 I0.3244 J0.6762
G3 X117.6032 Y273.8411 I-3.4537 J5.7995
G1 X117.5148 Y274.069
G1 X117.6032 Y273.8411
G3 X117.8225 Y273.7699 I4.3968 J13.1589
G1 X118.028 Y273.9023
G1 X117.8225 Y273.7699
G3 X118.3397 Y270.4739 I6.7202 J-0.634
G3 X118.8939 Y270.032 I0.6892 J0.2958
G3 X119.7107 Y269.9026 I3.1061 J16.968
G3 X120.3743 Y270.1517 I0.0995 J0.7434
G3 X121.8847 Y273.1265 I-5.0768 J4.4485
G1 X121.7302 Y273.3159
G1 X121.8847 Y273.1265
G3 X122.1153 I0.1153 J13.8735
G1 X122.2698 Y273.3159
G1 X122.1153 Y273.1265
G3 X123.6257 Y270.1517 I6.5872 J1.4737
G3 X124.2893 Y269.9026 I0.5641 J0.4943
G3 X125.1061 Y270.032 I-2.2893 J17.0974
G3 X125.6603 Y270.4739 I-0.135 J0.7377
G3 X126.1775 Y273.7699 I-6.203 J2.6619
G1 X125.972 Y273.9023
G1 X126.1775 Y273.7699
G3 X126.3968 Y273.8411 I-4.1775 J13.2301
G1 X126.4852 Y274.069
G1 X126.3968 Y273.8411
G3 X128.7525 Y271.4787 I5.8094 J3.4371
G3 X129.4607 Y271.4468 I0.3837 J0.6444
G3 X130.1975 Y271.8223 I-7.4607 J15.5532
G3 X130.588 Y272.4139 I-0.3564 J0.6599
G3 X130.0614 Y275.7083 I-6.7219 J0.6148
G1 X129.8251 Y275.7707
G1 X130.0614 Y275.7083
G3 X130.2479 Y275.8439 I-8.0614 J11.2917
G1 X130.2616 Y276.0879
G1 X130.2479 Y275.8439
G3 X133.2184 Y274.325 I4.4629 J5.0641
G3 X133.9017 Y274.5135 I0.1658 J0.7314
G3 X134.4865 Y275.0983 I-11.9017 J12.4865
G3 X134.675 Y275.7816 I-0.5429 J0.5175
G3 X133.1561 Y278.7521 I-6.5829 J-1.4925
G1 X132.9121 Y278.7384
G1 X133.1561 Y278.7521
G3 X133.2917 Y278.9386 I-11.1561 J8.2479
G1 X133.2293 Y279.1749
G1 X133.2917 Y278.9386
G3 X136.5861 Y278.412 I2.6796 J6.1953
G3 X137.1777 Y278.8025 I-0.0683 J0.7469
G3 X137.5532 Y279.5393 I-15.1777 J8.1975
G3 X137.5213 Y280.2475 I-0.6762 J0.3244
G3 X135.1589 Y282.6032 I-5.7995 J-3.4537
G1 X134.931 Y282.5148
G1 X135.1589 Y282.6032
G3 X135.2301 Y282.8225 I-13.1589 J4.3968
G1 X135.0977 Y283.028
G1 X135.2301 Y282.8225
G3 X138.5261 Y283.3397 I0.634 J6.7202
G3 X138.968 Y283.8939 I-0.2958 J0.6892
G3 X139.0974 Y284.7107 I-16.968 J3.1061
G3 X138.8483 Y285.3743 I-0.7434 J0.0995
G3 X135.8735 Y286.8847 I-4.4485 J-5.0768
G1 X135.6841 Y286.7302
G1 X135.8735 Y286.8847
G3 Y287.1153 I-13.8735 J0.1153
G1 X135.6841 Y287.2698
G1 X135.8735 Y287.1153
G3 X138.8483 Y288.6257 I-1.4737 J6.5872
G3 X139.0974 Y289.2893 I-0.4943 J0.5641
G3 X138.968 Y290.1061 I-17.0974 J-2.2893
G3 X138.5261 Y290.6603 I-0.7377 J-0.135
G3 X135.2301 Y291.1775 I-2.6619 J-6.203
G1 X135.0977 Y290.972
G1 X135.2301 Y291.1775
G3 X135.1589 Y291.3968 I-13.2301 J-4.1775
G1 X134.931 Y291.4852
G1 X135.1589 Y291.3968
G3 X137.5213 Y293.7525 I-3.4371 J5.8094
G3 X137.5532 Y294.4607 I-0.6444 J0.3837
G3 X137.1777 Y295.1975 I-15.5532 J-7.4607
G3 X136.5861 Y295.588 I-0.6599 J-0.3564
G3 X133.2917 Y295.0614 I-0.6148 J-6.7219
G1 X133.2293 Y294.8251
G1 X133.2917 Y295.0614
G3 X133.1561 Y295.2479 I-11.2917 J-8.0614
G1 X132.9121 Y295.2616
G1 X133.1561 Y295.2479
G3 X134.675 Y298.2184 I-5.0641 J4.4629
G3 X134.4865 Y298.9017 I-0.7314 J0.1658
G3 X133.9017 Y299.4865 I-12.4865 J-11.9017
G3 X133.2184 Y299.675 I-0.5175 J-0.5429
G3 X130.2479 Y298.1561 I1.4925 J-6.5829
G1 X130.2616 Y297.9121
G1 X130.2479 Y298.1561
G3 X130.0614 Y298.2917 I-8.2479 J-11.1561
G1 X129.8251 Y298.2293
G1 X130.0614 Y298.2917
G3 X130.588 Y301.5861 I-6.1953 J2.6796
G3 X130.1975 Y302.1777 I-0.7469 J-0.0683
G3 X129.4607 Y302.5532 I-8.1975 J-15.1777
G3 X128.7525 Y302.5213 I-0.3244 J-0.6762
G3 X126.3968 Y300.1589 I3.4537 J-5.7995
G1 X126.4852 Y299.931
G1 X126.3968 Y300.1589
G3 X126.1775 Y300.2301 I-4.3968 J-13.1589
G1 X125.972 Y300.0977
G1 X126.1775 Y300.2301
G3 X125.6603 Y303.5261 I-6.7202 J0.634
G3 X125.1061 Y303.968 I-0.6892 J-0.2958
G3 X124.2893 Y304.0974 I-3.1061 J-16.968
G3 X123.6257 Y303.8483 I-0.0995 J-0.7434
G3 X122.1153 Y300.8735 I5.0768 J-4.4485
G1 X122.2698 Y300.6841
G1 X122.1153 Y300.8735
G3 X121.8847 I-0.1153 J-13.8735
G1 X121.7302 Y300.6841
G1 X121.8847 Y300.8735
G3 X120.3743 Y303.8483 I-6.5872 J-1.4737
G3 X119.7107 Y304.0974 I-0.5641 J-0.4943
G3 X118.8939 Y303.968 I2.2893 J-17.0974
G3 X118.3397 Y303.5261 I0.135 J-0.7377
G3 X117.8225 Y300.2301 I6.203 J-2.6619
G1 X118.028 Y300.0977
G1 X117.8225 Y300.2301
G3 X117.6032 Y300.1589 I4.1775 J-13.2301
G1 X117.5148 Y299.931
G1 X117.6032 Y300.1589
G3 X115.2475 Y302.5213 I-5.8094 J-3.4371
G3 X114.5393 Y302.5532 I-0.3837 J-0.6444
G3 X113.8025 Y302.1777 I7.4607 J-15.5532
G3 X113.412 Y301.5861 I0.3564 J-0.6599
G3 X113.9386 Y298.2917 I6.7219 J-0.6148
G1 X114.1749 Y298.2293
G1 X113.9386 Y298.2917
G3 X113.7521 Y298.1561 I8.0614 J-11.2917
G1 X113.7384 Y297.9121
G1 X113.7521 Y298.1561
G3 X110.7816 Y299.675 I-4.4629 J-5.0641
G3 X110.0983 Y299.4865 I-0.1658 J-0.7314
G3 X109.5135 Y298.9017 I11.9017 J-12.4865
G3 X109.325 Y298.2184 I0.5429 J-0.5175
G3 X110.8439 Y295.2479 I6.5829 J1.4925
G1 X111.0879 Y295.2616
G1 X110.8439 Y295.2479
G3 X110.7083 Y295.0614 I11.1561 J-8.2479
G1 X110.7707 Y294.8251
G1 X110.7083 Y295.0614
G3 X107.4139 Y295.588 I-2.6796 J-6.1953
G3 X106.8223 Y295.1975 I0.0683 J-0.7469
G3 X106.4468 Y294.4607 I15.1777 J-8.1975
G3 X106.4787 Y293.7525 I0.6762 J-0.3244
G3 X108.8411 Y291.3968 I5.7995 J3.4537
G1 X109.069 Y291.4852
G1 X108.8411 Y291.3968
G3 X108.7699 Y291.1775 I13.1589 J-4.3968
G1 X108.9023 Y290.972
G1 X108.7699 Y291.1775
G3 X105.4739 Y290.6603 I-0.634 J-6.7202
G3 X105.032 Y290.1061 I0.2958 J-0.6892
G3 X104.9026 Y289.2893 I16.968 J-3.1061
G3 X105.1517 Y288.6257 I0.7434 J-0.0995
G3 X108.1265 Y287.1153 I4.4485 J5.0768
G1 X108.3159 Y287.2698
G1 X108.1265 Y287.1153
G3 Y286.8847 I13.8735 J-0.1153
G1 X108.3159 Y286.7302
G1 X108.1265 Y286.8847
G3 X105.1517 Y285.3743 I1.4737 J-6.5872
G3 X104.8961 Y284.7937 I0.4943 J-0.5641
G1 F300.0 Z-4.0
G3 F800.0 X104.9026 Y284.7107 I0.7498 J0.0165
G3 X105.032 Y283.8939 I17.0974 J2.2893
G3 X105.4739 Y283.3397 I0.7377 J0.135
G3 X108.7699 Y282.8225 I2.6619 J6.203
G1 X108.9023 Y283.028
G1 X108.7699 Y282.8225
G3 X108.8411 Y282.6032 I13.2301 J4.1775
G1 X109.069 Y282.5148
G1 X108.8411 Y282.6032
G3 X106.4787 Y280.2475 I3.4371 J-5.8094
G3 X106.4468 Y279.5393 I0.6444 J-0.3837
G3 X106.8223 Y278.8025 I15.5532 J7.4607
G3 X107.4139 Y278.412 I0.6599 J0.3564
G3 X110.7083 Y278.9386 I0.6148 J6.7219
G1 X110.7707 Y279.1749
G1 X110.7083 Y278.9386
G3 X110.8439 Y278.7521 I11.2917 J8.0614
G1 X111.0879 Y278.7384
G1 X110.8439 Y278.7521
G3 X109.325 Y275.7816 I5.0641 J-4.4629
G3 X109.5135 Y275.0983 I0.7314 J-0.1658
G3 X110.0983 Y274.5135 I12.4865 J11.9017
G3 X110.7816 Y274.325 I0.5175 J0.5429
G3 X113.7521 Y275.8439 I-1.4925 J6.5829
G1 X113.7384 Y276.0879
G1 X113.7521 Y275.8439
G3 X113.9386 Y275.7083 I8.2479 J11.1561
G1 X114.1749 Y275.7707
G1 X113.9386 Y275.7083
G3 X113.412 Y272.4139 I6.1953 J-2.6796
G3 X113.8025 Y271.8223 I0.7469 J0.0683
G3 X114.5393 Y271.4468 I8.1975 J15.1777
G3 X115.2475 Y271.4787 I0.3244 J0.6762
G3 X117.6032 Y273.8411 I-3.4537 J5.7995
G1 X117.5148 Y274.069
G1 X117.6032 Y273.8411
G3 X117.8225 Y273.7699 I4.3968 J13.1589
G1 X118.028 Y273.9023
G1 X117.8225 Y273.7699
G3 X118.3397 Y270.4739 I6.7202 J-0.634
G3 X118.8939 Y270.032 I0.6892 J0.2958
G3 X119.7107 Y269.9026 I3.1061 J16.968
G3 X120.3743 Y270.1517 I0.0995 J0.7434
G3 X121.8847 Y273.1265 I-5.0768 J4.4485
G1 X121.7302 Y273.3159
G1 X121.8847 Y273.1265
G3 X122.1153 I0.1153 J13.8735
G1 X122.2698 Y273.3159
G1 X122.1153 Y273.1265
G3 X123.6257 Y270.1517 I6.5872 J1.4737
G3 X124.2893 Y269.9026 I0.5641 J0.4943
G3 X125.1061 Y270.032 I-2.2893 J17.0974
G3 X125.6603 Y270.4739 I-0.135 J0.7377
G3 X126.1775 Y273.7699 I-6.203 J2.6619
G1 X125.972 Y273.9023
G1 X126.1775 Y273.7699
G3 X126.3968 Y273.8411 I-4.1775 J13.2301
G1 X126.4852 Y274.069
G1 X126.3968 Y273.8411
G3 X128.7525 Y271.4787 I5.8094 J3.4371
G3 X129.4607 Y271.4468 I0.3837 J0.6444
G3 X130.1975 Y271.8223 I-7.4607 J15.5532
G3 X130.588 Y272.4139 I-0.3564 J0.6599
G3 X130.0614 Y275.7083 I-6.7219 J0.6148
G1 X129.8251 Y275.7707
G1 X130.0614 Y275.7083
G3 X130.2479 Y275.8439 I-8.0614 J11.2917
G1 X130.2616 Y276.0879
G1 X130.2479 Y275.8439
G3 X133.2184 Y274.325 I4.4629 J5.0641
G3 X133.9017 Y274.5135 I0.1658 J0.7314
G3 X134.4865 Y275.0983 I-11.9017 J12.4865
G3 X134.675 Y275.7816 I-0.5429 J0.5175
G3 X133.1561 Y278.7521 I-6.5829 J-1.4925
G1 X132.9121 Y278.7384
G1 X133.1561 Y278.7521
G3 X133.2917 Y278.9386 I-11.1561 J8.2479
G1 X133.2293 Y279.1749
G1 X133.2917 Y278.9386
G3 X136.5861 Y278.412 I2.6796 J6.1953
G3 X137.1777 Y278.8025 I-0.0683 J0.7469
G3 X137.5532 Y279.5393 I-15.1777 J8.1975
G3 X137.5213 Y280.2475 I-0.6762 J0.3244
G3 X135.1589 Y282.6032 I-5.7995 J-3.4537
G1 X134.931 Y282.5148
G1 X135.1589 Y282.6032
G3 X135.2301 Y282.8225 I-13.1589 J4.3968
G1 X135.0977 Y283.028
G1 X135.2301 Y282.8225
G3 X138.5261 Y283.3397 I0.634 J6.7202
G3 X138.968 Y283.8939 I-0.2958 J0.6892
G3 X139.0974 Y284.7107 I-16.968 J3.1061
G3 X138.8483 Y285.3743 I-0.7434 J0.0995
G3 X135.8735 Y286.8847 I-4.4485 J-5.0768
G1 X135.6841 Y286.7302
G1 X135.8735 Y286.8847
G3 Y287.1153 I-13.8735 J0.1153
G1 X135.6841 Y287.2698
G1 X135.8735 Y287.1153
G3 X138.8483 Y288.6257 I-1.4737 J6.5872
G3 X139.0974 Y289.2893 I-0.4943 J0.5641
G3 X138.968 Y290.1061 I-17.0974 J-2.2893
G3 X138.5261 Y290.6603 I-0.7377 J-0.135
G3 X135.2301 Y291.1775 I-2.6619 J-6.203
G1 X135.0977 Y290.972
G1 X135.2301 Y291.1775
G3 X135.1589 Y291.3968 I-13.2301 J-4.1775
G1 X134.931 Y291.4852
G1 X135.1589 Y291.3968
G3 X137.5213 Y293.7525 I-3.4371 J5.8094
G3 X137.5532 Y294.4607 I-0.6444 J0.3837
G3 X137.1777 Y295.1975 I-15.5532 J-7.4607
G3 X136.5861 Y295.588 I-0.6599 J-0.3564
G3 X133.2917 Y295.0614 I-0.6148 J-6.7219
G1 X133.2293 Y294.8251
G1 X133.2917 Y295.0614
G3 X133.1561 Y295.2479 I-11.2917 J-8.0614
G1 X132.9121 Y295.2616
G1 X133.1561 Y295.2479
G3 X134.675 Y298.2184 I-5.0641 J4.4629
G3 X134.4865 Y298.9017 I-0.7314 J0.1658
G3 X133.9017 Y299.4865 I-12.4865 J-11.9017
G3 X133.2184 Y299.675 I-0.5175 J-0.5429
G3 X130.2479 Y298.1561 I1.4925 J-6.5829
G1 X130.2616 Y297.9121
G1 X130.2479 Y298.1561
G3 X130.0614 Y298.2917 I-8.2479 J-11.1561
G1 X129.8251 Y298.2293
G1 X130.0614 Y298.2917
G3 X130.588 Y301.5861 I-6.1953 J2.6796
G3 X130.1975 Y302.1777 I-0.7469 J-0.0683
G3 X129.4607 Y302.5532 I-8.1975 J-15.1777
G3 X128.7525 Y302.5213 I-0.3244 J-0.6762
G3 X126.3968 Y300.1589 I3.4537 J-5.7995
G1 X126.4852 Y299.931
G1 X126.3968 Y300.1589
G3 X126.1775 Y300.2301 I-4.3968 J-13.1589
G1 X125.972 Y300.0977
G1 X126.1775 Y300.2301
G3 X125.6603 Y303.5261 I-6.7202 J0.634
G3 X125.1061 Y303.968 I-0.6892 J-0.2958
G3 X124.2893 Y304.0974 I-3.1061 J-16.968
G3 X123.6257 Y303.8483 I-0.0995 J-0.7434
G3 X122.1153 Y300.8735 I5.0768 J-4.4485
G1 X122.2698 Y300.6841
G1 X122.1153 Y300.8735
G3 X121.8847 I-0.1153 J-13.8735
G1 X121.7302 Y300.6841
G1 X121.8847 Y300.8735
G3 X120.3743 Y303.8483 I-6.5872 J-1.4737
G3 X119.7107 Y304.0974 I-0.5641 J-0.4943
G3 X118.8939 Y303.968 I2.2893 J-17.0974
G3 X118.3397 Y303.5261 I0.135 J-0.7377
G3 X117.8225 Y300.2301 I6.203 J-2.6619
G1 X118.028 Y300.0977
G1 X117.8225 Y300.2301
G3 X117.6032 Y300.1589 I4.1775 J-13.2301
G1 X117.5148 Y299.931
G1 X117.6032 Y300.1589
G3 X115.2475 Y302.5213 I-5.8094 J-3.4371
G3 X114.5393 Y302.5532 I-0.3837 J-0.6444
G3 X113.8025 Y302.1777 I7.4607 J-15.5532
G3 X113.412 Y301.5861 I0.3564 J-0.6599
G3 X113.9386 Y298.2917 I6.7219 J-0.6148
G1 X114.1749 Y298.2293
G1 X113.9386 Y298.2917
G3 X113.7521 Y298.1561 I8.0614 J-11.2917
G1 X113.7384 Y297.9121
G1 X113.7521 Y298.1561
G3 X110.7816 Y299.675 I-4.4629 J-5.0641
G3 X110.0983 Y299.4865 I-0.1658 J-0.7314
G3 X109.5135 Y298.9017 I11.9017 J-12.4865
G3 X109.325 Y298.2184 I0.5429 J-0.5175
G3 X110.8439 Y295.2479 I6.5829 J1.4925
G1 X111.0879 Y295.2616
G1 X110.8439 Y295.2479
G3 X110.7083 Y295.0614 I11.1561 J-8.2479
G1 X110.7707 Y294.8251
G1 X110.7083 Y295.0614
G3 X107.4139 Y295.588 I-2.6796 J-6.1953
G3 X106.8223 Y295.1975 I0.0683 J-0.7469
G3 X106.4468 Y294.4607 I15.1777 J-8.1975
G3 X106.4787 Y293.7525 I0.6762 J-0.3244
G3 X108.8411 Y291.3968 I5.7995 J3.4537
G1 X109.069 Y291.4852
G1 X108.8411 Y291.3968
G3 X108.7699 Y291.1775 I13.1589 J-4.3968
G1 X108.9023 Y290.972
G1 X108.7699 Y291.1775
G3 X105.4739 Y290.6603 I-0.634 J-6.7202
G3 X105.032 Y290.1061 I0.2958 J-0.6892
G3 X104.9026 Y289.2893 I16.968 J-3.1061
G3 X105.1517 Y288.6257 I0.7434 J-0.0995
G3 X108.1265 Y287.1153 I4.4485 J5.0768
G1 X108.3159 Y287.2698
G1 X108.1265 Y287.1153
G3 Y286.8847 I13.8735 J-0.1153
G1 X108.3159 Y286.7302
G1 X108.1265 Y286.8847
G3 X105.1517 Y285.3743 I1.4737 J-6.5872
G3 X104.8961 Y284.7937 I0.4943 J-0.5641
G1 F300.0 Z-5.0
G3 F800.0 X104.9026 Y284.7107 I0.7498 J0.0165
G3 X105.032 Y283.8939 I17.0974 J2.2893
G3 X105.4739 Y283.3397 I0.7377 J0.135
G3 X108.7699 Y282.8225 I2.6619 J6.203
G1 X108.9023 Y283.028
G1 X108.7699 Y282.8225
G3 X108.8411 Y282.6032 I13.2301 J4.1775
G1 X109.069 Y282.5148
G1 X108.8411 Y282.6032
G3 X106.4787 Y280.2475 I3.4371 J-5.8094
G3 X106.4468 Y279.5393 I0.6444 J-0.3837
G3 X106.8223 Y278.8025 I15.5532 J7.4607
G3 X107.4139 Y278.412 I0.6599 J0.3564
G3 X110.7083 Y278.9386 I0.6148 J6.7219
G1 X110.7707 Y279.1749
G1 X110.7083 Y278.9386
G3 X110.8439 Y278.7521 I11.2917 J8.0614
G1 X111.0879 Y278.7384
G1 X110.8439 Y278.7521
G3 X109.325 Y275.7816 I5.0641 J-4.4629
G3 X109.5135 Y275.0983 I0.7314 J-0.1658
G3 X110.0983 Y274.5135 I12.4865 J11.9017
G3 X110.7816 Y274.325 I0.5175 J0.5429
G3 X113.7521 Y275.8439 I-1.4925 J6.5829
G1 X113.7384 Y276.0879
G1 X113.7521 Y275.8439
G3 X113.9386 Y275.7083 I8.2479 J11.1561
G1 X114.1749 Y275.7707
G1 X113.9386 Y275.7083
G3 X113.412 Y272.4139 I6.1953 J-2.6796
G3 X113.8025 Y271.8223 I0.7469 J0.0683
G3 X114.5393 Y271.4468 I8.1975 J15.1777
G3 X115.2475 Y271.4787 I0.3244 J0.6762
G3 X117.6032 Y273.8411 I-3.4537 J5.7995
G1 X117.5148 Y274.069
G1 X117.6032 Y273.8411
G3 X117.8225 Y273.7699 I4.3968 J13.1589
G1 X118.028 Y273.9023
G1 X117.8225 Y273.7699
G3 X118.3397 Y270.4739 I6.7202 J-0.634
G3 X118.8939 Y270.032 I0.6892 J0.2958
G3 X119.7107 Y269.9026 I3.1061 J16.968
G3 X120.3743 Y270.1517 I0.0995 J0.7434
G3 X121.8847 Y273.1265 I-5.0768 J4.4485
G1 X121.7302 Y273.3159
G1 X121.8847 Y273.1265
G3 X122.1153 I0.1153 J13.8735
G1 X122.2698 Y273.3159
G1 X122.1153 Y273.1265
G3 X123.6257 Y270.1517 I6.5872 J1.4737
G3 X124.2893 Y269.9026 I0.5641 J0.4943
G3 X125.1061 Y270.032 I-2.2893 J17.0974
G3 X125.6603 Y270.4739 I-0.135 J0.7377
G3 X126.1775 Y273.7699 I-6.203 J2.6619
G1 X125.972 Y273.9023
G1 X126.1775 Y273.7699
G3 X126.3968 Y273.8411 I-4.1775 J13.2301
G1 X126.4852 Y274.069
G1 X126.3968 Y273.8411
G3 X128.7525 Y271.4787 I5.8094 J3.4371
G3 X129.4607 Y271.4468 I0.3837 J0.6444
G3 X130.1975 Y271.8223 I-7.4607 J15.5532
G3 X130.588 Y272.4139 I-0.3564 J0.6599
G3 X130.0614 Y275.7083 I-6.7219 J0.6148
G1 X129.8251 Y275.7707
G1 X130.0614 Y275.7083
G3 X130.2479 Y275.8439 I-8.0614 J11.2917
G1 X130.2616 Y276.0879
G1 X130.2479 Y275.8439
G3 X133.2184 Y274.325 I4.4629 J5.0641
G3 X133.9017 Y274.5135 I0.1658 J0.7314
G3 X134.4865 Y275.0983 I-11.9017 J12.4865
G3 X134.675 Y275.7816 I-0.5429 J0.5175
G3 X133.1561 Y278.7521 I-6.5829 J-1.4925
G1 X132.9121 Y278.7384
G1 X133.1561 Y278.7521
G3 X133.2917 Y278.9386 I-11.1561 J8.2479
G1 X133.2293 Y279.1749
G1 X133.2917 Y278.9386
G3 X136.5861 Y278.412 I2.6796 J6.1953
G3 X137.1777 Y278.8025 I-0.0683 J0.7469
G3 X137.5532 Y279.5393 I-15.1777 J8.1975
G3 X137.5213 Y280.2475 I-0.6762 J0.3244
G3 X135.1589 Y282.6032 I-5.7995 J-3.4537
G1 X134.931 Y282.5148
G1 X135.1589 Y282.6032
G3 X135.2301 Y282.8225 I-13.1589 J4.3968
G1 X135.0977 Y283.028
G1 X135.2301 Y282.8225
G3 X138.5261 Y283.3397 I0.634 J6.7202
G3 X138.968 Y283.8939 I-0.2958 J0.6892
G3 X139.0974 Y284.7107 I-16.968 J3.1061
G3 X138.8483 Y285.3743 I-0.7434 J0.0995
G3 X135.8735 Y286.8847 I-4.4485 J-5.0768
G1 X135.6841 Y286.7302
G1 X135.8735 Y286.8847
G3 Y287.1153 I-13.8735 J0.1153
G1 X135.6841 Y287.2698
G1 X135.8735 Y287.1153
G3 X138.8483 Y288.6257 I-1.4737 J6.5872
G3 X139.0974 Y289.2893 I-0.4943 J0.5641
G3 X138.968 Y290.1061 I-17.0974 J-2.2893
G3 X138.5261 Y290.6603 I-0.7377 J-0.135
G3 X135.2301 Y291.1775 I-2.6619 J-6.203
G1 X135.0977 Y290.972
G1 X135.2301 Y291.1775
G3 X135.1589 Y291.3968 I-13.2301 J-4.1775
G1 X134.931 Y291.4852
G1 X135.1589 Y291.3968
G3 X137.5213 Y293.7525 I-3.4371 J5.8094
G3 X137.5532 Y294.4607 I-0.6444 J0.3837
G3 X137.1777 Y295.1975 I-15.5532 J-7.4607
G3 X136.5861 Y295.588 I-0.6599 J-0.3564
G3 X133.2917 Y295.0614 I-0.6148 J-6.7219
G1 X133.2293 Y294.8251
G1 X133.2917 Y295.0614
G3 X133.1561 Y295.2479 I-11.2917 J-8.0614
G1 X132.9121 Y295.2616
G1 X133.1561 Y295.2479
G3 X134.675 Y298.2184 I-5.0641 J4.4629
G3 X134.4865 Y298.9017 I-0.7314 J0.1658
G3 X133.9017 Y299.4865 I-12.4865 J-11.9017
G3 X133.2184 Y299.675 I-0.5175 J-0.5429
G3 X130.2479 Y298.1561 I1.4925 J-6.5829
G1 X130.2616 Y297.9121
G1 X130.2479 Y298.1561
G3 X130.0614 Y298.2917 I-8.2479 J-11.1561
G1 X129.8251 Y298.2293
G1 X130.0614 Y298.2917
G3 X130.588 Y301.5861 I-6.1953 J2.6796
G3 X130.1975 Y302.1777 I-0.7469 J-0.0683
G3 X129.4607 Y302.5532 I-8.1975 J-15.1777
G3 X128.7525 Y302.5213 I-0.3244 J-0.6762
G3 X126.3968 Y300.1589 I3.4537 J-5.7995
G1 X126.4852 Y299.931
G1 X126.3968 Y300.1589
G3 X126.1775 Y300.2301 I-4.3968 J-13.1589
G1 X125.972 Y300.0977
G1 X126.1775 Y300.2301
G3 X125.6603 Y303.5261 I-6.7202 J0.634
G3 X125.1061 Y303.968 I-0.6892 J-0.2958
G3 X124.2893 Y304.0974 I-3.1061 J-16.968
G3 X123.6257 Y303.8483 I-0.0995 J-0.7434
G3 X122.1153 Y300.8735 I5.0768 J-4.4485
G1 X122.2698 Y300.6841
G1 X122.1153 Y300.8735
G3 X121.8847 I-0.1153 J-13.8735
G1 X121.7302 Y300.6841
G1 X121.8847 Y300.8735
G3 X120.3743 Y303.8483 I-6.5872 J-1.4737
G3 X119.7107 Y304.0974 I-0.5641 J-0.4943
G3 X118.8939 Y303.968 I2.2893 J-17.0974
G3 X118.3397 Y303.5261 I0.135 J-0.7377
G3 X117.8225 Y300.2301 I6.203 J-2.6619
G1 X118.028 Y300.0977
G1 X117.8225 Y300.2301
G3 X117.6032 Y300.1589 I4.1775 J-13.2301
G1 X117.5148 Y299.931
G1 X117.6032 Y300.1589
G3 X115.2475 Y302.5213 I-5.8094 J-3.4371
G3 X114.5393 Y302.5532 I-0.3837 J-0.6444
G3 X113.8025 Y302.1777 I7.4607 J-15.5532
G3 X113.412 Y301.5861 I0.3564 J-0.6599
G3 X113.9386 Y298.2917 I6.7219 J-0.6148
G1 X114.1749 Y298.2293
G1 X113.9386 Y298.2917
G3 X113.7521 Y298.1561 I8.0614 J-11.2917
G1 X113.7384 Y297.9121
G1 X113.7521 Y298.1561
G3 X110.7816 Y299.675 I-4.4629 J-5.0641
G3 X110.0983 Y299.4865 I-0.1658 J-0.7314
G3 X109.5135 Y298.9017 I11.9017 J-12.4865
G3 X109.325 Y298.2184 I0.5429 J-0.5175
G3 X110.8439 Y295.2479 I6.5829 J1.4925
G1 X111.0879 Y295.2616
G1 X110.8439 Y295.2479
G3 X110.7083 Y295.0614 I11.1561 J-8.2479
G1 X110.7707 Y294.8251
G1 X110.7083 Y295.0614
G3 X107.4139 Y295.588 I-2.6796 J-6.1953
G3 X106.8223 Y295.1975 I0.0683 J-0.7469
G3 X106.4468 Y294.4607 I15.1777 J-8.1975
G3 X106.4787 Y293.7525 I0.6762 J-0.3244
G3 X108.8411 Y291.3968 I5.7995 J3.4537
G1 X109.069 Y291.4852
G1 X108.8411 Y291.3968
G3 X108.7699 Y291.1775 I13.1589 J-4.3968
G1 X108.9023 Y290.972
G1 X108.7699 Y291.1775
G3 X105.4739 Y290.6603 I-0.634 J-6.7202
G3 X105.032 Y290.1061 I0.2958 J-0.6892
G3 X104.9026 Y289.2893 I16.968 J-3.1061
G3 X105.1517 Y288.6257 I0.7434 J-0.0995
G3 X108.1265 Y287.1153 I4.4485 J5.0768
G1 X108.3159 Y287.2698
G1 X108.1265 Y287.1153
G3 Y286.8847 I13.8735 J-0.1153
G1 X108.3159 Y286.7302
G1 X108.1265 Y286.8847
G3 X105.1517 Y285.3743 I1.4737 J-6.5872
G3 X104.8961 Y284.7937 I0.4943 J-0.5641
G1 F300.0 Z-6.0
G3 F800.0 X104.9026 Y284.7107 I0.7498 J0.0165
G3 X105.032 Y283.8939 I17.0974 J2.2893
G3 X105.4739 Y283.3397 I0.7377 J0.135
G3 X108.7699 Y282.8225 I2.6619 J6.203
G1 X108.9023 Y283.028
G1 X108.7699 Y282.8225
G3 X108.8411 Y282.6032 I13.2301 J4.1775
G1 X109.069 Y282.5148
G1 X108.8411 Y282.6032
G3 X106.4787 Y280.2475 I3.4371 J-5.8094
G3 X106.4468 Y279.5393 I0.6444 J-0.3837
G3 X106.8223 Y278.8025 I15.5532 J7.4607
G3 X107.4139 Y278.412 I0.6599 J0.3564
G3 X110.7083 Y278.9386 I0.6148 J6.7219
G1 X110.7707 Y279.1749
G1 X110.7083 Y278.9386
G3 X110.8439 Y278.7521 I11.2917 J8.0614
G1 X111.0879 Y278.7384
G1 X110.8439 Y278.7521
G3 X109.325 Y275.7816 I5.0641 J-4.4629
G3 X109.5135 Y275.0983 I0.7314 J-0.1658
G3 X110.0983 Y274.5135 I12.4865 J11.9017
G3 X110.7816 Y274.325 I0.5175 J0.5429
G3 X113.7521 Y275.8439 I-1.4925 J6.5829
G1 X113.7384 Y276.0879
G1 X113.7521 Y275.8439
G3 X113.9386 Y275.7083 I8.2479 J11.1561
G1 X114.1749 Y275.7707
G1 X113.9386 Y275.7083
G3 X113.412 Y272.4139 I6.1953 J-2.6796
G3 X113.8025 Y271.8223 I0.7469 J0.0683
G3 X114.5393 Y271.4468 I8.1975 J15.1777
G3 X115.2475 Y271.4787 I0.3244 J0.6762
G3 X117.6032 Y273.8411 I-3.4537 J5.7995
G1 X117.5148 Y274.069
G1 X117.6032 Y273.8411
G3 X117.8225 Y273.7699 I4.3968 J13.1589
G1 X118.028 Y273.9023
G1 X117.8225 Y273.7699
G3 X118.3397 Y270.4739 I6.7202 J-0.634
G3 X118.8939 Y270.032 I0.6892 J0.2958
G3 X119.7107 Y269.9026 I3.1061 J16.968
G3 X120.3743 Y270.1517 I0.0995 J0.7434
G3 X121.8847 Y273.1265 I-5.0768 J4.4485
G1 X121.7302 Y273.3159
G1 X121.8847 Y273.1265
G3 X122.1153 I0.1153 J13.8735
G1 X122.2698 Y273.3159
G1 X122.1153 Y273.1265
G3 X123.6257 Y270.1517 I6.5872 J1.4737
G3 X124.2893 Y269.9026 I0.5641 J0.4943
G3 X125.1061 Y270.032 I-2.2893 J17.0974
G3 X125.6603 Y270.4739 I-0.135 J0.7377
G3 X126.1775 Y273.7699 I-6.203 J2.6619
G1 X125.972 Y273.9023
G1 X126.1775 Y273.7699
G3 X126.3968 Y273.8411 I-4.1775 J13.2301
G1 X126.4852 Y274.069
G1 X126.3968 Y273.8411
G3 X128.7525 Y271.4787 I5.8094 J3.4371
G3 X129.4607 Y271.4468 I0.3837 J0.6444
G3 X130.1975 Y271.8223 I-7.4607 J15.5532
G3 X130.588 Y272.4139 I-0.3564 J0.6599
G3 X130.0614 Y275.7083 I-6.7219 J0.6148
G1 X129.8251 Y275.7707
G1 X130.0614 Y275.7083
G3 X130.2479 Y275.8439 I-8.0614 J11.2917
G1 X130.2616 Y276.0879
G1 X130.2479 Y275.8439
G3 X133.2184 Y274.325 I4.4629 J5.0641
G3 X133.9017 Y274.5135 I0.1658 J0.7314
G3 X134.4865 Y275.0983 I-11.9017 J12.4865
G3 X134.675 Y275.7816 I-0.5429 J0.5175
G3 X133.1561 Y278.7521 I-6.5829 J-1.4925
G1 X132.9121 Y278.7384
G1 X133.1561 Y278.7521
G3 X133.2917 Y278.9386 I-11.1561 J8.2479
G1 X133.2293 Y279.1749
G1 X133.2917 Y278.9386
G3 X136.5861 Y278.412 I2.6796 J6.1953
G3 X137.1777 Y278.8025 I-0.0683 J0.7469
G3 X137.5532 Y279.5393 I-15.1777 J8.1975
G3 X137.5213 Y280.2475 I-0.6762 J0.3244
G3 X135.1589 Y282.6032 I-5.7995 J-3.4537
G1 X134.931 Y282.5148
G1 X135.1589 Y282.6032
G3 X135.2301 Y282.8225 I-13.1589 J4.3968
G1 X135.0977 Y283.028
G1 X135.2301 Y282.8225
G3 X138.5261 Y283.3397 I0.634 J6.7202
G3 X138.968 Y283.8939 I-0.2958 J0.6892
G3 X139.0974 Y284.7107 I-16.968 J3.1061
G3 X138.8483 Y285.3743 I-0.7434 J0.0995
G3 X135.8735 Y286.8847 I-4.4485 J-5.0768
G1 X135.6841 Y286.7302
G1 X135.8735 Y286.8847
G3 Y287.1153 I-13.8735 J0.1153
G1 X135.6841 Y287.2698
G1 X135.8735 Y287.1153
G3 X138.8483 Y288.6257 I-1.4737 J6.5872
G3 X139.0974 Y289.2893 I-0.4943 J0.5641
G3 X138.968 Y290.1061 I-17.0974 J-2.2893
G3 X138.5261 Y290.6603 I-0.7377 J-0.135
G3 X135.2301 Y291.1775 I-2.6619 J-6.203
G1 X135.0977 Y290.972
G1 X135.2301 Y291.1775
G3 X135.1589 Y291.3968 I-13.2301 J-4.1775
G1 X134.931 Y291.4852
G1 X135.1589 Y291.3968
G3 X137.5213 Y293.7525 I-3.4371 J5.8094
G3 X137.5532 Y294.4607 I-0.6444 J0.3837
G3 X137.1777 Y295.1975 I-15.5532 J-7.4607
G3 X136.5861 Y295.588 I-0.6599 J-0.3564
G3 X133.2917 Y295.0614 I-0.6148 J-6.7219
G1 X133.2293 Y294.8251
G1 X133.2917 Y295.0614
G3 X133.1561 Y295.2479 I-11.2917 J-8.0614
G1 X132.9121 Y295.2616
G1 X133.1561 Y295.2479
G3 X134.675 Y298.2184 I-5.0641 J4.4629
G3 X134.4865 Y298.9017 I-0.7314 J0.1658
G3 X133.9017 Y299.4865 I-12.4865 J-11.9017
G3 X133.2184 Y299.675 I-0.5175 J-0.5429
G3 X130.2479 Y298.1561 I1.4925 J-6.5829
G1 X130.2616 Y297.9121
G1 X130.2479 Y298.1561
G3 X130.0614 Y298.2917 I-8.2479 J-11.1561
G1 X129.8251 Y298.2293
G1 X130.0614 Y298.2917
G3 X130.588 Y301.5861 I-6.1953 J2.6796
G3 X130.1975 Y302.1777 I-0.7469 J-0.0683
G3 X129.4607 Y302.5532 I-8.1975 J-15.1777
G3 X128.7525 Y302.5213 I-0.3244 J-0.6762
G3 X126.3968 Y300.1589 I3.4537 J-5.7995
G1 X126.4852 Y299.931
G1 X126.3968 Y300.1589
G3 X126.1775 Y300.2301 I-4.3968 J-13.1589
G1 X125.972 Y300.0977
G1 X126.1775 Y300.2301
G3 X125.6603 Y303.5261 I-6.7202 J0.634
G3 X125.1061 Y303.968 I-0.6892 J-0.2958
G3 X124.2893 Y304.0974 I-3.1061 J-16.968
G3 X123.6257 Y303.8483 I-0.0995 J-0.7434
G3 X122.1153 Y300.8735 I5.0768 J-4.4485
G1 X122.2698 Y300.6841
G1 X122.1153 Y300.8735
G3 X121.8847 I-0.1153 J-13.8735
G1 X121.7302 Y300.6841
G1 X121.8847 Y300.8735
G3 X120.3743 Y303.8483 I-6.5872 J-1.4737
G3 X119.7107 Y304.0974 I-0.5641 J-0.4943
G3 X118.8939 Y303.968 I2.2893 J-17.0974
G3 X118.3397 Y303.5261 I0.135 J-0.7377
G3 X117.8225 Y300.2301 I6.203 J-2.6619
G1 X118.028 Y300.0977
G1 X117.8225 Y300.2301
G3 X117.6032 Y300.1589 I4.1775 J-13.2301
G1 X117.5148 Y299.931
G1 X117.6032 Y300.1589
G3 X115.2475 Y302.5213 I-5.8094 J-3.4371
G3 X114.5393 Y302.5532 I-0.3837 J-0.6444
G3 X113.8025 Y302.1777 I7.4607 J-15.5532
G3 X113.412 Y301.5861 I0.3564 J-0.6599
G3 X113.9386 Y298.2917 I6.7219 J-0.6148
G1 X114.1749 Y298.2293
G1 X113.9386 Y298.2917
G3 X113.7521 Y298.1561 I8.0614 J-11.2917
G1 X113.7384 Y297.9121
G1 X113.7521 Y298.1561
G3 X110.7816 Y299.675 I-4.4629 J-5.0641
G3 X110.0983 Y299.4865 I-0.1658 J-0.7314
G3 X109.5135 Y298.9017 I11.9017 J-12.4865
G3 X109.325 Y298.2184 I0.5429 J-0.5175
G3 X110.8439 Y295.2479 I6.5829 J1.4925
G1 X111.0879 Y295.2616
G1 X110.8439 Y295.2479
G3 X110.7083 Y295.0614 I11.1561 J-8.2479
G1 X110.7707 Y294.8251
G1 X110.7083 Y295.0614
G3 X107.4139 Y295.588 I-2.6796 J-6.1953
G3 X106.8223 Y295.1975 I0.0683 J-0.7469
G3 X106.4468 Y294.4607 I15.1777 J-8.1975
G3 X106.4787 Y293.7525 I0.6762 J-0.3244
G3 X108.8411 Y291.3968 I5.7995 J3.4537
G1 X109.069 Y291.4852
G1 X108.8411 Y291.3968
G3 X108.7699 Y291.1775 I13.1589 J-4.3968
G1 X108.9023 Y290.972
G1 X108.7699 Y291.1775
G3 X105.4739 Y290.6603 I-0.634 J-6.7202
G3 X105.032 Y290.1061 I0.2958 J-0.6892
G3 X104.9026 Y289.2893 I16.968 J-3.1061
G3 X105.1517 Y288.6257 I0.7434 J-0.0995
G3 X108.1265 Y287.1153 I4.4485 J5.0768
G1 X108.3159 Y287.2698
G1 X108.1265 Y287.1153
G3 Y286.8847 I13.8735 J-0.1153
G1 X108.3159 Y286.7302
G1 X108.1265 Y286.8847
G3 X105.1517 Y285.3743 I1.4737 J-6.5872
G3 X104.8961 Y284.7937 I0.4943 J-0.5641
( Contour5 )
S1000
G0 Z3.0
G0 X16.4986 Y256.8031
G1 F300.0 Z-1.0
G1 F800.0 X11.2486
G3 X10.4986 Y256.0531 I0.0 J-0.75
G1 Y236.0531
G3 X11.2486 Y235.3031 I0.75 J0.0
G1 X16.4986
G1 X16.7182 Y235.5227
G1 X16.4986 Y235.3031
G1 Y226.8031
G1 X16.7182 Y226.5834
G1 X16.4986 Y226.8031
G1 X11.2486
G3 X10.4986 Y226.0531 I0.0 J-0.75
G1 Y206.0531
G3 X11.2486 Y205.3031 I0.75 J0.0
G1 X16.4986
G1 X16.7182 Y205.5227
G1 X16.4986 Y205.3031
G1 Y201.0531
G3 X17.2486 Y200.3031 I0.75 J0.0
G1 X40.2486
G3 X40.9986 Y201.0531 I0.0 J0.75
G1 Y205.3031
G1 X40.7789 Y205.5227
G1 X40.9986 Y205.3031
G1 X74.4986
G1 X74.7182 Y205.5227
G1 X74.4986 Y205.3031
G1 Y201.0531
G3 X75.2486 Y200.3031 I0.75 J0.0
G1 X82.0086
G3 X82.7586 Y201.0531 I0.0 J0.75
G1 Y205.3031
G1 X82.5389 Y205.5227
G1 X82.7586 Y205.3031
G1 X116.2586
G1 X116.4782 Y205.5227
G1 X116.2586 Y205.3031
G1 Y201.0531
G3 X117.0086 Y200.3031 I0.75 J0.0
G1 X140.0086
G3 X140.7586 Y201.0531 I0.0 J0.75
G1 Y205.3031
G1 X140.5389 Y205.5227
G1 X140.7586 Y205.3031
G1 X146.0086
G3 X146.7586 Y206.0531 I0.0 J0.75
G1 Y226.0531
G3 X146.0086 Y226.8031 I-0.75 J0.0
G1 X140.7586
G1 X140.5389 Y226.5834
G1 X140.7586 Y226.8031
G1 Y235.3031
G1 X140.5389 Y235.5227
G1 X140.7586 Y235.3031
G1 X146.0086
G3 X146.7586 Y236.0531 I0.0 J0.75
G1 Y256.0531
G3 X146.0086 Y256.8031 I-0.75 J0.0
G1 X140.7586
G1 X140.5389 Y256.5834
G1 X140.7586 Y256.8031
G1 Y261.0531
G3 X140.0086 Y261.8031 I-0.75 J0.0
G1 X117.0086
G3 X116.2586 Y261.0531 I0.0 J-0.75
G1 Y256.8031
G1 X116.4782 Y256.5834
G1 X116.2586 Y256.8031
G1 X82.7586
G1 X82.5389 Y256.5834
G1 X82.7586 Y256.8031
G1 Y261.0531
G3 X82.0086 Y261.8031 I-0.75 J0.0
G1 X75.2486
G3 X74.4986 Y261.0531 I0.0 J-0.75
G1 Y256.8031
G1 X74.7182 Y256.5834
G1 X74.4986 Y256.8031
G1 X40.9986
G1 X40.7789 Y256.5834
G1 X40.9986 Y256.8031
G1 Y261.0531
G3 X40.2486 Y261.8031 I-0.75 J0.0
G1 X17.2486
G3 X16.4986 Y261.0531 I0.0 J-0.75
G1 Y256.8031
G1 X16.7182 Y256.5834
G1 X16.4986 Y256.8031
G1 F300.0 Z-2.0
G1 F800.0 X11.2486
G3 X10.4986 Y256.0531 I0.0 J-0.75
G1 Y236.0531
G3 X11.2486 Y235.3031 I0.75 J0.0
G1 X16.4986
G1 X16.7182 Y235.5227
G1 X16.4986 Y235.3031
G1 Y226.8031
G1 X16.7182 Y226.5834
G1 X16.4986 Y226.8031
G1 X11.2486
G3 X10.4986 Y226.0531 I0.0 J-0.75
G1 Y206.0531
G3 X11.2486 Y205.3031 I0.75 J0.0
G1 X16.4986
G1 X16.7182 Y205.5227
G1 X16.4986 Y205.3031
G1 Y201.0531
G3 X17.2486 Y200.3031 I0.75 J0.0
G1 X40.2486
G3 X40.9986 Y201.0531 I0.0 J0.75
G1 Y205.3031
G1 X40.7789 Y205.5227
G1 X40.9986 Y205.3031
G1 X74.4986
G1 X74.7182 Y205.5227
G1 X74.4986 Y205.3031
G1 Y201.0531
G3 X75.2486 Y200.3031 I0.75 J0.0
G1 X82.0086
G3 X82.7586 Y201.0531 I0.0 J0.75
G1 Y205.3031
G1 X82.5389 Y205.5227
G1 X82.7586 Y205.3031
G1 X116.2586
G1 X116.4782 Y205.5227
G1 X116.2586 Y205.3031
G1 Y201.0531
G3 X117.0086 Y200.3031 I0.75 J0.0
G1 X140.0086
G3 X140.7586 Y201.0531 I0.0 J0.75
G1 Y205.3031
G1 X140.5389 Y205.5227
G1 X140.7586 Y205.3031
G1 X146.0086
G3 X146.7586 Y206.0531 I0.0 J0.75
G1 Y226.0531
G3 X146.0086 Y226.8031 I-0.75 J0.0
G1 X140.7586
G1 X140.5389 Y226.5834
G1 X140.7586 Y226.8031
G1 Y235.3031
G1 X140.5389 Y235.5227
G1 X140.7586 Y235.3031
G1 X146.0086
G3 X146.7586 Y236.0531 I0.0 J0.75
G1 Y256.0531
G3 X146.0086 Y256.8031 I-0.75 J0.0
G1 X140.7586
G1 X140.5389 Y256.5834
G1 X140.7586 Y256.8031
G1 Y261.0531
G3 X140.0086 Y261.8031 I-0.75 J0.0
G1 X117.0086
G3 X116.2586 Y261.0531 I0.0 J-0.75
G1 Y256.8031
G1 X116.4782 Y256.5834
G1 X116.2586 Y256.8031
G1 X82.7586
G1 X82.5389 Y256.5834
G1 X82.7586 Y256.8031
G1 Y261.0531
G3 X82.0086 Y261.8031 I-0.75 J0.0
G1 X75.2486
G3 X74.4986 Y261.0531 I0.0 J-0.75
G1 Y256.8031
G1 X74.7182 Y256.5834
G1 X74.4986 Y256.8031
G1 X40.9986
G1 X40.7789 Y256.5834
G1 X40.9986 Y256.8031
G1 Y261.0531
G3 X40.2486 Y261.8031 I-0.75 J0.0
G1 X17.2486
G3 X16.4986 Y261.0531 I0.0 J-0.75
G1 Y256.8031
G1 X16.7182 Y256.5834
G1 X16.4986 Y256.8031
G1 F300.0 Z-3.0
G1 F800.0 X11.2486
G3 X10.4986 Y256.0531 I0.0 J-0.75
G1 Y236.0531
G3 X11.2486 Y235.3031 I0.75 J0.0
G1 X16.4986
G1 X16.7182 Y235.5227
G1 X16.4986 Y235.3031
G1 Y226.8031
G1 X16.7182 Y226.5834
G1 X16.4986 Y226.8031
G1 X11.2486
G3 X10.4986 Y226.0531 I0.0 J-0.75
G1 Y206.0531
G3 X11.2486 Y205.3031 I0.75 J0.0
G1 X16.4986
G1 X16.7182 Y205.5227
G1 X16.4986 Y205.3031
G1 Y201.0531
G3 X17.2486 Y200.3031 I0.75 J0.0
G1 X40.2486
G3 X40.9986 Y201.0531 I0.0 J0.75
G1 Y205.3031
G1 X40.7789 Y205.5227
G1 X40.9986 Y205.3031
G1 X74.4986
G1 X74.7182 Y205.5227
G1 X74.4986 Y205.3031
G1 Y201.0531
G3 X75.2486 Y200.3031 I0.75 J0.0
G1 X82.0086
G3 X82.7586 Y201.0531 I0.0 J0.75
G1 Y205.3031
G1 X82.5389 Y205.5227
G1 X82.7586 Y205.3031
G1 X116.2586
G1 X116.4782 Y205.5227
G1 X116.2586 Y205.3031
G1 Y201.0531
G3 X117.0086 Y200.3031 I0.75 J0.0
G1 X140.0086
G3 X140.7586 Y201.0531 I0.0 J0.75
G1 Y205.3031
G1 X140.5389 Y205.5227
G1 X140.7586 Y205.3031
G1 X146.0086
G3 X146.7586 Y206.0531 I0.0 J0.75
G1 Y226.0531
G3 X146.0086 Y226.8031 I-0.75 J0.0
G1 X140.7586
G1 X140.5389 Y226.5834
G1 X140.7586 Y226.8031
G1 Y235.3031
G1 X140.5389 Y235.5227
G1 X140.7586 Y235.3031
G1 X146.0086
G3 X146.7586 Y236.0531 I0.0 J0.75
G1 Y256.0531
G3 X146.0086 Y256.8031 I-0.75 J0.0
G1 X140.7586
G1 X140.5389 Y256.5834
G1 X140.7586 Y256.8031
G1 Y261.0531
G3 X140.0086 Y261.8031 I-0.75 J0.0
G1 X117.0086
G3 X116.2586 Y261.0531 I0.0 J-0.75
G1 Y256.8031
G1 X116.4782 Y256.5834
G1 X116.2586 Y256.8031
G1 X82.7586
G1 X82.5389 Y256.5834
G1 X82.7586 Y256.8031
G1 Y261.0531
G3 X82.0086 Y261.8031 I-0.75 J0.0
G1 X75.2486
G3 X74.4986 Y261.0531 I0.0 J-0.75
G1 Y256.8031
G1 X74.7182 Y256.5834
G1 X74.4986 Y256.8031
G1 X40.9986
G1 X40.7789 Y256.5834
G1 X40.9986 Y256.8031
G1 Y261.0531
G3 X40.2486 Y261.8031 I-0.75 J0.0
G1 X17.2486
G3 X16.4986 Y261.0531 I0.0 J-0.75
G1 Y256.8031
G1 X16.7182 Y256.5834
G1 X16.4986 Y256.8031
G1 F300.0 Z-4.0
G1 F800.0 X11.2486
G3 X10.4986 Y256.0531 I0.0 J-0.75
G1 Y236.0531
G3 X11.2486 Y235.3031 I0.75 J0.0
G1 X16.4986
G1 X16.7182 Y235.5227
G1 X16.4986 Y235.3031
G1 Y232.5097
G1 Y230.2597 Z-3.0
G1 Y228.0097 Z-4.0
G1 Y226.8031
G1 X16.7182 Y226.5834
G1 X16.4986 Y226.8031
G1 X11.2486
G3 X10.4986 Y226.0531 I0.0 J-0.75
G1 Y206.0531
G3 X11.2486 Y205.3031 I0.75 J0.0
G1 X16.4986
G1 X16.7182 Y205.5227
G1 X16.4986 Y205.3031
G1 Y201.0531
G3 X17.2486 Y200.3031 I0.75 J0.0
G1 X40.2486
G3 X40.9986 Y201.0531 I0.0 J0.75
G1 Y205.3031
G1 X40.7789 Y205.5227
G1 X40.9986 Y205.3031
G1 X44.3786
G1 X46.6286 Z-3.0
G1 X48.8786 Z-4.0
G1 X74.4986
G1 X74.7182 Y205.5227
G1 X74.4986 Y205.3031
G1 Y201.0531
G3 X75.2486 Y200.3031 I0.75 J0.0
G1 X82.0086
G3 X82.7586 Y201.0531 I0.0 J0.75
G1 Y205.3031
G1 X82.5389 Y205.5227
G1 X82.7586 Y205.3031
G1 X109.9652
G1 X112.2152 Z-3.0
G1 X114.4652 Z-4.0
G1 X116.2586
G1 X116.4782 Y205.5227
G1 X116.2586 Y205.3031
G1 Y201.0531
G3 X117.0086 Y200.3031 I0.75 J0.0
G1 X140.0086
G3 X140.7586 Y201.0531 I0.0 J0.75
G1 Y205.3031
G1 X140.5389 Y205.5227
G1 X140.7586 Y205.3031
G1 X146.0086
G3 X146.7586 Y206.0531 I0.0 J0.75
G1 Y226.0531
G3 X146.0086 Y226.8031 I-0.75 J0.0
G1 X140.7586
G1 X140.5389 Y226.5834
G1 X140.7586 Y226.8031
G1 Y229.5964
G1 Y231.8464 Z-3.0
G1 Y234.0964 Z-4.0
G1 Y235.3031
G1 X140.5389 Y235.5227
G1 X140.7586 Y235.3031
G1 X146.0086
G3 X146.7586 Y236.0531 I0.0 J0.75
G1 Y256.0531
G3 X146.0086 Y256.8031 I-0.75 J0.0
G1 X140.7586
G1 X140.5389 Y256.5834
G1 X140.7586 Y256.8031
G1 Y261.0531
G3 X140.0086 Y261.8031 I-0.75 J0.0
G1 X117.0086
G3 X116.2586 Y261.0531 I0.0 J-0.75
G1 Y256.8031
G1 X116.4782 Y256.5834
G1 X116.2586 Y256.8031
G1 X112.8786
G1 X110.6286 Z-3.0
G1 X108.3786 Z-4.0
G1 X82.7586
G1 X82.5389 Y256.5834
G1 X82.7586 Y256.8031
G1 Y261.0531
G3 X82.0086 Y261.8031 I-0.75 J0.0
G1 X75.2486
G3 X74.4986 Y261.0531 I0.0 J-0.75
G1 Y256.8031
G1 X74.7182 Y256.5834
G1 X74.4986 Y256.8031
G1 X47.2919
G1 X45.0419 Z-3.0
G1 X42.7919 Z-4.0
G1 X40.9986
G1 X40.7789 Y256.5834
G1 X40.9986 Y256.8031
G1 Y261.0531
G3 X40.2486 Y261.8031 I-0.75 J0.0
G1 X17.2486
G3 X16.4986 Y261.0531 I0.0 J-0.75
G1 Y256.8031
G1 X16.7182 Y256.5834
G1 X16.4986 Y256.8031
G1 F300.0 Z-5.0
G1 F800.0 X11.2486
G3 X10.4986 Y256.0531 I0.0 J-0.75
G1 Y236.0531
G3 X11.2486 Y235.3031 I0.75 J0.0
G1 X16.4986
G1 X16.7182 Y235.5227
G1 X16.4986 Y235.3031
G1 Y232.5097
G1 Y230.2597 Z-3.0
G1 Y228.0097 Z-5.0
G1 Y226.8031
G1 X16.7182 Y226.5834
G1 X16.4986 Y226.8031
G1 X11.2486
G3 X10.4986 Y226.0531 I0.0 J-0.75
G1 Y206.0531
G3 X11.2486 Y205.3031 I0.75 J0.0
G1 X16.4986
G1 X16.7182 Y205.5227
G1 X16.4986 Y205.3031
G1 Y201.0531
G3 X17.2486 Y200.3031 I0.75 J0.0
G1 X40.2486
G3 X40.9986 Y201.0531 I0.0 J0.75
G1 Y205.3031
G1 X40.7789 Y205.5227
G1 X40.9986 Y205.3031
G1 X44.3786
G1 X46.6286 Z-3.0
G1 X48.8786 Z-5.0
G1 X74.4986
G1 X74.7182 Y205.5227
G1 X74.4986 Y205.3031
G1 Y201.0531
G3 X75.2486 Y200.3031 I0.75 J0.0
G1 X82.0086
G3 X82.7586 Y201.0531 I0.0 J0.75
G1 Y205.3031
G1 X82.5389 Y205.5227
G1 X82.7586 Y205.3031
G1 X109.9652
G1 X112.2152 Z-3.0
G1 X114.4652 Z-5.0
G1 X116.2586
G1 X116.4782 Y205.5227
G1 X116.2586 Y205.3031
G1 Y201.0531
G3 X117.0086 Y200.3031 I0.75 J0.0
G1 X140.0086
G3 X140.7586 Y201.0531 I0.0 J0.75
G1 Y205.3031
G1 X140.5389 Y205.5227
G1 X140.7586 Y205.3031
G1 X146.0086
G3 X146.7586 Y206.0531 I0.0 J0.75
G1 Y226.0531
G3 X146.0086 Y226.8031 I-0.75 J0.0
G1 X140.7586
G1 X140.5389 Y226.5834
G1 X140.7586 Y226.8031
G1 Y229.5964
G1 Y231.8464 Z-3.0
G1 Y234.0964 Z-5.0
G1 Y235.3031
G1 X140.5389 Y235.5227
G1 X140.7586 Y235.3031
G1 X146.0086
G3 X146.7586 Y236.0531 I0.0 J0.75
G1 Y256.0531
G3 X146.0086 Y256.8031 I-0.75 J0.0
G1 X140.7586
G1 X140.5389 Y256.5834
G1 X140.7586 Y256.8031
G1 Y261.0531
G3 X140.0086 Y261.8031 I-0.75 J0.0
G1 X117.0086
G3 X116.2586 Y261.0531 I0.0 J-0.75
G1 Y256.8031
G1 X116.4782 Y256.5834
G1 X116.2586 Y256.8031
G1 X112.8786
G1 X110.6286 Z-3.0
G1 X108.3786 Z-5.0
G1 X82.7586
G1 X82.5389 Y256.5834
G1 X82.7586 Y256.8031
G1 Y261.0531
G3 X82.0086 Y261.8031 I-0.75 J0.0
G1 X75.2486
G3 X74.4986 Y261.0531 I0.0 J-0.75
G1 Y256.8031
G1 X74.7182 Y256.5834
G1 X74.4986 Y256.8031
G1 X47.2919
G1 X45.0419 Z-3.0
G1 X42.7919 Z-5.0
G1 X40.9986
G1 X40.7789 Y256.5834
G1 X40.9986 Y256.8031
G1 Y261.0531
G3 X40.2486 Y261.8031 I-0.75 J0.0
G1 X17.2486
G3 X16.4986 Y261.0531 I0.0 J-0.75
G1 Y256.8031
G1 X16.7182 Y256.5834
G1 X16.4986 Y256.8031
G1 F300.0 Z-6.0
G1 F800.0 X11.2486
G3 X10.4986 Y256.0531 I0.0 J-0.75
G1 Y236.0531
G3 X11.2486 Y235.3031 I0.75 J0.0
G1 X16.4986
G1 X16.7182 Y235.5227
G1 X16.4986 Y235.3031
G1 Y232.5097
G1 Y230.2597 Z-3.0
G1 Y228.0097 Z-6.0
G1 Y226.8031
G1 X16.7182 Y226.5834
G1 X16.4986 Y226.8031
G1 X11.2486
G3 X10.4986 Y226.0531 I0.0 J-0.75
G1 Y206.0531
G3 X11.2486 Y205.3031 I0.75 J0.0
G1 X16.4986
G1 X16.7182 Y205.5227
G1 X16.4986 Y205.3031
G1 Y201.0531
G3 X17.2486 Y200.3031 I0.75 J0.0
G1 X40.2486
G3 X40.9986 Y201.0531 I0.0 J0.75
G1 Y205.3031
G1 X40.7789 Y205.5227
G1 X40.9986 Y205.3031
G1 X44.3786
G1 X46.6286 Z-3.0
G1 X48.8786 Z-6.0
G1 X74.4986
G1 X74.7182 Y205.5227
G1 X74.4986 Y205.3031
G1 Y201.0531
G3 X75.2486 Y200.3031 I0.75 J0.0
G1 X82.0086
G3 X82.7586 Y201.0531 I0.0 J0.75
G1 Y205.3031
G1 X82.5389 Y205.5227
G1 X82.7586 Y205.3031
G1 X109.9652
G1 X112.2152 Z-3.0
G1 X114.4652 Z-6.0
G1 X116.2586
G1 X116.4782 Y205.5227
G1 X116.2586 Y205.3031
G1 Y201.0531
G3 X117.0086 Y200.3031 I0.75 J0.0
G1 X140.0086
G3 X140.7586 Y201.0531 I0.0 J0.75
G1 Y205.3031
G1 X140.5389 Y205.5227
G1 X140.7586 Y205.3031
G1 X146.0086
G3 X146.7586 Y206.0531 I0.0 J0.75
G1 Y226.0531
G3 X146.0086 Y226.8031 I-0.75 J0.0
G1 X140.7586
G1 X140.5389 Y226.5834
G1 X140.7586 Y226.8031
G1 Y229.5964
G1 Y231.8464 Z-3.0
G1 Y234.0964 Z-6.0
G1 Y235.3031
G1 X140.5389 Y235.5227
G1 X140.7586 Y235.3031
G1 X146.0086
G3 X146.7586 Y236.0531 I0.0 J0.75
G1 Y256.0531
G3 X146.0086 Y256.8031 I-0.75 J0.0
G1 X140.7586
G1 X140.5389 Y256.5834
G1 X140.7586 Y256.8031
G1 Y261.0531
G3 X140.0086 Y261.8031 I-0.75 J0.0
G1 X117.0086
G3 X116.2586 Y261.0531 I0.0 J-0.75
G1 Y256.8031
G1 X116.4782 Y256.5834
G1 X116.2586 Y256.8031
G1 X112.8786
G1 X110.6286 Z-3.0
G1 X108.3786 Z-6.0
G1 X82.7586
G1 X82.5389 Y256.5834
G1 X82.7586 Y256.8031
G1 Y261.0531
G3 X82.0086 Y261.8031 I-0.75 J0.0
G1 X75.2486
G3 X74.4986 Y261.0531 I0.0 J-0.75
G1 Y256.8031
G1 X74.7182 Y256.5834
G1 X74.4986 Y256.8031
G1 X47.2919
G1 X45.0419 Z-3.0
G1 X42.7919 Z-6.0
G1 X40.9986
G1 X40.7789 Y256.5834
G1 X40.9986 Y256.8031
G1 Y261.0531
G3 X40.2486 Y261.8031 I-0.75 J0.0
G1 X17.2486
G3 X16.4986 Y261.0531 I0.0 J-0.75
G1 Y256.8031
G1 X16.7182 Y256.5834
G1 X16.4986 Y256.8031
G0 Z3.0
G0 Y189.6407
G1 F300.0 Z-1.0
G1 F800.0 X10.3128
G3 X9.5628 Y188.8907 I0.0 J-0.75
G1 Y15.8907
G3 X10.3128 Y15.1407 I0.75 J0.0
G1 X29.0628
G1 X29.2825 Y15.3604
G1 X29.0628 Y15.1407
G1 Y9.8907
G3 X29.8128 Y9.1407 I0.75 J0.0
G1 X39.8128
G3 X40.5628 Y9.8907 I0.0 J0.75
G1 Y15.1407
G1 X40.3432 Y15.3604
G1 X40.5628 Y15.1407
G1 X45.3128
G3 X46.0628 Y15.8907 I0.0 J0.75
G1 Y25.1407
G1 X45.8432 Y25.3604
G1 X46.0628 Y25.1407
G1 X72.5628
G1 X72.7825 Y25.3604
G1 X72.5628 Y25.1407
G1 Y15.8907
G3 X73.3128 Y15.1407 I0.75 J0.0
G1 X78.0628
G1 X78.2825 Y15.3604
G1 X78.0628 Y15.1407
G1 Y9.8907
G3 X78.8128 Y9.1407 I0.75 J0.0
G1 X88.8128
G3 X89.5628 Y9.8907 I0.0 J0.75
G1 Y15.1407
G1 X89.3432 Y15.3604
G1 X89.5628 Y15.1407
G1 X108.3128
G3 X109.0628 Y15.8907 I0.0 J0.75
G1 Y188.8907
G3 X108.3128 Y189.6407 I-0.75 J0.0
G1 X69.3128
G3 X68.5628 Y188.8907 I0.0 J-0.75
G1 Y183.6407
G1 X68.7825 Y183.421
G1 X68.5628 Y183.6407
G1 X50.0628
G1 X49.8432 Y183.421
G1 X50.0628 Y183.6407
G1 Y188.8907
G3 X49.3128 Y189.6407 I-0.75 J0.0
G1 X16.4986
G1 F300.0 Z-2.0
G1 F800.0 X10.3128
G3 X9.5628 Y188.8907 I0.0 J-0.75
G1 Y15.8907
G3 X10.3128 Y15.1407 I0.75 J0.0
G1 X29.0628
G1 X29.2825 Y15.3604
G1 X29.0628 Y15.1407
G1 Y9.8907
G3 X29.8128 Y9.1407 I0.75 J0.0
G1 X39.8128
G3 X40.5628 Y9.8907 I0.0 J0.75
G1 Y15.1407
G1 X40.3432 Y15.3604
G1 X40.5628 Y15.1407
G1 X45.3128
G3 X46.0628 Y15.8907 I0.0 J0.75
G1 Y25.1407
G1 X45.8432 Y25.3604
G1 X46.0628 Y25.1407
G1 X72.5628
G1 X72.7825 Y25.3604
G1 X72.5628 Y25.1407
G1 Y15.8907
G3 X73.3128 Y15.1407 I0.75 J0.0
G1 X78.0628
G1 X78.2825 Y15.3604
G1 X78.0628 Y15.1407
G1 Y9.8907
G3 X78.8128 Y9.1407 I0.75 J0.0
G1 X88.8128
G3 X89.5628 Y9.8907 I0.0 J0.75
G1 Y15.1407
G1 X89.3432 Y15.3604
G1 X89.5628 Y15.1407
G1 X108.3128
G3 X109.0628 Y15.8907 I0.0 J0.75
G1 Y188.8907
G3 X108.3128 Y189.6407 I-0.75 J0.0
G1 X69.3128
G3 X68.5628 Y188.8907 I0.0 J-0.75
G1 Y183.6407
G1 X68.7825 Y183.421
G1 X68.5628 Y183.6407
G1 X50.0628
G1 X49.8432 Y183.421
G1 X50.0628 Y183.6407
G1 Y188.8907
G3 X49.3128 Y189.6407 I-0.75 J0.0
G1 X16.4986
G1 F300.0 Z-3.0
G1 F800.0 X10.3128
G3 X9.5628 Y188.8907 I0.0 J-0.75
G1 Y15.8907
G3 X10.3128 Y15.1407 I0.75 J0.0
G1 X29.0628
G1 X29.2825 Y15.3604
G1 X29.0628 Y15.1407
G1 Y9.8907
G3 X29.8128 Y9.1407 I0.75 J0.0
G1 X39.8128
G3 X40.5628 Y9.8907 I0.0 J0.75
G1 Y15.1407
G1 X40.3432 Y15.3604
G1 X40.5628 Y15.1407
G1 X45.3128
G3 X46.0628 Y15.8907 I0.0 J0.75
G1 Y25.1407
G1 X45.8432 Y25.3604
G1 X46.0628 Y25.1407
G1 X72.5628
G1 X72.7825 Y25.3604
G1 X72.5628 Y25.1407
G1 Y15.8907
G3 X73.3128 Y15.1407 I0.75 J0.0
G1 X78.0628
G1 X78.2825 Y15.3604
G1 X78.0628 Y15.1407
G1 Y9.8907
G3 X78.8128 Y9.1407 I0.75 J0.0
G1 X88.8128
G3 X89.5628 Y9.8907 I0.0 J0.75
G1 Y15.1407
G1 X89.3432 Y15.3604
G1 X89.5628 Y15.1407
G1 X108.3128
G3 X109.0628 Y15.8907 I0.0 J0.75
G1 Y188.8907
G3 X108.3128 Y189.6407 I-0.75 J0.0
G1 X69.3128
G3 X68.5628 Y188.8907 I0.0 J-0.75
G1 Y183.6407
G1 X68.7825 Y183.421
G1 X68.5628 Y183.6407
G1 X50.0628
G1 X49.8432 Y183.421
G1 X50.0628 Y183.6407
G1 Y188.8907
G3 X49.3128 Y189.6407 I-0.75 J0.0
G1 X16.4986
G1 F300.0 Z-4.0
G1 F800.0 X10.3128
G3 X9.5628 Y188.8907 I0.0 J-0.75
G1 Y64.25
G1 Y62.0 Z-3.0
G1 Y59.75 Z-4.0
G1 Y15.8907
G3 X10.3128 Y15.1407 I0.75 J0.0
G1 X29.0628
G1 X29.2825 Y15.3604
G1 X29.0628 Y15.1407
G1 Y9.8907
G3 X29.8128 Y9.1407 I0.75 J0.0
G1 X39.8128
G3 X40.5628 Y9.8907 I0.0 J0.75
G1 Y15.1407
G1 X40.3432 Y15.3604
G1 X40.5628 Y15.1407
G1 X45.3128
G3 X46.0628 Y15.8907 I0.0 J0.75
G1 Y25.1407
G1 X45.8432 Y25.3604
G1 X46.0628 Y25.1407
G1 X55.75
G1 X58.0 Z-3.0
G1 X60.25 Z-4.0
G1 X72.5628
G1 X72.7825 Y25.3604
G1 X72.5628 Y25.1407
G1 Y15.8907
G3 X73.3128 Y15.1407 I0.75 J0.0
G1 X78.0628
G1 X78.2825 Y15.3604
G1 X78.0628 Y15.1407
G1 Y9.8907
G3 X78.8128 Y9.1407 I0.75 J0.0
G1 X88.8128
G3 X89.5628 Y9.8907 I0.0 J0.75
G1 Y15.1407
G1 X89.3432 Y15.3604
G1 X89.5628 Y15.1407
G1 X108.3128
G3 X109.0628 Y15.8907 I0.0 J0.75
G1 Y28.75
G1 Y31.0 Z-3.0
G1 Y33.25 Z-4.0
G1 Y148.75
G1 Y151.0 Z-3.0
G1 Y153.25 Z-4.0
G1 Y188.8907
G3 X108.3128 Y189.6407 I-0.75 J0.0
G1 X93.25
G1 X91.0 Z-3.0
G1 X88.75 Z-4.0
G1 X69.3128
G3 X68.5628 Y188.8907 I0.0 J-0.75
G1 Y183.6407
G1 X68.7825 Y183.421
G1 X68.5628 Y183.6407
G1 X50.0628
G1 X49.8432 Y183.421
G1 X50.0628 Y183.6407
G1 Y188.8907
G3 X49.3128 Y189.6407 I-0.75 J0.0
G1 X35.25
G1 X33.0 Z-3.0
G1 X30.75 Z-4.0
G1 X16.4986
G1 F300.0 Z-5.0
G1 F800.0 X10.3128
G3 X9.5628 Y188.8907 I0.0 J-0.75
G1 Y64.25
G1 Y62.0 Z-3.0
G1 Y59.75 Z-5.0
G1 Y15.8907
G3 X10.3128 Y15.1407 I0.75 J0.0
G1 X29.0628
G1 X29.2825 Y15.3604
G1 X29.0628 Y15.1407
G1 Y9.8907
G3 X29.8128 Y9.1407 I0.75 J0.0
G1 X39.8128
G3 X40.5628 Y9.8907 I0.0 J0.75
G1 Y15.1407
G1 X40.3432 Y15.3604
G1 X40.5628 Y15.1407
G1 X45.3128
G3 X46.0628 Y15.8907 I0.0 J0.75
G1 Y25.1407
G1 X45.8432 Y25.3604
G1 X46.0628 Y25.1407
G1 X55.75
G1 X58.0 Z-3.0
G1 X60.25 Z-5.0
G1 X72.5628
G1 X72.7825 Y25.3604
G1 X72.5628 Y25.1407
G1 Y15.8907
G3 X73.3128 Y15.1407 I0.75 J0.0
G1 X78.0628
G1 X78.2825 Y15.3604
G1 X78.0628 Y15.1407
G1 Y9.8907
G3 X78.8128 Y9.1407 I0.75 J0.0
G1 X88.8128
G3 X89.5628 Y9.8907 I0.0 J0.75
G1 Y15.1407
G1 X89.3432 Y15.3604
G1 X89.5628 Y15.1407
G1 X108.3128
G3 X109.0628 Y15.8907 I0.0 J0.75
G1 Y28.75
G1 Y31.0 Z-3.0
G1 Y33.25 Z-5.0
G1 Y148.75
G1 Y151.0 Z-3.0
G1 Y153.25 Z-5.0
G1 Y188.8907
G3 X108.3128 Y189.6407 I-0.75 J0.0
G1 X93.25
G1 X91.0 Z-3.0
G1 X88.75 Z-5.0
G1 X69.3128
G3 X68.5628 Y188.8907 I0.0 J-0.75
G1 Y183.6407
G1 X68.7825 Y183.421
G1 X68.5628 Y183.6407
G1 X50.0628
G1 X49.8432 Y183.421
G1 X50.0628 Y183.6407
G1 Y188.8907
G3 X49.3128 Y189.6407 I-0.75 J0.0
G1 X35.25
G1 X33.0 Z-3.0
G1 X30.75 Z-5.0
G1 X16.4986
G1 F300.0 Z-6.0
G1 F800.0 X10.3128
G3 X9.5628 Y188.8907 I0.0 J-0.75
G1 Y64.25
G1 Y62.0 Z-3.0
G1 Y59.75 Z-6.0
G1 Y15.8907
G3 X10.3128 Y15.1407 I0.75 J0.0
G1 X29.0628
G1 X29.2825 Y15.3604
G1 X29.0628 Y15.1407
G1 Y9.8907
G3 X29.8128 Y9.1407 I0.75 J0.0
G1 X39.8128
G3 X40.5628 Y9.8907 I0.0 J0.75
G1 Y15.1407
G1 X40.3432 Y15.3604
G1 X40.5628 Y15.1407
G1 X45.3128
G3 X46.0628 Y15.8907 I0.0 J0.75
G1 Y25.1407
G1 X45.8432 Y25.3604
G1 X46.0628 Y25.1407
G1 X55.75
G1 X58.0 Z-3.0
G1 X60.25 Z-6.0
G1 X72.5628
G1 X72.7825 Y25.3604
G1 X72.5628 Y25.1407
G1 Y15.8907
G3 X73.3128 Y15.1407 I0.75 J0.0
G1 X78.0628
G1 X78.2825 Y15.3604
G1 X78.0628 Y15.1407
G1 Y9.8907
G3 X78.8128 Y9.1407 I0.75 J0.0
G1 X88.8128
G3 X89.5628 Y9.8907 I0.0 J0.75
G1 Y15.1407
G1 X89.3432 Y15.3604
G1 X89.5628 Y15.1407
G1 X108.3128
G3 X109.0628 Y15.8907 I0.0 J0.75
G1 Y28.75
G1 Y31.0 Z-3.0
G1 Y33.25 Z-6.0
G1 Y148.75
G1 Y151.0 Z-3.0
G1 Y153.25 Z-6.0
G1 Y188.8907
G3 X108.3128 Y189.6407 I-0.75 J0.0
G1 X93.25
G1 X91.0 Z-3.0
G1 X88.75 Z-6.0
G1 X69.3128
G3 X68.5628 Y188.8907 I0.0 J-0.75
G1 Y183.6407
G1 X68.7825 Y183.421
G1 X68.5628 Y183.6407
G1 X50.0628
G1 X49.8432 Y183.421
G1 X50.0628 Y183.6407
G1 Y188.8907
G3 X49.3128 Y189.6407 I-0.75 J0.0
G1 X35.25
G1 X33.0 Z-3.0
G1 X30.75 Z-6.0
G1 X16.4986
G0 Z3.0
G0 X117.25
G1 F300.0 Z-1.0
G1 F800.0 Y10.0
G3 X118.0 Y9.25 I0.75 J0.0
G1 X138.7
G3 X139.45 Y10.0 I0.0 J0.75
G1 Y137.5852
G3 X138.7 Y138.3352 I-0.75 J0.0
G1 X136.075
G1 Y138.5808
G1 X135.9394 Y138.6758
G1 X136.075 Y138.5808
G1 X138.9565 Y139.6296
G3 X139.45 Y140.3344 I-0.2565 J0.7048
G1 Y141.2807
G3 X138.9565 Y141.9854 I-0.75 J0.0
G1 X136.075 Y143.0342
G1 X135.9394 Y142.9393
G1 X136.075 Y143.0342
G1 Y143.2932
G1 X135.9394 Y143.3882
G1 X136.075 Y143.2932
G1 X138.9565 Y144.342
G3 X139.45 Y145.0468 I-0.2565 J0.7048
G1 Y145.9931
G3 X138.9565 Y146.6978 I-0.75 J0.0
G1 X136.075 Y147.7466
G1 X135.9394 Y147.6516
G1 X136.075 Y147.7466
G1 Y148.0056
G1 X135.9394 Y148.1006
G1 X136.075 Y148.0056
G1 X138.9565 Y149.0544
G3 X139.45 Y149.7592 I-0.2565 J0.7048
G1 Y150.7054
G3 X138.9565 Y151.4102 I-0.75 J0.0
G1 X136.075 Y152.459
G1 X135.9394 Y152.364
G1 X136.075 Y152.459
G1 Y152.718
G1 X135.9394 Y152.813
G1 X136.075 Y152.718
G1 X138.9565 Y153.7668
G3 X139.45 Y154.4716 I-0.2565 J0.7048
G1 Y155.4178
G3 X138.9565 Y156.1226 I-0.75 J0.0
G1 X136.075 Y157.1714
G1 X135.9394 Y157.0764
G1 X136.075 Y157.1714
G1 Y157.4304
G1 X135.9394 Y157.5254
G1 X136.075 Y157.4304
G1 X138.9565 Y158.4792
G3 X139.45 Y159.1839 I-0.2565 J0.7048
G1 Y160.1302
G3 X138.9565 Y160.835 I-0.75 J0.0
G1 X136.075 Y161.8838
G1 X135.9394 Y161.7888
G1 X136.075 Y161.8838
G1 Y162.1428
G1 X135.9394 Y162.2377
G1 X136.075 Y162.1428
G1 X138.9565 Y163.1916
G3 X139.45 Y163.8963 I-0.2565 J0.7048
G1 Y164.8426
G3 X138.9565 Y165.5474 I-0.75 J0.0
G1 X136.075 Y166.5962
G1 X135.9394 Y166.5012
G1 X136.075 Y166.5962
G1 Y166.8552
G1 X135.9394 Y166.9501
G1 X136.075 Y166.8552
G1 X138.9565 Y167.9039
G3 X139.45 Y168.6087 I-0.2565 J0.7048
G1 Y169.555
G3 X138.9565 Y170.2598 I-0.75 J0.0
G1 X136.075 Y171.3086
G1 X135.9394 Y171.2136
G1 X136.075 Y171.3086
G1 Y171.5676
G1 X135.9394 Y171.6625
G1 X136.075 Y171.5676
G1 X138.9565 Y172.6163
G3 X139.45 Y173.3211 I-0.2565 J0.7048
G1 Y174.2674
G3 X138.9565 Y174.9722 I-0.75 J0.0
G1 X136.075 Y176.0209
G1 X135.9394 Y175.926
G1 X136.075 Y176.0209
G1 Y176.2799
G1 X135.9394 Y176.3749
G1 X136.075 Y176.2799
G1 X138.9565 Y177.3287
G3 X139.45 Y178.0335 I-0.2565 J0.7048
G1 Y178.9798
G3 X138.9565 Y179.6845 I-0.75 J0.0
G1 X136.075 Y180.7333
G1 X135.9394 Y180.6384
G1 X136.075 Y180.7333
G1 Y180.9923
G1 X135.9394 Y181.0873
G1 X136.075 Y180.9923
G1 X138.9565 Y182.0411
G3 X139.45 Y182.7459 I-0.2565 J0.7048
G1 Y183.6922
G3 X138.9565 Y184.3969 I-0.75 J0.0
G1 X136.075 Y185.4457
G1 X135.9394 Y185.3508
G1 X136.075 Y185.4457
G1 Y185.7047
G1 X135.9394 Y185.7997
G1 X136.075 Y185.7047
G1 X138.9565 Y186.7535
G3 X139.45 Y187.4583 I-0.2565 J0.7048
G1 Y188.4046
G3 X138.9565 Y189.1093 I-0.75 J0.0
G1 X136.075 Y190.1581
G1 X135.9394 Y190.0631
G1 X136.075 Y190.1581
G1 Y190.4171
G1 X135.9394 Y190.5121
G1 X136.075 Y190.4171
G1 X138.9565 Y191.4659
G3 X139.45 Y192.1707 I-0.2565 J0.7048
G1 Y193.1169
G3 X138.9565 Y193.8217 I-0.75 J0.0
G1 X136.075 Y194.8705
G1 X135.9394 Y194.7755
G1 X136.075 Y194.8705
G1 Y195.0
G3 X135.325 Y195.75 I-0.75 J0.0
G1 X118.0
G3 X117.25 Y195.0 I0.0 J-0.75
G1 Y189.6407
G1 F300.0 Z-2.0
G1 F800.0 Y10.0
G3 X118.0 Y9.25 I0.75 J0.0
G1 X138.7
G3 X139.45 Y10.0 I0.0 J0.75
G1 Y137.5852
G3 X138.7 Y138.3352 I-0.75 J0.0
G1 X136.075
G1 Y138.5808
G1 X135.9394 Y138.6758
G1 X136.075 Y138.5808
G1 X138.9565 Y139.6296
G3 X139.45 Y140.3344 I-0.2565 J0.7048
G1 Y141.2807
G3 X138.9565 Y141.9854 I-0.75 J0.0
G1 X136.075 Y143.0342
G1 X135.9394 Y142.9393
G1 X136.075 Y143.0342
G1 Y143.2932
G1 X135.9394 Y143.3882
G1 X136.075 Y143.2932
G1 X138.9565 Y144.342
G3 X139.45 Y145.0468 I-0.2565 J0.7048
G1 Y145.9931
G3 X138.9565 Y146.6978 I-0.75 J0.0
G1 X136.075 Y147.7466
G1 X135.9394 Y147.6516
G1 X136.075 Y147.7466
G1 Y148.0056
G1 X135.9394 Y148.1006
G1 X136.075 Y148.0056
G1 X138.9565 Y149.0544
G3 X139.45 Y149.7592 I-0.2565 J0.7048
G1 Y150.7054
G3 X138.9565 Y151.4102 I-0.75 J0.0
G1 X136.075 Y152.459
G1 X135.9394 Y152.364
G1 X136.075 Y152.459
G1 Y152.718
G1 X135.9394 Y152.813
G1 X136.075 Y152.718
G1 X138.9565 Y153.7668
G3 X139.45 Y154.4716 I-0.2565 J0.7048
G1 Y155.4178
G3 X138.9565 Y156.1226 I-0.75 J0.0
G1 X136.075 Y157.1714
G1 X135.9394 Y157.0764
G1 X136.075 Y157.1714
G1 Y157.4304
G1 X135.9394 Y157.5254
G1 X136.075 Y157.4304
G1 X138.9565 Y158.4792
G3 X139.45 Y159.1839 I-0.2565 J0.7048
G1 Y160.1302
G3 X138.9565 Y160.835 I-0.75 J0.0
G1 X136.075 Y161.8838
G1 X135.9394 Y161.7888
G1 X136.075 Y161.8838
G1 Y162.1428
G1 X135.9394 Y162.2377
G1 X136.075 Y162.1428
G1 X138.9565 Y163.1916
G3 X139.45 Y163.8963 I-0.2565 J0.7048
G1 Y164.8426
G3 X138.9565 Y165.5474 I-0.75 J0.0
G1 X136.075 Y166.5962
G1 X135.9394 Y166.5012
G1 X136.075 Y166.5962
G1 Y166.8552
G1 X135.9394 Y166.9501
G1 X136.075 Y166.8552
G1 X138.9565 Y167.9039
G3 X139.45 Y168.6087 I-0.2565 J0.7048
G1 Y169.555
G3 X138.9565 Y170.2598 I-0.75 J0.0
G1 X136.075 Y171.3086
G1 X135.9394 Y171.2136
G1 X136.075 Y171.3086
G1 Y171.5676
G1 X135.9394 Y171.6625
G1 X136.075 Y171.5676
G1 X138.9565 Y172.6163
G3 X139.45 Y173.3211 I-0.2565 J0.7048
G1 Y174.2674
G3 X138.9565 Y174.9722 I-0.75 J0.0
G1 X136.075 Y176.0209
G1 X135.9394 Y175.926
G1 X136.075 Y176.0209
G1 Y176.2799
G1 X135.9394 Y176.3749
G1 X136.075 Y176.2799
G1 X138.9565 Y177.3287
G3 X139.45 Y178.0335 I-0.2565 J0.7048
G1 Y178.9798
G3 X138.9565 Y179.6845 I-0.75 J0.0
G1 X136.075 Y180.7333
G1 X135.9394 Y180.6384
G1 X136.075 Y180.7333
G1 Y180.9923
G1 X135.9394 Y181.0873
G1 X136.075 Y180.9923
G1 X138.9565 Y182.0411
G3 X139.45 Y182.7459 I-0.2565 J0.7048
G1 Y183.6922
G3 X138.9565 Y184.3969 I-0.75 J0.0
G1 X136.075 Y185.4457
G1 X135.9394 Y185.3508
G1 X136.075 Y185.4457
G1 Y185.7047
G1 X135.9394 Y185.7997
G1 X136.075 Y185.7047
G1 X138.9565 Y186.7535
G3 X139.45 Y187.4583 I-0.2565 J0.7048
G1 Y188.4046
G3 X138.9565 Y189.1093 I-0.75 J0.0
G1 X136.075 Y190.1581
G1 X135.9394 Y190.0631
G1 X136.075 Y190.1581
G1 Y190.4171
G1 X135.9394 Y190.5121
G1 X136.075 Y190.4171
G1 X138.9565 Y191.4659
G3 X139.45 Y192.1707 I-0.2565 J0.7048
G1 Y193.1169
G3 X138.9565 Y193.8217 I-0.75 J0.0
G1 X136.075 Y194.8705
G1 X135.9394 Y194.7755
G1 X136.075 Y194.8705
G1 Y195.0
G3 X135.325 Y195.75 I-0.75 J0.0
G1 X118.0
G3 X117.25 Y195.0 I0.0 J-0.75
G1 Y189.6407
G1 F300.0 Z-3.0
G1 F800.0 Y10.0
G3 X118.0 Y9.25 I0.75 J0.0
G1 X138.7
G3 X139.45 Y10.0 I0.0 J0.75
G1 Y137.5852
G3 X138.7 Y138.3352 I-0.75 J0.0
G1 X136.075
G1 Y138.5808
G1 X135.9394 Y138.6758
G1 X136.075 Y138.5808
G1 X138.9565 Y139.6296
G3 X139.45 Y140.3344 I-0.2565 J0.7048
G1 Y141.2807
G3 X138.9565 Y141.9854 I-0.75 J0.0
G1 X136.075 Y143.0342
G1 X135.9394 Y142.9393
G1 X136.075 Y143.0342
G1 Y143.2932
G1 X135.9394 Y143.3882
G1 X136.075 Y143.2932
G1 X138.9565 Y144.342
G3 X139.45 Y145.0468 I-0.2565 J0.7048
G1 Y145.9931
G3 X138.9565 Y146.6978 I-0.75 J0.0
G1 X136.075 Y147.7466
G1 X135.9394 Y147.6516
G1 X136.075 Y147.7466
G1 Y148.0056
G1 X135.9394 Y148.1006
G1 X136.075 Y148.0056
G1 X138.9565 Y149.0544
G3 X139.45 Y149.7592 I-0.2565 J0.7048
G1 Y150.7054
G3 X138.9565 Y151.4102 I-0.75 J0.0
G1 X136.075 Y152.459
G1 X135.9394 Y152.364
G1 X136.075 Y152.459
G1 Y152.718
G1 X135.9394 Y152.813
G1 X136.075 Y152.718
G1 X138.9565 Y153.7668
G3 X139.45 Y154.4716 I-0.2565 J0.7048
G1 Y155.4178
G3 X138.9565 Y156.1226 I-0.75 J0.0
G1 X136.075 Y157.1714
G1 X135.9394 Y157.0764
G1 X136.075 Y157.1714
G1 Y157.4304
G1 X135.9394 Y157.5254
G1 X136.075 Y157.4304
G1 X138.9565 Y158.4792
G3 X139.45 Y159.1839 I-0.2565 J0.7048
G1 Y160.1302
G3 X138.9565 Y160.835 I-0.75 J0.0
G1 X136.075 Y161.8838
G1 X135.9394 Y161.7888
G1 X136.075 Y161.8838
G1 Y162.1428
G1 X135.9394 Y162.2377
G1 X136.075 Y162.1428
G1 X138.9565 Y163.1916
G3 X139.45 Y163.8963 I-0.2565 J0.7048
G1 Y164.8426
G3 X138.9565 Y165.5474 I-0.75 J0.0
G1 X136.075 Y166.5962
G1 X135.9394 Y166.5012
G1 X136.075 Y166.5962
G1 Y166.8552
G1 X135.9394 Y166.9501
G1 X136.075 Y166.8552
G1 X138.9565 Y167.9039
G3 X139.45 Y168.6087 I-0.2565 J0.7048
G1 Y169.555
G3 X138.9565 Y170.2598 I-0.75 J0.0
G1 X136.075 Y171.3086
G1 X135.9394 Y171.2136
G1 X136.075 Y171.3086
G1 Y171.5676
G1 X135.9394 Y171.6625
G1 X136.075 Y171.5676
G1 X138.9565 Y172.6163
G3 X139.45 Y173.3211 I-0.2565 J0.7048
G1 Y174.2674
G3 X138.9565 Y174.9722 I-0.75 J0.0
G1 X136.075 Y176.0209
G1 X135.9394 Y175.926
G1 X136.075 Y176.0209
G1 Y176.2799
G1 X135.9394 Y176.3749
G1 X136.075 Y176.2799
G1 X138.9565 Y177.3287
G3 X139.45 Y178.0335 I-0.2565 J0.7048
G1 Y178.9798
G3 X138.9565 Y179.6845 I-0.75 J0.0
G1 X136.075 Y180.7333
G1 X135.9394 Y180.6384
G1 X136.075 Y180.7333
G1 Y180.9923
G1 X135.9394 Y181.0873
G1 X136.075 Y180.9923
G1 X138.9565 Y182.0411
G3 X139.45 Y182.7459 I-0.2565 J0.7048
G1 Y183.6922
G3 X138.9565 Y184.3969 I-0.75 J0.0
G1 X136.075 Y185.4457
G1 X135.9394 Y185.3508
G1 X136.075 Y185.4457
G1 Y185.7047
G1 X135.9394 Y185.7997
G1 X136.075 Y185.7047
G1 X138.9565 Y186.7535
G3 X139.45 Y187.4583 I-0.2565 J0.7048
G1 Y188.4046
G3 X138.9565 Y189.1093 I-0.75 J0.0
G1 X136.075 Y190.1581
G1 X135.9394 Y190.0631
G1 X136.075 Y190.1581
G1 Y190.4171
G1 X135.9394 Y190.5121
G1 X136.075 Y190.4171
G1 X138.9565 Y191.4659
G3 X139.45 Y192.1707 I-0.2565 J0.7048
G1 Y193.1169
G3 X138.9565 Y193.8217 I-0.75 J0.0
G1 X136.075 Y194.8705
G1 X135.9394 Y194.7755
G1 X136.075 Y194.8705
G1 Y195.0
G3 X135.325 Y195.75 I-0.75 J0.0
G1 X118.0
G3 X117.25 Y195.0 I0.0 J-0.75
G1 Y189.6407
G1 F300.0 Z-4.0
G1 F800.0 Y179.25
G1 Y177.0 Z-3.0
G1 Y174.75 Z-4.0
G1 Y111.25
G1 Y109.0 Z-3.0
G1 Y106.75 Z-4.0
G1 Y10.0
G3 X118.0 Y9.25 I0.75 J0.0
G1 X125.75
G1 X128.0 Z-3.0
G1 X130.25 Z-4.0
G1 X138.7
G3 X139.45 Y10.0 I0.0 J0.75
G1 Y46.75
G1 Y49.0 Z-3.0
G1 Y51.25 Z-4.0
G1 Y125.75
G1 Y128.0 Z-3.0
G1 Y130.25 Z-4.0
G1 Y137.5852
G3 X138.7 Y138.3352 I-0.75 J0.0
G1 X136.075
G1 Y138.5808
G1 X135.9394 Y138.6758
G1 X136.075 Y138.5808
G1 X138.9565 Y139.6296
G3 X139.45 Y140.3344 I-0.2565 J0.7048
G1 Y141.2807
G3 X138.9565 Y141.9854 I-0.75 J0.0
G1 X136.075 Y143.0342
G1 X135.9394 Y142.9393
G1 X136.075 Y143.0342
G1 Y143.2932
G1 X135.9394 Y143.3882
G1 X136.075 Y143.2932
G1 X138.9565 Y144.342
G3 X139.45 Y145.0468 I-0.2565 J0.7048
G1 Y145.9931
G3 X138.9565 Y146.6978 I-0.75 J0.0
G1 X136.075 Y147.7466
G1 X135.9394 Y147.6516
G1 X136.075 Y147.7466
G1 Y148.0056
G1 X135.9394 Y148.1006
G1 X136.075 Y148.0056
G1 X138.9565 Y149.0544
G3 X139.45 Y149.7592 I-0.2565 J0.7048
G1 Y150.7054
G3 X138.9565 Y151.4102 I-0.75 J0.0
G1 X136.075 Y152.459
G1 X135.9394 Y152.364
G1 X136.075 Y152.459
G1 Y152.718
G1 X135.9394 Y152.813
G1 X136.075 Y152.718
G1 X138.9565 Y153.7668
G3 X139.45 Y154.4716 I-0.2565 J0.7048
G1 Y155.4178
G3 X138.9565 Y156.1226 I-0.75 J0.0
G1 X136.075 Y157.1714
G1 X135.9394 Y157.0764
G1 X136.075 Y157.1714
G1 Y157.4304
G1 X135.9394 Y157.5254
G1 X136.075 Y157.4304
G1 X138.9565 Y158.4792
G3 X139.45 Y159.1839 I-0.2565 J0.7048
G1 Y160.1302
G3 X138.9565 Y160.835 I-0.75 J0.0
G1 X136.075 Y161.8838
G1 X135.9394 Y161.7888
G1 X136.075 Y161.8838
G1 Y162.1428
G1 X135.9394 Y162.2377
G1 X136.075 Y162.1428
G1 X138.9565 Y163.1916
G3 X139.45 Y163.8963 I-0.2565 J0.7048
G1 Y164.8426
G3 X138.9565 Y165.5474 I-0.75 J0.0
G1 X136.075 Y166.5962
G1 X135.9394 Y166.5012
G1 X136.075 Y166.5962
G1 Y166.8552
G1 X135.9394 Y166.9501
G1 X136.075 Y166.8552
G1 X138.9565 Y167.9039
G3 X139.45 Y168.6087 I-0.2565 J0.7048
G1 Y169.555
G3 X138.9565 Y170.2598 I-0.75 J0.0
G1 X136.075 Y171.3086
G1 X135.9394 Y171.2136
G1 X136.075 Y171.3086
G1 Y171.5676
G1 X135.9394 Y171.6625
G1 X136.075 Y171.5676
G1 X138.9565 Y172.6163
G3 X139.45 Y173.3211 I-0.2565 J0.7048
G1 Y174.2674
G3 X138.9565 Y174.9722 I-0.75 J0.0
G1 X136.075 Y176.0209
G1 X135.9394 Y175.926
G1 X136.075 Y176.0209
G1 Y176.2799
G1 X135.9394 Y176.3749
G1 X136.075 Y176.2799
G1 X138.9565 Y177.3287
G3 X139.45 Y178.0335 I-0.2565 J0.7048
G1 Y178.9798
G3 X138.9565 Y179.6845 I-0.75 J0.0
G1 X136.075 Y180.7333
G1 X135.9394 Y180.6384
G1 X136.075 Y180.7333
G1 Y180.9923
G1 X135.9394 Y181.0873
G1 X136.075 Y180.9923
G1 X138.9565 Y182.0411
G3 X139.45 Y182.7459 I-0.2565 J0.7048
G1 Y183.6922
G3 X138.9565 Y184.3969 I-0.75 J0.0
G1 X136.075 Y185.4457
G1 X135.9394 Y185.3508
G1 X136.075 Y185.4457
G1 Y185.7047
G1 X135.9394 Y185.7997
G1 X136.075 Y185.7047
G1 X138.9565 Y186.7535
G3 X139.45 Y187.4583 I-0.2565 J0.7048
G1 Y188.4046
G3 X138.9565 Y189.1093 I-0.75 J0.0
G1 X136.075 Y190.1581
G1 X135.9394 Y190.0631
G1 X136.075 Y190.1581
G1 Y190.4171
G1 X135.9394 Y190.5121
G1 X136.075 Y190.4171
G1 X138.9565 Y191.4659
G3 X139.45 Y192.1707 I-0.2565 J0.7048
G1 Y193.1169
G3 X138.9565 Y193.8217 I-0.75 J0.0
G1 X136.075 Y194.8705
G1 X135.9394 Y194.7755
G1 X136.075 Y194.8705
G1 Y195.0
G3 X135.325 Y195.75 I-0.75 J0.0
G1 X129.25
G1 X127.0 Z-3.0
G1 X124.75 Z-4.0
G1 X118.0
G3 X117.25 Y195.0 I0.0 J-0.75
G1 Y189.6407
G1 F300.0 Z-5.0
G1 F800.0 Y179.25
G1 Y177.0 Z-3.0
G1 Y174.75 Z-5.0
G1 Y111.25
G1 Y109.0 Z-3.0
G1 Y106.75 Z-5.0
G1 Y10.0
G3 X118.0 Y9.25 I0.75 J0.0
G1 X125.75
G1 X128.0 Z-3.0
G1 X130.25 Z-5.0
G1 X138.7
G3 X139.45 Y10.0 I0.0 J0.75
G1 Y46.75
G1 Y49.0 Z-3.0
G1 Y51.25 Z-5.0
G1 Y125.75
G1 Y128.0 Z-3.0
G1 Y130.25 Z-5.0
G1 Y137.5852
G3 X138.7 Y138.3352 I-0.75 J0.0
G1 X136.075
G1 Y138.5808
G1 X135.9394 Y138.6758
G1 X136.075 Y138.5808
G1 X138.9565 Y139.6296
G3 X139.45 Y140.3344 I-0.2565 J0.7048
G1 Y141.2807
G3 X138.9565 Y141.9854 I-0.75 J0.0
G1 X136.075 Y143.0342
G1 X135.9394 Y142.9393
G1 X136.075 Y143.0342
G1 Y143.2932
G1 X135.9394 Y143.3882
G1 X136.075 Y143.2932
G1 X138.9565 Y144.342
G3 X139.45 Y145.0468 I-0.2565 J0.7048
G1 Y145.9931
G3 X138.9565 Y146.6978 I-0.75 J0.0
G1 X136.075 Y147.7466
G1 X135.9394 Y147.6516
G1 X136.075 Y147.7466
G1 Y148.0056
G1 X135.9394 Y148.1006
G1 X136.075 Y148.0056
G1 X138.9565 Y149.0544
G3 X139.45 Y149.7592 I-0.2565 J0.7048
G1 Y150.7054
G3 X138.9565 Y151.4102 I-0.75 J0.0
G1 X136.075 Y152.459
G1 X135.9394 Y152.364
G1 X136.075 Y152.459
G1 Y152.718
G1 X135.9394 Y152.813
G1 X136.075 Y152.718
G1 X138.9565 Y153.7668
G3 X139.45 Y154.4716 I-0.2565 J0.7048
G1 Y155.4178
G3 X138.9565 Y156.1226 I-0.75 J0.0
G1 X136.075 Y157.1714
G1 X135.9394 Y157.0764
G1 X136.075 Y157.1714
G1 Y157.4304
G1 X135.9394 Y157.5254
G1 X136.075 Y157.4304
G1 X138.9565 Y158.4792
G3 X139.45 Y159.1839 I-0.2565 J0.7048
G1 Y160.1302
G3 X138.9565 Y160.835 I-0.75 J0.0
G1 X136.075 Y161.8838
G1 X135.9394 Y161.7888
G1 X136.075 Y161.8838
G1 Y162.1428
G1 X135.9394 Y162.2377
G1 X136.075 Y162.1428
G1 X138.9565 Y163.1916
G3 X139.45 Y163.8963 I-0.2565 J0.7048
G1 Y164.8426
G3 X138.9565 Y165.5474 I-0.75 J0.0
G1 X136.075 Y166.5962
G1 X135.9394 Y166.5012
G1 X136.075 Y166.5962
G1 Y166.8552
G1 X135.9394 Y166.9501
G1 X136.075 Y166.8552
G1 X138.9565 Y167.9039
G3 X139.45 Y168.6087 I-0.2565 J0.7048
G1 Y169.555
G3 X138.9565 Y170.2598 I-0.75 J0.0
G1 X136.075 Y171.3086
G1 X135.9394 Y171.2136
G1 X136.075 Y171.3086
G1 Y171.5676
G1 X135.9394 Y171.6625
G1 X136.075 Y171.5676
G1 X138.9565 Y172.6163
G3 X139.45 Y173.3211 I-0.2565 J0.7048
G1 Y174.2674
G3 X138.9565 Y174.9722 I-0.75 J0.0
G1 X136.075 Y176.0209
G1 X135.9394 Y175.926
G1 X136.075 Y176.0209
G1 Y176.2799
G1 X135.9394 Y176.3749
G1 X136.075 Y176.2799
G1 X138.9565 Y177.3287
G3 X139.45 Y178.0335 I-0.2565 J0.7048
G1 Y178.9798
G3 X138.9565 Y179.6845 I-0.75 J0.0
G1 X136.075 Y180.7333
G1 X135.9394 Y180.6384
G1 X136.075 Y180.7333
G1 Y180.9923
G1 X135.9394 Y181.0873
G1 X136.075 Y180.9923
G1 X138.9565 Y182.0411
G3 X139.45 Y182.7459 I-0.2565 J0.7048
G1 Y183.6922
G3 X138.9565 Y184.3969 I-0.75 J0.0
G1 X136.075 Y185.4457
G1 X135.9394 Y185.3508
G1 X136.075 Y185.4457
G1 Y185.7047
G1 X135.9394 Y185.7997
G1 X136.075 Y185.7047
G1 X138.9565 Y186.7535
G3 X139.45 Y187.4583 I-0.2565 J0.7048
G1 Y188.4046
G3 X138.9565 Y189.1093 I-0.75 J0.0
G1 X136.075 Y190.1581
G1 X135.9394 Y190.0631
G1 X136.075 Y190.1581
G1 Y190.4171
G1 X135.9394 Y190.5121
G1 X136.075 Y190.4171
G1 X138.9565 Y191.4659
G3 X139.45 Y192.1707 I-0.2565 J0.7048
G1 Y193.1169
G3 X138.9565 Y193.8217 I-0.75 J0.0
G1 X136.075 Y194.8705
G1 X135.9394 Y194.7755
G1 X136.075 Y194.8705
G1 Y195.0
G3 X135.325 Y195.75 I-0.75 J0.0
G1 X129.25
G1 X127.0 Z-3.0
G1 X124.75 Z-5.0
G1 X118.0
G3 X117.25 Y195.0 I0.0 J-0.75
G1 Y189.6407
G1 F300.0 Z-6.0
G1 F800.0 Y179.25
G1 Y177.0 Z-3.0
G1 Y174.75 Z-6.0
G1 Y111.25
G1 Y109.0 Z-3.0
G1 Y106.75 Z-6.0
G1 Y10.0
