( Made using CamBam - http://www.cambam.co.uk )
( Ensemble 5 1/28/2016 5:49:05 PM )
( T0 : 1.5 )
G21 G90 G64 G40
G0 Z3.0
( T0 : 1.5 )
T0 M6
( Contour1 )
G17
M3 S1000
G0 X44.938 Y185.9853
G1 F300.0 Z-1.0
G2 F800.0 X43.813 Y185.3358 I-0.75 J0.0
G2 Y186.6348 I0.375 J0.6495
G2 X44.938 Y185.9853 I0.375 J-0.6495
G1 F300.0 Z-2.0
G2 F800.0 X43.813 Y185.3358 I-0.75 J0.0
G2 Y186.6348 I0.375 J0.6495
G2 X44.938 Y185.9853 I0.375 J-0.6495
G1 F300.0 Z-3.0
G2 F800.0 X43.813 Y185.3358 I-0.75 J0.0
G2 Y186.6348 I0.375 J0.6495
G2 X44.938 Y185.9853 I0.375 J-0.6495
G1 F300.0 Z-4.0
G2 F800.0 X43.813 Y185.3358 I-0.75 J0.0
G2 Y186.6348 I0.375 J0.6495
G2 X44.938 Y185.9853 I0.375 J-0.6495
G1 F300.0 Z-5.0
G2 F800.0 X43.813 Y185.3358 I-0.75 J0.0
G2 Y186.6348 I0.375 J0.6495
G2 X44.938 Y185.9853 I0.375 J-0.6495
G1 F300.0 Z-6.0
G2 F800.0 X43.813 Y185.3358 I-0.75 J0.0
G2 Y186.6348 I0.375 J0.6495
G2 X44.938 Y185.9853 I0.375 J-0.6495
G0 Z3.0
G0 X54.3974 Y202.5043
G1 F300.0 Z-1.0
G2 F800.0 X54.3885 Y202.5094 I1.4411 J2.5166
G2 Y207.5324 I1.45 J2.5115
G2 X58.7385 Y205.0209 I1.45 J-2.5115
G2 X54.3974 Y202.5043 I-2.9 J0.0
G1 F300.0 Z-2.0
G2 F800.0 X54.3885 Y202.5094 I1.4411 J2.5166
G2 Y207.5324 I1.45 J2.5115
G2 X58.7385 Y205.0209 I1.45 J-2.5115
G2 X54.3974 Y202.5043 I-2.9 J0.0
G1 F300.0 Z-3.0
G2 F800.0 X54.3885 Y202.5094 I1.4411 J2.5166
G2 Y207.5324 I1.45 J2.5115
G2 X58.7385 Y205.0209 I1.45 J-2.5115
G2 X54.3974 Y202.5043 I-2.9 J0.0
G1 F300.0 Z-4.0
G2 F800.0 X54.3885 Y202.5094 I1.4411 J2.5166
G2 Y207.5324 I1.45 J2.5115
G2 X58.7385 Y205.0209 I1.45 J-2.5115
G2 X54.3974 Y202.5043 I-2.9 J0.0
G1 F300.0 Z-5.0
G2 F800.0 X54.3885 Y202.5094 I1.4411 J2.5166
G2 Y207.5324 I1.45 J2.5115
G2 X58.7385 Y205.0209 I1.45 J-2.5115
G2 X54.3974 Y202.5043 I-2.9 J0.0
G1 F300.0 Z-6.0
G2 F800.0 X54.3885 Y202.5094 I1.4411 J2.5166
G2 Y207.5324 I1.45 J2.5115
G2 X58.7385 Y205.0209 I1.45 J-2.5115
G2 X54.3974 Y202.5043 I-2.9 J0.0
G0 Z3.0
G0 X55.7844 Y219.1007
G1 F300.0 Z-1.0
G2 F800.0 X55.5135 Y219.1855 I0.0541 J0.6477
G2 Y220.3113 I0.325 J0.5629
G2 X56.4885 Y219.7484 I0.325 J-0.5629
G2 X55.7844 Y219.1007 I-0.65 J0.0
G1 F300.0 Z-2.0
G2 F800.0 X55.5135 Y219.1855 I0.0541 J0.6477
G2 Y220.3113 I0.325 J0.5629
G2 X56.4885 Y219.7484 I0.325 J-0.5629
G2 X55.7844 Y219.1007 I-0.65 J0.0
G1 F300.0 Z-3.0
G2 F800.0 X55.5135 Y219.1855 I0.0541 J0.6477
G2 Y220.3113 I0.325 J0.5629
G2 X56.4885 Y219.7484 I0.325 J-0.5629
G2 X55.7844 Y219.1007 I-0.65 J0.0
G1 F300.0 Z-4.0
G2 F800.0 X55.5135 Y219.1855 I0.0541 J0.6477
G2 Y220.3113 I0.325 J0.5629
G2 X56.4885 Y219.7484 I0.325 J-0.5629
G2 X55.7844 Y219.1007 I-0.65 J0.0
G1 F300.0 Z-5.0
G2 F800.0 X55.5135 Y219.1855 I0.0541 J0.6477
G2 Y220.3113 I0.325 J0.5629
G2 X56.4885 Y219.7484 I0.325 J-0.5629
G2 X55.7844 Y219.1007 I-0.65 J0.0
G1 F300.0 Z-6.0
G2 F800.0 X55.5135 Y219.1855 I0.0541 J0.6477
G2 Y220.3113 I0.325 J0.5629
G2 X56.4885 Y219.7484 I0.325 J-0.5629
G2 X55.7844 Y219.1007 I-0.65 J0.0
G0 Z3.0
G0 X55.8362 Y234.0984
G1 F300.0 Z-1.0
G2 F800.0 X55.5135 Y234.1855 I0.0022 J0.65
G2 Y235.3113 I0.325 J0.5629
G2 X56.4885 Y234.7484 I0.325 J-0.5629
G2 X55.8362 Y234.0984 I-0.65 J0.0
G1 F300.0 Z-2.0
G2 F800.0 X55.5135 Y234.1855 I0.0022 J0.65
G2 Y235.3113 I0.325 J0.5629
G2 X56.4885 Y234.7484 I0.325 J-0.5629
G2 X55.8362 Y234.0984 I-0.65 J0.0
G1 F300.0 Z-3.0
G2 F800.0 X55.5135 Y234.1855 I0.0022 J0.65
G2 Y235.3113 I0.325 J0.5629
G2 X56.4885 Y234.7484 I0.325 J-0.5629
G2 X55.8362 Y234.0984 I-0.65 J0.0
G1 F300.0 Z-4.0
G2 F800.0 X55.5135 Y234.1855 I0.0022 J0.65
G2 Y235.3113 I0.325 J0.5629
G2 X56.4885 Y234.7484 I0.325 J-0.5629
G2 X55.8362 Y234.0984 I-0.65 J0.0
G1 F300.0 Z-5.0
G2 F800.0 X55.5135 Y234.1855 I0.0022 J0.65
G2 Y235.3113 I0.325 J0.5629
G2 X56.4885 Y234.7484 I0.325 J-0.5629
G2 X55.8362 Y234.0984 I-0.65 J0.0
G1 F300.0 Z-6.0
G2 F800.0 X55.5135 Y234.1855 I0.0022 J0.65
G2 Y235.3113 I0.325 J0.5629
G2 X56.4885 Y234.7484 I0.325 J-0.5629
G2 X55.8362 Y234.0984 I-0.65 J0.0
G0 Z3.0
G0 X76.8408 Y234.7289
G1 F300.0 Z-1.0
G2 F800.0 X77.1655 Y235.3113 I0.6497 J0.0195
G2 X78.1405 Y234.7484 I0.325 J-0.5629
G2 X77.1655 Y234.1855 I-0.65 J0.0
G2 X76.8408 Y234.7289 I0.325 J0.5629
G1 F300.0 Z-2.0
G2 F800.0 X77.1655 Y235.3113 I0.6497 J0.0195
G2 X78.1405 Y234.7484 I0.325 J-0.5629
G2 X77.1655 Y234.1855 I-0.65 J0.0
G2 X76.8408 Y234.7289 I0.325 J0.5629
G1 F300.0 Z-3.0
G2 F800.0 X77.1655 Y235.3113 I0.6497 J0.0195
G2 X78.1405 Y234.7484 I0.325 J-0.5629
G2 X77.1655 Y234.1855 I-0.65 J0.0
G2 X76.8408 Y234.7289 I0.325 J0.5629
G1 F300.0 Z-4.0
G2 F800.0 X77.1655 Y235.3113 I0.6497 J0.0195
G2 X78.1405 Y234.7484 I0.325 J-0.5629
G2 X77.1655 Y234.1855 I-0.65 J0.0
G2 X76.8408 Y234.7289 I0.325 J0.5629
G1 F300.0 Z-5.0
G2 F800.0 X77.1655 Y235.3113 I0.6497 J0.0195
G2 X78.1405 Y234.7484 I0.325 J-0.5629
G2 X77.1655 Y234.1855 I-0.65 J0.0
G2 X76.8408 Y234.7289 I0.325 J0.5629
G1 F300.0 Z-6.0
G2 F800.0 X77.1655 Y235.3113 I0.6497 J0.0195
G2 X78.1405 Y234.7484 I0.325 J-0.5629
G2 X77.1655 Y234.1855 I-0.65 J0.0
G2 X76.8408 Y234.7289 I0.325 J0.5629
G0 Z3.0
G0 X77.4623 Y220.3978
G1 F300.0 Z-1.0
G2 F800.0 X78.1405 Y219.7484 I0.0282 J-0.6494
G2 X77.1655 Y219.1855 I-0.65 J0.0
G2 Y220.3113 I0.325 J0.5629
G2 X77.4623 Y220.3978 I0.325 J-0.5629
G1 F300.0 Z-2.0
G2 F800.0 X78.1405 Y219.7484 I0.0282 J-0.6494
G2 X77.1655 Y219.1855 I-0.65 J0.0
G2 Y220.3113 I0.325 J0.5629
G2 X77.4623 Y220.3978 I0.325 J-0.5629
G1 F300.0 Z-3.0
G2 F800.0 X78.1405 Y219.7484 I0.0282 J-0.6494
G2 X77.1655 Y219.1855 I-0.65 J0.0
G2 Y220.3113 I0.325 J0.5629
G2 X77.4623 Y220.3978 I0.325 J-0.5629
G1 F300.0 Z-4.0
G2 F800.0 X78.1405 Y219.7484 I0.0282 J-0.6494
G2 X77.1655 Y219.1855 I-0.65 J0.0
G2 Y220.3113 I0.325 J0.5629
G2 X77.4623 Y220.3978 I0.325 J-0.5629
G1 F300.0 Z-5.0
G2 F800.0 X78.1405 Y219.7484 I0.0282 J-0.6494
G2 X77.1655 Y219.1855 I-0.65 J0.0
G2 Y220.3113 I0.325 J0.5629
G2 X77.4623 Y220.3978 I0.325 J-0.5629
G1 F300.0 Z-6.0
G2 F800.0 X78.1405 Y219.7484 I0.0282 J-0.6494
G2 X77.1655 Y219.1855 I-0.65 J0.0
G2 Y220.3113 I0.325 J0.5629
G2 X77.4623 Y220.3978 I0.325 J-0.5629
G0 Z3.0
G0 X77.4851 Y207.9209
G1 F300.0 Z-1.0
G2 F800.0 X80.3905 Y205.0209 I0.0053 J-2.9
G2 X76.0405 Y202.5094 I-2.9 J0.0
G2 Y207.5324 I1.45 J2.5115
G2 X77.4851 Y207.9209 I1.45 J-2.5115
G1 F300.0 Z-2.0
G2 F800.0 X80.3905 Y205.0209 I0.0053 J-2.9
G2 X76.0405 Y202.5094 I-2.9 J0.0
G2 Y207.5324 I1.45 J2.5115
G2 X77.4851 Y207.9209 I1.45 J-2.5115
G1 F300.0 Z-3.0
G2 F800.0 X80.3905 Y205.0209 I0.0053 J-2.9
G2 X76.0405 Y202.5094 I-2.9 J0.0
G2 Y207.5324 I1.45 J2.5115
G2 X77.4851 Y207.9209 I1.45 J-2.5115
G1 F300.0 Z-4.0
G2 F800.0 X80.3905 Y205.0209 I0.0053 J-2.9
G2 X76.0405 Y202.5094 I-2.9 J0.0
G2 Y207.5324 I1.45 J2.5115
G2 X77.4851 Y207.9209 I1.45 J-2.5115
G1 F300.0 Z-5.0
G2 F800.0 X80.3905 Y205.0209 I0.0053 J-2.9
G2 X76.0405 Y202.5094 I-2.9 J0.0
G2 Y207.5324 I1.45 J2.5115
G2 X77.4851 Y207.9209 I1.45 J-2.5115
G1 F300.0 Z-6.0
G2 F800.0 X80.3905 Y205.0209 I0.0053 J-2.9
G2 X76.0405 Y202.5094 I-2.9 J0.0
G2 Y207.5324 I1.45 J2.5115
G2 X77.4851 Y207.9209 I1.45 J-2.5115
G0 Z3.0
G0 X74.2995 Y186.727
G1 F300.0 Z-1.0
G2 F800.0 X74.938 Y185.9853 I-0.1115 J-0.7417
G2 X73.813 Y185.3358 I-0.75 J0.0
G2 Y186.6348 I0.375 J0.6495
G2 X74.2995 Y186.727 I0.375 J-0.6495
G1 F300.0 Z-2.0
G2 F800.0 X74.938 Y185.9853 I-0.1115 J-0.7417
G2 X73.813 Y185.3358 I-0.75 J0.0
G2 Y186.6348 I0.375 J0.6495
G2 X74.2995 Y186.727 I0.375 J-0.6495
G1 F300.0 Z-3.0
G2 F800.0 X74.938 Y185.9853 I-0.1115 J-0.7417
G2 X73.813 Y185.3358 I-0.75 J0.0
G2 Y186.6348 I0.375 J0.6495
G2 X74.2995 Y186.727 I0.375 J-0.6495
G1 F300.0 Z-4.0
G2 F800.0 X74.938 Y185.9853 I-0.1115 J-0.7417
G2 X73.813 Y185.3358 I-0.75 J0.0
G2 Y186.6348 I0.375 J0.6495
G2 X74.2995 Y186.727 I0.375 J-0.6495
G1 F300.0 Z-5.0
G2 F800.0 X74.938 Y185.9853 I-0.1115 J-0.7417
G2 X73.813 Y185.3358 I-0.75 J0.0
G2 Y186.6348 I0.375 J0.6495
G2 X74.2995 Y186.727 I0.375 J-0.6495
G1 F300.0 Z-6.0
G2 F800.0 X74.938 Y185.9853 I-0.1115 J-0.7417
G2 X73.813 Y185.3358 I-0.75 J0.0
G2 Y186.6348 I0.375 J0.6495
G2 X74.2995 Y186.727 I0.375 J-0.6495
G0 Z3.0
G0 X35.6353 Y203.8468
G1 F300.0 Z-1.0
G2 F800.0 X31.5336 Y202.5094 I-2.6517 J1.1741
G2 Y207.5324 I1.45 J2.5115
G2 X35.8836 Y205.0209 I1.45 J-2.5115
G2 X35.6353 Y203.8468 I-2.9 J0.0
G1 F300.0 Z-2.0
G2 F800.0 X31.5336 Y202.5094 I-2.6517 J1.1741
G2 Y207.5324 I1.45 J2.5115
G2 X35.8836 Y205.0209 I1.45 J-2.5115
G2 X35.6353 Y203.8468 I-2.9 J0.0
G1 F300.0 Z-3.0
G2 F800.0 X31.5336 Y202.5094 I-2.6517 J1.1741
G2 Y207.5324 I1.45 J2.5115
G2 X35.8836 Y205.0209 I1.45 J-2.5115
G2 X35.6353 Y203.8468 I-2.9 J0.0
G1 F300.0 Z-4.0
G2 F800.0 X31.5336 Y202.5094 I-2.6517 J1.1741
G2 Y207.5324 I1.45 J2.5115
G2 X35.8836 Y205.0209 I1.45 J-2.5115
G2 X35.6353 Y203.8468 I-2.9 J0.0
G1 F300.0 Z-5.0
G2 F800.0 X31.5336 Y202.5094 I-2.6517 J1.1741
G2 Y207.5324 I1.45 J2.5115
G2 X35.8836 Y205.0209 I1.45 J-2.5115
G2 X35.6353 Y203.8468 I-2.9 J0.0
G1 F300.0 Z-6.0
G2 F800.0 X31.5336 Y202.5094 I-2.6517 J1.1741
G2 Y207.5324 I1.45 J2.5115
G2 X35.8836 Y205.0209 I1.45 J-2.5115
G2 X35.6353 Y203.8468 I-2.9 J0.0
G0 Z3.0
G0 X33.0906 Y219.1073
G1 F300.0 Z-1.0
G2 F800.0 X32.6586 Y219.1855 I-0.1069 J0.6411
G2 Y220.3113 I0.325 J0.5629
G2 X33.6336 Y219.7484 I0.325 J-0.5629
G2 X33.0906 Y219.1073 I-0.65 J0.0
G1 F300.0 Z-2.0
G2 F800.0 X32.6586 Y219.1855 I-0.1069 J0.6411
G2 Y220.3113 I0.325 J0.5629
G2 X33.6336 Y219.7484 I0.325 J-0.5629
G2 X33.0906 Y219.1073 I-0.65 J0.0
G1 F300.0 Z-3.0
G2 F800.0 X32.6586 Y219.1855 I-0.1069 J0.6411
G2 Y220.3113 I0.325 J0.5629
G2 X33.6336 Y219.7484 I0.325 J-0.5629
G2 X33.0906 Y219.1073 I-0.65 J0.0
G1 F300.0 Z-4.0
G2 F800.0 X32.6586 Y219.1855 I-0.1069 J0.6411
G2 Y220.3113 I0.325 J0.5629
G2 X33.6336 Y219.7484 I0.325 J-0.5629
G2 X33.0906 Y219.1073 I-0.65 J0.0
G1 F300.0 Z-5.0
G2 F800.0 X32.6586 Y219.1855 I-0.1069 J0.6411
G2 Y220.3113 I0.325 J0.5629
G2 X33.6336 Y219.7484 I0.325 J-0.5629
G2 X33.0906 Y219.1073 I-0.65 J0.0
G1 F300.0 Z-6.0
G2 F800.0 X32.6586 Y219.1855 I-0.1069 J0.6411
G2 Y220.3113 I0.325 J0.5629
G2 X33.6336 Y219.7484 I0.325 J-0.5629
G2 X33.0906 Y219.1073 I-0.65 J0.0
G0 Z3.0
G0 X32.9881 Y234.0984
G1 F300.0 Z-1.0
G2 F800.0 X32.6586 Y234.1855 I-0.0044 J0.65
G2 Y235.3113 I0.325 J0.5629
G2 X33.6336 Y234.7484 I0.325 J-0.5629
G2 X32.9881 Y234.0984 I-0.65 J0.0
G1 F300.0 Z-2.0
G2 F800.0 X32.6586 Y234.1855 I-0.0044 J0.65
G2 Y235.3113 I0.325 J0.5629
G2 X33.6336 Y234.7484 I0.325 J-0.5629
G2 X32.9881 Y234.0984 I-0.65 J0.0
G1 F300.0 Z-3.0
G2 F800.0 X32.6586 Y234.1855 I-0.0044 J0.65
G2 Y235.3113 I0.325 J0.5629
G2 X33.6336 Y234.7484 I0.325 J-0.5629
G2 X32.9881 Y234.0984 I-0.65 J0.0
G1 F300.0 Z-4.0
G2 F800.0 X32.6586 Y234.1855 I-0.0044 J0.65
G2 Y235.3113 I0.325 J0.5629
G2 X33.6336 Y234.7484 I0.325 J-0.5629
G2 X32.9881 Y234.0984 I-0.65 J0.0
G1 F300.0 Z-5.0
G2 F800.0 X32.6586 Y234.1855 I-0.0044 J0.65
G2 Y235.3113 I0.325 J0.5629
G2 X33.6336 Y234.7484 I0.325 J-0.5629
G2 X32.9881 Y234.0984 I-0.65 J0.0
G1 F300.0 Z-6.0
G2 F800.0 X32.6586 Y234.1855 I-0.0044 J0.65
G2 Y235.3113 I0.325 J0.5629
G2 X33.6336 Y234.7484 I0.325 J-0.5629
G2 X32.9881 Y234.0984 I-0.65 J0.0
G0 Z3.0
G0 X34.6822 Y13.7353
G1 F300.0 Z-1.0
G2 F800.0 X35.438 Y12.9853 I0.0058 J-0.75
G2 X34.313 Y12.3358 I-0.75 J0.0
G2 Y13.6348 I0.375 J0.6495
G2 X34.6822 Y13.7353 I0.375 J-0.6495
G1 F300.0 Z-2.0
G2 F800.0 X35.438 Y12.9853 I0.0058 J-0.75
G2 X34.313 Y12.3358 I-0.75 J0.0
G2 Y13.6348 I0.375 J0.6495
G2 X34.6822 Y13.7353 I0.375 J-0.6495
G1 F300.0 Z-3.0
G2 F800.0 X35.438 Y12.9853 I0.0058 J-0.75
G2 X34.313 Y12.3358 I-0.75 J0.0
G2 Y13.6348 I0.375 J0.6495
G2 X34.6822 Y13.7353 I0.375 J-0.6495
G1 F300.0 Z-4.0
G2 F800.0 X35.438 Y12.9853 I0.0058 J-0.75
G2 X34.313 Y12.3358 I-0.75 J0.0
G2 Y13.6348 I0.375 J0.6495
G2 X34.6822 Y13.7353 I0.375 J-0.6495
G1 F300.0 Z-5.0
G2 F800.0 X35.438 Y12.9853 I0.0058 J-0.75
G2 X34.313 Y12.3358 I-0.75 J0.0
G2 Y13.6348 I0.375 J0.6495
G2 X34.6822 Y13.7353 I0.375 J-0.6495
G1 F300.0 Z-6.0
G2 F800.0 X35.438 Y12.9853 I0.0058 J-0.75
G2 X34.313 Y12.3358 I-0.75 J0.0
G2 Y13.6348 I0.375 J0.6495
G2 X34.6822 Y13.7353 I0.375 J-0.6495
G0 Z3.0
G0 X82.9381 Y12.9968
G1 F300.0 Z-1.0
G2 F800.0 X83.313 Y13.6348 I0.7499 J-0.0115
G2 X84.438 Y12.9853 I0.375 J-0.6495
G2 X83.313 Y12.3358 I-0.75 J0.0
G2 X82.9381 Y12.9968 I0.375 J0.6495
G1 F300.0 Z-2.0
G2 F800.0 X83.313 Y13.6348 I0.7499 J-0.0115
G2 X84.438 Y12.9853 I0.375 J-0.6495
G2 X83.313 Y12.3358 I-0.75 J0.0
G2 X82.9381 Y12.9968 I0.375 J0.6495
G1 F300.0 Z-3.0
G2 F800.0 X83.313 Y13.6348 I0.7499 J-0.0115
G2 X84.438 Y12.9853 I0.375 J-0.6495
G2 X83.313 Y12.3358 I-0.75 J0.0
G2 X82.9381 Y12.9968 I0.375 J0.6495
G1 F300.0 Z-4.0
G2 F800.0 X83.313 Y13.6348 I0.7499 J-0.0115
G2 X84.438 Y12.9853 I0.375 J-0.6495
G2 X83.313 Y12.3358 I-0.75 J0.0
G2 X82.9381 Y12.9968 I0.375 J0.6495
G1 F300.0 Z-5.0
G2 F800.0 X83.313 Y13.6348 I0.7499 J-0.0115
G2 X84.438 Y12.9853 I0.375 J-0.6495
G2 X83.313 Y12.3358 I-0.75 J0.0
G2 X82.9381 Y12.9968 I0.375 J0.6495
G1 F300.0 Z-6.0
G2 F800.0 X83.313 Y13.6348 I0.7499 J-0.0115
G2 X84.438 Y12.9853 I0.375 J-0.6495
G2 X83.313 Y12.3358 I-0.75 J0.0
G2 X82.9381 Y12.9968 I0.375 J0.6495
( Contour2 )
S1000
G0 Z3.0
G0 X35.1336 Y234.7484
G1 F300.0 Z-1.0
G3 F800.0 X31.9086 Y236.6104 I-2.15 J0.0
G3 Y232.8865 I1.075 J-1.862
G3 X35.1336 Y234.7484 I1.075 J1.862
G1 F300.0 Z-2.0
G3 F800.0 X31.9086 Y236.6104 I-2.15 J0.0
G3 Y232.8865 I1.075 J-1.862
G3 X35.1336 Y234.7484 I1.075 J1.862
G1 F300.0 Z-3.0
G3 F800.0 X31.9086 Y236.6104 I-2.15 J0.0
G3 Y232.8865 I1.075 J-1.862
G3 X35.1336 Y234.7484 I1.075 J1.862
G0 Z3.0
G0 X33.2887 Y221.8767
G1 F300.0 Z-1.0
G3 F800.0 X31.9086 Y221.6104 I-0.305 J-2.1282
G3 Y217.8865 I1.075 J-1.862
G3 X35.1336 Y219.7484 I1.075 J1.862
G3 X33.2887 Y221.8767 I-2.15 J0.0
G1 F300.0 Z-2.0
G3 F800.0 X31.9086 Y221.6104 I-0.305 J-2.1282
G3 Y217.8865 I1.075 J-1.862
G3 X35.1336 Y219.7484 I1.075 J1.862
G3 X33.2887 Y221.8767 I-2.15 J0.0
G1 F300.0 Z-3.0
G3 F800.0 X31.9086 Y221.6104 I-0.305 J-2.1282
G3 Y217.8865 I1.075 J-1.862
G3 X35.1336 Y219.7484 I1.075 J1.862
G3 X33.2887 Y221.8767 I-2.15 J0.0
G0 Z3.0
G0 X53.698 Y219.9504
G1 F300.0 Z-1.0
G3 F800.0 X54.7635 Y217.8865 I2.1405 J-0.202
G3 X57.9885 Y219.7484 I1.075 J1.862
G3 X54.7635 Y221.6104 I-2.15 J0.0
G3 X53.698 Y219.9504 I1.075 J-1.862
G1 F300.0 Z-2.0
G3 F800.0 X54.7635 Y217.8865 I2.1405 J-0.202
G3 X57.9885 Y219.7484 I1.075 J1.862
G3 X54.7635 Y221.6104 I-2.15 J0.0
G3 X53.698 Y219.9504 I1.075 J-1.862
G1 F300.0 Z-3.0
G3 F800.0 X54.7635 Y217.8865 I2.1405 J-0.202
G3 X57.9885 Y219.7484 I1.075 J1.862
G3 X54.7635 Y221.6104 I-2.15 J0.0
G3 X53.698 Y219.9504 I1.075 J-1.862
G0 Z3.0
G0 X55.5307 Y232.6206
G1 F300.0 Z-1.0
G3 F800.0 X57.9885 Y234.7484 I0.3078 J2.1279
G3 X54.7635 Y236.6104 I-2.15 J0.0
G3 Y232.8865 I1.075 J-1.862
G3 X55.5307 Y232.6206 I1.075 J1.862
G1 F300.0 Z-2.0
G3 F800.0 X57.9885 Y234.7484 I0.3078 J2.1279
G3 X54.7635 Y236.6104 I-2.15 J0.0
G3 Y232.8865 I1.075 J-1.862
G3 X55.5307 Y232.6206 I1.075 J1.862
G1 F300.0 Z-3.0
G3 F800.0 X57.9885 Y234.7484 I0.3078 J2.1279
G3 X54.7635 Y236.6104 I-2.15 J0.0
G3 Y232.8865 I1.075 J-1.862
G3 X55.5307 Y232.6206 I1.075 J1.862
G0 Z3.0
G0 X75.3505 Y234.541
G1 F300.0 Z-1.0
G3 F800.0 X76.4155 Y232.8865 I2.14 J0.2074
G3 X79.6405 Y234.7484 I1.075 J1.862
G3 X76.4155 Y236.6104 I-2.15 J0.0
G3 X75.3505 Y234.541 I1.075 J-1.862
G1 F300.0 Z-2.0
G3 F800.0 X76.4155 Y232.8865 I2.14 J0.2074
G3 X79.6405 Y234.7484 I1.075 J1.862
G3 X76.4155 Y236.6104 I-2.15 J0.0
G3 X75.3505 Y234.541 I1.075 J-1.862
G1 F300.0 Z-3.0
G3 F800.0 X76.4155 Y232.8865 I2.14 J0.2074
G3 X79.6405 Y234.7484 I1.075 J1.862
G3 X76.4155 Y236.6104 I-2.15 J0.0
G3 X75.3505 Y234.541 I1.075 J-1.862
G0 Z3.0
G0 X77.1826 Y221.8763
G1 F300.0 Z-1.0
G3 F800.0 X76.4155 Y221.6104 I0.3078 J-2.1278
G3 Y217.8865 I1.075 J-1.862
G3 X79.6405 Y219.7484 I1.075 J1.862
G3 X77.1826 Y221.8763 I-2.15 J0.0
G1 F300.0 Z-2.0
G3 F800.0 X76.4155 Y221.6104 I0.3078 J-2.1278
G3 Y217.8865 I1.075 J-1.862
G3 X79.6405 Y219.7484 I1.075 J1.862
G3 X77.1826 Y221.8763 I-2.15 J0.0
G1 F300.0 Z-3.0
G3 F800.0 X76.4155 Y221.6104 I0.3078 J-2.1278
G3 Y217.8865 I1.075 J-1.862
G3 X79.6405 Y219.7484 I1.075 J1.862
G3 X77.1826 Y221.8763 I-2.15 J0.0
G0 Z3.0
G0 X74.3751 Y188.2275
G1 F300.0 Z-1.0
G3 F800.0 X73.063 Y187.9339 I-0.1871 J-2.2422
G3 Y184.0368 I1.125 J-1.9486
G3 X76.438 Y185.9853 I1.125 J1.9486
G3 X74.3751 Y188.2275 I-2.25 J0.0
G1 F300.0 Z-2.0
G3 F800.0 X73.063 Y187.9339 I-0.1871 J-2.2422
G3 Y184.0368 I1.125 J-1.9486
G3 X76.438 Y185.9853 I1.125 J1.9486
G3 X74.3751 Y188.2275 I-2.25 J0.0
G1 F300.0 Z-3.0
G3 F800.0 X73.063 Y187.9339 I-0.1871 J-2.2422
G3 Y184.0368 I1.125 J-1.9486
G3 X76.438 Y185.9853 I1.125 J1.9486
G3 X74.3751 Y188.2275 I-2.25 J0.0
G0 Z3.0
G0 X46.4318 Y186.152
G1 F300.0 Z-1.0
G3 F800.0 X43.063 Y187.9339 I-2.2438 J-0.1667
G3 Y184.0368 I1.125 J-1.9486
G3 X46.438 Y185.9853 I1.125 J1.9486
G3 X46.4318 Y186.152 I-2.25 J0.0
G1 F300.0 Z-2.0
G3 F800.0 X43.063 Y187.9339 I-2.2438 J-0.1667
G3 Y184.0368 I1.125 J-1.9486
G3 X46.438 Y185.9853 I1.125 J1.9486
G3 X46.4318 Y186.152 I-2.25 J0.0
G1 F300.0 Z-3.0
G3 F800.0 X43.063 Y187.9339 I-2.2438 J-0.1667
G3 Y184.0368 I1.125 J-1.9486
G3 X46.438 Y185.9853 I1.125 J1.9486
G3 X46.4318 Y186.152 I-2.25 J0.0
G0 Z3.0
G0 X34.8402 Y15.2302
G1 F300.0 Z-1.0
G3 F800.0 X33.563 Y14.9339 I-0.1522 J-2.2448
G3 Y11.0368 I1.125 J-1.9486
G3 X36.938 Y12.9853 I1.125 J1.9486
G3 X34.8402 Y15.2302 I-2.25 J0.0
G1 F300.0 Z-2.0
G3 F800.0 X33.563 Y14.9339 I-0.1522 J-2.2448
G3 Y11.0368 I1.125 J-1.9486
G3 X36.938 Y12.9853 I1.125 J1.9486
G3 X34.8402 Y15.2302 I-2.25 J0.0
G1 F300.0 Z-3.0
G3 F800.0 X33.563 Y14.9339 I-0.1522 J-2.2448
G3 Y11.0368 I1.125 J-1.9486
G3 X36.938 Y12.9853 I1.125 J1.9486
G3 X34.8402 Y15.2302 I-2.25 J0.0
G0 Z3.0
G0 X81.4404 Y13.0886
G1 F300.0 Z-1.0
G3 F800.0 X82.563 Y11.0368 I2.2476 J-0.1033
G3 X85.938 Y12.9853 I1.125 J1.9486
G3 X82.563 Y14.9339 I-2.25 J0.0
G3 X81.4404 Y13.0886 I1.125 J-1.9486
G1 F300.0 Z-2.0
G3 F800.0 X82.563 Y11.0368 I2.2476 J-0.1033
G3 X85.938 Y12.9853 I1.125 J1.9486
G3 X82.563 Y14.9339 I-2.25 J0.0
G3 X81.4404 Y13.0886 I1.125 J-1.9486
G1 F300.0 Z-3.0
G3 F800.0 X82.563 Y11.0368 I2.2476 J-0.1033
G3 X85.938 Y12.9853 I1.125 J1.9486
G3 X82.563 Y14.9339 I-2.25 J0.0
G3 X81.4404 Y13.0886 I1.125 J-1.9486
( Contour3 )
S1000
G0 Z3.0
G0 X19.938 Y76.7353
G1 F300.0 Z-1.0
G1 F800.0 Y85.2353
G1 X38.438
G1 Y76.7353
G1 X19.938
G1 F300.0 Z-2.0
G1 F800.0 Y85.2353
G1 X38.438
G1 Y76.7353
G1 X19.938
G1 F300.0 Z-3.0
G1 F800.0 Y85.2353
G1 X38.438
G1 Y76.7353
G1 X19.938
G1 F300.0 Z-4.0
G1 F800.0 Y85.2353
G1 X38.438
G1 Y76.7353
G1 X19.938
G1 F300.0 Z-5.0
G1 F800.0 Y85.2353
G1 X38.438
G1 Y76.7353
G1 X19.938
G1 F300.0 Z-6.0
G1 F800.0 Y85.2353
G1 X38.438
G1 Y76.7353
G1 X19.938
G0 Z3.0
G0 X79.938
G1 F300.0 Z-1.0
G1 F800.0 Y85.2353
G1 X98.438
G1 Y76.7353
G1 X79.938
G1 F300.0 Z-2.0
G1 F800.0 Y85.2353
G1 X98.438
G1 Y76.7353
G1 X79.938
G1 F300.0 Z-3.0
G1 F800.0 Y85.2353
G1 X98.438
G1 Y76.7353
G1 X79.938
G1 F300.0 Z-4.0
G1 F800.0 Y85.2353
G1 X98.438
G1 Y76.7353
G1 X79.938
G1 F300.0 Z-5.0
G1 F800.0 Y85.2353
G1 X98.438
G1 Y76.7353
G1 X79.938
G1 F300.0 Z-6.0
G1 F800.0 Y85.2353
G1 X98.438
G1 Y76.7353
G1 X79.938
( Contour4 )
S1000
G0 Z3.0
G0 X27.2336 Y239.7484
G1 F300.0 Z-1.0
G1 F800.0 Y210.0456
G3 X38.7336 I5.75 J-5.1962
G1 Y239.7484
G3 X37.9836 Y240.4984 I-0.75 J0.0
G1 X27.9836
G3 X27.2336 Y239.7484 I0.0 J-0.75
G1 F300.0 Z-2.0
G1 F800.0 Y210.0456
G3 X38.7336 I5.75 J-5.1962
G1 Y239.7484
G3 X37.9836 Y240.4984 I-0.75 J0.0
G1 X27.9836
G3 X27.2336 Y239.7484 I0.0 J-0.75
G1 F300.0 Z-3.0
G1 F800.0 Y210.0456
G3 X38.7336 I5.75 J-5.1962
G1 Y239.7484
G3 X37.9836 Y240.4984 I-0.75 J0.0
G1 X27.9836
G3 X27.2336 Y239.7484 I0.0 J-0.75
G1 F300.0 Z-4.0
G1 F800.0 Y210.0456
G3 X38.7336 I5.75 J-5.1962
G1 Y239.7484
G3 X37.9836 Y240.4984 I-0.75 J0.0
G1 X27.9836
G3 X27.2336 Y239.7484 I0.0 J-0.75
G1 F300.0 Z-5.0
G1 F800.0 Y230.75
G0 Z-4.0
G1 Y225.25
G1 F300.0 Z-5.0
G1 F800.0 Y210.0456
G3 X38.7336 I5.75 J-5.1962
G1 Y211.25
G0 Z-4.0
G1 Y216.75
G1 F300.0 Z-5.0
G1 F800.0 Y239.7484
G3 X37.9836 Y240.4984 I-0.75 J0.0
G1 X35.75
G0 Z-4.0
G1 X30.25
G1 F300.0 Z-5.0
G1 F800.0 X27.9836
G3 X27.2336 Y239.7484 I0.0 J-0.75
G1 F300.0 Z-6.0
G1 F800.0 Y230.75
G0 Z-4.0
G1 Y225.25
G1 F300.0 Z-6.0
G1 F800.0 Y210.0456
G3 X38.7336 I5.75 J-5.1962
G1 Y211.25
G0 Z-4.0
G1 Y216.75
G1 F300.0 Z-6.0
G1 F800.0 Y239.7484
G3 X37.9836 Y240.4984 I-0.75 J0.0
G1 X35.75
G0 Z-4.0
G1 X30.25
G1 F300.0 Z-6.0
G1 F800.0 X27.9836
G3 X27.2336 Y239.7484 I0.0 J-0.75
G0 Z3.0
G0 X50.0885
G1 F300.0 Z-1.0
G1 F800.0 Y210.0456
G3 X61.5885 I5.75 J-5.1962
G1 Y239.7484
G3 X60.8385 Y240.4984 I-0.75 J0.0
G1 X50.8385
G3 X50.0885 Y239.7484 I0.0 J-0.75
G1 F300.0 Z-2.0
G1 F800.0 Y210.0456
G3 X61.5885 I5.75 J-5.1962
G1 Y239.7484
G3 X60.8385 Y240.4984 I-0.75 J0.0
G1 X50.8385
G3 X50.0885 Y239.7484 I0.0 J-0.75
G1 F300.0 Z-3.0
G1 F800.0 Y210.0456
G3 X61.5885 I5.75 J-5.1962
G1 Y239.7484
G3 X60.8385 Y240.4984 I-0.75 J0.0
G1 X50.8385
G3 X50.0885 Y239.7484 I0.0 J-0.75
G1 F300.0 Z-4.0
G1 F800.0 Y210.0456
G3 X61.5885 I5.75 J-5.1962
G1 Y239.7484
G3 X60.8385 Y240.4984 I-0.75 J0.0
G1 X50.8385
G3 X50.0885 Y239.7484 I0.0 J-0.75
G1 F300.0 Z-5.0
G1 F800.0 Y230.75
G0 Z-4.0
G1 Y225.25
G1 F300.0 Z-5.0
G1 F800.0 Y210.0456
G3 X61.5885 I5.75 J-5.1962
G1 Y212.25
G0 Z-4.0
G1 Y217.75
G1 F300.0 Z-5.0
G1 F800.0 Y239.7484
G3 X60.8385 Y240.4984 I-0.75 J0.0
G1 X59.75
G0 Z-4.0
G1 X54.25
G1 F300.0 Z-5.0
G1 F800.0 X50.8385
G3 X50.0885 Y239.7484 I0.0 J-0.75
G1 F300.0 Z-6.0
G1 F800.0 Y230.75
G0 Z-4.0
G1 Y225.25
G1 F300.0 Z-6.0
G1 F800.0 Y210.0456
G3 X61.5885 I5.75 J-5.1962
G1 Y212.25
G0 Z-4.0
G1 Y217.75
G1 F300.0 Z-6.0
G1 F800.0 Y239.7484
G3 X60.8385 Y240.4984 I-0.75 J0.0
G1 X59.75
G0 Z-4.0
G1 X54.25
G1 F300.0 Z-6.0
G1 F800.0 X50.8385
G3 X50.0885 Y239.7484 I0.0 J-0.75
G0 Z3.0
G0 X71.7405
G1 F300.0 Z-1.0
G1 F800.0 Y210.0456
G3 X83.2405 I5.75 J-5.1962
G1 Y239.7484
G3 X82.4905 Y240.4984 I-0.75 J0.0
G1 X72.4905
G3 X71.7405 Y239.7484 I0.0 J-0.75
G1 F300.0 Z-2.0
G1 F800.0 Y210.0456
G3 X83.2405 I5.75 J-5.1962
G1 Y239.7484
G3 X82.4905 Y240.4984 I-0.75 J0.0
G1 X72.4905
G3 X71.7405 Y239.7484 I0.0 J-0.75
G1 F300.0 Z-3.0
G1 F800.0 Y210.0456
G3 X83.2405 I5.75 J-5.1962
G1 Y239.7484
G3 X82.4905 Y240.4984 I-0.75 J0.0
G1 X72.4905
G3 X71.7405 Y239.7484 I0.0 J-0.75
G1 F300.0 Z-4.0
G1 F800.0 Y210.0456
G3 X83.2405 I5.75 J-5.1962
G1 Y239.7484
G3 X82.4905 Y240.4984 I-0.75 J0.0
G1 X72.4905
G3 X71.7405 Y239.7484 I0.0 J-0.75
G1 F300.0 Z-5.0
G1 F800.0 Y231.75
G0 Z-4.0
G1 Y226.25
G1 F300.0 Z-5.0
G1 F800.0 Y210.0456
G3 X83.2405 I5.75 J-5.1962
G1 Y212.25
G0 Z-4.0
G1 Y217.75
G1 F300.0 Z-5.0
G1 F800.0 Y239.7484
G3 X82.4905 Y240.4984 I-0.75 J0.0
G1 X79.75
G0 Z-4.0
G1 X74.25
G1 F300.0 Z-5.0
G1 F800.0 X72.4905
G3 X71.7405 Y239.7484 I0.0 J-0.75
G1 F300.0 Z-6.0
G1 F800.0 Y231.75
G0 Z-4.0
G1 Y226.25
G1 F300.0 Z-6.0
G1 F800.0 Y210.0456
G3 X83.2405 I5.75 J-5.1962
G1 Y212.25
G0 Z-4.0
G1 Y217.75
G1 F300.0 Z-6.0
G1 F800.0 Y239.7484
G3 X82.4905 Y240.4984 I-0.75 J0.0
G1 X79.75
G0 Z-4.0
G1 X74.25
G1 F300.0 Z-6.0
G1 F800.0 X72.4905
G3 X71.7405 Y239.7484 I0.0 J-0.75
G0 Z3.0
G0 Y189.7353
G1 F300.0 Z-1.0
G1 F800.0 X69.188
G3 X68.438 Y188.9853 I0.0 J-0.75
G1 Y183.7353
G1 X49.938
G1 Y188.9853
G3 X49.188 Y189.7353 I-0.75 J0.0
G1 X10.188
G3 X9.438 Y188.9853 I0.0 J-0.75
G1 Y15.9853
G3 X10.188 Y15.2353 I0.75 J0.0
G1 X28.938
G1 Y9.9853
G3 X29.688 Y9.2353 I0.75 J0.0
G1 X39.688
G3 X40.438 Y9.9853 I0.0 J0.75
G1 Y15.2353
G1 X45.188
G3 X45.938 Y15.9853 I0.0 J0.75
G1 Y25.2353
G1 X72.438
G1 Y15.9853
G3 X73.188 Y15.2353 I0.75 J0.0
G1 X77.938
G1 Y9.9853
G3 X78.688 Y9.2353 I0.75 J0.0
G1 X88.688
G3 X89.438 Y9.9853 I0.0 J0.75
G1 Y15.2353
G1 X108.188
G3 X108.938 Y15.9853 I0.0 J0.75
G1 Y188.9853
G3 X108.188 Y189.7353 I-0.75 J0.0
G1 X71.7405
G1 F300.0 Z-2.0
G1 F800.0 X69.188
G3 X68.438 Y188.9853 I0.0 J-0.75
G1 Y183.7353
G1 X49.938
G1 Y188.9853
G3 X49.188 Y189.7353 I-0.75 J0.0
G1 X10.188
G3 X9.438 Y188.9853 I0.0 J-0.75
G1 Y15.9853
G3 X10.188 Y15.2353 I0.75 J0.0
G1 X28.938
G1 Y9.9853
G3 X29.688 Y9.2353 I0.75 J0.0
G1 X39.688
G3 X40.438 Y9.9853 I0.0 J0.75
G1 Y15.2353
G1 X45.188
G3 X45.938 Y15.9853 I0.0 J0.75
G1 Y25.2353
G1 X72.438
G1 Y15.9853
G3 X73.188 Y15.2353 I0.75 J0.0
G1 X77.938
G1 Y9.9853
G3 X78.688 Y9.2353 I0.75 J0.0
G1 X88.688
G3 X89.438 Y9.9853 I0.0 J0.75
G1 Y15.2353
G1 X108.188
G3 X108.938 Y15.9853 I0.0 J0.75
G1 Y188.9853
G3 X108.188 Y189.7353 I-0.75 J0.0
G1 X71.7405
G1 F300.0 Z-3.0
G1 F800.0 X69.188
G3 X68.438 Y188.9853 I0.0 J-0.75
G1 Y183.7353
G1 X49.938
G1 Y188.9853
G3 X49.188 Y189.7353 I-0.75 J0.0
G1 X10.188
G3 X9.438 Y188.9853 I0.0 J-0.75
G1 Y15.9853
G3 X10.188 Y15.2353 I0.75 J0.0
G1 X28.938
G1 Y9.9853
G3 X29.688 Y9.2353 I0.75 J0.0
G1 X39.688
G3 X40.438 Y9.9853 I0.0 J0.75
G1 Y15.2353
G1 X45.188
G3 X45.938 Y15.9853 I0.0 J0.75
G1 Y25.2353
G1 X72.438
G1 Y15.9853
G3 X73.188 Y15.2353 I0.75 J0.0
G1 X77.938
G1 Y9.9853
G3 X78.688 Y9.2353 I0.75 J0.0
G1 X88.688
G3 X89.438 Y9.9853 I0.0 J0.75
G1 Y15.2353
G1 X108.188
G3 X108.938 Y15.9853 I0.0 J0.75
G1 Y188.9853
G3 X108.188 Y189.7353 I-0.75 J0.0
G1 X71.7405
G1 F300.0 Z-4.0
G1 F800.0 X69.188
G3 X68.438 Y188.9853 I0.0 J-0.75
G1 Y183.7353
G1 X49.938
G1 Y188.9853
G3 X49.188 Y189.7353 I-0.75 J0.0
G1 X10.188
G3 X9.438 Y188.9853 I0.0 J-0.75
G1 Y15.9853
G3 X10.188 Y15.2353 I0.75 J0.0
G1 X28.938
G1 Y9.9853
G3 X29.688 Y9.2353 I0.75 J0.0
G1 X39.688
G3 X40.438 Y9.9853 I0.0 J0.75
G1 Y15.2353
G1 X45.188
G3 X45.938 Y15.9853 I0.0 J0.75
G1 Y25.2353
G1 X72.438
G1 Y15.9853
G3 X73.188 Y15.2353 I0.75 J0.0
G1 X77.938
G1 Y9.9853
G3 X78.688 Y9.2353 I0.75 J0.0
G1 X88.688
G3 X89.438 Y9.9853 I0.0 J0.75
G1 Y15.2353
G1 X108.188
G3 X108.938 Y15.9853 I0.0 J0.75
G1 Y188.9853
G3 X108.188 Y189.7353 I-0.75 J0.0
G1 X71.7405
G1 X70.7713
G1 F300.0 Z-5.0
G1 F800.0 X69.188
G3 X68.438 Y188.9853 I0.0 J-0.75
G1 Y183.7353
G1 X49.938
G1 Y188.9853
G3 X49.188 Y189.7353 I-0.75 J0.0
G1 X36.75
G0 Z-4.0
G1 X31.25
G1 F300.0 Z-5.0
G1 F800.0 X10.188
G3 X9.438 Y188.9853 I0.0 J-0.75
G1 Y58.75
G0 Z-4.0
G1 Y53.25
G1 F300.0 Z-5.0
G1 F800.0 Y15.9853
G3 X10.188 Y15.2353 I0.75 J0.0
G1 X14.25
G0 Z-4.0
G1 X19.75
G1 F300.0 Z-5.0
G1 F800.0 X28.938
G1 Y9.9853
G3 X29.688 Y9.2353 I0.75 J0.0
G1 X39.688
G3 X40.438 Y9.9853 I0.0 J0.75
G1 Y15.2353
G1 X45.188
G3 X45.938 Y15.9853 I0.0 J0.75
G1 Y25.2353
G1 X72.438
G1 Y15.9853
G3 X73.188 Y15.2353 I0.75 J0.0
G1 X77.938
G1 Y9.9853
G3 X78.688 Y9.2353 I0.75 J0.0
G1 X88.688
G3 X89.438 Y9.9853 I0.0 J0.75
G1 Y15.2353
G1 X94.25
G0 Z-4.0
G1 X99.75
G1 F300.0 Z-5.0
G1 F800.0 X108.188
G3 X108.938 Y15.9853 I0.0 J0.75
G1 Y145.25
G0 Z-4.0
G1 Y150.75
G1 F300.0 Z-5.0
G1 F800.0 Y188.9853
G3 X108.188 Y189.7353 I-0.75 J0.0
G1 X76.2713
G0 Z-4.0
G1 X71.7405
G1 X70.7713
G1 F300.0 Z-6.0
G1 F800.0 X69.188
G3 X68.438 Y188.9853 I0.0 J-0.75
G1 Y183.7353
G1 X49.938
G1 Y188.9853
G3 X49.188 Y189.7353 I-0.75 J0.0
G1 X36.75
G0 Z-4.0
G1 X31.25
G1 F300.0 Z-6.0
G1 F800.0 X10.188
G3 X9.438 Y188.9853 I0.0 J-0.75
G1 Y58.75
G0 Z-4.0
G1 Y53.25
G1 F300.0 Z-6.0
G1 F800.0 Y15.9853
G3 X10.188 Y15.2353 I0.75 J0.0
G1 X14.25
G0 Z-4.0
G1 X19.75
G1 F300.0 Z-6.0
G1 F800.0 X28.938
G1 Y9.9853
G3 X29.688 Y9.2353 I0.75 J0.0
G1 X39.688
G3 X40.438 Y9.9853 I0.0 J0.75
G1 Y15.2353
G1 X45.188
G3 X45.938 Y15.9853 I0.0 J0.75
G1 Y25.2353
G1 X72.438
G1 Y15.9853
G3 X73.188 Y15.2353 I0.75 J0.0
G1 X77.938
G1 Y9.9853
G3 X78.688 Y9.2353 I0.75 J0.0
G1 X88.688
G3 X89.438 Y9.9853 I0.0 J0.75
G1 Y15.2353
G1 X94.25
G0 Z-4.0
G1 X99.75
G1 F300.0 Z-6.0
G1 F800.0 X108.188
G3 X108.938 Y15.9853 I0.0 J0.75
G1 Y145.25
G0 Z-4.0
G1 Y150.75
G1 F300.0 Z-6.0
G1 F800.0 Y188.9853
G3 X108.188 Y189.7353 I-0.75 J0.0
G1 X76.2713
G0 Z-4.0
G1 X71.7405
G0 Z3.0
M5
M30
