( Made using CamBam - http://www.cambam.co.uk )
( Ensemble 7 2/1/2016 4:02:12 PM )
( T0 : 1.5 )
G21 G90 G64 G40
G0 Z3.0
( T0 : 1.5 )
T0 M6
( Contour1 )
G17
M3 S1000
G0 X27.255 Y97.0
G1 F300.0 Z-1.0
G2 F800.0 X26.88 Y96.7835 I-0.25 J0.0
G2 Y97.2165 I0.125 J0.2165
G2 X27.255 Y97.0 I0.125 J-0.2165
G1 F300.0 Z-2.0
G2 F800.0 X26.88 Y96.7835 I-0.25 J0.0
G2 Y97.2165 I0.125 J0.2165
G2 X27.255 Y97.0 I0.125 J-0.2165
G1 F300.0 Z-3.0
G2 F800.0 X26.88 Y96.7835 I-0.25 J0.0
G2 Y97.2165 I0.125 J0.2165
G2 X27.255 Y97.0 I0.125 J-0.2165
G1 F300.0 Z-4.0
G2 F800.0 X26.88 Y96.7835 I-0.25 J0.0
G2 Y97.2165 I0.125 J0.2165
G2 X27.255 Y97.0 I0.125 J-0.2165
G1 F300.0 Z-5.0
G2 F800.0 X26.88 Y96.7835 I-0.25 J0.0
G2 Y97.2165 I0.125 J0.2165
G2 X27.255 Y97.0 I0.125 J-0.2165
G1 F300.0 Z-6.0
G2 F800.0 X26.88 Y96.7835 I-0.25 J0.0
G2 Y97.2165 I0.125 J0.2165
G2 X27.255 Y97.0 I0.125 J-0.2165
G0 Z3.0
G0 X27.1065 Y101.7516
G1 F300.0 Z-1.0
G2 F800.0 X25.38 Y102.1854 I-0.1015 J3.2484
G2 Y107.8146 I1.625 J2.8146
G2 X30.255 Y105.0 I1.625 J-2.8146
G2 X27.1065 Y101.7516 I-3.25 J0.0
G1 F300.0 Z-2.0
G2 F800.0 X25.38 Y102.1854 I-0.1015 J3.2484
G2 Y107.8146 I1.625 J2.8146
G2 X30.255 Y105.0 I1.625 J-2.8146
G2 X27.1065 Y101.7516 I-3.25 J0.0
G1 F300.0 Z-3.0
G2 F800.0 X25.38 Y102.1854 I-0.1015 J3.2484
G2 Y107.8146 I1.625 J2.8146
G2 X30.255 Y105.0 I1.625 J-2.8146
G2 X27.1065 Y101.7516 I-3.25 J0.0
G1 F300.0 Z-4.0
G2 F800.0 X25.38 Y102.1854 I-0.1015 J3.2484
G2 Y107.8146 I1.625 J2.8146
G2 X30.255 Y105.0 I1.625 J-2.8146
G2 X27.1065 Y101.7516 I-3.25 J0.0
G1 F300.0 Z-5.0
G2 F800.0 X25.38 Y102.1854 I-0.1015 J3.2484
G2 Y107.8146 I1.625 J2.8146
G2 X30.255 Y105.0 I1.625 J-2.8146
G2 X27.1065 Y101.7516 I-3.25 J0.0
G1 F300.0 Z-6.0
G2 F800.0 X25.38 Y102.1854 I-0.1015 J3.2484
G2 Y107.8146 I1.625 J2.8146
G2 X30.255 Y105.0 I1.625 J-2.8146
G2 X27.1065 Y101.7516 I-3.25 J0.0
G0 Z3.0
G0 X34.7738 Y104.9049
G1 F300.0 Z-1.0
G2 F800.0 X34.88 Y105.2165 I0.2312 J0.0951
G2 X35.255 Y105.0 I0.125 J-0.2165
G2 X34.88 Y104.7835 I-0.25 J0.0
G2 X34.7738 Y104.9049 I0.125 J0.2165
G1 F300.0 Z-2.0
G2 F800.0 X34.88 Y105.2165 I0.2312 J0.0951
G2 X35.255 Y105.0 I0.125 J-0.2165
G2 X34.88 Y104.7835 I-0.25 J0.0
G2 X34.7738 Y104.9049 I0.125 J0.2165
G1 F300.0 Z-3.0
G2 F800.0 X34.88 Y105.2165 I0.2312 J0.0951
G2 X35.255 Y105.0 I0.125 J-0.2165
G2 X34.88 Y104.7835 I-0.25 J0.0
G2 X34.7738 Y104.9049 I0.125 J0.2165
G1 F300.0 Z-4.0
G2 F800.0 X34.88 Y105.2165 I0.2312 J0.0951
G2 X35.255 Y105.0 I0.125 J-0.2165
G2 X34.88 Y104.7835 I-0.25 J0.0
G2 X34.7738 Y104.9049 I0.125 J0.2165
G1 F300.0 Z-5.0
G2 F800.0 X34.88 Y105.2165 I0.2312 J0.0951
G2 X35.255 Y105.0 I0.125 J-0.2165
G2 X34.88 Y104.7835 I-0.25 J0.0
G2 X34.7738 Y104.9049 I0.125 J0.2165
G1 F300.0 Z-6.0
G2 F800.0 X34.88 Y105.2165 I0.2312 J0.0951
G2 X35.255 Y105.0 I0.125 J-0.2165
G2 X34.88 Y104.7835 I-0.25 J0.0
G2 X34.7738 Y104.9049 I0.125 J0.2165
G0 Z3.0
G0 X27.1781 Y112.8196
G1 F300.0 Z-1.0
G2 F800.0 X26.88 Y112.7835 I-0.1731 J0.1804
G2 Y113.2165 I0.125 J0.2165
G2 X27.255 Y113.0 I0.125 J-0.2165
G2 X27.1781 Y112.8196 I-0.25 J0.0
G1 F300.0 Z-2.0
G2 F800.0 X26.88 Y112.7835 I-0.1731 J0.1804
G2 Y113.2165 I0.125 J0.2165
G2 X27.255 Y113.0 I0.125 J-0.2165
G2 X27.1781 Y112.8196 I-0.25 J0.0
G1 F300.0 Z-3.0
G2 F800.0 X26.88 Y112.7835 I-0.1731 J0.1804
G2 Y113.2165 I0.125 J0.2165
G2 X27.255 Y113.0 I0.125 J-0.2165
G2 X27.1781 Y112.8196 I-0.25 J0.0
G1 F300.0 Z-4.0
G2 F800.0 X26.88 Y112.7835 I-0.1731 J0.1804
G2 Y113.2165 I0.125 J0.2165
G2 X27.255 Y113.0 I0.125 J-0.2165
G2 X27.1781 Y112.8196 I-0.25 J0.0
G1 F300.0 Z-5.0
G2 F800.0 X26.88 Y112.7835 I-0.1731 J0.1804
G2 Y113.2165 I0.125 J0.2165
G2 X27.255 Y113.0 I0.125 J-0.2165
G2 X27.1781 Y112.8196 I-0.25 J0.0
G1 F300.0 Z-6.0
G2 F800.0 X26.88 Y112.7835 I-0.1731 J0.1804
G2 Y113.2165 I0.125 J0.2165
G2 X27.255 Y113.0 I0.125 J-0.2165
G2 X27.1781 Y112.8196 I-0.25 J0.0
G0 Z3.0
G0 X19.1856 Y105.1728
G1 F300.0 Z-1.0
G2 F800.0 X19.255 Y105.0 I-0.1806 J-0.1728
G2 X18.88 Y104.7835 I-0.25 J0.0
G2 Y105.2165 I0.125 J0.2165
G2 X19.1856 Y105.1728 I0.125 J-0.2165
G1 F300.0 Z-2.0
G2 F800.0 X19.255 Y105.0 I-0.1806 J-0.1728
G2 X18.88 Y104.7835 I-0.25 J0.0
G2 Y105.2165 I0.125 J0.2165
G2 X19.1856 Y105.1728 I0.125 J-0.2165
G1 F300.0 Z-3.0
G2 F800.0 X19.255 Y105.0 I-0.1806 J-0.1728
G2 X18.88 Y104.7835 I-0.25 J0.0
G2 Y105.2165 I0.125 J0.2165
G2 X19.1856 Y105.1728 I0.125 J-0.2165
G1 F300.0 Z-4.0
G2 F800.0 X19.255 Y105.0 I-0.1806 J-0.1728
G2 X18.88 Y104.7835 I-0.25 J0.0
G2 Y105.2165 I0.125 J0.2165
G2 X19.1856 Y105.1728 I0.125 J-0.2165
G1 F300.0 Z-5.0
G2 F800.0 X19.255 Y105.0 I-0.1806 J-0.1728
G2 X18.88 Y104.7835 I-0.25 J0.0
G2 Y105.2165 I0.125 J0.2165
G2 X19.1856 Y105.1728 I0.125 J-0.2165
G1 F300.0 Z-6.0
G2 F800.0 X19.255 Y105.0 I-0.1806 J-0.1728
G2 X18.88 Y104.7835 I-0.25 J0.0
G2 Y105.2165 I0.125 J0.2165
G2 X19.1856 Y105.1728 I0.125 J-0.2165
G0 Z3.0
G0 X30.0323 Y43.8432
G1 F300.0 Z-1.0
G2 F800.0 X30.9129 Y43.1047 I0.1306 J-0.7385
G2 X29.7879 Y42.4551 I-0.75 J0.0
G2 Y43.7542 I0.375 J0.6495
G2 X30.0323 Y43.8432 I0.375 J-0.6495
G1 F300.0 Z-2.0
G2 F800.0 X30.9129 Y43.1047 I0.1306 J-0.7385
G2 X29.7879 Y42.4551 I-0.75 J0.0
G2 Y43.7542 I0.375 J0.6495
G2 X30.0323 Y43.8432 I0.375 J-0.6495
G1 F300.0 Z-3.0
G2 F800.0 X30.9129 Y43.1047 I0.1306 J-0.7385
G2 X29.7879 Y42.4551 I-0.75 J0.0
G2 Y43.7542 I0.375 J0.6495
G2 X30.0323 Y43.8432 I0.375 J-0.6495
G1 F300.0 Z-4.0
G2 F800.0 X30.9129 Y43.1047 I0.1306 J-0.7385
G2 X29.7879 Y42.4551 I-0.75 J0.0
G2 Y43.7542 I0.375 J0.6495
G2 X30.0323 Y43.8432 I0.375 J-0.6495
G1 F300.0 Z-5.0
G2 F800.0 X30.9129 Y43.1047 I0.1306 J-0.7385
G2 X29.7879 Y42.4551 I-0.75 J0.0
G2 Y43.7542 I0.375 J0.6495
G2 X30.0323 Y43.8432 I0.375 J-0.6495
G1 F300.0 Z-6.0
G2 F800.0 X30.9129 Y43.1047 I0.1306 J-0.7385
G2 X29.7879 Y42.4551 I-0.75 J0.0
G2 Y43.7542 I0.375 J0.6495
G2 X30.0323 Y43.8432 I0.375 J-0.6495
G0 Z3.0
G0 X17.6756 Y30.652
G1 F300.0 Z-1.0
G2 F800.0 X17.9129 Y30.1047 I-0.5127 J-0.5474
G2 X16.7879 Y29.4551 I-0.75 J0.0
G2 Y30.7542 I0.375 J0.6495
G2 X17.6756 Y30.652 I0.375 J-0.6495
G1 F300.0 Z-2.0
G2 F800.0 X17.9129 Y30.1047 I-0.5127 J-0.5474
G2 X16.7879 Y29.4551 I-0.75 J0.0
G2 Y30.7542 I0.375 J0.6495
G2 X17.6756 Y30.652 I0.375 J-0.6495
G1 F300.0 Z-3.0
G2 F800.0 X17.9129 Y30.1047 I-0.5127 J-0.5474
G2 X16.7879 Y29.4551 I-0.75 J0.0
G2 Y30.7542 I0.375 J0.6495
G2 X17.6756 Y30.652 I0.375 J-0.6495
G1 F300.0 Z-4.0
G2 F800.0 X17.9129 Y30.1047 I-0.5127 J-0.5474
G2 X16.7879 Y29.4551 I-0.75 J0.0
G2 Y30.7542 I0.375 J0.6495
G2 X17.6756 Y30.652 I0.375 J-0.6495
G1 F300.0 Z-5.0
G2 F800.0 X17.9129 Y30.1047 I-0.5127 J-0.5474
G2 X16.7879 Y29.4551 I-0.75 J0.0
G2 Y30.7542 I0.375 J0.6495
G2 X17.6756 Y30.652 I0.375 J-0.6495
G1 F300.0 Z-6.0
G2 F800.0 X17.9129 Y30.1047 I-0.5127 J-0.5474
G2 X16.7879 Y29.4551 I-0.75 J0.0
G2 Y30.7542 I0.375 J0.6495
G2 X17.6756 Y30.652 I0.375 J-0.6495
G0 Z3.0
G0 X29.6546 Y17.6561
G1 F300.0 Z-1.0
G2 F800.0 X29.7879 Y17.7542 I0.5083 J-0.5515
G2 X30.9129 Y17.1047 I0.375 J-0.6495
G2 X29.7879 Y16.4551 I-0.75 J0.0
G2 X29.6546 Y17.6561 I0.375 J0.6495
G1 F300.0 Z-2.0
G2 F800.0 X29.7879 Y17.7542 I0.5083 J-0.5515
G2 X30.9129 Y17.1047 I0.375 J-0.6495
G2 X29.7879 Y16.4551 I-0.75 J0.0
G2 X29.6546 Y17.6561 I0.375 J0.6495
G1 F300.0 Z-3.0
G2 F800.0 X29.7879 Y17.7542 I0.5083 J-0.5515
G2 X30.9129 Y17.1047 I0.375 J-0.6495
G2 X29.7879 Y16.4551 I-0.75 J0.0
G2 X29.6546 Y17.6561 I0.375 J0.6495
G1 F300.0 Z-4.0
G2 F800.0 X29.7879 Y17.7542 I0.5083 J-0.5515
G2 X30.9129 Y17.1047 I0.375 J-0.6495
G2 X29.7879 Y16.4551 I-0.75 J0.0
G2 X29.6546 Y17.6561 I0.375 J0.6495
G1 F300.0 Z-5.0
G2 F800.0 X29.7879 Y17.7542 I0.5083 J-0.5515
G2 X30.9129 Y17.1047 I0.375 J-0.6495
G2 X29.7879 Y16.4551 I-0.75 J0.0
G2 X29.6546 Y17.6561 I0.375 J0.6495
G1 F300.0 Z-6.0
G2 F800.0 X29.7879 Y17.7542 I0.5083 J-0.5515
G2 X30.9129 Y17.1047 I0.375 J-0.6495
G2 X29.7879 Y16.4551 I-0.75 J0.0
G2 X29.6546 Y17.6561 I0.375 J0.6495
G0 Z3.0
G0 X42.6114 Y29.5964
G1 F300.0 Z-1.0
G2 F800.0 X42.7879 Y30.7542 I0.5515 J0.5083
G2 X43.9129 Y30.1047 I0.375 J-0.6495
G2 X42.7879 Y29.4551 I-0.75 J0.0
G2 X42.6114 Y29.5964 I0.375 J0.6495
G1 F300.0 Z-2.0
G2 F800.0 X42.7879 Y30.7542 I0.5515 J0.5083
G2 X43.9129 Y30.1047 I0.375 J-0.6495
G2 X42.7879 Y29.4551 I-0.75 J0.0
G2 X42.6114 Y29.5964 I0.375 J0.6495
G1 F300.0 Z-3.0
G2 F800.0 X42.7879 Y30.7542 I0.5515 J0.5083
G2 X43.9129 Y30.1047 I0.375 J-0.6495
G2 X42.7879 Y29.4551 I-0.75 J0.0
G2 X42.6114 Y29.5964 I0.375 J0.6495
G1 F300.0 Z-4.0
G2 F800.0 X42.7879 Y30.7542 I0.5515 J0.5083
G2 X43.9129 Y30.1047 I0.375 J-0.6495
G2 X42.7879 Y29.4551 I-0.75 J0.0
G2 X42.6114 Y29.5964 I0.375 J0.6495
G1 F300.0 Z-5.0
G2 F800.0 X42.7879 Y30.7542 I0.5515 J0.5083
G2 X43.9129 Y30.1047 I0.375 J-0.6495
G2 X42.7879 Y29.4551 I-0.75 J0.0
G2 X42.6114 Y29.5964 I0.375 J0.6495
G1 F300.0 Z-6.0
G2 F800.0 X42.7879 Y30.7542 I0.5515 J0.5083
G2 X43.9129 Y30.1047 I0.375 J-0.6495
G2 X42.7879 Y29.4551 I-0.75 J0.0
G2 X42.6114 Y29.5964 I0.375 J0.6495
( Poche1 )
S1000
G0 Z3.0
G0 X127.2366 Y130.9198
G1 F300.0 Z-1.0
G2 F800.0 X98.7366 Y114.4653 I-19.0 J0.0
G2 Y147.3743 I9.5 J16.4545
G2 X127.2366 Y130.9198 I9.5 J-16.4545
G0 Z3.0
G0 X125.035
G1 F300.0 Z-1.0
G3 F800.0 X99.8374 Y145.4676 I-16.7984 J0.0
G3 Y116.372 I8.3992 J-14.5478
G3 X125.035 Y130.9198 I8.3992 J14.5478
G1 F300.0 X124.2366
G3 F800.0 X100.2366 Y144.7762 I-16.0 J0.0
G3 Y117.0634 I8.0 J-13.8564
G3 X124.2366 Y130.9198 I8.0 J13.8564
G0 Z3.0
G0 X126.4366
G1 F300.0 Z-1.0
G3 F800.0 X99.1366 Y146.6815 I-18.2 J0.0
G3 Y115.1581 I9.1 J-15.7617
G3 X126.4366 Y130.9198 I9.1 J15.7617
G1 F300.0 X127.2366
G1 Z-2.0
G2 F800.0 X98.7366 Y114.4653 I-19.0 J0.0
G2 Y147.3743 I9.5 J16.4545
G2 X127.2366 Y130.9198 I9.5 J-16.4545
G0 Z3.0
G0 X125.035
G1 F300.0 Z-2.0
G3 F800.0 X99.8374 Y145.4676 I-16.7984 J0.0
G3 Y116.372 I8.3992 J-14.5478
G3 X125.035 Y130.9198 I8.3992 J14.5478
G1 F300.0 X124.2366
G3 F800.0 X100.2366 Y144.7762 I-16.0 J0.0
G3 Y117.0634 I8.0 J-13.8564
G3 X124.2366 Y130.9198 I8.0 J13.8564
G0 Z3.0
G0 X126.4366
G1 F300.0 Z-2.0
G3 F800.0 X99.1366 Y146.6815 I-18.2 J0.0
G3 Y115.1581 I9.1 J-15.7617
G3 X126.4366 Y130.9198 I9.1 J15.7617
G1 F300.0 X127.2366
G1 Z-3.0
G2 F800.0 X98.7366 Y114.4653 I-19.0 J0.0
G2 Y147.3743 I9.5 J16.4545
G2 X127.2366 Y130.9198 I9.5 J-16.4545
G0 Z3.0
G0 X125.035
G1 F300.0 Z-3.0
G3 F800.0 X99.8374 Y145.4676 I-16.7984 J0.0
G3 Y116.372 I8.3992 J-14.5478
G3 X125.035 Y130.9198 I8.3992 J14.5478
G1 F300.0 X124.2366
G3 F800.0 X100.2366 Y144.7762 I-16.0 J0.0
G3 Y117.0634 I8.0 J-13.8564
G3 X124.2366 Y130.9198 I8.0 J13.8564
G0 Z3.0
G0 X126.4366
G1 F300.0 Z-3.0
G3 F800.0 X99.1366 Y146.6815 I-18.2 J0.0
G3 Y115.1581 I9.1 J-15.7617
G3 X126.4366 Y130.9198 I9.1 J15.7617
G0 Z3.0
G0 X111.5072 Y75.6375
G1 F300.0 Z-1.0
G2 F800.0 X125.5536 Y57.2946 I-4.9536 J-18.3429
G2 X97.0536 Y40.8401 I-19.0 J0.0
G2 Y73.7491 I9.5 J16.4545
G2 X111.5072 Y75.6375 I9.5 J-16.4545
G0 Z3.0
G0 X110.9332 Y73.512
G1 F300.0 Z-1.0
G3 F800.0 X98.1544 Y71.8424 I-4.3796 J-16.2174
G3 Y42.7467 I8.3992 J-14.5478
G3 X123.352 Y57.2946 I8.3992 J14.5478
G3 X110.9332 Y73.512 I-16.7984 J0.0
G1 F300.0 X110.7251 Y72.7412
G3 F800.0 X98.5536 Y71.151 I-4.1715 J-15.4466
G3 Y43.4382 I8.0 J-13.8564
G3 X122.5536 Y57.2946 I8.0 J13.8564
G3 X110.7251 Y72.7412 I-16.0 J0.0
G0 Z3.0
G0 X111.2987 Y74.8651
G1 F300.0 Z-1.0
G3 F800.0 X97.4536 Y73.0562 I-4.745 J-17.5706
G3 Y41.5329 I9.1 J-15.7617
G3 X124.7536 Y57.2946 I9.1 J15.7617
G3 X111.2987 Y74.8651 I-18.2 J0.0
G1 F300.0 X111.5072 Y75.6375
G1 Z-2.0
G2 F800.0 X125.5536 Y57.2946 I-4.9536 J-18.3429
G2 X97.0536 Y40.8401 I-19.0 J0.0
G2 Y73.7491 I9.5 J16.4545
G2 X111.5072 Y75.6375 I9.5 J-16.4545
G0 Z3.0
G0 X110.9332 Y73.512
G1 F300.0 Z-2.0
G3 F800.0 X98.1544 Y71.8424 I-4.3796 J-16.2174
G3 Y42.7467 I8.3992 J-14.5478
G3 X123.352 Y57.2946 I8.3992 J14.5478
G3 X110.9332 Y73.512 I-16.7984 J0.0
G1 F300.0 X110.7251 Y72.7412
G3 F800.0 X98.5536 Y71.151 I-4.1715 J-15.4466
G3 Y43.4382 I8.0 J-13.8564
G3 X122.5536 Y57.2946 I8.0 J13.8564
G3 X110.7251 Y72.7412 I-16.0 J0.0
G0 Z3.0
G0 X111.2987 Y74.8651
G1 F300.0 Z-2.0
G3 F800.0 X97.4536 Y73.0562 I-4.745 J-17.5706
G3 Y41.5329 I9.1 J-15.7617
G3 X124.7536 Y57.2946 I9.1 J15.7617
G3 X111.2987 Y74.8651 I-18.2 J0.0
G1 F300.0 X111.5072 Y75.6375
G1 Z-3.0
G2 F800.0 X125.5536 Y57.2946 I-4.9536 J-18.3429
G2 X97.0536 Y40.8401 I-19.0 J0.0
G2 Y73.7491 I9.5 J16.4545
G2 X111.5072 Y75.6375 I9.5 J-16.4545
G0 Z3.0
G0 X110.9332 Y73.512
G1 F300.0 Z-3.0
G3 F800.0 X98.1544 Y71.8424 I-4.3796 J-16.2174
G3 Y42.7467 I8.3992 J-14.5478
G3 X123.352 Y57.2946 I8.3992 J14.5478
G3 X110.9332 Y73.512 I-16.7984 J0.0
G1 F300.0 X110.7251 Y72.7412
G3 F800.0 X98.5536 Y71.151 I-4.1715 J-15.4466
G3 Y43.4382 I8.0 J-13.8564
G3 X122.5536 Y57.2946 I8.0 J13.8564
G3 X110.7251 Y72.7412 I-16.0 J0.0
G0 Z3.0
G0 X111.2987 Y74.8651
G1 F300.0 Z-3.0
G3 F800.0 X97.4536 Y73.0562 I-4.745 J-17.5706
G3 Y41.5329 I9.1 J-15.7617
G3 X124.7536 Y57.2946 I9.1 J15.7617
G3 X111.2987 Y74.8651 I-18.2 J0.0
G0 Z3.0
G0 X44.8961 Y98.604
G1 F300.0 Z-1.0
G2 F800.0 X17.505 Y88.5455 I-17.8911 J6.396
G2 Y121.4545 I9.5 J16.4545
G2 X46.005 Y105.0 I9.5 J-16.4545
G2 X44.8961 Y98.604 I-19.0 J0.0
G0 Z3.0
G0 X42.8229 Y99.3451
G1 F300.0 Z-1.0
G3 F800.0 X43.8034 Y105.0 I-15.818 J5.6549
G3 X18.6058 Y119.5478 I-16.7984 J0.0
G3 Y90.4522 I8.3992 J-14.5478
G3 X42.8229 Y99.3451 I8.3992 J14.5478
G1 F300.0 X42.0711 Y99.6139
G3 F800.0 X43.005 Y105.0 I-15.0662 J5.3861
G3 X19.005 Y118.8564 I-16.0 J0.0
G3 Y91.1436 I8.0 J-13.8564
G3 X42.0711 Y99.6139 I8.0 J13.8564
G0 Z3.0
G0 X44.1427 Y98.8733
G1 F300.0 Z-1.0
G3 F800.0 X45.205 Y105.0 I-17.1378 J6.1267
G3 X17.905 Y120.7617 I-18.2 J0.0
G3 Y89.2383 I9.1 J-15.7617
G3 X44.1427 Y98.8733 I9.1 J15.7617
G1 F300.0 X44.8961 Y98.604
G1 Z-2.0
G2 F800.0 X17.505 Y88.5455 I-17.8911 J6.396
G2 Y121.4545 I9.5 J16.4545
G2 X46.005 Y105.0 I9.5 J-16.4545
G2 X44.8961 Y98.604 I-19.0 J0.0
G0 Z3.0
G0 X42.8229 Y99.3451
G1 F300.0 Z-2.0
G3 F800.0 X43.8034 Y105.0 I-15.818 J5.6549
G3 X18.6058 Y119.5478 I-16.7984 J0.0
G3 Y90.4522 I8.3992 J-14.5478
G3 X42.8229 Y99.3451 I8.3992 J14.5478
G1 F300.0 X42.0711 Y99.6139
G3 F800.0 X43.005 Y105.0 I-15.0662 J5.3861
G3 X19.005 Y118.8564 I-16.0 J0.0
G3 Y91.1436 I8.0 J-13.8564
G3 X42.0711 Y99.6139 I8.0 J13.8564
G0 Z3.0
G0 X44.1427 Y98.8733
G1 F300.0 Z-2.0
G3 F800.0 X45.205 Y105.0 I-17.1378 J6.1267
G3 X17.905 Y120.7617 I-18.2 J0.0
G3 Y89.2383 I9.1 J-15.7617
G3 X44.1427 Y98.8733 I9.1 J15.7617
G1 F300.0 X44.8961 Y98.604
G1 Z-3.0
G2 F800.0 X17.505 Y88.5455 I-17.8911 J6.396
G2 Y121.4545 I9.5 J16.4545
G2 X46.005 Y105.0 I9.5 J-16.4545
G2 X44.8961 Y98.604 I-19.0 J0.0
G0 Z3.0
G0 X42.8229 Y99.3451
G1 F300.0 Z-3.0
G3 F800.0 X43.8034 Y105.0 I-15.818 J5.6549
G3 X18.6058 Y119.5478 I-16.7984 J0.0
G3 Y90.4522 I8.3992 J-14.5478
G3 X42.8229 Y99.3451 I8.3992 J14.5478
G1 F300.0 X42.0711 Y99.6139
G3 F800.0 X43.005 Y105.0 I-15.0662 J5.3861
G3 X19.005 Y118.8564 I-16.0 J0.0
G3 Y91.1436 I8.0 J-13.8564
G3 X42.0711 Y99.6139 I8.0 J13.8564
G0 Z3.0
G0 X44.1427 Y98.8733
G1 F300.0 Z-3.0
G3 F800.0 X45.205 Y105.0 I-17.1378 J6.1267
G3 X17.905 Y120.7617 I-18.2 J0.0
G3 Y89.2383 I9.1 J-15.7617
G3 X44.1427 Y98.8733 I9.1 J15.7617
G0 Z3.0
G0 X33.9479 Y48.7238
G1 F300.0 Z-1.0
G2 F800.0 X49.1629 Y30.1047 I-3.7851 J-18.6192
G2 X20.6629 Y13.6502 I-19.0 J0.0
G2 Y46.5591 I9.5 J16.4545
G2 X33.9479 Y48.7238 I9.5 J-16.4545
G0 Z3.0
G0 X33.5094 Y46.5664
G1 F300.0 Z-1.0
G3 F800.0 X21.7637 Y44.6525 I-3.3465 J-16.4617
G3 Y15.5568 I8.3992 J-14.5478
G3 X46.9613 Y30.1047 I8.3992 J14.5478
G3 X33.5094 Y46.5664 I-16.7984 J0.0
G1 F300.0 X33.3503 Y45.784
G3 F800.0 X22.1629 Y43.9611 I-3.1874 J-15.6793
G3 Y16.2483 I8.0 J-13.8564
G3 X46.1629 Y30.1047 I8.0 J13.8564
G3 X33.3503 Y45.784 I-16.0 J0.0
G0 Z3.0
G0 X33.7886 Y47.9399
G1 F300.0 Z-1.0
G3 F800.0 X21.0629 Y45.8663 I-3.6257 J-17.8352
G3 Y14.343 I9.1 J-15.7617
G3 X48.3629 Y30.1047 I9.1 J15.7617
G3 X33.7886 Y47.9399 I-18.2 J0.0
G1 F300.0 X33.9479 Y48.7238
G1 Z-2.0
G2 F800.0 X49.1629 Y30.1047 I-3.7851 J-18.6192
G2 X20.6629 Y13.6502 I-19.0 J0.0
G2 Y46.5591 I9.5 J16.4545
G2 X33.9479 Y48.7238 I9.5 J-16.4545
G0 Z3.0
G0 X33.5094 Y46.5664
G1 F300.0 Z-2.0
G3 F800.0 X21.7637 Y44.6525 I-3.3465 J-16.4617
G3 Y15.5568 I8.3992 J-14.5478
G3 X46.9613 Y30.1047 I8.3992 J14.5478
G3 X33.5094 Y46.5664 I-16.7984 J0.0
G1 F300.0 X33.3503 Y45.784
G3 F800.0 X22.1629 Y43.9611 I-3.1874 J-15.6793
G3 Y16.2483 I8.0 J-13.8564
G3 X46.1629 Y30.1047 I8.0 J13.8564
G3 X33.3503 Y45.784 I-16.0 J0.0
G0 Z3.0
G0 X33.7886 Y47.9399
G1 F300.0 Z-2.0
G3 F800.0 X21.0629 Y45.8663 I-3.6257 J-17.8352
G3 Y14.343 I9.1 J-15.7617
G3 X48.3629 Y30.1047 I9.1 J15.7617
G3 X33.7886 Y47.9399 I-18.2 J0.0
G1 F300.0 X33.9479 Y48.7238
G1 Z-3.0
G2 F800.0 X49.1629 Y30.1047 I-3.7851 J-18.6192
G2 X20.6629 Y13.6502 I-19.0 J0.0
G2 Y46.5591 I9.5 J16.4545
G2 X33.9479 Y48.7238 I9.5 J-16.4545
G0 Z3.0
G0 X33.5094 Y46.5664
G1 F300.0 Z-3.0
G3 F800.0 X21.7637 Y44.6525 I-3.3465 J-16.4617
G3 Y15.5568 I8.3992 J-14.5478
G3 X46.9613 Y30.1047 I8.3992 J14.5478
G3 X33.5094 Y46.5664 I-16.7984 J0.0
G1 F300.0 X33.3503 Y45.784
G3 F800.0 X22.1629 Y43.9611 I-3.1874 J-15.6793
G3 Y16.2483 I8.0 J-13.8564
G3 X46.1629 Y30.1047 I8.0 J13.8564
G3 X33.3503 Y45.784 I-16.0 J0.0
G0 Z3.0
G0 X33.7886 Y47.9399
G1 F300.0 Z-3.0
G3 F800.0 X21.0629 Y45.8663 I-3.6257 J-17.8352
G3 Y14.343 I9.1 J-15.7617
G3 X48.3629 Y30.1047 I9.1 J15.7617
G3 X33.7886 Y47.9399 I-18.2 J0.0
( Contour2 )
S1000
G0 Z3.0
G0 X13.2413 Y129.9198
G1 F300.0 Z-1.0
G1 F800.0 X87.2604
G3 X108.2366 Y151.9198 I20.9762 J1.0
G1 X13.2413
G3 X12.2413 Y150.9198 I0.0 J-1.0
G1 Y130.9198
G3 X13.2413 Y129.9198 I1.0 J0.0
G1 F300.0 Z-2.0
G1 F800.0 X87.2604
G3 X108.2366 Y151.9198 I20.9762 J1.0
G1 X13.2413
G3 X12.2413 Y150.9198 I0.0 J-1.0
G1 Y130.9198
G3 X13.2413 Y129.9198 I1.0 J0.0
G1 F300.0 Z-3.0
G1 F800.0 X87.2604
G3 X108.2366 Y151.9198 I20.9762 J1.0
G1 X13.2413
G3 X12.2413 Y150.9198 I0.0 J-1.0
G1 Y130.9198
G3 X13.2413 Y129.9198 I1.0 J0.0
G1 F300.0 Z-4.0
G1 F800.0 X58.183
G1 X60.683 Z-3.0
G1 X63.183 Z-4.0
G1 X87.2604
G3 X108.2366 Y151.9198 I20.9762 J1.0
G1 X50.183
G1 X47.683 Z-3.0
G1 X45.183 Z-4.0
G1 X13.2413
G3 X12.2413 Y150.9198 I0.0 J-1.0
G1 Y145.7762
G1 Y143.2762 Z-3.0
G1 Y140.7762 Z-4.0
G1 Y130.9198
G3 X13.2413 Y129.9198 I1.0 J0.0
G1 F300.0 Z-5.0
G1 F800.0 X58.183
G1 X60.683 Z-3.0
G1 X63.183 Z-5.0
G1 X87.2604
G3 X108.2366 Y151.9198 I20.9762 J1.0
G1 X50.183
G1 X47.683 Z-3.0
G1 X45.183 Z-5.0
G1 X13.2413
G3 X12.2413 Y150.9198 I0.0 J-1.0
G1 Y145.7762
G1 Y143.2762 Z-3.0
G1 Y140.7762 Z-5.0
G1 Y130.9198
G3 X13.2413 Y129.9198 I1.0 J0.0
G1 F300.0 Z-6.0
G1 F800.0 X58.183
G1 X60.683 Z-3.0
G1 X63.183 Z-6.0
G1 X87.2604
G3 X108.2366 Y151.9198 I20.9762 J1.0
G1 X50.183
G1 X47.683 Z-3.0
G1 X45.183 Z-6.0
G1 X13.2413
G3 X12.2413 Y150.9198 I0.0 J-1.0
G1 Y145.7762
G1 Y143.2762 Z-3.0
G1 Y140.7762 Z-6.0
G1 Y130.9198
G3 X13.2413 Y129.9198 I1.0 J0.0
G0 Z3.0
G0 X16.852 Y123.3825
G1 F300.0 Z-1.0
G3 F800.0 X27.005 Y84.0 I10.153 J-18.3825
G1 X122.0
G3 X123.0 Y85.0 I0.0 J1.0
G1 Y105.0
G3 X122.0 Y106.0 I-1.0 J0.0
G1 X47.9811
G3 X16.852 Y123.3825 I-20.9762 J-1.0
G1 F300.0 Z-2.0
G3 F800.0 X27.005 Y84.0 I10.153 J-18.3825
G1 X122.0
G3 X123.0 Y85.0 I0.0 J1.0
G1 Y105.0
G3 X122.0 Y106.0 I-1.0 J0.0
G1 X47.9811
G3 X16.852 Y123.3825 I-20.9762 J-1.0
G1 F300.0 Z-3.0
G3 F800.0 X27.005 Y84.0 I10.153 J-18.3825
G1 X122.0
G3 X123.0 Y85.0 I0.0 J1.0
G1 Y105.0
G3 X122.0 Y106.0 I-1.0 J0.0
G1 X47.9811
G3 X16.852 Y123.3825 I-20.9762 J-1.0
G1 F300.0 Z-4.0
G3 F800.0 X27.005 Y84.0 I10.153 J-18.3825
G1 X62.183
G1 X64.683 Z-3.0
G1 X67.183 Z-4.0
G1 X122.0
G3 X123.0 Y85.0 I0.0 J1.0
G1 Y90.7762
G1 Y93.2762 Z-3.0
G1 Y95.7762 Z-4.0
G1 Y105.0
G3 X122.0 Y106.0 I-1.0 J0.0
G1 X91.183
G1 X88.683 Z-3.0
G1 X86.183 Z-4.0
G1 X47.9811
G3 X16.852 Y123.3825 I-20.9762 J-1.0
G1 F300.0 Z-5.0
G3 F800.0 X27.005 Y84.0 I10.153 J-18.3825
G1 X62.183
G1 X64.683 Z-3.0
G1 X67.183 Z-5.0
G1 X122.0
G3 X123.0 Y85.0 I0.0 J1.0
G1 Y90.7762
G1 Y93.2762 Z-3.0
G1 Y95.7762 Z-5.0
G1 Y105.0
G3 X122.0 Y106.0 I-1.0 J0.0
G1 X91.183
G1 X88.683 Z-3.0
G1 X86.183 Z-5.0
G1 X47.9811
G3 X16.852 Y123.3825 I-20.9762 J-1.0
G1 F300.0 Z-6.0
G3 F800.0 X27.005 Y84.0 I10.153 J-18.3825
G1 X62.183
G1 X64.683 Z-3.0
G1 X67.183 Z-6.0
G1 X122.0
G3 X123.0 Y85.0 I0.0 J1.0
G1 Y90.7762
G1 Y93.2762 Z-3.0
G1 Y95.7762 Z-6.0
G1 Y105.0
G3 X122.0 Y106.0 I-1.0 J0.0
G1 X91.183
G1 X88.683 Z-3.0
G1 X86.183 Z-6.0
G1 X47.9811
G3 X16.852 Y123.3825 I-20.9762 J-1.0
G0 Z3.0
G0 Y78.2946
G1 F300.0 Z-1.0
G1 F800.0 X11.5584
G3 X10.5584 Y77.2946 I0.0 J-1.0
G1 Y57.2946
G3 X11.5584 Y56.2946 I1.0 J0.0
G1 X85.5774
G3 X106.5536 Y78.2946 I20.9762 J1.0
G1 X16.852
G1 F300.0 Z-2.0
G1 F800.0 X11.5584
G3 X10.5584 Y77.2946 I0.0 J-1.0
G1 Y57.2946
G3 X11.5584 Y56.2946 I1.0 J0.0
G1 X85.5774
G3 X106.5536 Y78.2946 I20.9762 J1.0
G1 X16.852
G1 F300.0 Z-3.0
G1 F800.0 X11.5584
G3 X10.5584 Y77.2946 I0.0 J-1.0
G1 Y57.2946
G3 X11.5584 Y56.2946 I1.0 J0.0
G1 X85.5774
G3 X106.5536 Y78.2946 I20.9762 J1.0
G1 X16.852
G1 F300.0 Z-4.0
G1 F800.0 X11.5584
G3 X10.5584 Y77.2946 I0.0 J-1.0
G1 Y69.5
G1 Y67.0 Z-3.0
G1 Y64.5 Z-4.0
G1 Y57.2946
G3 X11.5584 Y56.2946 I1.0 J0.0
G1 X71.5
G1 X74.0 Z-3.0
G1 X76.5 Z-4.0
G1 X85.5774
G3 X106.5536 Y78.2946 I20.9762 J1.0
G1 X51.5
G1 X49.0 Z-3.0
G1 X46.5 Z-4.0
G1 X16.852
G1 F300.0 Z-5.0
G1 F800.0 X11.5584
G3 X10.5584 Y77.2946 I0.0 J-1.0
G1 Y69.5
G1 Y67.0 Z-3.0
G1 Y64.5 Z-5.0
G1 Y57.2946
G3 X11.5584 Y56.2946 I1.0 J0.0
G1 X71.5
G1 X74.0 Z-3.0
G1 X76.5 Z-5.0
G1 X85.5774
G3 X106.5536 Y78.2946 I20.9762 J1.0
G1 X51.5
G1 X49.0 Z-3.0
G1 X46.5 Z-5.0
G1 X16.852
G1 F300.0 Z-6.0
G1 F800.0 X11.5584
G3 X10.5584 Y77.2946 I0.0 J-1.0
G1 Y69.5
G1 Y67.0 Z-3.0
G1 Y64.5 Z-6.0
G1 Y57.2946
G3 X11.5584 Y56.2946 I1.0 J0.0
G1 X71.5
G1 X74.0 Z-3.0
G1 X76.5 Z-6.0
G1 X85.5774
G3 X106.5536 Y78.2946 I20.9762 J1.0
G1 X51.5
G1 X49.0 Z-3.0
G1 X46.5 Z-6.0
G1 X16.852
G0 Z3.0
G0 X24.5717 Y50.3467
G1 F300.0 Z-1.0
G3 F800.0 X30.1629 Y9.1047 I5.5912 J-20.242
G1 X125.1579
G3 X126.1579 Y10.1047 I0.0 J1.0
G1 Y30.1047
G3 X125.1579 Y31.1047 I-1.0 J0.0
G1 X51.1391
G3 X24.5717 Y50.3467 I-20.9762 J-1.0
G1 F300.0 Z-2.0
G3 F800.0 X30.1629 Y9.1047 I5.5912 J-20.242
G1 X125.1579
G3 X126.1579 Y10.1047 I0.0 J1.0
G1 Y30.1047
G3 X125.1579 Y31.1047 I-1.0 J0.0
G1 X51.1391
G3 X24.5717 Y50.3467 I-20.9762 J-1.0
G1 F300.0 Z-3.0
G3 F800.0 X30.1629 Y9.1047 I5.5912 J-20.242
G1 X125.1579
G3 X126.1579 Y10.1047 I0.0 J1.0
G1 Y30.1047
G3 X125.1579 Y31.1047 I-1.0 J0.0
G1 X51.1391
G3 X24.5717 Y50.3467 I-20.9762 J-1.0
G1 F300.0 Z-4.0
G3 F800.0 X30.1629 Y9.1047 I5.5912 J-20.242
G1 X85.5
G1 X88.0 Z-3.0
G1 X90.5 Z-4.0
G1 X125.1579
G3 X126.1579 Y10.1047 I0.0 J1.0
G1 Y16.5
G1 Y19.0 Z-3.0
G1 Y21.5 Z-4.0
G1 Y30.1047
G3 X125.1579 Y31.1047 I-1.0 J0.0
G1 X72.5
G1 X70.0 Z-3.0
G1 X67.5 Z-4.0
G1 X51.1391
G3 X24.5717 Y50.3467 I-20.9762 J-1.0
G1 F300.0 Z-5.0
G3 F800.0 X30.1629 Y9.1047 I5.5912 J-20.242
G1 X85.5
G1 X88.0 Z-3.0
G1 X90.5 Z-5.0
G1 X125.1579
G3 X126.1579 Y10.1047 I0.0 J1.0
G1 Y16.5
G1 Y19.0 Z-3.0
G1 Y21.5 Z-5.0
G1 Y30.1047
G3 X125.1579 Y31.1047 I-1.0 J0.0
G1 X72.5
G1 X70.0 Z-3.0
G1 X67.5 Z-5.0
G1 X51.1391
G3 X24.5717 Y50.3467 I-20.9762 J-1.0
G1 F300.0 Z-6.0
G3 F800.0 X30.1629 Y9.1047 I5.5912 J-20.242
G1 X85.5
G1 X88.0 Z-3.0
G1 X90.5 Z-6.0
G1 X125.1579
G3 X126.1579 Y10.1047 I0.0 J1.0
G1 Y16.5
G1 Y19.0 Z-3.0
G1 Y21.5 Z-6.0
G1 Y30.1047
G3 X125.1579 Y31.1047 I-1.0 J0.0
G1 X72.5
G1 X70.0 Z-3.0
G1 X67.5 Z-6.0
G1 X51.1391
G3 X24.5717 Y50.3467 I-20.9762 J-1.0
G0 Z3.0
M5
M30
