( Made using CamBam - http://www.cambam.co.uk )
( Ensemble 2 1/26/2016 4:18:00 PM )
( T0 : 1.5 )
G21 G90 G64 G40
G0 Z3.0
( T0 : 1.5 )
T0 M6
( Contour1 )
G17
M3 S1000
G0 X171.1012 Y52.8208
G1 F300.0 Z-1.0
G1 F800.0 X171.2954 Y72.8199
G3 X170.5527 Y73.5771 I-0.75 J0.0073
G1 X48.5585 Y74.7615
G3 X47.8012 Y74.0189 I-0.0073 J-0.75
G1 X47.607 Y54.0198
G3 X48.3497 Y53.2626 I0.75 J-0.0073
G1 X170.344 Y52.0781
G3 X171.1012 Y52.8208 I0.0073 J0.75
G1 F300.0 Z-2.0
G1 F800.0 X171.2954 Y72.8199
G3 X170.5527 Y73.5771 I-0.75 J0.0073
G1 X48.5585 Y74.7615
G3 X47.8012 Y74.0189 I-0.0073 J-0.75
G1 X47.607 Y54.0198
G3 X48.3497 Y53.2626 I0.75 J-0.0073
G1 X170.344 Y52.0781
G3 X171.1012 Y52.8208 I0.0073 J0.75
G1 F300.0 Z-3.0
G1 F800.0 X171.2954 Y72.8199
G3 X170.5527 Y73.5771 I-0.75 J0.0073
G1 X48.5585 Y74.7615
G3 X47.8012 Y74.0189 I-0.0073 J-0.75
G1 X47.607 Y54.0198
G3 X48.3497 Y53.2626 I0.75 J-0.0073
G1 X170.344 Y52.0781
G3 X171.1012 Y52.8208 I0.0073 J0.75
G1 F300.0 Z-4.0
G1 F800.0 X171.1863 Y61.5796
G1 X171.2081 Y63.8295 Z-3.0
G1 X171.2299 Y66.0794 Z-4.0
G1 X171.2954 Y72.8199
G3 X170.5527 Y73.5771 I-0.75 J0.0073
G1 X81.5782 Y74.441
G1 X79.3283 Y74.4628 Z-3.0
G1 X77.0784 Y74.4847 Z-4.0
G1 X48.5585 Y74.7615
G3 X47.8012 Y74.0189 I-0.0073 J-0.75
G1 X47.607 Y54.0198
G3 X48.3497 Y53.2626 I0.75 J-0.0073
G1 X122.1664 Y52.5459
G1 X124.4163 Y52.524 Z-3.0
G1 X126.6662 Y52.5022 Z-4.0
G1 X170.344 Y52.0781
G3 X171.1012 Y52.8208 I0.0073 J0.75
G1 F300.0 Z-5.0
G1 F800.0 X171.1863 Y61.5796
G1 X171.2081 Y63.8295 Z-3.0
G1 X171.2299 Y66.0794 Z-5.0
G1 X171.2954 Y72.8199
G3 X170.5527 Y73.5771 I-0.75 J0.0073
G1 X81.5782 Y74.441
G1 X79.3283 Y74.4628 Z-3.0
G1 X77.0784 Y74.4847 Z-5.0
G1 X48.5585 Y74.7615
G3 X47.8012 Y74.0189 I-0.0073 J-0.75
G1 X47.607 Y54.0198
G3 X48.3497 Y53.2626 I0.75 J-0.0073
G1 X122.1664 Y52.5459
G1 X124.4163 Y52.524 Z-3.0
G1 X126.6662 Y52.5022 Z-5.0
G1 X170.344 Y52.0781
G3 X171.1012 Y52.8208 I0.0073 J0.75
G1 F300.0 Z-6.0
G1 F800.0 X171.1863 Y61.5796
G1 X171.2081 Y63.8295 Z-3.0
G1 X171.2299 Y66.0794 Z-6.0
G1 X171.2954 Y72.8199
G3 X170.5527 Y73.5771 I-0.75 J0.0073
G1 X81.5782 Y74.441
G1 X79.3283 Y74.4628 Z-3.0
G1 X77.0784 Y74.4847 Z-6.0
G1 X48.5585 Y74.7615
G3 X47.8012 Y74.0189 I-0.0073 J-0.75
G1 X47.607 Y54.0198
G3 X48.3497 Y53.2626 I0.75 J-0.0073
G1 X122.1664 Y52.5459
G1 X124.4163 Y52.524 Z-3.0
G1 X126.6662 Y52.5022 Z-6.0
G1 X170.344 Y52.0781
G3 X171.1012 Y52.8208 I0.0073 J0.75
G0 Z3.0
G0 X170.4312 Y46.5738
G1 F300.0 Z-1.0
G3 F800.0 X170.3513 Y46.5781 I-0.08 J-0.7457
G1 X48.3513
G3 X47.6013 Y45.8281 I0.0 J-0.75
G1 Y25.8281
G3 X48.3513 Y25.0781 I0.75 J0.0
G1 X170.3513
G3 X171.1013 Y25.8281 I0.0 J0.75
G1 Y45.8281
G3 X170.4312 Y46.5738 I-0.75 J0.0
G1 F300.0 Z-2.0
G3 F800.0 X170.3513 Y46.5781 I-0.08 J-0.7457
G1 X48.3513
G3 X47.6013 Y45.8281 I0.0 J-0.75
G1 Y25.8281
G3 X48.3513 Y25.0781 I0.75 J0.0
G1 X170.3513
G3 X171.1013 Y25.8281 I0.0 J0.75
G1 Y45.8281
G3 X170.4312 Y46.5738 I-0.75 J0.0
G1 F300.0 Z-3.0
G3 F800.0 X170.3513 Y46.5781 I-0.08 J-0.7457
G1 X48.3513
G3 X47.6013 Y45.8281 I0.0 J-0.75
G1 Y25.8281
G3 X48.3513 Y25.0781 I0.75 J0.0
G1 X170.3513
G3 X171.1013 Y25.8281 I0.0 J0.75
G1 Y45.8281
G3 X170.4312 Y46.5738 I-0.75 J0.0
G1 F300.0 Z-4.0
G3 F800.0 X170.3513 Y46.5781 I-0.08 J-0.7457
G1 X72.6013
G1 X70.3513 Z-3.0
G1 X68.1013 Z-4.0
G1 X48.3513
G3 X47.6013 Y45.8281 I0.0 J-0.75
G1 Y25.8281
G3 X48.3513 Y25.0781 I0.75 J0.0
G1 X69.1013
G1 X71.3513 Z-3.0
G1 X73.6013 Z-4.0
G1 X170.3513
G3 X171.1013 Y25.8281 I0.0 J0.75
G1 Y34.5781
G1 Y36.8281 Z-3.0
G1 Y39.0781 Z-4.0
G1 Y45.8281
G3 X170.4312 Y46.5738 I-0.75 J0.0
G1 F300.0 Z-5.0
G3 F800.0 X170.3513 Y46.5781 I-0.08 J-0.7457
G1 X72.6013
G1 X70.3513 Z-3.0
G1 X68.1013 Z-5.0
G1 X48.3513
G3 X47.6013 Y45.8281 I0.0 J-0.75
G1 Y25.8281
G3 X48.3513 Y25.0781 I0.75 J0.0
G1 X69.1013
G1 X71.3513 Z-3.0
G1 X73.6013 Z-5.0
G1 X170.3513
G3 X171.1013 Y25.8281 I0.0 J0.75
G1 Y34.5781
G1 Y36.8281 Z-3.0
G1 Y39.0781 Z-5.0
G1 Y45.8281
G3 X170.4312 Y46.5738 I-0.75 J0.0
G1 F300.0 Z-6.0
G3 F800.0 X170.3513 Y46.5781 I-0.08 J-0.7457
G1 X72.6013
G1 X70.3513 Z-3.0
G1 X68.1013 Z-6.0
G1 X48.3513
G3 X47.6013 Y45.8281 I0.0 J-0.75
G1 Y25.8281
G3 X48.3513 Y25.0781 I0.75 J0.0
G1 X69.1013
G1 X71.3513 Z-3.0
G1 X73.6013 Z-6.0
G1 X170.3513
G3 X171.1013 Y25.8281 I0.0 J0.75
G1 Y34.5781
G1 Y36.8281 Z-3.0
G1 Y39.0781 Z-6.0
G1 Y45.8281
G3 X170.4312 Y46.5738 I-0.75 J0.0
G0 Z3.0
G0 Y21.75
G1 F300.0 Z-1.0
G1 F800.0 X1.0
G3 X0.25 Y21.0 I0.0 J-0.75
G1 Y1.0
G3 X1.0 Y0.25 I0.75 J0.0
G1 X191.0
G3 X191.75 Y1.0 I0.0 J0.75
G1 Y21.0
G3 X191.0 Y21.75 I-0.75 J0.0
G1 X170.4312
G1 F300.0 Z-2.0
G1 F800.0 X1.0
G3 X0.25 Y21.0 I0.0 J-0.75
G1 Y1.0
G3 X1.0 Y0.25 I0.75 J0.0
G1 X191.0
G3 X191.75 Y1.0 I0.0 J0.75
G1 Y21.0
G3 X191.0 Y21.75 I-0.75 J0.0
G1 X170.4312
G1 F300.0 Z-3.0
G1 F800.0 X1.0
G3 X0.25 Y21.0 I0.0 J-0.75
G1 Y1.0
G3 X1.0 Y0.25 I0.75 J0.0
G1 X191.0
G3 X191.75 Y1.0 I0.0 J0.75
G1 Y21.0
G3 X191.0 Y21.75 I-0.75 J0.0
G1 X170.4312
G1 F300.0 Z-4.0
G1 F800.0 X149.6013
G1 X147.3513 Z-3.0
G1 X145.1013 Z-4.0
G1 X1.0
G3 X0.25 Y21.0 I0.0 J-0.75
G1 Y1.0
G3 X1.0 Y0.25 I0.75 J0.0
G1 X21.1013
G1 X23.3513 Z-3.0
G1 X25.6013 Z-4.0
G1 X191.0
G3 X191.75 Y1.0 I0.0 J0.75
G1 Y9.5781
G1 Y11.8281 Z-3.0
G1 Y14.0781 Z-4.0
G1 Y21.0
G3 X191.0 Y21.75 I-0.75 J0.0
G1 X170.4312
G1 F300.0 Z-5.0
G1 F800.0 X149.6013
G1 X147.3513 Z-3.0
G1 X145.1013 Z-5.0
G1 X1.0
G3 X0.25 Y21.0 I0.0 J-0.75
G1 Y1.0
G3 X1.0 Y0.25 I0.75 J0.0
G1 X21.1013
G1 X23.3513 Z-3.0
G1 X25.6013 Z-5.0
G1 X191.0
G3 X191.75 Y1.0 I0.0 J0.75
G1 Y9.5781
G1 Y11.8281 Z-3.0
G1 Y14.0781 Z-5.0
G1 Y21.0
G3 X191.0 Y21.75 I-0.75 J0.0
G1 X170.4312
G1 F300.0 Z-6.0
G1 F800.0 X149.6013
G1 X147.3513 Z-3.0
G1 X145.1013 Z-6.0
G1 X1.0
G3 X0.25 Y21.0 I0.0 J-0.75
G1 Y1.0
G3 X1.0 Y0.25 I0.75 J0.0
G1 X21.1013
G1 X23.3513 Z-3.0
G1 X25.6013 Z-6.0
G1 X191.0
G3 X191.75 Y1.0 I0.0 J0.75
G1 Y9.5781
G1 Y11.8281 Z-3.0
G1 Y14.0781 Z-6.0
G1 Y21.0
G3 X191.0 Y21.75 I-0.75 J0.0
G1 X170.4312
( Contour2 )
S1000
G0 Z3.0
G0 X52.2719 Y70.9826
G1 F300.0 Z-1.0
G2 F800.0 X51.1469 Y70.3331 I-0.75 J0.0
G2 Y71.6321 I0.375 J0.6495
G2 X52.2719 Y70.9826 I0.375 J-0.6495
G1 F300.0 Z-2.0
G2 F800.0 X51.1469 Y70.3331 I-0.75 J0.0
G2 Y71.6321 I0.375 J0.6495
G2 X52.2719 Y70.9826 I0.375 J-0.6495
G1 F300.0 Z-3.0
G2 F800.0 X51.1469 Y70.3331 I-0.75 J0.0
G2 Y71.6321 I0.375 J0.6495
G2 X52.2719 Y70.9826 I0.375 J-0.6495
G1 F300.0 Z-4.0
G2 F800.0 X51.1469 Y70.3331 I-0.75 J0.0
G2 Y71.6321 I0.375 J0.6495
G2 X52.2719 Y70.9826 I0.375 J-0.6495
G1 F300.0 Z-5.0
G2 F800.0 X51.1469 Y70.3331 I-0.75 J0.0
G2 Y71.6321 I0.375 J0.6495
G2 X52.2719 Y70.9826 I0.375 J-0.6495
G1 F300.0 Z-6.0
G2 F800.0 X51.1469 Y70.3331 I-0.75 J0.0
G2 Y71.6321 I0.375 J0.6495
G2 X52.2719 Y70.9826 I0.375 J-0.6495
G0 Z3.0
G0 X51.4334 Y57.7318
G1 F300.0 Z-1.0
G2 F800.0 X52.136 Y56.9833 I-0.0474 J-0.7485
G2 X51.011 Y56.3337 I-0.75 J0.0
G2 Y57.6328 I0.375 J0.6495
G2 X51.4334 Y57.7318 I0.375 J-0.6495
G1 F300.0 Z-2.0
G2 F800.0 X52.136 Y56.9833 I-0.0474 J-0.7485
G2 X51.011 Y56.3337 I-0.75 J0.0
G2 Y57.6328 I0.375 J0.6495
G2 X51.4334 Y57.7318 I0.375 J-0.6495
G1 F300.0 Z-3.0
G2 F800.0 X52.136 Y56.9833 I-0.0474 J-0.7485
G2 X51.011 Y56.3337 I-0.75 J0.0
G2 Y57.6328 I0.375 J0.6495
G2 X51.4334 Y57.7318 I0.375 J-0.6495
G1 F300.0 Z-4.0
G2 F800.0 X52.136 Y56.9833 I-0.0474 J-0.7485
G2 X51.011 Y56.3337 I-0.75 J0.0
G2 Y57.6328 I0.375 J0.6495
G2 X51.4334 Y57.7318 I0.375 J-0.6495
G1 F300.0 Z-5.0
G2 F800.0 X52.136 Y56.9833 I-0.0474 J-0.7485
G2 X51.011 Y56.3337 I-0.75 J0.0
G2 Y57.6328 I0.375 J0.6495
G2 X51.4334 Y57.7318 I0.375 J-0.6495
G1 F300.0 Z-6.0
G2 F800.0 X52.136 Y56.9833 I-0.0474 J-0.7485
G2 X51.011 Y56.3337 I-0.75 J0.0
G2 Y57.6328 I0.375 J0.6495
G2 X51.4334 Y57.7318 I0.375 J-0.6495
G0 Z3.0
G0 X51.3554 Y43.5781
G1 F300.0 Z-1.0
G2 F800.0 X52.1013 Y42.8281 I-0.0041 J-0.75
G2 X50.9763 Y42.1786 I-0.75 J0.0
G2 Y43.4776 I0.375 J0.6495
G2 X51.3554 Y43.5781 I0.375 J-0.6495
G1 F300.0 Z-2.0
G2 F800.0 X52.1013 Y42.8281 I-0.0041 J-0.75
G2 X50.9763 Y42.1786 I-0.75 J0.0
G2 Y43.4776 I0.375 J0.6495
G2 X51.3554 Y43.5781 I0.375 J-0.6495
G1 F300.0 Z-3.0
G2 F800.0 X52.1013 Y42.8281 I-0.0041 J-0.75
G2 X50.9763 Y42.1786 I-0.75 J0.0
G2 Y43.4776 I0.375 J0.6495
G2 X51.3554 Y43.5781 I0.375 J-0.6495
G1 F300.0 Z-4.0
G2 F800.0 X52.1013 Y42.8281 I-0.0041 J-0.75
G2 X50.9763 Y42.1786 I-0.75 J0.0
G2 Y43.4776 I0.375 J0.6495
G2 X51.3554 Y43.5781 I0.375 J-0.6495
G1 F300.0 Z-5.0
G2 F800.0 X52.1013 Y42.8281 I-0.0041 J-0.75
G2 X50.9763 Y42.1786 I-0.75 J0.0
G2 Y43.4776 I0.375 J0.6495
G2 X51.3554 Y43.5781 I0.375 J-0.6495
G1 F300.0 Z-6.0
G2 F800.0 X52.1013 Y42.8281 I-0.0041 J-0.75
G2 X50.9763 Y42.1786 I-0.75 J0.0
G2 Y43.4776 I0.375 J0.6495
G2 X51.3554 Y43.5781 I0.375 J-0.6495
G0 Z3.0
G0 X51.3514 Y36.0781
G1 F300.0 Z-1.0
G2 F800.0 X51.6013 Y35.8281 I-0.0001 J-0.25
G2 X51.2263 Y35.6116 I-0.25 J0.0
G2 Y36.0446 I0.125 J0.2165
G2 X51.3514 Y36.0781 I0.125 J-0.2165
G1 F300.0 Z-2.0
G2 F800.0 X51.6013 Y35.8281 I-0.0001 J-0.25
G2 X51.2263 Y35.6116 I-0.25 J0.0
G2 Y36.0446 I0.125 J0.2165
G2 X51.3514 Y36.0781 I0.125 J-0.2165
G1 F300.0 Z-3.0
G2 F800.0 X51.6013 Y35.8281 I-0.0001 J-0.25
G2 X51.2263 Y35.6116 I-0.25 J0.0
G2 Y36.0446 I0.125 J0.2165
G2 X51.3514 Y36.0781 I0.125 J-0.2165
G1 F300.0 Z-4.0
G2 F800.0 X51.6013 Y35.8281 I-0.0001 J-0.25
G2 X51.2263 Y35.6116 I-0.25 J0.0
G2 Y36.0446 I0.125 J0.2165
G2 X51.3514 Y36.0781 I0.125 J-0.2165
G1 F300.0 Z-5.0
G2 F800.0 X51.6013 Y35.8281 I-0.0001 J-0.25
G2 X51.2263 Y35.6116 I-0.25 J0.0
G2 Y36.0446 I0.125 J0.2165
G2 X51.3514 Y36.0781 I0.125 J-0.2165
G1 F300.0 Z-6.0
G2 F800.0 X51.6013 Y35.8281 I-0.0001 J-0.25
G2 X51.2263 Y35.6116 I-0.25 J0.0
G2 Y36.0446 I0.125 J0.2165
G2 X51.3514 Y36.0781 I0.125 J-0.2165
G0 Z3.0
G0 X56.1028 Y35.9296
G1 F300.0 Z-1.0
G2 F800.0 X57.7263 Y38.6427 I3.2484 J-0.1015
G2 X62.6013 Y35.8281 I1.625 J-2.8146
G2 X57.7263 Y33.0135 I-3.25 J0.0
G2 X56.1028 Y35.9296 I1.625 J2.8146
G1 F300.0 Z-2.0
G2 F800.0 X57.7263 Y38.6427 I3.2484 J-0.1015
G2 X62.6013 Y35.8281 I1.625 J-2.8146
G2 X57.7263 Y33.0135 I-3.25 J0.0
G2 X56.1028 Y35.9296 I1.625 J2.8146
G1 F300.0 Z-3.0
G2 F800.0 X57.7263 Y38.6427 I3.2484 J-0.1015
G2 X62.6013 Y35.8281 I1.625 J-2.8146
G2 X57.7263 Y33.0135 I-3.25 J0.0
G2 X56.1028 Y35.9296 I1.625 J2.8146
G1 F300.0 Z-4.0
G2 F800.0 X57.7263 Y38.6427 I3.2484 J-0.1015
G2 X62.6013 Y35.8281 I1.625 J-2.8146
G2 X57.7263 Y33.0135 I-3.25 J0.0
G2 X56.1028 Y35.9296 I1.625 J2.8146
G1 F300.0 Z-5.0
G2 F800.0 X57.7263 Y38.6427 I3.2484 J-0.1015
G2 X62.6013 Y35.8281 I1.625 J-2.8146
G2 X57.7263 Y33.0135 I-3.25 J0.0
G2 X56.1028 Y35.9296 I1.625 J2.8146
G1 F300.0 Z-6.0
G2 F800.0 X57.7263 Y38.6427 I3.2484 J-0.1015
G2 X62.6013 Y35.8281 I1.625 J-2.8146
G2 X57.7263 Y33.0135 I-3.25 J0.0
G2 X56.1028 Y35.9296 I1.625 J2.8146
G0 Z3.0
G0 X51.7683 Y29.4515
G1 F300.0 Z-1.0
G2 F800.0 X52.1013 Y28.8281 I-0.4171 J-0.6233
G2 X50.9763 Y28.1786 I-0.75 J0.0
G2 Y29.4776 I0.375 J0.6495
G2 X51.7683 Y29.4515 I0.375 J-0.6495
G1 F300.0 Z-2.0
G2 F800.0 X52.1013 Y28.8281 I-0.4171 J-0.6233
G2 X50.9763 Y28.1786 I-0.75 J0.0
G2 Y29.4776 I0.375 J0.6495
G2 X51.7683 Y29.4515 I0.375 J-0.6495
G1 F300.0 Z-3.0
G2 F800.0 X52.1013 Y28.8281 I-0.4171 J-0.6233
G2 X50.9763 Y28.1786 I-0.75 J0.0
G2 Y29.4776 I0.375 J0.6495
G2 X51.7683 Y29.4515 I0.375 J-0.6495
G1 F300.0 Z-4.0
G2 F800.0 X52.1013 Y28.8281 I-0.4171 J-0.6233
G2 X50.9763 Y28.1786 I-0.75 J0.0
G2 Y29.4776 I0.375 J0.6495
G2 X51.7683 Y29.4515 I0.375 J-0.6495
G1 F300.0 Z-5.0
G2 F800.0 X52.1013 Y28.8281 I-0.4171 J-0.6233
G2 X50.9763 Y28.1786 I-0.75 J0.0
G2 Y29.4776 I0.375 J0.6495
G2 X51.7683 Y29.4515 I0.375 J-0.6495
G1 F300.0 Z-6.0
G2 F800.0 X52.1013 Y28.8281 I-0.4171 J-0.6233
G2 X50.9763 Y28.1786 I-0.75 J0.0
G2 Y29.4776 I0.375 J0.6495
G2 X51.7683 Y29.4515 I0.375 J-0.6495
G0 Z3.0
G0 X59.1068 Y27.8804
G1 F300.0 Z-1.0
G2 F800.0 X59.2263 Y28.0446 I0.2445 J-0.0523
G2 X59.6013 Y27.8281 I0.125 J-0.2165
G2 X59.2263 Y27.6116 I-0.25 J0.0
G2 X59.1068 Y27.8804 I0.125 J0.2165
G1 F300.0 Z-2.0
G2 F800.0 X59.2263 Y28.0446 I0.2445 J-0.0523
G2 X59.6013 Y27.8281 I0.125 J-0.2165
G2 X59.2263 Y27.6116 I-0.25 J0.0
G2 X59.1068 Y27.8804 I0.125 J0.2165
G1 F300.0 Z-3.0
G2 F800.0 X59.2263 Y28.0446 I0.2445 J-0.0523
G2 X59.6013 Y27.8281 I0.125 J-0.2165
G2 X59.2263 Y27.6116 I-0.25 J0.0
G2 X59.1068 Y27.8804 I0.125 J0.2165
G1 F300.0 Z-4.0
G2 F800.0 X59.2263 Y28.0446 I0.2445 J-0.0523
G2 X59.6013 Y27.8281 I0.125 J-0.2165
G2 X59.2263 Y27.6116 I-0.25 J0.0
G2 X59.1068 Y27.8804 I0.125 J0.2165
G1 F300.0 Z-5.0
G2 F800.0 X59.2263 Y28.0446 I0.2445 J-0.0523
G2 X59.6013 Y27.8281 I0.125 J-0.2165
G2 X59.2263 Y27.6116 I-0.25 J0.0
G2 X59.1068 Y27.8804 I0.125 J0.2165
G1 F300.0 Z-6.0
G2 F800.0 X59.2263 Y28.0446 I0.2445 J-0.0523
G2 X59.6013 Y27.8281 I0.125 J-0.2165
G2 X59.2263 Y27.6116 I-0.25 J0.0
G2 X59.1068 Y27.8804 I0.125 J0.2165
G0 Z3.0
G0 X67.1713 Y35.6546
G1 F300.0 Z-1.0
G2 F800.0 X67.2263 Y36.0446 I0.18 J0.1735
G2 X67.6013 Y35.8281 I0.125 J-0.2165
G2 X67.2263 Y35.6116 I-0.25 J0.0
G2 X67.1713 Y35.6546 I0.125 J0.2165
G1 F300.0 Z-2.0
G2 F800.0 X67.2263 Y36.0446 I0.18 J0.1735
G2 X67.6013 Y35.8281 I0.125 J-0.2165
G2 X67.2263 Y35.6116 I-0.25 J0.0
G2 X67.1713 Y35.6546 I0.125 J0.2165
G1 F300.0 Z-3.0
G2 F800.0 X67.2263 Y36.0446 I0.18 J0.1735
G2 X67.6013 Y35.8281 I0.125 J-0.2165
G2 X67.2263 Y35.6116 I-0.25 J0.0
G2 X67.1713 Y35.6546 I0.125 J0.2165
G1 F300.0 Z-4.0
G2 F800.0 X67.2263 Y36.0446 I0.18 J0.1735
G2 X67.6013 Y35.8281 I0.125 J-0.2165
G2 X67.2263 Y35.6116 I-0.25 J0.0
G2 X67.1713 Y35.6546 I0.125 J0.2165
G1 F300.0 Z-5.0
G2 F800.0 X67.2263 Y36.0446 I0.18 J0.1735
G2 X67.6013 Y35.8281 I0.125 J-0.2165
G2 X67.2263 Y35.6116 I-0.25 J0.0
G2 X67.1713 Y35.6546 I0.125 J0.2165
G1 F300.0 Z-6.0
G2 F800.0 X67.2263 Y36.0446 I0.18 J0.1735
G2 X67.6013 Y35.8281 I0.125 J-0.2165
G2 X67.2263 Y35.6116 I-0.25 J0.0
G2 X67.1713 Y35.6546 I0.125 J0.2165
G0 Z3.0
G0 X59.5241 Y43.6475
G1 F300.0 Z-1.0
G2 F800.0 X59.2263 Y43.6116 I-0.1728 J0.1806
G2 Y44.0446 I0.125 J0.2165
G2 X59.6013 Y43.8281 I0.125 J-0.2165
G2 X59.5241 Y43.6475 I-0.25 J0.0
G1 F300.0 Z-2.0
G2 F800.0 X59.2263 Y43.6116 I-0.1728 J0.1806
G2 Y44.0446 I0.125 J0.2165
G2 X59.6013 Y43.8281 I0.125 J-0.2165
G2 X59.5241 Y43.6475 I-0.25 J0.0
G1 F300.0 Z-3.0
G2 F800.0 X59.2263 Y43.6116 I-0.1728 J0.1806
G2 Y44.0446 I0.125 J0.2165
G2 X59.6013 Y43.8281 I0.125 J-0.2165
G2 X59.5241 Y43.6475 I-0.25 J0.0
G1 F300.0 Z-4.0
G2 F800.0 X59.2263 Y43.6116 I-0.1728 J0.1806
G2 Y44.0446 I0.125 J0.2165
G2 X59.6013 Y43.8281 I0.125 J-0.2165
G2 X59.5241 Y43.6475 I-0.25 J0.0
G1 F300.0 Z-5.0
G2 F800.0 X59.2263 Y43.6116 I-0.1728 J0.1806
G2 Y44.0446 I0.125 J0.2165
G2 X59.6013 Y43.8281 I0.125 J-0.2165
G2 X59.5241 Y43.6475 I-0.25 J0.0
G1 F300.0 Z-6.0
G2 F800.0 X59.2263 Y43.6116 I-0.1728 J0.1806
G2 Y44.0446 I0.125 J0.2165
G2 X59.6013 Y43.8281 I0.125 J-0.2165
G2 X59.5241 Y43.6475 I-0.25 J0.0
G0 Z3.0
G0 X4.6809 Y18.3145
G1 F300.0 Z-1.0
G2 F800.0 X4.75 Y18.0 I-0.6809 J-0.3145
G2 X3.625 Y17.3505 I-0.75 J0.0
G2 Y18.6495 I0.375 J0.6495
G2 X4.6809 Y18.3145 I0.375 J-0.6495
G1 F300.0 Z-2.0
G2 F800.0 X4.75 Y18.0 I-0.6809 J-0.3145
G2 X3.625 Y17.3505 I-0.75 J0.0
G2 Y18.6495 I0.375 J0.6495
G2 X4.6809 Y18.3145 I0.375 J-0.6495
G1 F300.0 Z-3.0
G2 F800.0 X4.75 Y18.0 I-0.6809 J-0.3145
G2 X3.625 Y17.3505 I-0.75 J0.0
G2 Y18.6495 I0.375 J0.6495
G2 X4.6809 Y18.3145 I0.375 J-0.6495
G1 F300.0 Z-4.0
G2 F800.0 X4.75 Y18.0 I-0.6809 J-0.3145
G2 X3.625 Y17.3505 I-0.75 J0.0
G2 Y18.6495 I0.375 J0.6495
G2 X4.6809 Y18.3145 I0.375 J-0.6495
G1 F300.0 Z-5.0
G2 F800.0 X4.75 Y18.0 I-0.6809 J-0.3145
G2 X3.625 Y17.3505 I-0.75 J0.0
G2 Y18.6495 I0.375 J0.6495
G2 X4.6809 Y18.3145 I0.375 J-0.6495
G1 F300.0 Z-6.0
G2 F800.0 X4.75 Y18.0 I-0.6809 J-0.3145
G2 X3.625 Y17.3505 I-0.75 J0.0
G2 Y18.6495 I0.375 J0.6495
G2 X4.6809 Y18.3145 I0.375 J-0.6495
G0 Z3.0
G0 X4.0356 Y4.7492
G1 F300.0 Z-1.0
G2 F800.0 X4.75 Y4.0 I-0.0356 J-0.7492
G2 X3.625 Y3.3505 I-0.75 J0.0
G2 Y4.6495 I0.375 J0.6495
G2 X4.0356 Y4.7492 I0.375 J-0.6495
G1 F300.0 Z-2.0
G2 F800.0 X4.75 Y4.0 I-0.0356 J-0.7492
G2 X3.625 Y3.3505 I-0.75 J0.0
G2 Y4.6495 I0.375 J0.6495
G2 X4.0356 Y4.7492 I0.375 J-0.6495
G1 F300.0 Z-3.0
G2 F800.0 X4.75 Y4.0 I-0.0356 J-0.7492
G2 X3.625 Y3.3505 I-0.75 J0.0
G2 Y4.6495 I0.375 J0.6495
G2 X4.0356 Y4.7492 I0.375 J-0.6495
G1 F300.0 Z-4.0
G2 F800.0 X4.75 Y4.0 I-0.0356 J-0.7492
G2 X3.625 Y3.3505 I-0.75 J0.0
G2 Y4.6495 I0.375 J0.6495
G2 X4.0356 Y4.7492 I0.375 J-0.6495
G1 F300.0 Z-5.0
G2 F800.0 X4.75 Y4.0 I-0.0356 J-0.7492
G2 X3.625 Y3.3505 I-0.75 J0.0
G2 Y4.6495 I0.375 J0.6495
G2 X4.0356 Y4.7492 I0.375 J-0.6495
G1 F300.0 Z-6.0
G2 F800.0 X4.75 Y4.0 I-0.0356 J-0.7492
G2 X3.625 Y3.3505 I-0.75 J0.0
G2 Y4.6495 I0.375 J0.6495
G2 X4.0356 Y4.7492 I0.375 J-0.6495
G0 Z3.0
G0 X187.25 Y4.0031
G1 F300.0 Z-1.0
G2 F800.0 X187.625 Y4.6495 I0.75 J-0.0031
G2 X188.75 Y4.0 I0.375 J-0.6495
G2 X187.625 Y3.3505 I-0.75 J0.0
G2 X187.25 Y4.0031 I0.375 J0.6495
G1 F300.0 Z-2.0
G2 F800.0 X187.625 Y4.6495 I0.75 J-0.0031
G2 X188.75 Y4.0 I0.375 J-0.6495
G2 X187.625 Y3.3505 I-0.75 J0.0
G2 X187.25 Y4.0031 I0.375 J0.6495
G1 F300.0 Z-3.0
G2 F800.0 X187.625 Y4.6495 I0.75 J-0.0031
G2 X188.75 Y4.0 I0.375 J-0.6495
G2 X187.625 Y3.3505 I-0.75 J0.0
G2 X187.25 Y4.0031 I0.375 J0.6495
G1 F300.0 Z-4.0
G2 F800.0 X187.625 Y4.6495 I0.75 J-0.0031
G2 X188.75 Y4.0 I0.375 J-0.6495
G2 X187.625 Y3.3505 I-0.75 J0.0
G2 X187.25 Y4.0031 I0.375 J0.6495
G1 F300.0 Z-5.0
G2 F800.0 X187.625 Y4.6495 I0.75 J-0.0031
G2 X188.75 Y4.0 I0.375 J-0.6495
G2 X187.625 Y3.3505 I-0.75 J0.0
G2 X187.25 Y4.0031 I0.375 J0.6495
G1 F300.0 Z-6.0
G2 F800.0 X187.625 Y4.6495 I0.75 J-0.0031
G2 X188.75 Y4.0 I0.375 J-0.6495
G2 X187.625 Y3.3505 I-0.75 J0.0
G2 X187.25 Y4.0031 I0.375 J0.6495
G0 Z3.0
G0 X187.9599 Y17.2511
G1 F300.0 Z-1.0
G2 F800.0 X187.625 Y17.3505 I0.0401 J0.7489
G2 Y18.6495 I0.375 J0.6495
G2 X188.75 Y18.0 I0.375 J-0.6495
G2 X187.9599 Y17.2511 I-0.75 J0.0
G1 F300.0 Z-2.0
G2 F800.0 X187.625 Y17.3505 I0.0401 J0.7489
G2 Y18.6495 I0.375 J0.6495
G2 X188.75 Y18.0 I0.375 J-0.6495
G2 X187.9599 Y17.2511 I-0.75 J0.0
G1 F300.0 Z-3.0
G2 F800.0 X187.625 Y17.3505 I0.0401 J0.7489
G2 Y18.6495 I0.375 J0.6495
G2 X188.75 Y18.0 I0.375 J-0.6495
G2 X187.9599 Y17.2511 I-0.75 J0.0
G1 F300.0 Z-4.0
G2 F800.0 X187.625 Y17.3505 I0.0401 J0.7489
G2 Y18.6495 I0.375 J0.6495
G2 X188.75 Y18.0 I0.375 J-0.6495
G2 X187.9599 Y17.2511 I-0.75 J0.0
G1 F300.0 Z-5.0
G2 F800.0 X187.625 Y17.3505 I0.0401 J0.7489
G2 Y18.6495 I0.375 J0.6495
G2 X188.75 Y18.0 I0.375 J-0.6495
G2 X187.9599 Y17.2511 I-0.75 J0.0
G1 F300.0 Z-6.0
G2 F800.0 X187.625 Y17.3505 I0.0401 J0.7489
G2 Y18.6495 I0.375 J0.6495
G2 X188.75 Y18.0 I0.375 J-0.6495
G2 X187.9599 Y17.2511 I-0.75 J0.0
( Poche1 )
S1000
G0 Z3.0
G0 X6.25 Y18.0
G1 F300.0 Z-1.0
G3 F800.0 X4.0 Y20.25 I-2.25 J0.0
G3 X2.875 Y19.9486 I0.0 J-2.25
G3 X1.75 Y18.0 I1.125 J-1.9486
G1 Y20.25
G1 X4.0
G1 X6.25
G1 Y18.0
G0 Z3.0
G0 X4.45 Y13.9763
G1 F300.0 Z-1.0
G1 F800.0 Y8.0237
G3 X3.55 I-0.45 J-4.0237
G1 Y13.9763
G3 X4.45 I0.45 J4.0237
G1 F300.0 X4.3833 Y14.5726
G3 F800.0 X5.05 Y14.7149 I-0.3833 J3.4274
G1 Y7.2851
G3 X2.95 I-1.05 J-3.2851
G1 Y14.7149
G3 X4.3833 Y14.5726 I1.05 J3.2851
G1 F300.0 X4.3166 Y15.1689
G3 F800.0 X5.65 Y15.6777 I-0.3166 J2.8311
G1 Y6.3223
G3 X2.5756 Y6.4671 I-1.65 J-2.3223
G3 X2.35 Y6.3223 I1.4244 J-2.4671
G1 Y15.6777
G3 X2.5756 Y15.5329 I1.65 J2.3223
G3 X4.3166 Y15.1689 I1.4244 J2.4671
G1 F300.0 X4.2501 Y15.7639
G3 F800.0 X6.25 Y18.0 I-0.2501 J2.2361
G1 Y4.0
G3 X2.875 Y5.9486 I-2.25 J0.0
G3 X1.75 Y4.0 I1.125 J-1.9486
G1 Y18.0
G3 X2.875 Y16.0514 I2.25 J0.0
G3 X4.2501 Y15.7639 I1.125 J1.9486
G0 Z3.0
G0 X6.25 Y18.0
G1 F300.0 Z-2.0
G3 F800.0 X4.0 Y20.25 I-2.25 J0.0
G3 X2.875 Y19.9486 I0.0 J-2.25
G3 X1.75 Y18.0 I1.125 J-1.9486
G1 Y20.25
G1 X4.0
G1 X6.25
G1 Y18.0
G0 Z3.0
G0 Y4.0
G1 F300.0 Z-1.0
G1 F800.0 Y1.75
G1 X4.0
G1 X1.75
G1 Y4.0
G3 X2.875 Y2.0514 I2.25 J0.0
G3 X4.0 Y1.75 I1.125 J1.9486
G3 X6.25 Y4.0 I0.0 J2.25
G1 F300.0 Z-2.0
G1 F800.0 Y1.75
G1 X4.0
G1 X1.75
G1 Y4.0
G3 X2.875 Y2.0514 I2.25 J0.0
G3 X4.0 Y1.75 I1.125 J1.9486
G3 X6.25 Y4.0 I0.0 J2.25
G0 Z3.0
G0 X4.45 Y8.0237
G1 F300.0 Z-2.0
G3 F800.0 X3.55 I-0.45 J-4.0237
G1 Y13.9763
G3 X4.45 I0.45 J4.0237
G1 Y8.0237
G1 F300.0 X5.05
G1 F800.0 Y7.2851
G3 X2.95 I-1.05 J-3.2851
G1 Y14.7149
G3 X5.05 I1.05 J3.2851
G1 Y8.0237
G1 F300.0 X5.65
G1 F800.0 Y6.3223
G3 X2.5756 Y6.4671 I-1.65 J-2.3223
G3 X2.35 Y6.3223 I1.4244 J-2.4671
G1 Y15.6777
G3 X2.5756 Y15.5329 I1.65 J2.3223
G3 X5.65 Y15.6777 I1.4244 J2.4671
G1 Y8.0237
G1 F300.0 X6.25
G1 F800.0 Y4.0
G3 X2.875 Y5.9486 I-2.25 J0.0
G3 X1.75 Y4.0 I1.125 J-1.9486
G1 Y18.0
G3 X2.875 Y16.0514 I2.25 J0.0
G3 X6.25 Y18.0 I1.125 J1.9486
G1 Y8.0237
G0 Z3.0
G0 X4.45
G1 F300.0 Z-3.0
G3 F800.0 X3.55 I-0.45 J-4.0237
G1 Y13.9763
G3 X4.45 I0.45 J4.0237
G1 Y8.0237
G1 F300.0 X5.05
G1 F800.0 Y7.2851
G3 X2.95 I-1.05 J-3.2851
G1 Y14.7149
G3 X5.05 I1.05 J3.2851
G1 Y8.0237
G1 F300.0 X5.65
G1 F800.0 Y6.3223
G3 X2.5756 Y6.4671 I-1.65 J-2.3223
G3 X2.35 Y6.3223 I1.4244 J-2.4671
G1 Y15.6777
G3 X2.5756 Y15.5329 I1.65 J2.3223
G3 X5.65 Y15.6777 I1.4244 J2.4671
G1 Y8.0237
G1 F300.0 X6.25
G1 F800.0 Y4.0
G3 X2.875 Y5.9486 I-2.25 J0.0
G3 X1.75 Y4.0 I1.125 J-1.9486
G1 Y18.0
G3 X2.875 Y16.0514 I2.25 J0.0
G3 X6.25 Y18.0 I1.125 J1.9486
G1 Y8.0237
G0 Z3.0
G0 Y4.0
G1 F300.0 Z-3.0
G1 F800.0 Y1.75
G1 X4.0
G1 X1.75
G1 Y4.0
G3 X2.875 Y2.0514 I2.25 J0.0
G3 X4.0 Y1.75 I1.125 J1.9486
G3 X6.25 Y4.0 I0.0 J2.25
G0 Z3.0
G0 Y18.0
G1 F300.0 Z-3.0
G3 F800.0 X4.0 Y20.25 I-2.25 J0.0
G3 X2.875 Y19.9486 I0.0 J-2.25
G3 X1.75 Y18.0 I1.125 J-1.9486
G1 Y20.25
G1 X4.0
G1 X6.25
G1 Y18.0
( Contour3 )
S1000
G0 Z3.0
G0 X53.7719 Y70.9826
G1 F300.0 Z-1.0
G3 F800.0 X50.3969 Y72.9312 I-2.25 J0.0
G3 Y69.034 I1.125 J-1.9486
G3 X53.7719 Y70.9826 I1.125 J1.9486
G1 F300.0 Z-2.0
G3 F800.0 X50.3969 Y72.9312 I-2.25 J0.0
G3 Y69.034 I1.125 J-1.9486
G3 X53.7719 Y70.9826 I1.125 J1.9486
G1 F300.0 Z-3.0
G3 F800.0 X50.3969 Y72.9312 I-2.25 J0.0
G3 Y69.034 I1.125 J-1.9486
G3 X53.7719 Y70.9826 I1.125 J1.9486
G0 Z3.0
G0 X51.764 Y59.2013
G1 F300.0 Z-1.0
G3 F800.0 X50.261 Y58.9318 I-0.378 J-2.218
G3 Y55.0347 I1.125 J-1.9486
G3 X53.636 Y56.9833 I1.125 J1.9486
G3 X51.764 Y59.2013 I-2.25 J0.0
G1 F300.0 Z-2.0
G3 F800.0 X50.261 Y58.9318 I-0.378 J-2.218
G3 Y55.0347 I1.125 J-1.9486
G3 X53.636 Y56.9833 I1.125 J1.9486
G3 X51.764 Y59.2013 I-2.25 J0.0
G1 F300.0 Z-3.0
G3 F800.0 X50.261 Y58.9318 I-0.378 J-2.218
G3 Y55.0347 I1.125 J-1.9486
G3 X53.636 Y56.9833 I1.125 J1.9486
G3 X51.764 Y59.2013 I-2.25 J0.0
G0 Z3.0
G0 X51.408 Y45.0774
G1 F300.0 Z-1.0
G3 F800.0 X50.2263 Y44.7767 I-0.0567 J-2.2493
G3 Y40.8796 I1.125 J-1.9486
G3 X53.6013 Y42.8281 I1.125 J1.9486
G3 X51.408 Y45.0774 I-2.25 J0.0
G1 F300.0 Z-2.0
G3 F800.0 X50.2263 Y44.7767 I-0.0567 J-2.2493
G3 Y40.8796 I1.125 J-1.9486
G3 X53.6013 Y42.8281 I1.125 J1.9486
G3 X51.408 Y45.0774 I-2.25 J0.0
G1 F300.0 Z-3.0
G3 F800.0 X50.2263 Y44.7767 I-0.0567 J-2.2493
G3 Y40.8796 I1.125 J-1.9486
G3 X53.6013 Y42.8281 I1.125 J1.9486
G3 X51.408 Y45.0774 I-2.25 J0.0
G0 Z3.0
G0 X57.6225 Y44.1
G1 F300.0 Z-1.0
G3 F800.0 X58.4763 Y42.3126 I1.7287 J-0.2719
G3 X61.1013 Y43.8281 I0.875 J1.5155
G3 X58.4763 Y45.3437 I-1.75 J0.0
G3 X57.6225 Y44.1 I0.875 J-1.5155
G1 F300.0 Z-2.0
G3 F800.0 X58.4763 Y42.3126 I1.7287 J-0.2719
G3 X61.1013 Y43.8281 I0.875 J1.5155
G3 X58.4763 Y45.3437 I-1.75 J0.0
G3 X57.6225 Y44.1 I0.875 J-1.5155
G1 F300.0 Z-3.0
G3 F800.0 X58.4763 Y42.3126 I1.7287 J-0.2719
G3 X61.1013 Y43.8281 I0.875 J1.5155
G3 X58.4763 Y45.3437 I-1.75 J0.0
G3 X57.6225 Y44.1 I0.875 J-1.5155
G0 Z3.0
G0 X58.3795 Y40.4777
G1 F300.0 Z-1.0
G3 F800.0 X56.9763 Y39.9417 I0.9717 J-4.6495
G3 Y31.7145 I2.375 J-4.1136
G3 X64.1013 Y35.8281 I2.375 J4.1136
G3 X58.3795 Y40.4777 I-4.75 J0.0
G1 F300.0 Z-2.0
G3 F800.0 X56.9763 Y39.9417 I0.9717 J-4.6495
G3 Y31.7145 I2.375 J-4.1136
G3 X64.1013 Y35.8281 I2.375 J4.1136
G3 X58.3795 Y40.4777 I-4.75 J0.0
G1 F300.0 Z-3.0
G3 F800.0 X56.9763 Y39.9417 I0.9717 J-4.6495
G3 Y31.7145 I2.375 J-4.1136
G3 X64.1013 Y35.8281 I2.375 J4.1136
G3 X58.3795 Y40.4777 I-4.75 J0.0
G0 Z3.0
G0 X52.8108 Y36.7937
G1 F300.0 Z-1.0
G3 F800.0 X50.4763 Y37.3437 I-1.4595 J-0.9655
G3 Y34.3126 I0.875 J-1.5155
G3 X53.1013 Y35.8281 I0.875 J1.5155
G3 X52.8108 Y36.7937 I-1.75 J0.0
G1 F300.0 Z-2.0
G3 F800.0 X50.4763 Y37.3437 I-1.4595 J-0.9655
G3 Y34.3126 I0.875 J-1.5155
G3 X53.1013 Y35.8281 I0.875 J1.5155
G3 X52.8108 Y36.7937 I-1.75 J0.0
G1 F300.0 Z-3.0
G3 F800.0 X50.4763 Y37.3437 I-1.4595 J-0.9655
G3 Y34.3126 I0.875 J-1.5155
G3 X53.1013 Y35.8281 I0.875 J1.5155
G3 X52.8108 Y36.7937 I-1.75 J0.0
G0 Z3.0
G0 X51.7568 Y31.0413
G1 F300.0 Z-1.0
G3 F800.0 X50.2263 Y30.7767 I-0.4055 J-2.2132
G3 Y26.8796 I1.125 J-1.9486
G3 X53.6013 Y28.8281 I1.125 J1.9486
G3 X51.7568 Y31.0413 I-2.25 J0.0
G1 F300.0 Z-2.0
G3 F800.0 X50.2263 Y30.7767 I-0.4055 J-2.2132
G3 Y26.8796 I1.125 J-1.9486
G3 X53.6013 Y28.8281 I1.125 J1.9486
G3 X51.7568 Y31.0413 I-2.25 J0.0
G1 F300.0 Z-3.0
G3 F800.0 X50.2263 Y30.7767 I-0.4055 J-2.2132
G3 Y26.8796 I1.125 J-1.9486
G3 X53.6013 Y28.8281 I1.125 J1.9486
G3 X51.7568 Y31.0413 I-2.25 J0.0
G0 Z3.0
G0 X57.7396 Y28.51
G1 F300.0 Z-1.0
G3 F800.0 X58.4763 Y26.3126 I1.6117 J-0.6819
G3 X61.1013 Y27.8281 I0.875 J1.5155
G3 X58.4763 Y29.3437 I-1.75 J0.0
G3 X57.7396 Y28.51 I0.875 J-1.5155
G1 F300.0 Z-2.0
G3 F800.0 X58.4763 Y26.3126 I1.6117 J-0.6819
G3 X61.1013 Y27.8281 I0.875 J1.5155
G3 X58.4763 Y29.3437 I-1.75 J0.0
G3 X57.7396 Y28.51 I0.875 J-1.5155
G1 F300.0 Z-3.0
G3 F800.0 X58.4763 Y26.3126 I1.6117 J-0.6819
G3 X61.1013 Y27.8281 I0.875 J1.5155
G3 X58.4763 Y29.3437 I-1.75 J0.0
G3 X57.7396 Y28.51 I0.875 J-1.5155
G0 Z3.0
G0 X65.9589 Y34.768
G1 F300.0 Z-1.0
G3 F800.0 X66.4763 Y34.3126 I1.3924 J1.0601
G3 X69.1013 Y35.8281 I0.875 J1.5155
G3 X66.4763 Y37.3437 I-1.75 J0.0
G3 X65.9589 Y34.768 I0.875 J-1.5155
G1 F300.0 Z-2.0
G3 F800.0 X66.4763 Y34.3126 I1.3924 J1.0601
G3 X69.1013 Y35.8281 I0.875 J1.5155
G3 X66.4763 Y37.3437 I-1.75 J0.0
G3 X65.9589 Y34.768 I0.875 J-1.5155
G1 F300.0 Z-3.0
G3 F800.0 X66.4763 Y34.3126 I1.3924 J1.0601
G3 X69.1013 Y35.8281 I0.875 J1.5155
G3 X66.4763 Y37.3437 I-1.75 J0.0
G3 X65.9589 Y34.768 I0.875 J-1.5155
( Poche2 )
S1000
G0 Z3.0
G0 X188.0 Y1.75
G1 F300.0 Z-1.0
G3 F800.0 X190.25 Y4.0 I0.0 J2.25
G1 Y1.75
G1 X188.0
G1 X185.75
G1 Y4.0
G3 X186.875 Y2.0514 I2.25 J0.0
G3 X188.0 Y1.75 I1.125 J1.9486
G0 Z3.0
G0 X188.45 Y8.0237
G1 F300.0 Z-1.0
G3 F800.0 X187.55 I-0.45 J-4.0237
G1 Y13.9763
G3 X188.45 I0.45 J4.0237
G1 Y8.0237
G1 F300.0 X188.3833 Y7.4274
G3 F800.0 X186.95 Y7.2851 I-0.3833 J-3.4274
G1 Y14.7149
G3 X189.05 I1.05 J3.2851
G1 Y7.2851
G3 X188.3833 Y7.4274 I-1.05 J-3.2851
G1 F300.0 X188.3166 Y6.8311
G3 F800.0 X186.5756 Y6.4671 I-0.3166 J-2.8311
G3 X186.35 Y6.3223 I1.4244 J-2.4671
G1 Y15.6777
G3 X186.5756 Y15.5329 I1.65 J2.3223
G3 X189.65 Y15.6777 I1.4244 J2.4671
G1 Y6.3223
G3 X188.3166 Y6.8311 I-1.65 J-2.3223
G1 F300.0 X188.2501 Y6.2361
G3 F800.0 X186.875 Y5.9486 I-0.2501 J-2.2361
G3 X185.75 Y4.0 I1.125 J-1.9486
G1 Y18.0
G3 X186.875 Y16.0514 I2.25 J0.0
G3 X190.25 Y18.0 I1.125 J1.9486
G1 Y4.0
G3 X188.2501 Y6.2361 I-2.25 J0.0
G0 Z3.0
G0 X190.25 Y4.0
G1 F300.0 Z-2.0
G1 F800.0 Y1.75
G1 X188.0
G1 X185.75
G1 Y4.0
G3 X186.875 Y2.0514 I2.25 J0.0
G3 X188.0 Y1.75 I1.125 J1.9486
G3 X190.25 Y4.0 I0.0 J2.25
G0 Z3.0
G0 Y18.0
G1 F300.0 Z-1.0
G3 F800.0 X188.0 Y20.25 I-2.25 J0.0
G3 X186.875 Y19.9486 I0.0 J-2.25
G3 X185.75 Y18.0 I1.125 J-1.9486
G1 Y20.25
G1 X188.0
G1 X190.25
G1 Y18.0
G1 F300.0 Z-2.0
G3 F800.0 X188.0 Y20.25 I-2.25 J0.0
G3 X186.875 Y19.9486 I0.0 J-2.25
G3 X185.75 Y18.0 I1.125 J-1.9486
G1 Y20.25
G1 X188.0
G1 X190.25
G1 Y18.0
G0 Z3.0
G0 X188.45 Y13.9763
G1 F300.0 Z-2.0
G1 F800.0 Y8.0237
G3 X187.55 I-0.45 J-4.0237
G1 Y13.9763
G3 X188.45 I0.45 J4.0237
G1 F300.0 X188.3833 Y14.5726
G3 F800.0 X189.05 Y14.7149 I-0.3833 J3.4274
G1 Y7.2851
G3 X186.95 I-1.05 J-3.2851
G1 Y14.7149
G3 X188.3833 Y14.5726 I1.05 J3.2851
G1 F300.0 X188.3166 Y15.1689
G3 F800.0 X189.65 Y15.6777 I-0.3166 J2.8311
G1 Y6.3223
G3 X186.5756 Y6.4671 I-1.65 J-2.3223
G3 X186.35 Y6.3223 I1.4244 J-2.4671
G1 Y15.6777
G3 X186.5756 Y15.5329 I1.65 J2.3223
G3 X188.3166 Y15.1689 I1.4244 J2.4671
G1 F300.0 X188.2501 Y15.7639
G3 F800.0 X190.25 Y18.0 I-0.2501 J2.2361
G1 Y4.0
G3 X186.875 Y5.9486 I-2.25 J0.0
G3 X185.75 Y4.0 I1.125 J-1.9486
G1 Y18.0
G3 X186.875 Y16.0514 I2.25 J0.0
G3 X188.2501 Y15.7639 I1.125 J1.9486
G0 Z3.0
G0 X188.45 Y13.9763
G1 F300.0 Z-3.0
G1 F800.0 Y8.0237
G3 X187.55 I-0.45 J-4.0237
G1 Y13.9763
G3 X188.45 I0.45 J4.0237
G1 F300.0 X188.3833 Y14.5726
G3 F800.0 X189.05 Y14.7149 I-0.3833 J3.4274
G1 Y7.2851
G3 X186.95 I-1.05 J-3.2851
G1 Y14.7149
G3 X188.3833 Y14.5726 I1.05 J3.2851
G1 F300.0 X188.3166 Y15.1689
G3 F800.0 X189.65 Y15.6777 I-0.3166 J2.8311
G1 Y6.3223
G3 X186.5756 Y6.4671 I-1.65 J-2.3223
G3 X186.35 Y6.3223 I1.4244 J-2.4671
G1 Y15.6777
G3 X186.5756 Y15.5329 I1.65 J2.3223
G3 X188.3166 Y15.1689 I1.4244 J2.4671
G1 F300.0 X188.2501 Y15.7639
G3 F800.0 X190.25 Y18.0 I-0.2501 J2.2361
G1 Y4.0
G3 X186.875 Y5.9486 I-2.25 J0.0
G3 X185.75 Y4.0 I1.125 J-1.9486
G1 Y18.0
G3 X186.875 Y16.0514 I2.25 J0.0
G3 X188.2501 Y15.7639 I1.125 J1.9486
G0 Z3.0
G0 X190.25 Y18.0
G1 F300.0 Z-3.0
G3 F800.0 X188.0 Y20.25 I-2.25 J0.0
G3 X186.875 Y19.9486 I0.0 J-2.25
G3 X185.75 Y18.0 I1.125 J-1.9486
G1 Y20.25
G1 X188.0
G1 X190.25
G1 Y18.0
G0 Z3.0
G0 Y4.0
G1 F300.0 Z-3.0
G1 F800.0 Y1.75
G1 X188.0
G1 X185.75
G1 Y4.0
G3 X186.875 Y2.0514 I2.25 J0.0
G3 X188.0 Y1.75 I1.125 J1.9486
G3 X190.25 Y4.0 I0.0 J2.25
G0 Z3.0
M5
M30
