( Made using CamBam - http://www.cambam.co.uk )
( Ensemble 4 1/27/2016 5:45:09 PM )
( T0 : 1.5 )
G21 G90 G64 G40
G0 Z3.0
( T0 : 1.5 )
T0 M6
( Contour1 )
G17
M3 S1000
G0 X180.75 Y107.0
G1 F300.0 Z-1.0
G2 F800.0 X179.625 Y106.3505 I-0.75 J0.0
G2 Y107.6495 I0.375 J0.6495
G2 X180.75 Y107.0 I0.375 J-0.6495
G1 F300.0 Z-2.0
G2 F800.0 X179.625 Y106.3505 I-0.75 J0.0
G2 Y107.6495 I0.375 J0.6495
G2 X180.75 Y107.0 I0.375 J-0.6495
G1 F300.0 Z-3.0
G2 F800.0 X179.625 Y106.3505 I-0.75 J0.0
G2 Y107.6495 I0.375 J0.6495
G2 X180.75 Y107.0 I0.375 J-0.6495
G1 F300.0 Z-4.0
G2 F800.0 X179.625 Y106.3505 I-0.75 J0.0
G2 Y107.6495 I0.375 J0.6495
G2 X180.75 Y107.0 I0.375 J-0.6495
G1 F300.0 Z-5.0
G2 F800.0 X179.625 Y106.3505 I-0.75 J0.0
G2 Y107.6495 I0.375 J0.6495
G2 X180.75 Y107.0 I0.375 J-0.6495
G1 F300.0 Z-6.0
G2 F800.0 X179.625 Y106.3505 I-0.75 J0.0
G2 Y107.6495 I0.375 J0.6495
G2 X180.75 Y107.0 I0.375 J-0.6495
G0 Z3.0
G0 X180.0401 Y93.7489
G1 F300.0 Z-1.0
G2 F800.0 X180.75 Y93.0 I-0.0401 J-0.7489
G2 X179.625 Y92.3505 I-0.75 J0.0
G2 Y93.6495 I0.375 J0.6495
G2 X180.0401 Y93.7489 I0.375 J-0.6495
G1 F300.0 Z-2.0
G2 F800.0 X180.75 Y93.0 I-0.0401 J-0.7489
G2 X179.625 Y92.3505 I-0.75 J0.0
G2 Y93.6495 I0.375 J0.6495
G2 X180.0401 Y93.7489 I0.375 J-0.6495
G1 F300.0 Z-3.0
G2 F800.0 X180.75 Y93.0 I-0.0401 J-0.7489
G2 X179.625 Y92.3505 I-0.75 J0.0
G2 Y93.6495 I0.375 J0.6495
G2 X180.0401 Y93.7489 I0.375 J-0.6495
G1 F300.0 Z-4.0
G2 F800.0 X180.75 Y93.0 I-0.0401 J-0.7489
G2 X179.625 Y92.3505 I-0.75 J0.0
G2 Y93.6495 I0.375 J0.6495
G2 X180.0401 Y93.7489 I0.375 J-0.6495
G1 F300.0 Z-5.0
G2 F800.0 X180.75 Y93.0 I-0.0401 J-0.7489
G2 X179.625 Y92.3505 I-0.75 J0.0
G2 Y93.6495 I0.375 J0.6495
G2 X180.0401 Y93.7489 I0.375 J-0.6495
G1 F300.0 Z-6.0
G2 F800.0 X180.75 Y93.0 I-0.0401 J-0.7489
G2 X179.625 Y92.3505 I-0.75 J0.0
G2 Y93.6495 I0.375 J0.6495
G2 X180.0401 Y93.7489 I0.375 J-0.6495
G0 Z3.0
G0 X154.2486 Y91.0262
G1 F300.0 Z-1.0
G2 F800.0 X154.25 Y91.0 I-0.2486 J-0.0262
G2 X153.875 Y90.7835 I-0.25 J0.0
G2 Y91.2165 I0.125 J0.2165
G2 X154.2486 Y91.0262 I0.125 J-0.2165
G1 F300.0 Z-2.0
G2 F800.0 X154.25 Y91.0 I-0.2486 J-0.0262
G2 X153.875 Y90.7835 I-0.25 J0.0
G2 Y91.2165 I0.125 J0.2165
G2 X154.2486 Y91.0262 I0.125 J-0.2165
G1 F300.0 Z-3.0
G2 F800.0 X154.25 Y91.0 I-0.2486 J-0.0262
G2 X153.875 Y90.7835 I-0.25 J0.0
G2 Y91.2165 I0.125 J0.2165
G2 X154.2486 Y91.0262 I0.125 J-0.2165
G1 F300.0 Z-4.0
G2 F800.0 X154.25 Y91.0 I-0.2486 J-0.0262
G2 X153.875 Y90.7835 I-0.25 J0.0
G2 Y91.2165 I0.125 J0.2165
G2 X154.2486 Y91.0262 I0.125 J-0.2165
G1 F300.0 Z-5.0
G2 F800.0 X154.25 Y91.0 I-0.2486 J-0.0262
G2 X153.875 Y90.7835 I-0.25 J0.0
G2 Y91.2165 I0.125 J0.2165
G2 X154.2486 Y91.0262 I0.125 J-0.2165
G1 F300.0 Z-6.0
G2 F800.0 X154.25 Y91.0 I-0.2486 J-0.0262
G2 X153.875 Y90.7835 I-0.25 J0.0
G2 Y91.2165 I0.125 J0.2165
G2 X154.2486 Y91.0262 I0.125 J-0.2165
G0 Z3.0
G0 X149.75 Y91.0119
G1 F300.0 Z-1.0
G2 F800.0 Y91.0 I-3.75 J-0.0119
G2 X144.125 Y87.7524 I-3.75 J0.0
G2 Y94.2476 I1.875 J3.2476
G2 X149.75 Y91.0119 I1.875 J-3.2476
G1 F300.0 Z-2.0
G2 F800.0 Y91.0 I-3.75 J-0.0119
G2 X144.125 Y87.7524 I-3.75 J0.0
G2 Y94.2476 I1.875 J3.2476
G2 X149.75 Y91.0119 I1.875 J-3.2476
G1 F300.0 Z-3.0
G2 F800.0 Y91.0 I-3.75 J-0.0119
G2 X144.125 Y87.7524 I-3.75 J0.0
G2 Y94.2476 I1.875 J3.2476
G2 X149.75 Y91.0119 I1.875 J-3.2476
G1 F300.0 Z-4.0
G2 F800.0 Y91.0 I-3.75 J-0.0119
G2 X144.125 Y87.7524 I-3.75 J0.0
G2 Y94.2476 I1.875 J3.2476
G2 X149.75 Y91.0119 I1.875 J-3.2476
G1 F300.0 Z-5.0
G2 F800.0 Y91.0 I-3.75 J-0.0119
G2 X144.125 Y87.7524 I-3.75 J0.0
G2 Y94.2476 I1.875 J3.2476
G2 X149.75 Y91.0119 I1.875 J-3.2476
G1 F300.0 Z-6.0
G2 F800.0 Y91.0 I-3.75 J-0.0119
G2 X144.125 Y87.7524 I-3.75 J0.0
G2 Y94.2476 I1.875 J3.2476
G2 X149.75 Y91.0119 I1.875 J-3.2476
G0 Z3.0
G0 X146.1062 Y98.7737
G1 F300.0 Z-1.0
G2 F800.0 X145.875 Y98.7835 I-0.1062 J0.2263
G2 Y99.2165 I0.125 J0.2165
G2 X146.25 Y99.0 I0.125 J-0.2165
G2 X146.1062 Y98.7737 I-0.25 J0.0
G1 F300.0 Z-2.0
G2 F800.0 X145.875 Y98.7835 I-0.1062 J0.2263
G2 Y99.2165 I0.125 J0.2165
G2 X146.25 Y99.0 I0.125 J-0.2165
G2 X146.1062 Y98.7737 I-0.25 J0.0
G1 F300.0 Z-3.0
G2 F800.0 X145.875 Y98.7835 I-0.1062 J0.2263
G2 Y99.2165 I0.125 J0.2165
G2 X146.25 Y99.0 I0.125 J-0.2165
G2 X146.1062 Y98.7737 I-0.25 J0.0
G1 F300.0 Z-4.0
G2 F800.0 X145.875 Y98.7835 I-0.1062 J0.2263
G2 Y99.2165 I0.125 J0.2165
G2 X146.25 Y99.0 I0.125 J-0.2165
G2 X146.1062 Y98.7737 I-0.25 J0.0
G1 F300.0 Z-5.0
G2 F800.0 X145.875 Y98.7835 I-0.1062 J0.2263
G2 Y99.2165 I0.125 J0.2165
G2 X146.25 Y99.0 I0.125 J-0.2165
G2 X146.1062 Y98.7737 I-0.25 J0.0
G1 F300.0 Z-6.0
G2 F800.0 X145.875 Y98.7835 I-0.1062 J0.2263
G2 Y99.2165 I0.125 J0.2165
G2 X146.25 Y99.0 I0.125 J-0.2165
G2 X146.1062 Y98.7737 I-0.25 J0.0
G0 Z3.0
G0 X138.1804 Y91.173
G1 F300.0 Z-1.0
G2 F800.0 X138.25 Y91.0 I-0.1804 J-0.173
G2 X137.875 Y90.7835 I-0.25 J0.0
G2 Y91.2165 I0.125 J0.2165
G2 X138.1804 Y91.173 I0.125 J-0.2165
G1 F300.0 Z-2.0
G2 F800.0 X138.25 Y91.0 I-0.1804 J-0.173
G2 X137.875 Y90.7835 I-0.25 J0.0
G2 Y91.2165 I0.125 J0.2165
G2 X138.1804 Y91.173 I0.125 J-0.2165
G1 F300.0 Z-3.0
G2 F800.0 X138.25 Y91.0 I-0.1804 J-0.173
G2 X137.875 Y90.7835 I-0.25 J0.0
G2 Y91.2165 I0.125 J0.2165
G2 X138.1804 Y91.173 I0.125 J-0.2165
G1 F300.0 Z-4.0
G2 F800.0 X138.25 Y91.0 I-0.1804 J-0.173
G2 X137.875 Y90.7835 I-0.25 J0.0
G2 Y91.2165 I0.125 J0.2165
G2 X138.1804 Y91.173 I0.125 J-0.2165
G1 F300.0 Z-5.0
G2 F800.0 X138.25 Y91.0 I-0.1804 J-0.173
G2 X137.875 Y90.7835 I-0.25 J0.0
G2 Y91.2165 I0.125 J0.2165
G2 X138.1804 Y91.173 I0.125 J-0.2165
G1 F300.0 Z-6.0
G2 F800.0 X138.25 Y91.0 I-0.1804 J-0.173
G2 X137.875 Y90.7835 I-0.25 J0.0
G2 Y91.2165 I0.125 J0.2165
G2 X138.1804 Y91.173 I0.125 J-0.2165
G0 Z3.0
G0 X145.8272 Y83.1806
G1 F300.0 Z-1.0
G2 F800.0 X145.875 Y83.2165 I0.1728 J-0.1806
G2 X146.25 Y83.0 I0.125 J-0.2165
G2 X145.875 Y82.7835 I-0.25 J0.0
G2 X145.8272 Y83.1806 I0.125 J0.2165
G1 F300.0 Z-2.0
G2 F800.0 X145.875 Y83.2165 I0.1728 J-0.1806
G2 X146.25 Y83.0 I0.125 J-0.2165
G2 X145.875 Y82.7835 I-0.25 J0.0
G2 X145.8272 Y83.1806 I0.125 J0.2165
G1 F300.0 Z-3.0
G2 F800.0 X145.875 Y83.2165 I0.1728 J-0.1806
G2 X146.25 Y83.0 I0.125 J-0.2165
G2 X145.875 Y82.7835 I-0.25 J0.0
G2 X145.8272 Y83.1806 I0.125 J0.2165
G1 F300.0 Z-4.0
G2 F800.0 X145.875 Y83.2165 I0.1728 J-0.1806
G2 X146.25 Y83.0 I0.125 J-0.2165
G2 X145.875 Y82.7835 I-0.25 J0.0
G2 X145.8272 Y83.1806 I0.125 J0.2165
G1 F300.0 Z-5.0
G2 F800.0 X145.875 Y83.2165 I0.1728 J-0.1806
G2 X146.25 Y83.0 I0.125 J-0.2165
G2 X145.875 Y82.7835 I-0.25 J0.0
G2 X145.8272 Y83.1806 I0.125 J0.2165
G1 F300.0 Z-6.0
G2 F800.0 X145.875 Y83.2165 I0.1728 J-0.1806
G2 X146.25 Y83.0 I0.125 J-0.2165
G2 X145.875 Y82.7835 I-0.25 J0.0
G2 X145.8272 Y83.1806 I0.125 J0.2165
G0 Z3.0
G0 X106.9936 Y83.8273
G1 F300.0 Z-1.0
G2 F800.0 X105.8687 Y83.1903 I-0.7499 J0.0125
G2 Y84.4894 I0.375 J0.6495
G2 X106.9937 Y83.8398 I0.375 J-0.6495
G2 X106.9936 Y83.8273 I-0.75 J0.0
G1 F300.0 Z-2.0
G2 F800.0 X105.8687 Y83.1903 I-0.7499 J0.0125
G2 Y84.4894 I0.375 J0.6495
G2 X106.9937 Y83.8398 I0.375 J-0.6495
G2 X106.9936 Y83.8273 I-0.75 J0.0
G1 F300.0 Z-3.0
G2 F800.0 X105.8687 Y83.1903 I-0.7499 J0.0125
G2 Y84.4894 I0.375 J0.6495
G2 X106.9937 Y83.8398 I0.375 J-0.6495
G2 X106.9936 Y83.8273 I-0.75 J0.0
G1 F300.0 Z-4.0
G2 F800.0 X105.8687 Y83.1903 I-0.7499 J0.0125
G2 Y84.4894 I0.375 J0.6495
G2 X106.9937 Y83.8398 I0.375 J-0.6495
G2 X106.9936 Y83.8273 I-0.75 J0.0
G1 F300.0 Z-5.0
G2 F800.0 X105.8687 Y83.1903 I-0.7499 J0.0125
G2 Y84.4894 I0.375 J0.6495
G2 X106.9937 Y83.8398 I0.375 J-0.6495
G2 X106.9936 Y83.8273 I-0.75 J0.0
G1 F300.0 Z-6.0
G2 F800.0 X105.8687 Y83.1903 I-0.7499 J0.0125
G2 Y84.4894 I0.375 J0.6495
G2 X106.9937 Y83.8398 I0.375 J-0.6495
G2 X106.9936 Y83.8273 I-0.75 J0.0
G0 Z3.0
G0 X70.7037 Y83.8396
G1 F300.0 Z-1.0
G2 F800.0 X69.5787 Y83.1903 I-0.75 J0.0003
G2 Y84.4894 I0.375 J0.6495
G2 X70.7037 Y83.8398 I0.375 J-0.6495
G2 Y83.8396 I-0.75 J0.0
G1 F300.0 Z-2.0
G2 F800.0 X69.5787 Y83.1903 I-0.75 J0.0003
G2 Y84.4894 I0.375 J0.6495
G2 X70.7037 Y83.8398 I0.375 J-0.6495
G2 Y83.8396 I-0.75 J0.0
G1 F300.0 Z-3.0
G2 F800.0 X69.5787 Y83.1903 I-0.75 J0.0003
G2 Y84.4894 I0.375 J0.6495
G2 X70.7037 Y83.8398 I0.375 J-0.6495
G2 Y83.8396 I-0.75 J0.0
G1 F300.0 Z-4.0
G2 F800.0 X69.5787 Y83.1903 I-0.75 J0.0003
G2 Y84.4894 I0.375 J0.6495
G2 X70.7037 Y83.8398 I0.375 J-0.6495
G2 Y83.8396 I-0.75 J0.0
G1 F300.0 Z-5.0
G2 F800.0 X69.5787 Y83.1903 I-0.75 J0.0003
G2 Y84.4894 I0.375 J0.6495
G2 X70.7037 Y83.8398 I0.375 J-0.6495
G2 Y83.8396 I-0.75 J0.0
G1 F300.0 Z-6.0
G2 F800.0 X69.5787 Y83.1903 I-0.75 J0.0003
G2 Y84.4894 I0.375 J0.6495
G2 X70.7037 Y83.8398 I0.375 J-0.6495
G2 Y83.8396 I-0.75 J0.0
G0 Z3.0
G0 X34.4137 Y83.8398
G1 F300.0 Z-1.0
G2 F800.0 X33.2887 Y83.1903 I-0.75 J0.0
G2 Y84.4894 I0.375 J0.6495
G2 X34.4137 Y83.8398 I0.375 J-0.6495
G1 F300.0 Z-2.0
G2 F800.0 X33.2887 Y83.1903 I-0.75 J0.0
G2 Y84.4894 I0.375 J0.6495
G2 X34.4137 Y83.8398 I0.375 J-0.6495
G1 F300.0 Z-3.0
G2 F800.0 X33.2887 Y83.1903 I-0.75 J0.0
G2 Y84.4894 I0.375 J0.6495
G2 X34.4137 Y83.8398 I0.375 J-0.6495
G1 F300.0 Z-4.0
G2 F800.0 X33.2887 Y83.1903 I-0.75 J0.0
G2 Y84.4894 I0.375 J0.6495
G2 X34.4137 Y83.8398 I0.375 J-0.6495
G1 F300.0 Z-5.0
G2 F800.0 X33.2887 Y83.1903 I-0.75 J0.0
G2 Y84.4894 I0.375 J0.6495
G2 X34.4137 Y83.8398 I0.375 J-0.6495
G1 F300.0 Z-6.0
G2 F800.0 X33.2887 Y83.1903 I-0.75 J0.0
G2 Y84.4894 I0.375 J0.6495
G2 X34.4137 Y83.8398 I0.375 J-0.6495
G0 Z3.0
G0 X29.6998 Y54.7339
G1 F300.0 Z-1.0
G2 F800.0 X30.75 Y53.5 I-0.1998 J-1.2339
G2 X28.875 Y52.4175 I-1.25 J0.0
G2 Y54.5825 I0.625 J1.0825
G2 X29.6998 Y54.7339 I0.625 J-1.0825
G1 F300.0 Z-2.0
G2 F800.0 X30.75 Y53.5 I-0.1998 J-1.2339
G2 X28.875 Y52.4175 I-1.25 J0.0
G2 Y54.5825 I0.625 J1.0825
G2 X29.6998 Y54.7339 I0.625 J-1.0825
G1 F300.0 Z-3.0
G2 F800.0 X30.75 Y53.5 I-0.1998 J-1.2339
G2 X28.875 Y52.4175 I-1.25 J0.0
G2 Y54.5825 I0.625 J1.0825
G2 X29.6998 Y54.7339 I0.625 J-1.0825
G1 F300.0 Z-4.0
G2 F800.0 X30.75 Y53.5 I-0.1998 J-1.2339
G2 X28.875 Y52.4175 I-1.25 J0.0
G2 Y54.5825 I0.625 J1.0825
G2 X29.6998 Y54.7339 I0.625 J-1.0825
G1 F300.0 Z-5.0
G2 F800.0 X30.75 Y53.5 I-0.1998 J-1.2339
G2 X28.875 Y52.4175 I-1.25 J0.0
G2 Y54.5825 I0.625 J1.0825
G2 X29.6998 Y54.7339 I0.625 J-1.0825
G1 F300.0 Z-6.0
G2 F800.0 X30.75 Y53.5 I-0.1998 J-1.2339
G2 X28.875 Y52.4175 I-1.25 J0.0
G2 Y54.5825 I0.625 J1.0825
G2 X29.6998 Y54.7339 I0.625 J-1.0825
G0 Z3.0
G0 X29.5058 Y12.75
G1 F300.0 Z-1.0
G2 F800.0 X30.75 Y11.5 I-0.0058 J-1.25
G2 X28.875 Y10.4175 I-1.25 J0.0
G2 Y12.5825 I0.625 J1.0825
G2 X29.5058 Y12.75 I0.625 J-1.0825
G1 F300.0 Z-2.0
G2 F800.0 X30.75 Y11.5 I-0.0058 J-1.25
G2 X28.875 Y10.4175 I-1.25 J0.0
G2 Y12.5825 I0.625 J1.0825
G2 X29.5058 Y12.75 I0.625 J-1.0825
G1 F300.0 Z-3.0
G2 F800.0 X30.75 Y11.5 I-0.0058 J-1.25
G2 X28.875 Y10.4175 I-1.25 J0.0
G2 Y12.5825 I0.625 J1.0825
G2 X29.5058 Y12.75 I0.625 J-1.0825
G1 F300.0 Z-4.0
G2 F800.0 X30.75 Y11.5 I-0.0058 J-1.25
G2 X28.875 Y10.4175 I-1.25 J0.0
G2 Y12.5825 I0.625 J1.0825
G2 X29.5058 Y12.75 I0.625 J-1.0825
G1 F300.0 Z-5.0
G2 F800.0 X30.75 Y11.5 I-0.0058 J-1.25
G2 X28.875 Y10.4175 I-1.25 J0.0
G2 Y12.5825 I0.625 J1.0825
G2 X29.5058 Y12.75 I0.625 J-1.0825
G1 F300.0 Z-6.0
G2 F800.0 X30.75 Y11.5 I-0.0058 J-1.25
G2 X28.875 Y10.4175 I-1.25 J0.0
G2 Y12.5825 I0.625 J1.0825
G2 X29.5058 Y12.75 I0.625 J-1.0825
G0 Z3.0
G0 X12.7732 Y126.0979
G1 F300.0 Z-1.0
G2 F800.0 X12.2887 Y126.1903 I-0.1095 J0.742
G2 Y127.4894 I0.375 J0.6495
G2 X13.4137 Y126.8398 I0.375 J-0.6495
G2 X12.7732 Y126.0979 I-0.75 J0.0
G1 F300.0 Z-2.0
G2 F800.0 X12.2887 Y126.1903 I-0.1095 J0.742
G2 Y127.4894 I0.375 J0.6495
G2 X13.4137 Y126.8398 I0.375 J-0.6495
G2 X12.7732 Y126.0979 I-0.75 J0.0
G1 F300.0 Z-3.0
G2 F800.0 X12.2887 Y126.1903 I-0.1095 J0.742
G2 Y127.4894 I0.375 J0.6495
G2 X13.4137 Y126.8398 I0.375 J-0.6495
G2 X12.7732 Y126.0979 I-0.75 J0.0
G1 F300.0 Z-4.0
G2 F800.0 X12.2887 Y126.1903 I-0.1095 J0.742
G2 Y127.4894 I0.375 J0.6495
G2 X13.4137 Y126.8398 I0.375 J-0.6495
G2 X12.7732 Y126.0979 I-0.75 J0.0
G1 F300.0 Z-5.0
G2 F800.0 X12.2887 Y126.1903 I-0.1095 J0.742
G2 Y127.4894 I0.375 J0.6495
G2 X13.4137 Y126.8398 I0.375 J-0.6495
G2 X12.7732 Y126.0979 I-0.75 J0.0
G1 F300.0 Z-6.0
G2 F800.0 X12.2887 Y126.1903 I-0.1095 J0.742
G2 Y127.4894 I0.375 J0.6495
G2 X13.4137 Y126.8398 I0.375 J-0.6495
G2 X12.7732 Y126.0979 I-0.75 J0.0
G0 Z3.0
G0 X12.665 Y186.0898
G1 F300.0 Z-1.0
G2 F800.0 X12.2887 Y186.1903 I-0.0014 J0.75
G2 Y187.4894 I0.375 J0.6495
G2 X13.4137 Y186.8398 I0.375 J-0.6495
G2 X12.665 Y186.0898 I-0.75 J0.0
G1 F300.0 Z-2.0
G2 F800.0 X12.2887 Y186.1903 I-0.0014 J0.75
G2 Y187.4894 I0.375 J0.6495
G2 X13.4137 Y186.8398 I0.375 J-0.6495
G2 X12.665 Y186.0898 I-0.75 J0.0
G1 F300.0 Z-3.0
G2 F800.0 X12.2887 Y186.1903 I-0.0014 J0.75
G2 Y187.4894 I0.375 J0.6495
G2 X13.4137 Y186.8398 I0.375 J-0.6495
G2 X12.665 Y186.0898 I-0.75 J0.0
G1 F300.0 Z-4.0
G2 F800.0 X12.2887 Y186.1903 I-0.0014 J0.75
G2 Y187.4894 I0.375 J0.6495
G2 X13.4137 Y186.8398 I0.375 J-0.6495
G2 X12.665 Y186.0898 I-0.75 J0.0
G1 F300.0 Z-5.0
G2 F800.0 X12.2887 Y186.1903 I-0.0014 J0.75
G2 Y187.4894 I0.375 J0.6495
G2 X13.4137 Y186.8398 I0.375 J-0.6495
G2 X12.665 Y186.0898 I-0.75 J0.0
G1 F300.0 Z-6.0
G2 F800.0 X12.2887 Y186.1903 I-0.0014 J0.75
G2 Y187.4894 I0.375 J0.6495
G2 X13.4137 Y186.8398 I0.375 J-0.6495
G2 X12.665 Y186.0898 I-0.75 J0.0
G0 Z3.0
G0 X12.6637 Y224.0898
G1 F300.0 Z-1.0
G2 F800.0 X12.2887 Y224.1903 I0.0 J0.75
G2 Y225.4894 I0.375 J0.6495
G2 X13.4137 Y224.8398 I0.375 J-0.6495
G2 X12.6637 Y224.0898 I-0.75 J0.0
G1 F300.0 Z-2.0
G2 F800.0 X12.2887 Y224.1903 I0.0 J0.75
G2 Y225.4894 I0.375 J0.6495
G2 X13.4137 Y224.8398 I0.375 J-0.6495
G2 X12.6637 Y224.0898 I-0.75 J0.0
G1 F300.0 Z-3.0
G2 F800.0 X12.2887 Y224.1903 I0.0 J0.75
G2 Y225.4894 I0.375 J0.6495
G2 X13.4137 Y224.8398 I0.375 J-0.6495
G2 X12.6637 Y224.0898 I-0.75 J0.0
G1 F300.0 Z-4.0
G2 F800.0 X12.2887 Y224.1903 I0.0 J0.75
G2 Y225.4894 I0.375 J0.6495
G2 X13.4137 Y224.8398 I0.375 J-0.6495
G2 X12.6637 Y224.0898 I-0.75 J0.0
G1 F300.0 Z-5.0
G2 F800.0 X12.2887 Y224.1903 I0.0 J0.75
G2 Y225.4894 I0.375 J0.6495
G2 X13.4137 Y224.8398 I0.375 J-0.6495
G2 X12.6637 Y224.0898 I-0.75 J0.0
G1 F300.0 Z-6.0
G2 F800.0 X12.2887 Y224.1903 I0.0 J0.75
G2 Y225.4894 I0.375 J0.6495
G2 X13.4137 Y224.8398 I0.375 J-0.6495
G2 X12.6637 Y224.0898 I-0.75 J0.0
G0 Z3.0
G0 X56.004 Y218.9285
G1 F300.0 Z-1.0
G2 F800.0 X56.3737 Y219.4894 I0.7447 J-0.0887
G2 X57.4987 Y218.8398 I0.375 J-0.6495
G2 X56.3737 Y218.1903 I-0.75 J0.0
G2 X56.004 Y218.9285 I0.375 J0.6495
G1 F300.0 Z-2.0
G2 F800.0 X56.3737 Y219.4894 I0.7447 J-0.0887
G2 X57.4987 Y218.8398 I0.375 J-0.6495
G2 X56.3737 Y218.1903 I-0.75 J0.0
G2 X56.004 Y218.9285 I0.375 J0.6495
G1 F300.0 Z-3.0
G2 F800.0 X56.3737 Y219.4894 I0.7447 J-0.0887
G2 X57.4987 Y218.8398 I0.375 J-0.6495
G2 X56.3737 Y218.1903 I-0.75 J0.0
G2 X56.004 Y218.9285 I0.375 J0.6495
G1 F300.0 Z-4.0
G2 F800.0 X56.3737 Y219.4894 I0.7447 J-0.0887
G2 X57.4987 Y218.8398 I0.375 J-0.6495
G2 X56.3737 Y218.1903 I-0.75 J0.0
G2 X56.004 Y218.9285 I0.375 J0.6495
G1 F300.0 Z-5.0
G2 F800.0 X56.3737 Y219.4894 I0.7447 J-0.0887
G2 X57.4987 Y218.8398 I0.375 J-0.6495
G2 X56.3737 Y218.1903 I-0.75 J0.0
G2 X56.004 Y218.9285 I0.375 J0.6495
G1 F300.0 Z-6.0
G2 F800.0 X56.3737 Y219.4894 I0.7447 J-0.0887
G2 X57.4987 Y218.8398 I0.375 J-0.6495
G2 X56.3737 Y218.1903 I-0.75 J0.0
G2 X56.004 Y218.9285 I0.375 J0.6495
G0 Z3.0
G0 X75.9987 Y218.843
G1 F300.0 Z-1.0
G2 F800.0 X76.3737 Y219.4894 I0.75 J-0.0032
G2 X77.4987 Y218.8398 I0.375 J-0.6495
G2 X76.3737 Y218.1903 I-0.75 J0.0
G2 X75.9987 Y218.843 I0.375 J0.6495
G1 F300.0 Z-2.0
G2 F800.0 X76.3737 Y219.4894 I0.75 J-0.0032
G2 X77.4987 Y218.8398 I0.375 J-0.6495
G2 X76.3737 Y218.1903 I-0.75 J0.0
G2 X75.9987 Y218.843 I0.375 J0.6495
G1 F300.0 Z-3.0
G2 F800.0 X76.3737 Y219.4894 I0.75 J-0.0032
G2 X77.4987 Y218.8398 I0.375 J-0.6495
G2 X76.3737 Y218.1903 I-0.75 J0.0
G2 X75.9987 Y218.843 I0.375 J0.6495
G1 F300.0 Z-4.0
G2 F800.0 X76.3737 Y219.4894 I0.75 J-0.0032
G2 X77.4987 Y218.8398 I0.375 J-0.6495
G2 X76.3737 Y218.1903 I-0.75 J0.0
G2 X75.9987 Y218.843 I0.375 J0.6495
G1 F300.0 Z-5.0
G2 F800.0 X76.3737 Y219.4894 I0.75 J-0.0032
G2 X77.4987 Y218.8398 I0.375 J-0.6495
G2 X76.3737 Y218.1903 I-0.75 J0.0
G2 X75.9987 Y218.843 I0.375 J0.6495
G1 F300.0 Z-6.0
G2 F800.0 X76.3737 Y219.4894 I0.75 J-0.0032
G2 X77.4987 Y218.8398 I0.375 J-0.6495
G2 X76.3737 Y218.1903 I-0.75 J0.0
G2 X75.9987 Y218.843 I0.375 J0.6495
G0 Z3.0
G0 X110.6736 Y155.4977
G1 F300.0 Z-1.0
G2 F800.0 X111.7837 Y154.8398 I0.3601 J-0.6579
G2 X110.6587 Y154.1903 I-0.75 J0.0
G2 Y155.4894 I0.375 J0.6495
G2 X110.6736 Y155.4977 I0.375 J-0.6495
G1 F300.0 Z-2.0
G2 F800.0 X111.7837 Y154.8398 I0.3601 J-0.6579
G2 X110.6587 Y154.1903 I-0.75 J0.0
G2 Y155.4894 I0.375 J0.6495
G2 X110.6736 Y155.4977 I0.375 J-0.6495
G1 F300.0 Z-3.0
G2 F800.0 X111.7837 Y154.8398 I0.3601 J-0.6579
G2 X110.6587 Y154.1903 I-0.75 J0.0
G2 Y155.4894 I0.375 J0.6495
G2 X110.6736 Y155.4977 I0.375 J-0.6495
G1 F300.0 Z-4.0
G2 F800.0 X111.7837 Y154.8398 I0.3601 J-0.6579
G2 X110.6587 Y154.1903 I-0.75 J0.0
G2 Y155.4894 I0.375 J0.6495
G2 X110.6736 Y155.4977 I0.375 J-0.6495
G1 F300.0 Z-5.0
G2 F800.0 X111.7837 Y154.8398 I0.3601 J-0.6579
G2 X110.6587 Y154.1903 I-0.75 J0.0
G2 Y155.4894 I0.375 J0.6495
G2 X110.6736 Y155.4977 I0.375 J-0.6495
G1 F300.0 Z-6.0
G2 F800.0 X111.7837 Y154.8398 I0.3601 J-0.6579
G2 X110.6587 Y154.1903 I-0.75 J0.0
G2 Y155.4894 I0.375 J0.6495
G2 X110.6736 Y155.4977 I0.375 J-0.6495
G0 Z3.0
G0 X131.9579 Y135.1483
G1 F300.0 Z-1.0
G2 F800.0 X132.125 Y135.2795 I0.5421 J-0.5183
G2 X133.25 Y134.63 I0.375 J-0.6495
G2 X132.125 Y133.9805 I-0.75 J0.0
G2 X131.9579 Y135.1483 I0.375 J0.6495
G1 F300.0 Z-2.0
G2 F800.0 X132.125 Y135.2795 I0.5421 J-0.5183
G2 X133.25 Y134.63 I0.375 J-0.6495
G2 X132.125 Y133.9805 I-0.75 J0.0
G2 X131.9579 Y135.1483 I0.375 J0.6495
G1 F300.0 Z-3.0
G2 F800.0 X132.125 Y135.2795 I0.5421 J-0.5183
G2 X133.25 Y134.63 I0.375 J-0.6495
G2 X132.125 Y133.9805 I-0.75 J0.0
G2 X131.9579 Y135.1483 I0.375 J0.6495
G1 F300.0 Z-4.0
G2 F800.0 X132.125 Y135.2795 I0.5421 J-0.5183
G2 X133.25 Y134.63 I0.375 J-0.6495
G2 X132.125 Y133.9805 I-0.75 J0.0
G2 X131.9579 Y135.1483 I0.375 J0.6495
G1 F300.0 Z-5.0
G2 F800.0 X132.125 Y135.2795 I0.5421 J-0.5183
G2 X133.25 Y134.63 I0.375 J-0.6495
G2 X132.125 Y133.9805 I-0.75 J0.0
G2 X131.9579 Y135.1483 I0.375 J0.6495
G1 F300.0 Z-6.0
G2 F800.0 X132.125 Y135.2795 I0.5421 J-0.5183
G2 X133.25 Y134.63 I0.375 J-0.6495
G2 X132.125 Y133.9805 I-0.75 J0.0
G2 X131.9579 Y135.1483 I0.375 J0.6495
G0 Z3.0
G0 X151.6183 Y141.3104
G1 F300.0 Z-1.0
G2 F800.0 X151.8 Y141.7764 I0.3817 J0.1196
G2 X152.4 Y141.43 I0.2 J-0.3464
G2 X151.8 Y141.0836 I-0.4 J0.0
G2 X151.6183 Y141.3104 I0.2 J0.3464
G1 F300.0 Z-2.0
G2 F800.0 X151.8 Y141.7764 I0.3817 J0.1196
G2 X152.4 Y141.43 I0.2 J-0.3464
G2 X151.8 Y141.0836 I-0.4 J0.0
G2 X151.6183 Y141.3104 I0.2 J0.3464
G1 F300.0 Z-3.0
G2 F800.0 X151.8 Y141.7764 I0.3817 J0.1196
G2 X152.4 Y141.43 I0.2 J-0.3464
G2 X151.8 Y141.0836 I-0.4 J0.0
G2 X151.6183 Y141.3104 I0.2 J0.3464
G1 F300.0 Z-4.0
G2 F800.0 X151.8 Y141.7764 I0.3817 J0.1196
G2 X152.4 Y141.43 I0.2 J-0.3464
G2 X151.8 Y141.0836 I-0.4 J0.0
G2 X151.6183 Y141.3104 I0.2 J0.3464
G1 F300.0 Z-5.0
G2 F800.0 X151.8 Y141.7764 I0.3817 J0.1196
G2 X152.4 Y141.43 I0.2 J-0.3464
G2 X151.8 Y141.0836 I-0.4 J0.0
G2 X151.6183 Y141.3104 I0.2 J0.3464
G1 F300.0 Z-6.0
G2 F800.0 X151.8 Y141.7764 I0.3817 J0.1196
G2 X152.4 Y141.43 I0.2 J-0.3464
G2 X151.8 Y141.0836 I-0.4 J0.0
G2 X151.6183 Y141.3104 I0.2 J0.3464
G0 Z3.0
G0 X151.9904 Y125.8299
G1 F300.0 Z-1.0
G2 F800.0 X152.4 Y125.43 I0.0096 J-0.3999
G2 X151.8 Y125.0836 I-0.4 J0.0
G2 Y125.7764 I0.2 J0.3464
G2 X151.9904 Y125.8299 I0.2 J-0.3464
G1 F300.0 Z-2.0
G2 F800.0 X152.4 Y125.43 I0.0096 J-0.3999
G2 X151.8 Y125.0836 I-0.4 J0.0
G2 Y125.7764 I0.2 J0.3464
G2 X151.9904 Y125.8299 I0.2 J-0.3464
G1 F300.0 Z-3.0
G2 F800.0 X152.4 Y125.43 I0.0096 J-0.3999
G2 X151.8 Y125.0836 I-0.4 J0.0
G2 Y125.7764 I0.2 J0.3464
G2 X151.9904 Y125.8299 I0.2 J-0.3464
G1 F300.0 Z-4.0
G2 F800.0 X152.4 Y125.43 I0.0096 J-0.3999
G2 X151.8 Y125.0836 I-0.4 J0.0
G2 Y125.7764 I0.2 J0.3464
G2 X151.9904 Y125.8299 I0.2 J-0.3464
G1 F300.0 Z-5.0
G2 F800.0 X152.4 Y125.43 I0.0096 J-0.3999
G2 X151.8 Y125.0836 I-0.4 J0.0
G2 Y125.7764 I0.2 J0.3464
G2 X151.9904 Y125.8299 I0.2 J-0.3464
G1 F300.0 Z-6.0
G2 F800.0 X152.4 Y125.43 I0.0096 J-0.3999
G2 X151.8 Y125.0836 I-0.4 J0.0
G2 Y125.7764 I0.2 J0.3464
G2 X151.9904 Y125.8299 I0.2 J-0.3464
G0 Z3.0
G0 X167.6001 Y125.44
G1 F300.0 Z-1.0
G2 F800.0 X167.8 Y125.7764 I0.3999 J-0.01
G2 X168.4 Y125.43 I0.2 J-0.3464
G2 X167.8 Y125.0836 I-0.4 J0.0
G2 X167.6001 Y125.44 I0.2 J0.3464
G1 F300.0 Z-2.0
G2 F800.0 X167.8 Y125.7764 I0.3999 J-0.01
G2 X168.4 Y125.43 I0.2 J-0.3464
G2 X167.8 Y125.0836 I-0.4 J0.0
G2 X167.6001 Y125.44 I0.2 J0.3464
G1 F300.0 Z-3.0
G2 F800.0 X167.8 Y125.7764 I0.3999 J-0.01
G2 X168.4 Y125.43 I0.2 J-0.3464
G2 X167.8 Y125.0836 I-0.4 J0.0
G2 X167.6001 Y125.44 I0.2 J0.3464
G1 F300.0 Z-4.0
G2 F800.0 X167.8 Y125.7764 I0.3999 J-0.01
G2 X168.4 Y125.43 I0.2 J-0.3464
G2 X167.8 Y125.0836 I-0.4 J0.0
G2 X167.6001 Y125.44 I0.2 J0.3464
G1 F300.0 Z-5.0
G2 F800.0 X167.8 Y125.7764 I0.3999 J-0.01
G2 X168.4 Y125.43 I0.2 J-0.3464
G2 X167.8 Y125.0836 I-0.4 J0.0
G2 X167.6001 Y125.44 I0.2 J0.3464
G1 F300.0 Z-6.0
G2 F800.0 X167.8 Y125.7764 I0.3999 J-0.01
G2 X168.4 Y125.43 I0.2 J-0.3464
G2 X167.8 Y125.0836 I-0.4 J0.0
G2 X167.6001 Y125.44 I0.2 J0.3464
G0 Z3.0
G0 X167.99 Y141.0301
G1 F300.0 Z-1.0
G2 F800.0 X167.8 Y141.0836 I0.01 J0.3999
G2 Y141.7764 I0.2 J0.3464
G2 X168.4 Y141.43 I0.2 J-0.3464
G2 X167.99 Y141.0301 I-0.4 J0.0
G1 F300.0 Z-2.0
G2 F800.0 X167.8 Y141.0836 I0.01 J0.3999
G2 Y141.7764 I0.2 J0.3464
G2 X168.4 Y141.43 I0.2 J-0.3464
G2 X167.99 Y141.0301 I-0.4 J0.0
G1 F300.0 Z-3.0
G2 F800.0 X167.8 Y141.0836 I0.01 J0.3999
G2 Y141.7764 I0.2 J0.3464
G2 X168.4 Y141.43 I0.2 J-0.3464
G2 X167.99 Y141.0301 I-0.4 J0.0
G1 F300.0 Z-4.0
G2 F800.0 X167.8 Y141.0836 I0.01 J0.3999
G2 Y141.7764 I0.2 J0.3464
G2 X168.4 Y141.43 I0.2 J-0.3464
G2 X167.99 Y141.0301 I-0.4 J0.0
G1 F300.0 Z-5.0
G2 F800.0 X167.8 Y141.0836 I0.01 J0.3999
G2 Y141.7764 I0.2 J0.3464
G2 X168.4 Y141.43 I0.2 J-0.3464
G2 X167.99 Y141.0301 I-0.4 J0.0
G1 F300.0 Z-6.0
G2 F800.0 X167.8 Y141.0836 I0.01 J0.3999
G2 Y141.7764 I0.2 J0.3464
G2 X168.4 Y141.43 I0.2 J-0.3464
G2 X167.99 Y141.0301 I-0.4 J0.0
G0 Z3.0
G0 X186.7874 Y134.8638
G1 F300.0 Z-1.0
G2 F800.0 X187.125 Y135.2795 I0.7126 J-0.2338
G2 X188.25 Y134.63 I0.375 J-0.6495
G2 X187.125 Y133.9805 I-0.75 J0.0
G2 X186.7874 Y134.8638 I0.375 J0.6495
G1 F300.0 Z-2.0
G2 F800.0 X187.125 Y135.2795 I0.7126 J-0.2338
G2 X188.25 Y134.63 I0.375 J-0.6495
G2 X187.125 Y133.9805 I-0.75 J0.0
G2 X186.7874 Y134.8638 I0.375 J0.6495
G1 F300.0 Z-3.0
G2 F800.0 X187.125 Y135.2795 I0.7126 J-0.2338
G2 X188.25 Y134.63 I0.375 J-0.6495
G2 X187.125 Y133.9805 I-0.75 J0.0
G2 X186.7874 Y134.8638 I0.375 J0.6495
G1 F300.0 Z-4.0
G2 F800.0 X187.125 Y135.2795 I0.7126 J-0.2338
G2 X188.25 Y134.63 I0.375 J-0.6495
G2 X187.125 Y133.9805 I-0.75 J0.0
G2 X186.7874 Y134.8638 I0.375 J0.6495
G1 F300.0 Z-5.0
G2 F800.0 X187.125 Y135.2795 I0.7126 J-0.2338
G2 X188.25 Y134.63 I0.375 J-0.6495
G2 X187.125 Y133.9805 I-0.75 J0.0
G2 X186.7874 Y134.8638 I0.375 J0.6495
G1 F300.0 Z-6.0
G2 F800.0 X187.125 Y135.2795 I0.7126 J-0.2338
G2 X188.25 Y134.63 I0.375 J-0.6495
G2 X187.125 Y133.9805 I-0.75 J0.0
G2 X186.7874 Y134.8638 I0.375 J0.6495
G0 Z3.0
G0 X186.5044 Y54.75
G1 F300.0 Z-1.0
G2 F800.0 X187.75 Y53.5 I-0.0044 J-1.25
G2 X185.875 Y52.4175 I-1.25 J0.0
G2 Y54.5825 I0.625 J1.0825
G2 X186.5044 Y54.75 I0.625 J-1.0825
G1 F300.0 Z-2.0
G2 F800.0 X187.75 Y53.5 I-0.0044 J-1.25
G2 X185.875 Y52.4175 I-1.25 J0.0
G2 Y54.5825 I0.625 J1.0825
G2 X186.5044 Y54.75 I0.625 J-1.0825
G1 F300.0 Z-3.0
G2 F800.0 X187.75 Y53.5 I-0.0044 J-1.25
G2 X185.875 Y52.4175 I-1.25 J0.0
G2 Y54.5825 I0.625 J1.0825
G2 X186.5044 Y54.75 I0.625 J-1.0825
G1 F300.0 Z-4.0
G2 F800.0 X187.75 Y53.5 I-0.0044 J-1.25
G2 X185.875 Y52.4175 I-1.25 J0.0
G2 Y54.5825 I0.625 J1.0825
G2 X186.5044 Y54.75 I0.625 J-1.0825
G1 F300.0 Z-5.0
G2 F800.0 X187.75 Y53.5 I-0.0044 J-1.25
G2 X185.875 Y52.4175 I-1.25 J0.0
G2 Y54.5825 I0.625 J1.0825
G2 X186.5044 Y54.75 I0.625 J-1.0825
G1 F300.0 Z-6.0
G2 F800.0 X187.75 Y53.5 I-0.0044 J-1.25
G2 X185.875 Y52.4175 I-1.25 J0.0
G2 Y54.5825 I0.625 J1.0825
G2 X186.5044 Y54.75 I0.625 J-1.0825
G0 Z3.0
G0 X186.5001 Y12.75
G1 F300.0 Z-1.0
G2 F800.0 X187.75 Y11.5 I-0.0001 J-1.25
G2 X185.875 Y10.4175 I-1.25 J0.0
G2 Y12.5825 I0.625 J1.0825
G2 X186.5001 Y12.75 I0.625 J-1.0825
G1 F300.0 Z-2.0
G2 F800.0 X187.75 Y11.5 I-0.0001 J-1.25
G2 X185.875 Y10.4175 I-1.25 J0.0
G2 Y12.5825 I0.625 J1.0825
G2 X186.5001 Y12.75 I0.625 J-1.0825
G1 F300.0 Z-3.0
G2 F800.0 X187.75 Y11.5 I-0.0001 J-1.25
G2 X185.875 Y10.4175 I-1.25 J0.0
G2 Y12.5825 I0.625 J1.0825
G2 X186.5001 Y12.75 I0.625 J-1.0825
G1 F300.0 Z-4.0
G2 F800.0 X187.75 Y11.5 I-0.0001 J-1.25
G2 X185.875 Y10.4175 I-1.25 J0.0
G2 Y12.5825 I0.625 J1.0825
G2 X186.5001 Y12.75 I0.625 J-1.0825
G1 F300.0 Z-5.0
G2 F800.0 X187.75 Y11.5 I-0.0001 J-1.25
G2 X185.875 Y10.4175 I-1.25 J0.0
G2 Y12.5825 I0.625 J1.0825
G2 X186.5001 Y12.75 I0.625 J-1.0825
G1 F300.0 Z-6.0
G2 F800.0 X187.75 Y11.5 I-0.0001 J-1.25
G2 X185.875 Y10.4175 I-1.25 J0.0
G2 Y12.5825 I0.625 J1.0825
G2 X186.5001 Y12.75 I0.625 J-1.0825
G0 Z3.0
G0 X167.0661 Y232.5079
G1 F300.0 Z-1.0
G2 F800.0 X166.625 Y232.6055 I-0.0661 J0.7471
G2 Y233.9045 I0.375 J0.6495
G2 X167.75 Y233.255 I0.375 J-0.6495
G2 X167.0661 Y232.5079 I-0.75 J0.0
G1 F300.0 Z-2.0
G2 F800.0 X166.625 Y232.6055 I-0.0661 J0.7471
G2 Y233.9045 I0.375 J0.6495
G2 X167.75 Y233.255 I0.375 J-0.6495
G2 X167.0661 Y232.5079 I-0.75 J0.0
G1 F300.0 Z-3.0
G2 F800.0 X166.625 Y232.6055 I-0.0661 J0.7471
G2 Y233.9045 I0.375 J0.6495
G2 X167.75 Y233.255 I0.375 J-0.6495
G2 X167.0661 Y232.5079 I-0.75 J0.0
G1 F300.0 Z-4.0
G2 F800.0 X166.625 Y232.6055 I-0.0661 J0.7471
G2 Y233.9045 I0.375 J0.6495
G2 X167.75 Y233.255 I0.375 J-0.6495
G2 X167.0661 Y232.5079 I-0.75 J0.0
G1 F300.0 Z-5.0
G2 F800.0 X166.625 Y232.6055 I-0.0661 J0.7471
G2 Y233.9045 I0.375 J0.6495
G2 X167.75 Y233.255 I0.375 J-0.6495
G2 X167.0661 Y232.5079 I-0.75 J0.0
G1 F300.0 Z-6.0
G2 F800.0 X166.625 Y232.6055 I-0.0661 J0.7471
G2 Y233.9045 I0.375 J0.6495
G2 X167.75 Y233.255 I0.375 J-0.6495
G2 X167.0661 Y232.5079 I-0.75 J0.0
G0 Z3.0
G0 X153.7489 Y233.2152
G1 F300.0 Z-1.0
G2 F800.0 X152.625 Y232.6055 I-0.7489 J0.0398
G2 Y233.9045 I0.375 J0.6495
G2 X153.75 Y233.255 I0.375 J-0.6495
G2 X153.7489 Y233.2152 I-0.75 J0.0
G1 F300.0 Z-2.0
G2 F800.0 X152.625 Y232.6055 I-0.7489 J0.0398
G2 Y233.9045 I0.375 J0.6495
G2 X153.75 Y233.255 I0.375 J-0.6495
G2 X153.7489 Y233.2152 I-0.75 J0.0
G1 F300.0 Z-3.0
G2 F800.0 X152.625 Y232.6055 I-0.7489 J0.0398
G2 Y233.9045 I0.375 J0.6495
G2 X153.75 Y233.255 I0.375 J-0.6495
G2 X153.7489 Y233.2152 I-0.75 J0.0
G1 F300.0 Z-4.0
G2 F800.0 X152.625 Y232.6055 I-0.7489 J0.0398
G2 Y233.9045 I0.375 J0.6495
G2 X153.75 Y233.255 I0.375 J-0.6495
G2 X153.7489 Y233.2152 I-0.75 J0.0
G1 F300.0 Z-5.0
G2 F800.0 X152.625 Y232.6055 I-0.7489 J0.0398
G2 Y233.9045 I0.375 J0.6495
G2 X153.75 Y233.255 I0.375 J-0.6495
G2 X153.7489 Y233.2152 I-0.75 J0.0
G1 F300.0 Z-6.0
G2 F800.0 X152.625 Y232.6055 I-0.7489 J0.0398
G2 Y233.9045 I0.375 J0.6495
G2 X153.75 Y233.255 I0.375 J-0.6495
G2 X153.7489 Y233.2152 I-0.75 J0.0
G0 Z3.0
G0 X152.0091 Y309.4301
G1 F300.0 Z-1.0
G2 F800.0 X151.8 Y309.4836 I-0.0091 J0.3999
G2 Y310.1764 I0.2 J0.3464
G2 X152.4 Y309.83 I0.2 J-0.3464
G2 X152.0091 Y309.4301 I-0.4 J0.0
G1 F300.0 Z-2.0
G2 F800.0 X151.8 Y309.4836 I-0.0091 J0.3999
G2 Y310.1764 I0.2 J0.3464
G2 X152.4 Y309.83 I0.2 J-0.3464
G2 X152.0091 Y309.4301 I-0.4 J0.0
G1 F300.0 Z-3.0
G2 F800.0 X151.8 Y309.4836 I-0.0091 J0.3999
G2 Y310.1764 I0.2 J0.3464
G2 X152.4 Y309.83 I0.2 J-0.3464
G2 X152.0091 Y309.4301 I-0.4 J0.0
G1 F300.0 Z-4.0
G2 F800.0 X151.8 Y309.4836 I-0.0091 J0.3999
G2 Y310.1764 I0.2 J0.3464
G2 X152.4 Y309.83 I0.2 J-0.3464
G2 X152.0091 Y309.4301 I-0.4 J0.0
G1 F300.0 Z-5.0
G2 F800.0 X151.8 Y309.4836 I-0.0091 J0.3999
G2 Y310.1764 I0.2 J0.3464
G2 X152.4 Y309.83 I0.2 J-0.3464
G2 X152.0091 Y309.4301 I-0.4 J0.0
G1 F300.0 Z-6.0
G2 F800.0 X151.8 Y309.4836 I-0.0091 J0.3999
G2 Y310.1764 I0.2 J0.3464
G2 X152.4 Y309.83 I0.2 J-0.3464
G2 X152.0091 Y309.4301 I-0.4 J0.0
G0 Z3.0
G0 X167.6001 Y309.82
G1 F300.0 Z-1.0
G2 F800.0 X167.8 Y310.1764 I0.3999 J0.01
G2 X168.4 Y309.83 I0.2 J-0.3464
G2 X167.8 Y309.4836 I-0.4 J0.0
G2 X167.6001 Y309.82 I0.2 J0.3464
G1 F300.0 Z-2.0
G2 F800.0 X167.8 Y310.1764 I0.3999 J0.01
G2 X168.4 Y309.83 I0.2 J-0.3464
G2 X167.8 Y309.4836 I-0.4 J0.0
G2 X167.6001 Y309.82 I0.2 J0.3464
G1 F300.0 Z-3.0
G2 F800.0 X167.8 Y310.1764 I0.3999 J0.01
G2 X168.4 Y309.83 I0.2 J-0.3464
G2 X167.8 Y309.4836 I-0.4 J0.0
G2 X167.6001 Y309.82 I0.2 J0.3464
G1 F300.0 Z-4.0
G2 F800.0 X167.8 Y310.1764 I0.3999 J0.01
G2 X168.4 Y309.83 I0.2 J-0.3464
G2 X167.8 Y309.4836 I-0.4 J0.0
G2 X167.6001 Y309.82 I0.2 J0.3464
G1 F300.0 Z-5.0
G2 F800.0 X167.8 Y310.1764 I0.3999 J0.01
G2 X168.4 Y309.83 I0.2 J-0.3464
G2 X167.8 Y309.4836 I-0.4 J0.0
G2 X167.6001 Y309.82 I0.2 J0.3464
G1 F300.0 Z-6.0
G2 F800.0 X167.8 Y310.1764 I0.3999 J0.01
G2 X168.4 Y309.83 I0.2 J-0.3464
G2 X167.8 Y309.4836 I-0.4 J0.0
G2 X167.6001 Y309.82 I0.2 J0.3464
G0 Z3.0
G0 X167.99 Y325.4301
G1 F300.0 Z-1.0
G2 F800.0 X167.8 Y325.4836 I0.01 J0.3999
G2 Y326.1764 I0.2 J0.3464
G2 X168.4 Y325.83 I0.2 J-0.3464
G2 X167.99 Y325.4301 I-0.4 J0.0
G1 F300.0 Z-2.0
G2 F800.0 X167.8 Y325.4836 I0.01 J0.3999
G2 Y326.1764 I0.2 J0.3464
G2 X168.4 Y325.83 I0.2 J-0.3464
G2 X167.99 Y325.4301 I-0.4 J0.0
G1 F300.0 Z-3.0
G2 F800.0 X167.8 Y325.4836 I0.01 J0.3999
G2 Y326.1764 I0.2 J0.3464
G2 X168.4 Y325.83 I0.2 J-0.3464
G2 X167.99 Y325.4301 I-0.4 J0.0
G1 F300.0 Z-4.0
G2 F800.0 X167.8 Y325.4836 I0.01 J0.3999
G2 Y326.1764 I0.2 J0.3464
G2 X168.4 Y325.83 I0.2 J-0.3464
G2 X167.99 Y325.4301 I-0.4 J0.0
G1 F300.0 Z-5.0
G2 F800.0 X167.8 Y325.4836 I0.01 J0.3999
G2 Y326.1764 I0.2 J0.3464
G2 X168.4 Y325.83 I0.2 J-0.3464
G2 X167.99 Y325.4301 I-0.4 J0.0
G1 F300.0 Z-6.0
G2 F800.0 X167.8 Y325.4836 I0.01 J0.3999
G2 Y326.1764 I0.2 J0.3464
G2 X168.4 Y325.83 I0.2 J-0.3464
G2 X167.99 Y325.4301 I-0.4 J0.0
G0 Z3.0
G0 X152.3999 Y325.82
G1 F300.0 Z-1.0
G2 F800.0 X151.8 Y325.4836 I-0.3999 J0.01
G2 Y326.1764 I0.2 J0.3464
G2 X152.4 Y325.83 I0.2 J-0.3464
G2 X152.3999 Y325.82 I-0.4 J0.0
G1 F300.0 Z-2.0
G2 F800.0 X151.8 Y325.4836 I-0.3999 J0.01
G2 Y326.1764 I0.2 J0.3464
G2 X152.4 Y325.83 I0.2 J-0.3464
G2 X152.3999 Y325.82 I-0.4 J0.0
G1 F300.0 Z-3.0
G2 F800.0 X151.8 Y325.4836 I-0.3999 J0.01
G2 Y326.1764 I0.2 J0.3464
G2 X152.4 Y325.83 I0.2 J-0.3464
G2 X152.3999 Y325.82 I-0.4 J0.0
G1 F300.0 Z-4.0
G2 F800.0 X151.8 Y325.4836 I-0.3999 J0.01
G2 Y326.1764 I0.2 J0.3464
G2 X152.4 Y325.83 I0.2 J-0.3464
G2 X152.3999 Y325.82 I-0.4 J0.0
G1 F300.0 Z-5.0
G2 F800.0 X151.8 Y325.4836 I-0.3999 J0.01
G2 Y326.1764 I0.2 J0.3464
G2 X152.4 Y325.83 I0.2 J-0.3464
G2 X152.3999 Y325.82 I-0.4 J0.0
G1 F300.0 Z-6.0
G2 F800.0 X151.8 Y325.4836 I-0.3999 J0.01
G2 Y326.1764 I0.2 J0.3464
G2 X152.4 Y325.83 I0.2 J-0.3464
G2 X152.3999 Y325.82 I-0.4 J0.0
G0 Z3.0
G0 X133.1809 Y316.9444
G1 F300.0 Z-1.0
G2 F800.0 X133.25 Y316.63 I-0.6809 J-0.3144
G2 X132.125 Y315.9805 I-0.75 J0.0
G2 Y317.2795 I0.375 J0.6495
G2 X133.1809 Y316.9444 I0.375 J-0.6495
G1 F300.0 Z-2.0
G2 F800.0 X133.25 Y316.63 I-0.6809 J-0.3144
G2 X132.125 Y315.9805 I-0.75 J0.0
G2 Y317.2795 I0.375 J0.6495
G2 X133.1809 Y316.9444 I0.375 J-0.6495
G1 F300.0 Z-3.0
G2 F800.0 X133.25 Y316.63 I-0.6809 J-0.3144
G2 X132.125 Y315.9805 I-0.75 J0.0
G2 Y317.2795 I0.375 J0.6495
G2 X133.1809 Y316.9444 I0.375 J-0.6495
G1 F300.0 Z-4.0
G2 F800.0 X133.25 Y316.63 I-0.6809 J-0.3144
G2 X132.125 Y315.9805 I-0.75 J0.0
G2 Y317.2795 I0.375 J0.6495
G2 X133.1809 Y316.9444 I0.375 J-0.6495
G1 F300.0 Z-5.0
G2 F800.0 X133.25 Y316.63 I-0.6809 J-0.3144
G2 X132.125 Y315.9805 I-0.75 J0.0
G2 Y317.2795 I0.375 J0.6495
G2 X133.1809 Y316.9444 I0.375 J-0.6495
G1 F300.0 Z-6.0
G2 F800.0 X133.25 Y316.63 I-0.6809 J-0.3144
G2 X132.125 Y315.9805 I-0.75 J0.0
G2 Y317.2795 I0.375 J0.6495
G2 X133.1809 Y316.9444 I0.375 J-0.6495
G0 Z3.0
G0 X105.3643 Y327.5722
G1 F300.0 Z-1.0
G2 F800.0 X104.2887 Y327.1903 I-0.7006 J0.2677
G2 Y328.4894 I0.375 J0.6495
G2 X105.4137 Y327.8398 I0.375 J-0.6495
G2 X105.3643 Y327.5722 I-0.75 J0.0
G1 F300.0 Z-2.0
G2 F800.0 X104.2887 Y327.1903 I-0.7006 J0.2677
G2 Y328.4894 I0.375 J0.6495
G2 X105.4137 Y327.8398 I0.375 J-0.6495
G2 X105.3643 Y327.5722 I-0.75 J0.0
G1 F300.0 Z-3.0
G2 F800.0 X104.2887 Y327.1903 I-0.7006 J0.2677
G2 Y328.4894 I0.375 J0.6495
G2 X105.4137 Y327.8398 I0.375 J-0.6495
G2 X105.3643 Y327.5722 I-0.75 J0.0
G1 F300.0 Z-4.0
G2 F800.0 X104.2887 Y327.1903 I-0.7006 J0.2677
G2 Y328.4894 I0.375 J0.6495
G2 X105.4137 Y327.8398 I0.375 J-0.6495
G2 X105.3643 Y327.5722 I-0.75 J0.0
G1 F300.0 Z-5.0
G2 F800.0 X104.2887 Y327.1903 I-0.7006 J0.2677
G2 Y328.4894 I0.375 J0.6495
G2 X105.4137 Y327.8398 I0.375 J-0.6495
G2 X105.3643 Y327.5722 I-0.75 J0.0
G1 F300.0 Z-6.0
G2 F800.0 X104.2887 Y327.1903 I-0.7006 J0.2677
G2 Y328.4894 I0.375 J0.6495
G2 X105.4137 Y327.8398 I0.375 J-0.6495
G2 X105.3643 Y327.5722 I-0.75 J0.0
G0 Z3.0
G0 X33.2937 Y327.8371
G1 F300.0 Z-1.0
G2 F800.0 X32.1687 Y327.1903 I-0.75 J0.0028
G2 Y328.4894 I0.375 J0.6495
G2 X33.2937 Y327.8398 I0.375 J-0.6495
G2 Y327.8371 I-0.75 J0.0
G1 F300.0 Z-2.0
G2 F800.0 X32.1687 Y327.1903 I-0.75 J0.0028
G2 Y328.4894 I0.375 J0.6495
G2 X33.2937 Y327.8398 I0.375 J-0.6495
G2 Y327.8371 I-0.75 J0.0
G1 F300.0 Z-3.0
G2 F800.0 X32.1687 Y327.1903 I-0.75 J0.0028
G2 Y328.4894 I0.375 J0.6495
G2 X33.2937 Y327.8398 I0.375 J-0.6495
G2 Y327.8371 I-0.75 J0.0
G1 F300.0 Z-4.0
G2 F800.0 X32.1687 Y327.1903 I-0.75 J0.0028
G2 Y328.4894 I0.375 J0.6495
G2 X33.2937 Y327.8398 I0.375 J-0.6495
G2 Y327.8371 I-0.75 J0.0
G1 F300.0 Z-5.0
G2 F800.0 X32.1687 Y327.1903 I-0.75 J0.0028
G2 Y328.4894 I0.375 J0.6495
G2 X33.2937 Y327.8398 I0.375 J-0.6495
G2 Y327.8371 I-0.75 J0.0
G1 F300.0 Z-6.0
G2 F800.0 X32.1687 Y327.1903 I-0.75 J0.0028
G2 Y328.4894 I0.375 J0.6495
G2 X33.2937 Y327.8398 I0.375 J-0.6495
G2 Y327.8371 I-0.75 J0.0
G0 Z3.0
G0 X12.9881 Y285.516
G1 F300.0 Z-1.0
G2 F800.0 X13.4137 Y284.8398 I-0.3244 J-0.6762
G2 X12.2887 Y284.1903 I-0.75 J0.0
G2 Y285.4894 I0.375 J0.6495
G2 X12.9881 Y285.516 I0.375 J-0.6495
G1 F300.0 Z-2.0
G2 F800.0 X13.4137 Y284.8398 I-0.3244 J-0.6762
G2 X12.2887 Y284.1903 I-0.75 J0.0
G2 Y285.4894 I0.375 J0.6495
G2 X12.9881 Y285.516 I0.375 J-0.6495
G1 F300.0 Z-3.0
G2 F800.0 X13.4137 Y284.8398 I-0.3244 J-0.6762
G2 X12.2887 Y284.1903 I-0.75 J0.0
G2 Y285.4894 I0.375 J0.6495
G2 X12.9881 Y285.516 I0.375 J-0.6495
G1 F300.0 Z-4.0
G2 F800.0 X13.4137 Y284.8398 I-0.3244 J-0.6762
G2 X12.2887 Y284.1903 I-0.75 J0.0
G2 Y285.4894 I0.375 J0.6495
G2 X12.9881 Y285.516 I0.375 J-0.6495
G1 F300.0 Z-5.0
G2 F800.0 X13.4137 Y284.8398 I-0.3244 J-0.6762
G2 X12.2887 Y284.1903 I-0.75 J0.0
G2 Y285.4894 I0.375 J0.6495
G2 X12.9881 Y285.516 I0.375 J-0.6495
G1 F300.0 Z-6.0
G2 F800.0 X13.4137 Y284.8398 I-0.3244 J-0.6762
G2 X12.2887 Y284.1903 I-0.75 J0.0
G2 Y285.4894 I0.375 J0.6495
G2 X12.9881 Y285.516 I0.375 J-0.6495
G0 Z3.0
G0 X186.7616 Y316.4984
G1 F300.0 Z-1.0
G2 F800.0 X187.125 Y317.2795 I0.7384 J0.1316
G2 X188.25 Y316.63 I0.375 J-0.6495
G2 X187.125 Y315.9805 I-0.75 J0.0
G2 X186.7616 Y316.4984 I0.375 J0.6495
G1 F300.0 Z-2.0
G2 F800.0 X187.125 Y317.2795 I0.7384 J0.1316
G2 X188.25 Y316.63 I0.375 J-0.6495
G2 X187.125 Y315.9805 I-0.75 J0.0
G2 X186.7616 Y316.4984 I0.375 J0.6495
G1 F300.0 Z-3.0
G2 F800.0 X187.125 Y317.2795 I0.7384 J0.1316
G2 X188.25 Y316.63 I0.375 J-0.6495
G2 X187.125 Y315.9805 I-0.75 J0.0
G2 X186.7616 Y316.4984 I0.375 J0.6495
G1 F300.0 Z-4.0
G2 F800.0 X187.125 Y317.2795 I0.7384 J0.1316
G2 X188.25 Y316.63 I0.375 J-0.6495
G2 X187.125 Y315.9805 I-0.75 J0.0
G2 X186.7616 Y316.4984 I0.375 J0.6495
G1 F300.0 Z-5.0
G2 F800.0 X187.125 Y317.2795 I0.7384 J0.1316
G2 X188.25 Y316.63 I0.375 J-0.6495
G2 X187.125 Y315.9805 I-0.75 J0.0
G2 X186.7616 Y316.4984 I0.375 J0.6495
G1 F300.0 Z-6.0
G2 F800.0 X187.125 Y317.2795 I0.7384 J0.1316
G2 X188.25 Y316.63 I0.375 J-0.6495
G2 X187.125 Y315.9805 I-0.75 J0.0
G2 X186.7616 Y316.4984 I0.375 J0.6495
( Contour2 )
S1000
G0 Z3.0
G0 X182.25 Y107.0
G1 F300.0 Z-1.0
G3 F800.0 X178.875 Y108.9486 I-2.25 J0.0
G3 Y105.0514 I1.125 J-1.9486
G3 X182.25 Y107.0 I1.125 J1.9486
G1 F300.0 Z-2.0
G3 F800.0 X178.875 Y108.9486 I-2.25 J0.0
G3 Y105.0514 I1.125 J-1.9486
G3 X182.25 Y107.0 I1.125 J1.9486
G1 F300.0 Z-3.0
G3 F800.0 X178.875 Y108.9486 I-2.25 J0.0
G3 Y105.0514 I1.125 J-1.9486
G3 X182.25 Y107.0 I1.125 J1.9486
G0 Z3.0
G0 X180.357 Y95.2215
G1 F300.0 Z-1.0
G3 F800.0 X178.875 Y94.9486 I-0.357 J-2.2215
G3 Y91.0514 I1.125 J-1.9486
G3 X182.25 Y93.0 I1.125 J1.9486
G3 X180.357 Y95.2215 I-2.25 J0.0
G1 F300.0 Z-2.0
G3 F800.0 X178.875 Y94.9486 I-0.357 J-2.2215
G3 Y91.0514 I1.125 J-1.9486
G3 X182.25 Y93.0 I1.125 J1.9486
G3 X180.357 Y95.2215 I-2.25 J0.0
G1 F300.0 Z-3.0
G3 F800.0 X178.875 Y94.9486 I-0.357 J-2.2215
G3 Y91.0514 I1.125 J-1.9486
G3 X182.25 Y93.0 I1.125 J1.9486
G3 X180.357 Y95.2215 I-2.25 J0.0
G0 Z3.0
G0 X155.728 Y91.2768
G1 F300.0 Z-1.0
G3 F800.0 X153.125 Y92.5155 I-1.728 J-0.2768
G3 Y89.4845 I0.875 J-1.5155
G3 X155.75 Y91.0 I0.875 J1.5155
G3 X155.728 Y91.2768 I-1.75 J0.0
G1 F300.0 Z-2.0
G3 F800.0 X153.125 Y92.5155 I-1.728 J-0.2768
G3 Y89.4845 I0.875 J-1.5155
G3 X155.75 Y91.0 I0.875 J1.5155
G3 X155.728 Y91.2768 I-1.75 J0.0
G1 F300.0 Z-3.0
G3 F800.0 X153.125 Y92.5155 I-1.728 J-0.2768
G3 Y89.4845 I0.875 J-1.5155
G3 X155.75 Y91.0 I0.875 J1.5155
G3 X155.728 Y91.2768 I-1.75 J0.0
G0 Z3.0
G0 X147.3706 Y97.9119
G1 F300.0 Z-1.0
G3 F800.0 X147.75 Y99.0 I-1.3706 J1.0881
G3 X145.125 Y100.5155 I-1.75 J0.0
G3 Y97.4845 I0.875 J-1.5155
G3 X147.3706 Y97.9119 I0.875 J1.5155
G1 F300.0 Z-2.0
G3 F800.0 X147.75 Y99.0 I-1.3706 J1.0881
G3 X145.125 Y100.5155 I-1.75 J0.0
G3 Y97.4845 I0.875 J-1.5155
G3 X147.3706 Y97.9119 I0.875 J1.5155
G1 F300.0 Z-3.0
G3 F800.0 X147.75 Y99.0 I-1.3706 J1.0881
G3 X145.125 Y100.5155 I-1.75 J0.0
G3 Y97.4845 I0.875 J-1.5155
G3 X147.3706 Y97.9119 I0.875 J1.5155
G0 Z3.0
G0 X139.4083 Y92.0388
G1 F300.0 Z-1.0
G3 F800.0 X137.125 Y92.5155 I-1.4083 J-1.0388
G3 Y89.4845 I0.875 J-1.5155
G3 X139.75 Y91.0 I0.875 J1.5155
G3 X139.4083 Y92.0388 I-1.75 J0.0
G1 F300.0 Z-2.0
G3 F800.0 X137.125 Y92.5155 I-1.4083 J-1.0388
G3 Y89.4845 I0.875 J-1.5155
G3 X139.75 Y91.0 I0.875 J1.5155
G3 X139.4083 Y92.0388 I-1.75 J0.0
G1 F300.0 Z-3.0
G3 F800.0 X137.125 Y92.5155 I-1.4083 J-1.0388
G3 Y89.4845 I0.875 J-1.5155
G3 X139.75 Y91.0 I0.875 J1.5155
G3 X139.4083 Y92.0388 I-1.75 J0.0
G0 Z3.0
G0 X144.9689 Y84.4139
G1 F300.0 Z-1.0
G3 F800.0 X145.125 Y81.4845 I1.0311 J-1.4139
G3 X147.75 Y83.0 I0.875 J1.5155
G3 X145.125 Y84.5155 I-1.75 J0.0
G3 X144.9689 Y84.4139 I0.875 J-1.5155
G1 F300.0 Z-2.0
G3 F800.0 X145.125 Y81.4845 I1.0311 J-1.4139
G3 X147.75 Y83.0 I0.875 J1.5155
G3 X145.125 Y84.5155 I-1.75 J0.0
G3 X144.9689 Y84.4139 I0.875 J-1.5155
G1 F300.0 Z-3.0
G3 F800.0 X145.125 Y81.4845 I1.0311 J-1.4139
G3 X147.75 Y83.0 I0.875 J1.5155
G3 X145.125 Y84.5155 I-1.75 J0.0
G3 X144.9689 Y84.4139 I0.875 J-1.5155
G0 Z3.0
G0 X108.4934 Y83.8732
G1 F300.0 Z-1.0
G3 F800.0 X105.1187 Y85.7884 I-2.2498 J-0.0334
G3 Y81.8913 I1.125 J-1.9486
G3 X108.4937 Y83.8398 I1.125 J1.9486
G3 X108.4934 Y83.8732 I-2.25 J0.0
G1 F300.0 Z-2.0
G3 F800.0 X105.1187 Y85.7884 I-2.2498 J-0.0334
G3 Y81.8913 I1.125 J-1.9486
G3 X108.4937 Y83.8398 I1.125 J1.9486
G3 X108.4934 Y83.8732 I-2.25 J0.0
G1 F300.0 Z-3.0
G3 F800.0 X105.1187 Y85.7884 I-2.2498 J-0.0334
G3 Y81.8913 I1.125 J-1.9486
G3 X108.4937 Y83.8398 I1.125 J1.9486
G3 X108.4934 Y83.8732 I-2.25 J0.0
G0 Z3.0
G0 X72.2037 Y83.8418
G1 F300.0 Z-1.0
G3 F800.0 X68.8287 Y85.7884 I-2.25 J-0.0019
G3 Y81.8913 I1.125 J-1.9486
G3 X72.2037 Y83.8398 I1.125 J1.9486
G3 Y83.8418 I-2.25 J0.0
G1 F300.0 Z-2.0
G3 F800.0 X68.8287 Y85.7884 I-2.25 J-0.0019
G3 Y81.8913 I1.125 J-1.9486
G3 X72.2037 Y83.8398 I1.125 J1.9486
G3 Y83.8418 I-2.25 J0.0
G1 F300.0 Z-3.0
G3 F800.0 X68.8287 Y85.7884 I-2.25 J-0.0019
G3 Y81.8913 I1.125 J-1.9486
G3 X72.2037 Y83.8398 I1.125 J1.9486
G3 Y83.8418 I-2.25 J0.0
G0 Z3.0
G0 X35.9137 Y83.8399
G1 F300.0 Z-1.0
G3 F800.0 X32.5387 Y85.7884 I-2.25 J-0.0001
G3 Y81.8913 I1.125 J-1.9486
G3 X35.9137 Y83.8398 I1.125 J1.9486
G3 Y83.8399 I-2.25 J0.0
G1 F300.0 Z-2.0
G3 F800.0 X32.5387 Y85.7884 I-2.25 J-0.0001
G3 Y81.8913 I1.125 J-1.9486
G3 X35.9137 Y83.8398 I1.125 J1.9486
G3 Y83.8399 I-2.25 J0.0
G1 F300.0 Z-3.0
G3 F800.0 X32.5387 Y85.7884 I-2.25 J-0.0001
G3 Y81.8913 I1.125 J-1.9486
G3 X35.9137 Y83.8398 I1.125 J1.9486
G3 Y83.8399 I-2.25 J0.0
G0 Z3.0
G0 X13.7339 Y124.8606
G1 F300.0 Z-1.0
G3 F800.0 X14.9137 Y126.8398 I-1.0702 J1.9792
G3 X11.5387 Y128.7884 I-2.25 J0.0
G3 Y124.8913 I1.125 J-1.9486
G3 X13.7339 Y124.8606 I1.125 J1.9486
G1 F300.0 Z-2.0
G3 F800.0 X14.9137 Y126.8398 I-1.0702 J1.9792
G3 X11.5387 Y128.7884 I-2.25 J0.0
G3 Y124.8913 I1.125 J-1.9486
G3 X13.7339 Y124.8606 I1.125 J1.9486
G1 F300.0 Z-3.0
G3 F800.0 X14.9137 Y126.8398 I-1.0702 J1.9792
G3 X11.5387 Y128.7884 I-2.25 J0.0
G3 Y124.8913 I1.125 J-1.9486
G3 X13.7339 Y124.8606 I1.125 J1.9486
G0 Z3.0
G0 X12.7025 Y184.5902
G1 F300.0 Z-1.0
G3 F800.0 X14.9137 Y186.8398 I-0.0388 J2.2497
G3 X11.5387 Y188.7884 I-2.25 J0.0
G3 Y184.8913 I1.125 J-1.9486
G3 X12.7025 Y184.5902 I1.125 J1.9486
G1 F300.0 Z-2.0
G3 F800.0 X14.9137 Y186.8398 I-0.0388 J2.2497
G3 X11.5387 Y188.7884 I-2.25 J0.0
G3 Y184.8913 I1.125 J-1.9486
G3 X12.7025 Y184.5902 I1.125 J1.9486
G1 F300.0 Z-3.0
G3 F800.0 X14.9137 Y186.8398 I-0.0388 J2.2497
G3 X11.5387 Y188.7884 I-2.25 J0.0
G3 Y184.8913 I1.125 J-1.9486
G3 X12.7025 Y184.5902 I1.125 J1.9486
G0 Z3.0
G0 X12.6659 Y222.5898
G1 F300.0 Z-1.0
G3 F800.0 X14.9137 Y224.8398 I-0.0022 J2.25
G3 X11.5387 Y226.7884 I-2.25 J0.0
G3 Y222.8913 I1.125 J-1.9486
G3 X12.6659 Y222.5898 I1.125 J1.9486
G1 F300.0 Z-2.0
G3 F800.0 X14.9137 Y224.8398 I-0.0022 J2.25
G3 X11.5387 Y226.7884 I-2.25 J0.0
G3 Y222.8913 I1.125 J-1.9486
G3 X12.6659 Y222.5898 I1.125 J1.9486
G1 F300.0 Z-3.0
G3 F800.0 X14.9137 Y224.8398 I-0.0022 J2.25
G3 X11.5387 Y226.7884 I-2.25 J0.0
G3 Y222.8913 I1.125 J-1.9486
G3 X12.6659 Y222.5898 I1.125 J1.9486
G0 Z3.0
G0 X54.5068 Y219.0305
G1 F300.0 Z-1.0
G3 F800.0 X55.6237 Y216.8913 I2.2419 J-0.1907
G3 X58.9987 Y218.8398 I1.125 J1.9486
G3 X55.6237 Y220.7884 I-2.25 J0.0
G3 X54.5068 Y219.0305 I1.125 J-1.9486
G1 F300.0 Z-2.0
G3 F800.0 X55.6237 Y216.8913 I2.2419 J-0.1907
G3 X58.9987 Y218.8398 I1.125 J1.9486
G3 X55.6237 Y220.7884 I-2.25 J0.0
G3 X54.5068 Y219.0305 I1.125 J-1.9486
G1 F300.0 Z-3.0
G3 F800.0 X55.6237 Y216.8913 I2.2419 J-0.1907
G3 X58.9987 Y218.8398 I1.125 J1.9486
G3 X55.6237 Y220.7884 I-2.25 J0.0
G3 X54.5068 Y219.0305 I1.125 J-1.9486
G0 Z3.0
G0 X74.4988 Y218.8591
G1 F300.0 Z-1.0
G3 F800.0 X75.6237 Y216.8913 I2.2499 J-0.0193
G3 X78.9987 Y218.8398 I1.125 J1.9486
G3 X75.6237 Y220.7884 I-2.25 J0.0
G3 X74.4988 Y218.8591 I1.125 J-1.9486
G1 F300.0 Z-2.0
G3 F800.0 X75.6237 Y216.8913 I2.2499 J-0.0193
G3 X78.9987 Y218.8398 I1.125 J1.9486
G3 X75.6237 Y220.7884 I-2.25 J0.0
G3 X74.4988 Y218.8591 I1.125 J-1.9486
G1 F300.0 Z-3.0
G3 F800.0 X75.6237 Y216.8913 I2.2499 J-0.0193
G3 X78.9987 Y218.8398 I1.125 J1.9486
G3 X75.6237 Y220.7884 I-2.25 J0.0
G3 X74.4988 Y218.8591 I1.125 J-1.9486
G0 Z3.0
G0 X109.9185 Y156.794
G1 F300.0 Z-1.0
G3 F800.0 X109.9087 Y156.7884 I1.1152 J-1.9542
G3 Y152.8913 I1.125 J-1.9486
G3 X113.2837 Y154.8398 I1.125 J1.9486
G3 X109.9185 Y156.794 I-2.25 J0.0
G1 F300.0 Z-2.0
G3 F800.0 X109.9087 Y156.7884 I1.1152 J-1.9542
G3 Y152.8913 I1.125 J-1.9486
G3 X113.2837 Y154.8398 I1.125 J1.9486
G3 X109.9185 Y156.794 I-2.25 J0.0
G1 F300.0 Z-3.0
G3 F800.0 X109.9087 Y156.7884 I1.1152 J-1.9542
G3 Y152.8913 I1.125 J-1.9486
G3 X113.2837 Y154.8398 I1.125 J1.9486
G3 X109.9185 Y156.794 I-2.25 J0.0
G0 Z3.0
G0 X130.8942 Y136.2061
G1 F300.0 Z-1.0
G3 F800.0 X131.375 Y132.6814 I1.6058 J-1.5761
G3 X134.75 Y134.63 I1.125 J1.9486
G3 X131.375 Y136.5786 I-2.25 J0.0
G3 X130.8942 Y136.2061 I1.125 J-1.9486
G1 F300.0 Z-2.0
G3 F800.0 X131.375 Y132.6814 I1.6058 J-1.5761
G3 X134.75 Y134.63 I1.125 J1.9486
G3 X131.375 Y136.5786 I-2.25 J0.0
G3 X130.8942 Y136.2061 I1.125 J-1.9486
G1 F300.0 Z-3.0
G3 F800.0 X131.375 Y132.6814 I1.6058 J-1.5761
G3 X134.75 Y134.63 I1.125 J1.9486
G3 X131.375 Y136.5786 I-2.25 J0.0
G3 X130.8942 Y136.2061 I1.125 J-1.9486
G0 Z3.0
G0 X150.1557 Y140.9735
G1 F300.0 Z-1.0
G3 F800.0 X151.05 Y139.7846 I1.8443 J0.4565
G3 X153.9 Y141.43 I0.95 J1.6454
G3 X151.05 Y143.0754 I-1.9 J0.0
G3 X150.1557 Y140.9735 I0.95 J-1.6454
G1 F300.0 Z-2.0
G3 F800.0 X151.05 Y139.7846 I1.8443 J0.4565
G3 X153.9 Y141.43 I0.95 J1.6454
G3 X151.05 Y143.0754 I-1.9 J0.0
G3 X150.1557 Y140.9735 I0.95 J-1.6454
G1 F300.0 Z-3.0
G3 F800.0 X151.05 Y139.7846 I1.8443 J0.4565
G3 X153.9 Y141.43 I0.95 J1.6454
G3 X151.05 Y143.0754 I-1.9 J0.0
G3 X150.1557 Y140.9735 I0.95 J-1.6454
G0 Z3.0
G0 X151.7761 Y127.3168
G1 F300.0 Z-1.0
G3 F800.0 X151.05 Y127.0754 I0.2239 J-1.8868
G3 Y123.7846 I0.95 J-1.6454
G3 X153.9 Y125.43 I0.95 J1.6454
G3 X151.7761 Y127.3168 I-1.9 J0.0
G1 F300.0 Z-2.0
G3 F800.0 X151.05 Y127.0754 I0.2239 J-1.8868
G3 Y123.7846 I0.95 J-1.6454
G3 X153.9 Y125.43 I0.95 J1.6454
G3 X151.7761 Y127.3168 I-1.9 J0.0
G1 F300.0 Z-3.0
G3 F800.0 X151.05 Y127.0754 I0.2239 J-1.8868
G3 Y123.7846 I0.95 J-1.6454
G3 X153.9 Y125.43 I0.95 J1.6454
G3 X151.7761 Y127.3168 I-1.9 J0.0
G0 Z3.0
G0 X166.1127 Y125.6495
G1 F300.0 Z-1.0
G3 F800.0 X167.05 Y123.7846 I1.8873 J-0.2195
G3 X169.9 Y125.43 I0.95 J1.6454
G3 X167.05 Y127.0754 I-1.9 J0.0
G3 X166.1127 Y125.6495 I0.95 J-1.6454
G1 F300.0 Z-2.0
G3 F800.0 X167.05 Y123.7846 I1.8873 J-0.2195
G3 X169.9 Y125.43 I0.95 J1.6454
G3 X167.05 Y127.0754 I-1.9 J0.0
G3 X166.1127 Y125.6495 I0.95 J-1.6454
G1 F300.0 Z-3.0
G3 F800.0 X167.05 Y123.7846 I1.8873 J-0.2195
G3 X169.9 Y125.43 I0.95 J1.6454
G3 X167.05 Y127.0754 I-1.9 J0.0
G3 X166.1127 Y125.6495 I0.95 J-1.6454
G0 Z3.0
G0 X167.7744 Y139.5434
G1 F300.0 Z-1.0
G3 F800.0 X169.9 Y141.43 I0.2256 J1.8866
G3 X167.05 Y143.0754 I-1.9 J0.0
G3 Y139.7846 I0.95 J-1.6454
G3 X167.7744 Y139.5434 I0.95 J1.6454
G1 F300.0 Z-2.0
G3 F800.0 X169.9 Y141.43 I0.2256 J1.8866
G3 X167.05 Y143.0754 I-1.9 J0.0
G3 Y139.7846 I0.95 J-1.6454
G3 X167.7744 Y139.5434 I0.95 J1.6454
G1 F300.0 Z-3.0
G3 F800.0 X169.9 Y141.43 I0.2256 J1.8866
G3 X167.05 Y143.0754 I-1.9 J0.0
G3 Y139.7846 I0.95 J-1.6454
G3 X167.7744 Y139.5434 I0.95 J1.6454
G0 Z3.0
G0 X185.3167 Y135.1738
G1 F300.0 Z-1.0
G3 F800.0 X186.375 Y132.6814 I2.1833 J-0.5438
G3 X189.75 Y134.63 I1.125 J1.9486
G3 X186.375 Y136.5786 I-2.25 J0.0
G3 X185.3167 Y135.1738 I1.125 J-1.9486
G1 F300.0 Z-2.0
G3 F800.0 X186.375 Y132.6814 I2.1833 J-0.5438
G3 X189.75 Y134.63 I1.125 J1.9486
G3 X186.375 Y136.5786 I-2.25 J0.0
G3 X185.3167 Y135.1738 I1.125 J-1.9486
G1 F300.0 Z-3.0
G3 F800.0 X186.375 Y132.6814 I2.1833 J-0.5438
G3 X189.75 Y134.63 I1.125 J1.9486
G3 X186.375 Y136.5786 I-2.25 J0.0
G3 X185.3167 Y135.1738 I1.125 J-1.9486
G0 Z3.0
G0 X168.1875 Y307.9393
G1 F300.0 Z-1.0
G3 F800.0 X169.9 Y309.83 I-0.1875 J1.8907
G3 X167.05 Y311.4754 I-1.9 J0.0
G3 Y308.1846 I0.95 J-1.6454
G3 X168.1875 Y307.9393 I0.95 J1.6454
G1 F300.0 Z-2.0
G3 F800.0 X169.9 Y309.83 I-0.1875 J1.8907
G3 X167.05 Y311.4754 I-1.9 J0.0
G3 Y308.1846 I0.95 J-1.6454
G3 X168.1875 Y307.9393 I0.95 J1.6454
G1 F300.0 Z-3.0
G3 F800.0 X169.9 Y309.83 I-0.1875 J1.8907
G3 X167.05 Y311.4754 I-1.9 J0.0
G3 Y308.1846 I0.95 J-1.6454
G3 X168.1875 Y307.9393 I0.95 J1.6454
G0 Z3.0
G0 X153.8872 Y309.6096
G1 F300.0 Z-1.0
G3 F800.0 X153.9 Y309.83 I-1.8872 J0.2204
G3 X151.05 Y311.4754 I-1.9 J0.0
G3 Y308.1846 I0.95 J-1.6454
G3 X153.8872 Y309.6096 I0.95 J1.6454
G1 F300.0 Z-2.0
G3 F800.0 X153.9 Y309.83 I-1.8872 J0.2204
G3 X151.05 Y311.4754 I-1.9 J0.0
G3 Y308.1846 I0.95 J-1.6454
G3 X153.8872 Y309.6096 I0.95 J1.6454
G1 F300.0 Z-3.0
G3 F800.0 X153.9 Y309.83 I-1.8872 J0.2204
G3 X151.05 Y311.4754 I-1.9 J0.0
G3 Y308.1846 I0.95 J-1.6454
G3 X153.8872 Y309.6096 I0.95 J1.6454
G0 Z3.0
G0 X152.2196 Y323.9427
G1 F300.0 Z-1.0
G3 F800.0 X153.9 Y325.83 I-0.2196 J1.8873
G3 X151.05 Y327.4754 I-1.9 J0.0
G3 Y324.1846 I0.95 J-1.6454
G3 X152.2196 Y323.9427 I0.95 J1.6454
G1 F300.0 Z-2.0
G3 F800.0 X153.9 Y325.83 I-0.2196 J1.8873
G3 X151.05 Y327.4754 I-1.9 J0.0
G3 Y324.1846 I0.95 J-1.6454
G3 X152.2196 Y323.9427 I0.95 J1.6454
G1 F300.0 Z-3.0
G3 F800.0 X153.9 Y325.83 I-0.2196 J1.8873
G3 X151.05 Y327.4754 I-1.9 J0.0
G3 Y324.1846 I0.95 J-1.6454
G3 X152.2196 Y323.9427 I0.95 J1.6454
G0 Z3.0
G0 X166.1134 Y325.6044
G1 F300.0 Z-1.0
G3 F800.0 X167.05 Y324.1846 I1.8866 J0.2256
G3 X169.9 Y325.83 I0.95 J1.6454
G3 X167.05 Y327.4754 I-1.9 J0.0
G3 X166.1134 Y325.6044 I0.95 J-1.6454
G1 F300.0 Z-2.0
G3 F800.0 X167.05 Y324.1846 I1.8866 J0.2256
G3 X169.9 Y325.83 I0.95 J1.6454
G3 X167.05 Y327.4754 I-1.9 J0.0
G3 X166.1134 Y325.6044 I0.95 J-1.6454
G1 F300.0 Z-3.0
G3 F800.0 X167.05 Y324.1846 I1.8866 J0.2256
G3 X169.9 Y325.83 I0.95 J1.6454
G3 X167.05 Y327.4754 I-1.9 J0.0
G3 X166.1134 Y325.6044 I0.95 J-1.6454
G0 Z3.0
G0 X185.4253 Y317.5006
G1 F300.0 Z-1.0
G3 F800.0 X186.375 Y314.6814 I2.0747 J-0.8706
G3 X189.75 Y316.63 I1.125 J1.9486
G3 X186.375 Y318.5786 I-2.25 J0.0
G3 X185.4253 Y317.5006 I1.125 J-1.9486
G1 F300.0 Z-2.0
G3 F800.0 X186.375 Y314.6814 I2.0747 J-0.8706
G3 X189.75 Y316.63 I1.125 J1.9486
G3 X186.375 Y318.5786 I-2.25 J0.0
G3 X185.4253 Y317.5006 I1.125 J-1.9486
G1 F300.0 Z-3.0
G3 F800.0 X186.375 Y314.6814 I2.0747 J-0.8706
G3 X189.75 Y316.63 I1.125 J1.9486
G3 X186.375 Y318.5786 I-2.25 J0.0
G3 X185.4253 Y317.5006 I1.125 J-1.9486
G0 Z3.0
G0 X134.7497 Y316.667
G1 F300.0 Z-1.0
G3 F800.0 X131.375 Y318.5786 I-2.2497 J-0.037
G3 Y314.6814 I1.125 J-1.9486
G3 X134.75 Y316.63 I1.125 J1.9486
G3 X134.7497 Y316.667 I-2.25 J0.0
G1 F300.0 Z-2.0
G3 F800.0 X131.375 Y318.5786 I-2.2497 J-0.037
G3 Y314.6814 I1.125 J-1.9486
G3 X134.75 Y316.63 I1.125 J1.9486
G3 X134.7497 Y316.667 I-2.25 J0.0
G1 F300.0 Z-3.0
G3 F800.0 X131.375 Y318.5786 I-2.2497 J-0.037
G3 Y314.6814 I1.125 J-1.9486
G3 X134.75 Y316.63 I1.125 J1.9486
G3 X134.7497 Y316.667 I-2.25 J0.0
G0 Z3.0
G0 X106.7729 Y327.0565
G1 F300.0 Z-1.0
G3 F800.0 X106.9137 Y327.8398 I-2.1093 J0.7833
G3 X103.5387 Y329.7884 I-2.25 J0.0
G3 Y325.8913 I1.125 J-1.9486
G3 X106.7729 Y327.0565 I1.125 J1.9486
G1 F300.0 Z-2.0
G3 F800.0 X106.9137 Y327.8398 I-2.1093 J0.7833
G3 X103.5387 Y329.7884 I-2.25 J0.0
G3 Y325.8913 I1.125 J-1.9486
G3 X106.7729 Y327.0565 I1.125 J1.9486
G1 F300.0 Z-3.0
G3 F800.0 X106.9137 Y327.8398 I-2.1093 J0.7833
G3 X103.5387 Y329.7884 I-2.25 J0.0
G3 Y325.8913 I1.125 J-1.9486
G3 X106.7729 Y327.0565 I1.125 J1.9486
G0 Z3.0
G0 X34.7936 Y327.8161
G1 F300.0 Z-1.0
G3 F800.0 X34.7937 Y327.8398 I-2.2499 J0.0237
G3 X31.4187 Y329.7884 I-2.25 J0.0
G3 Y325.8913 I1.125 J-1.9486
G3 X34.7936 Y327.8161 I1.125 J1.9486
G1 F300.0 Z-2.0
G3 F800.0 X34.7937 Y327.8398 I-2.2499 J0.0237
G3 X31.4187 Y329.7884 I-2.25 J0.0
G3 Y325.8913 I1.125 J-1.9486
G3 X34.7936 Y327.8161 I1.125 J1.9486
G1 F300.0 Z-3.0
G3 F800.0 X34.7937 Y327.8398 I-2.2499 J0.0237
G3 X31.4187 Y329.7884 I-2.25 J0.0
G3 Y325.8913 I1.125 J-1.9486
G3 X34.7936 Y327.8161 I1.125 J1.9486
G0 Z3.0
G0 X13.6938 Y286.8402
G1 F300.0 Z-1.0
G3 F800.0 X11.5387 Y286.7884 I-1.0301 J-2.0004
G3 Y282.8913 I1.125 J-1.9486
G3 X14.9137 Y284.8398 I1.125 J1.9486
G3 X13.6938 Y286.8402 I-2.25 J0.0
G1 F300.0 Z-2.0
G3 F800.0 X11.5387 Y286.7884 I-1.0301 J-2.0004
G3 Y282.8913 I1.125 J-1.9486
G3 X14.9137 Y284.8398 I1.125 J1.9486
G3 X13.6938 Y286.8402 I-2.25 J0.0
G1 F300.0 Z-3.0
G3 F800.0 X11.5387 Y286.7884 I-1.0301 J-2.0004
G3 Y282.8913 I1.125 J-1.9486
G3 X14.9137 Y284.8398 I1.125 J1.9486
G3 X13.6938 Y286.8402 I-2.25 J0.0
( Poche1 )
S1000
G0 Z3.0
G0 X186.35 Y12.35
G1 F300.0 Z-1.0
G1 F800.0 Y52.65
G1 X186.65
G1 Y12.35
G1 X186.35
G1 F300.0 X185.75
G1 F800.0 Y53.25
G1 X187.25
G1 Y11.75
G1 X185.75
G1 Y12.35
G1 F300.0 X185.15
G1 F800.0 Y53.85
G1 X187.85
G1 Y11.15
G1 X185.15
G1 Y12.35
G1 F300.0 X184.55
G1 F800.0 Y54.45
G1 X188.45
G1 Y10.55
G1 X184.55
G1 Y12.35
G1 F300.0 X183.95
G1 F800.0 Y55.05
G1 X189.05
G1 Y9.95
G1 X183.95
G1 Y12.35
G1 F300.0 X183.35
G1 F800.0 Y55.65
G1 X189.65
G1 Y9.35
G1 X183.35
G1 Y12.35
G1 F300.0 X182.75
G1 F800.0 Y56.25
G1 X190.25
G1 Y8.75
G1 X182.75
G1 Y12.35
G1 F300.0 X182.15
G1 F800.0 Y56.85
G1 X190.85
G1 Y8.15
G1 X182.15
G1 Y12.35
G1 F300.0 X181.55
G1 F800.0 Y57.45
G1 X191.45
G1 Y7.55
G1 X181.55
G1 Y12.35
G1 F300.0 X180.95
G1 F800.0 Y58.05
G1 X192.05
G1 Y6.95
G1 X180.95
G1 Y12.35
G1 F300.0 X180.35
G1 F800.0 Y58.65
G1 X192.65
G1 Y6.35
G1 X180.35
G1 Y12.35
G1 F300.0 X179.75
G1 F800.0 Y59.25
G1 X193.25
G1 Y5.75
G1 X179.75
G1 Y12.35
G0 Z3.0
G0 X186.35
G1 F300.0 Z-2.0
G1 F800.0 Y52.65
G1 X186.65
G1 Y12.35
G1 X186.35
G1 F300.0 X185.75
G1 F800.0 Y53.25
G1 X187.25
G1 Y11.75
G1 X185.75
G1 Y12.35
G1 F300.0 X185.15
G1 F800.0 Y53.85
G1 X187.85
G1 Y11.15
G1 X185.15
G1 Y12.35
G1 F300.0 X184.55
G1 F800.0 Y54.45
G1 X188.45
G1 Y10.55
G1 X184.55
G1 Y12.35
G1 F300.0 X183.95
G1 F800.0 Y55.05
G1 X189.05
G1 Y9.95
G1 X183.95
G1 Y12.35
G1 F300.0 X183.35
G1 F800.0 Y55.65
G1 X189.65
G1 Y9.35
G1 X183.35
G1 Y12.35
G1 F300.0 X182.75
G1 F800.0 Y56.25
G1 X190.25
G1 Y8.75
G1 X182.75
G1 Y12.35
G1 F300.0 X182.15
G1 F800.0 Y56.85
G1 X190.85
G1 Y8.15
G1 X182.15
G1 Y12.35
G1 F300.0 X181.55
G1 F800.0 Y57.45
G1 X191.45
G1 Y7.55
G1 X181.55
G1 Y12.35
G1 F300.0 X180.95
G1 F800.0 Y58.05
G1 X192.05
G1 Y6.95
G1 X180.95
G1 Y12.35
G1 F300.0 X180.35
G1 F800.0 Y58.65
G1 X192.65
G1 Y6.35
G1 X180.35
G1 Y12.35
G1 F300.0 X179.75
G1 F800.0 Y59.25
G1 X193.25
G1 Y5.75
G1 X179.75
G1 Y12.35
G0 Z3.0
G0 X186.35
G1 F300.0 Z-3.0
G1 F800.0 Y52.65
G1 X186.65
G1 Y12.35
G1 X186.35
G1 F300.0 X185.75
G1 F800.0 Y53.25
G1 X187.25
G1 Y11.75
G1 X185.75
G1 Y12.35
G1 F300.0 X185.15
G1 F800.0 Y53.85
G1 X187.85
G1 Y11.15
G1 X185.15
G1 Y12.35
G1 F300.0 X184.55
G1 F800.0 Y54.45
G1 X188.45
G1 Y10.55
G1 X184.55
G1 Y12.35
G1 F300.0 X183.95
G1 F800.0 Y55.05
G1 X189.05
G1 Y9.95
G1 X183.95
G1 Y12.35
G1 F300.0 X183.35
G1 F800.0 Y55.65
G1 X189.65
G1 Y9.35
G1 X183.35
G1 Y12.35
G1 F300.0 X182.75
G1 F800.0 Y56.25
G1 X190.25
G1 Y8.75
G1 X182.75
G1 Y12.35
G1 F300.0 X182.15
G1 F800.0 Y56.85
G1 X190.85
G1 Y8.15
G1 X182.15
G1 Y12.35
G1 F300.0 X181.55
G1 F800.0 Y57.45
G1 X191.45
G1 Y7.55
G1 X181.55
G1 Y12.35
G1 F300.0 X180.95
G1 F800.0 Y58.05
G1 X192.05
G1 Y6.95
G1 X180.95
G1 Y12.35
G1 F300.0 X180.35
G1 F800.0 Y58.65
G1 X192.65
G1 Y6.35
G1 X180.35
G1 Y12.35
G1 F300.0 X179.75
G1 F800.0 Y59.25
G1 X193.25
G1 Y5.75
G1 X179.75
G1 Y12.35
G0 Z3.0
G0 X29.65
G1 F300.0 Z-1.0
G1 F800.0 X29.35
G1 Y52.65
G1 X29.65
G1 Y12.35
G1 F300.0 X30.25
G1 F800.0 Y11.75
G1 X28.75
G1 Y53.25
G1 X30.25
G1 Y12.35
G1 F300.0 X30.85
G1 F800.0 Y11.15
G1 X28.15
G1 Y53.85
G1 X30.85
G1 Y12.35
G1 F300.0 X31.45
G1 F800.0 Y10.55
G1 X27.55
G1 Y54.45
G1 X31.45
G1 Y12.35
G1 F300.0 X32.05
G1 F800.0 Y9.95
G1 X26.95
G1 Y55.05
G1 X32.05
G1 Y12.35
G1 F300.0 X32.65
G1 F800.0 Y9.35
G1 X26.35
G1 Y55.65
G1 X32.65
G1 Y12.35
G1 F300.0 X33.25
G1 F800.0 Y8.75
G1 X25.75
G1 Y56.25
G1 X33.25
G1 Y12.35
G1 F300.0 X33.85
G1 F800.0 Y8.15
G1 X25.15
G1 Y56.85
G1 X33.85
G1 Y12.35
G1 F300.0 X34.45
G1 F800.0 Y7.55
G1 X24.55
G1 Y57.45
G1 X34.45
G1 Y12.35
G1 F300.0 X35.05
G1 F800.0 Y6.95
G1 X23.95
G1 Y58.05
G1 X35.05
G1 Y12.35
G1 F300.0 X35.65
G1 F800.0 Y6.35
G1 X23.35
G1 Y58.65
G1 X35.65
G1 Y12.35
G1 F300.0 X36.25
G1 F800.0 Y5.75
G1 X22.75
G1 Y59.25
G1 X36.25
G1 Y12.35
G0 Z3.0
G0 X29.65
G1 F300.0 Z-2.0
G1 F800.0 X29.35
G1 Y52.65
G1 X29.65
G1 Y12.35
G1 F300.0 Y11.75
G1 F800.0 X28.75
G1 Y53.25
G1 X30.25
G1 Y11.75
G1 X29.65
G1 F300.0 Y11.15
G1 F800.0 X28.15
G1 Y53.85
G1 X30.85
G1 Y11.15
G1 X29.65
G1 F300.0 Y10.55
G1 F800.0 X27.55
G1 Y54.45
G1 X31.45
G1 Y10.55
G1 X29.65
G1 F300.0 Y9.95
G1 F800.0 X26.95
G1 Y55.05
G1 X32.05
G1 Y9.95
G1 X29.65
G1 F300.0 Y9.35
G1 F800.0 X26.35
G1 Y55.65
G1 X32.65
G1 Y9.35
G1 X29.65
G1 F300.0 Y8.75
G1 F800.0 X25.75
G1 Y56.25
G1 X33.25
G1 Y8.75
G1 X29.65
G1 F300.0 Y8.15
G1 F800.0 X25.15
G1 Y56.85
G1 X33.85
G1 Y8.15
G1 X29.65
G1 F300.0 Y7.55
G1 F800.0 X24.55
G1 Y57.45
G1 X34.45
G1 Y7.55
G1 X29.65
G1 F300.0 Y6.95
G1 F800.0 X23.95
G1 Y58.05
G1 X35.05
G1 Y6.95
G1 X29.65
G1 F300.0 Y6.35
G1 F800.0 X23.35
G1 Y58.65
G1 X35.65
G1 Y6.35
G1 X29.65
G1 F300.0 Y5.75
G1 F800.0 X22.75
G1 Y59.25
G1 X36.25
G1 Y5.75
G1 X29.65
G0 Z3.0
G0 Y12.35
G1 F300.0 Z-3.0
G1 F800.0 X29.35
G1 Y52.65
G1 X29.65
G1 Y12.35
G1 F300.0 Y11.75
G1 F800.0 X28.75
G1 Y53.25
G1 X30.25
G1 Y11.75
G1 X29.65
G1 F300.0 Y11.15
G1 F800.0 X28.15
G1 Y53.85
G1 X30.85
G1 Y11.15
G1 X29.65
G1 F300.0 Y10.55
G1 F800.0 X27.55
G1 Y54.45
G1 X31.45
G1 Y10.55
G1 X29.65
G1 F300.0 Y9.95
G1 F800.0 X26.95
G1 Y55.05
G1 X32.05
G1 Y9.95
G1 X29.65
G1 F300.0 Y9.35
G1 F800.0 X26.35
G1 Y55.65
G1 X32.65
G1 Y9.35
G1 X29.65
G1 F300.0 Y8.75
G1 F800.0 X25.75
G1 Y56.25
G1 X33.25
G1 Y8.75
G1 X29.65
G1 F300.0 Y8.15
G1 F800.0 X25.15
G1 Y56.85
G1 X33.85
G1 Y8.15
G1 X29.65
G1 F300.0 Y7.55
G1 F800.0 X24.55
G1 Y57.45
G1 X34.45
G1 Y7.55
G1 X29.65
G1 F300.0 Y6.95
G1 F800.0 X23.95
G1 Y58.05
G1 X35.05
G1 Y6.95
G1 X29.65
G1 F300.0 Y6.35
G1 F800.0 X23.35
G1 Y58.65
G1 X35.65
G1 Y6.35
G1 X29.65
G1 F300.0 Y5.75
G1 F800.0 X22.75
G1 Y59.25
G1 X36.25
G1 Y5.75
G1 X29.65
( Contour3 )
S1000
G0 Z3.0
G0 X187.875 Y111.8705
G1 F300.0 Z-1.0
G1 F800.0 Y112.0
G3 X187.125 Y112.75 I-0.75 J0.0
G1 X174.0
G3 X173.25 Y112.0 I0.0 J-0.75
G1 Y69.0
G3 X174.0 Y68.25 I0.75 J0.0
G1 X187.125
G3 X187.875 Y69.0 I0.0 J0.75
G1 Y69.718
G1 X190.7565 Y70.7668
G3 X191.25 Y71.4716 I-0.2565 J0.7048
G1 Y72.4178
G3 X190.7565 Y73.1226 I-0.75 J0.0
G1 X187.875 Y74.1714
G1 Y74.4304
G1 X190.7565 Y75.4792
G3 X191.25 Y76.1839 I-0.2565 J0.7048
G1 Y77.1302
G3 X190.7565 Y77.835 I-0.75 J0.0
G1 X187.875 Y78.8838
G1 Y79.1428
G1 X190.7565 Y80.1916
G3 X191.25 Y80.8963 I-0.2565 J0.7048
G1 Y81.8426
G3 X190.7565 Y82.5474 I-0.75 J0.0
G1 X187.875 Y83.5962
G1 Y83.8552
G1 X190.7565 Y84.9039
G3 X191.25 Y85.6087 I-0.2565 J0.7048
G1 Y86.555
G3 X190.7565 Y87.2598 I-0.75 J0.0
G1 X187.875 Y88.3086
G1 Y88.5676
G1 X190.7565 Y89.6163
G3 X191.25 Y90.3211 I-0.2565 J0.7048
G1 Y91.2674
G3 X190.7565 Y91.9722 I-0.75 J0.0
G1 X187.875 Y93.0209
G1 Y93.2799
G1 X190.7565 Y94.3287
G3 X191.25 Y95.0335 I-0.2565 J0.7048
G1 Y95.9798
G3 X190.7565 Y96.6845 I-0.75 J0.0
G1 X187.875 Y97.7333
G1 Y97.9923
G1 X190.7565 Y99.0411
G3 X191.25 Y99.7459 I-0.2565 J0.7048
G1 Y100.6922
G3 X190.7565 Y101.3969 I-0.75 J0.0
G1 X187.875 Y102.4457
G1 Y102.7047
G1 X190.7565 Y103.7535
G3 X191.25 Y104.4583 I-0.2565 J0.7048
G1 Y105.4046
G3 X190.7565 Y106.1093 I-0.75 J0.0
G1 X187.875 Y107.1581
G1 Y107.4171
G1 X190.7565 Y108.4659
G3 X191.25 Y109.1707 I-0.2565 J0.7048
G1 Y110.1169
G3 X190.7565 Y110.8217 I-0.75 J0.0
G1 X187.875 Y111.8705
G1 F300.0 Z-2.0
G1 F800.0 Y112.0
G3 X187.125 Y112.75 I-0.75 J0.0
G1 X174.0
G3 X173.25 Y112.0 I0.0 J-0.75
G1 Y69.0
G3 X174.0 Y68.25 I0.75 J0.0
G1 X187.125
G3 X187.875 Y69.0 I0.0 J0.75
G1 Y69.718
G1 X190.7565 Y70.7668
G3 X191.25 Y71.4716 I-0.2565 J0.7048
G1 Y72.4178
G3 X190.7565 Y73.1226 I-0.75 J0.0
G1 X187.875 Y74.1714
G1 Y74.4304
G1 X190.7565 Y75.4792
G3 X191.25 Y76.1839 I-0.2565 J0.7048
G1 Y77.1302
G3 X190.7565 Y77.835 I-0.75 J0.0
G1 X187.875 Y78.8838
G1 Y79.1428
G1 X190.7565 Y80.1916
G3 X191.25 Y80.8963 I-0.2565 J0.7048
G1 Y81.8426
G3 X190.7565 Y82.5474 I-0.75 J0.0
G1 X187.875 Y83.5962
G1 Y83.8552
G1 X190.7565 Y84.9039
G3 X191.25 Y85.6087 I-0.2565 J0.7048
G1 Y86.555
G3 X190.7565 Y87.2598 I-0.75 J0.0
G1 X187.875 Y88.3086
G1 Y88.5676
G1 X190.7565 Y89.6163
G3 X191.25 Y90.3211 I-0.2565 J0.7048
G1 Y91.2674
G3 X190.7565 Y91.9722 I-0.75 J0.0
G1 X187.875 Y93.0209
G1 Y93.2799
G1 X190.7565 Y94.3287
G3 X191.25 Y95.0335 I-0.2565 J0.7048
G1 Y95.9798
G3 X190.7565 Y96.6845 I-0.75 J0.0
G1 X187.875 Y97.7333
G1 Y97.9923
G1 X190.7565 Y99.0411
G3 X191.25 Y99.7459 I-0.2565 J0.7048
G1 Y100.6922
G3 X190.7565 Y101.3969 I-0.75 J0.0
G1 X187.875 Y102.4457
G1 Y102.7047
G1 X190.7565 Y103.7535
G3 X191.25 Y104.4583 I-0.2565 J0.7048
G1 Y105.4046
G3 X190.7565 Y106.1093 I-0.75 J0.0
G1 X187.875 Y107.1581
G1 Y107.4171
G1 X190.7565 Y108.4659
G3 X191.25 Y109.1707 I-0.2565 J0.7048
G1 Y110.1169
G3 X190.7565 Y110.8217 I-0.75 J0.0
G1 X187.875 Y111.8705
G1 F300.0 Z-3.0
G1 F800.0 Y112.0
G3 X187.125 Y112.75 I-0.75 J0.0
G1 X184.75
G0 Z-2.0
G1 X177.25
G1 F300.0 Z-3.0
G1 F800.0 X174.0
G3 X173.25 Y112.0 I0.0 J-0.75
G1 Y106.75
G0 Z-2.0
G1 Y99.25
G1 F300.0 Z-3.0
G1 F800.0 Y86.75
G0 Z-2.0
G1 Y79.25
G1 F300.0 Z-3.0
G1 F800.0 Y69.0
G3 X173.4703 Y68.469 I0.75 J0.0
G0 Z-2.0
G3 X174.0 Y68.25 I0.5297 J0.531
G1 X180.9703
G1 F300.0 Z-3.0
G1 F800.0 X187.125
G3 X187.875 Y69.0 I0.0 J0.75
G1 Y69.718
G1 X190.7565 Y70.7668
G3 X191.25 Y71.4716 I-0.2565 J0.7048
G1 Y72.4178
G3 X190.7565 Y73.1226 I-0.75 J0.0
G1 X187.875 Y74.1714
G1 Y74.4304
G1 X190.7565 Y75.4792
G3 X191.25 Y76.1839 I-0.2565 J0.7048
G1 Y77.1302
G3 X190.7565 Y77.835 I-0.75 J0.0
G1 X187.875 Y78.8838
G1 Y79.1428
G1 X190.7565 Y80.1916
G3 X191.25 Y80.8963 I-0.2565 J0.7048
G1 Y81.8426
G3 X190.7565 Y82.5474 I-0.75 J0.0
G1 X187.875 Y83.5962
G1 Y83.8552
G1 X190.7565 Y84.9039
G3 X191.25 Y85.6087 I-0.2565 J0.7048
G1 Y86.555
G3 X190.7565 Y87.2598 I-0.75 J0.0
G1 X187.875 Y88.3086
G1 Y88.5676
G1 X190.7565 Y89.6163
G3 X191.25 Y90.3211 I-0.2565 J0.7048
G1 Y91.2674
G3 X190.7565 Y91.9722 I-0.75 J0.0
G1 X187.875 Y93.0209
G1 Y93.2799
G1 X190.7565 Y94.3287
G3 X191.25 Y95.0335 I-0.2565 J0.7048
G1 Y95.9798
G3 X190.7565 Y96.6845 I-0.75 J0.0
G1 X187.875 Y97.7333
G1 Y97.9923
G1 X190.7565 Y99.0411
G3 X191.25 Y99.7459 I-0.2565 J0.7048
G1 Y100.6922
G3 X190.7565 Y101.3969 I-0.75 J0.0
G1 X187.875 Y102.4457
G1 Y102.7047
G1 X190.7565 Y103.7535
G3 X191.25 Y104.4583 I-0.2565 J0.7048
G1 Y105.4046
G3 X190.7565 Y106.1093 I-0.75 J0.0
G1 X187.875 Y107.1581
G1 Y107.4171
G1 X190.7565 Y108.4659
G3 X191.25 Y109.1707 I-0.2565 J0.7048
G1 Y110.1169
G3 X190.7565 Y110.8217 I-0.75 J0.0
G1 X187.875 Y111.8705
G1 F300.0 Z-4.0
G1 F800.0 Y112.0
G3 X187.125 Y112.75 I-0.75 J0.0
G1 X184.75
G0 Z-2.0
G1 X177.25
G1 F300.0 Z-4.0
G1 F800.0 X174.0
G3 X173.25 Y112.0 I0.0 J-0.75
G1 Y106.75
G0 Z-2.0
G1 Y99.25
G1 F300.0 Z-4.0
G1 F800.0 Y86.75
G0 Z-2.0
G1 Y79.25
G1 F300.0 Z-4.0
G1 F800.0 Y69.0
G3 X173.4703 Y68.469 I0.75 J0.0
G0 Z-2.0
G3 X174.0 Y68.25 I0.5297 J0.531
G1 X180.9703
G1 F300.0 Z-4.0
G1 F800.0 X187.125
G3 X187.875 Y69.0 I0.0 J0.75
G1 Y69.718
G1 X190.7565 Y70.7668
G3 X191.25 Y71.4716 I-0.2565 J0.7048
G1 Y72.4178
G3 X190.7565 Y73.1226 I-0.75 J0.0
G1 X187.875 Y74.1714
G1 Y74.4304
G1 X190.7565 Y75.4792
G3 X191.25 Y76.1839 I-0.2565 J0.7048
G1 Y77.1302
G3 X190.7565 Y77.835 I-0.75 J0.0
G1 X187.875 Y78.8838
G1 Y79.1428
G1 X190.7565 Y80.1916
G3 X191.25 Y80.8963 I-0.2565 J0.7048
G1 Y81.8426
G3 X190.7565 Y82.5474 I-0.75 J0.0
G1 X187.875 Y83.5962
G1 Y83.8552
G1 X190.7565 Y84.9039
G3 X191.25 Y85.6087 I-0.2565 J0.7048
G1 Y86.555
G3 X190.7565 Y87.2598 I-0.75 J0.0
G1 X187.875 Y88.3086
G1 Y88.5676
G1 X190.7565 Y89.6163
G3 X191.25 Y90.3211 I-0.2565 J0.7048
G1 Y91.2674
G3 X190.7565 Y91.9722 I-0.75 J0.0
G1 X187.875 Y93.0209
G1 Y93.2799
G1 X190.7565 Y94.3287
G3 X191.25 Y95.0335 I-0.2565 J0.7048
G1 Y95.9798
G3 X190.7565 Y96.6845 I-0.75 J0.0
G1 X187.875 Y97.7333
G1 Y97.9923
G1 X190.7565 Y99.0411
G3 X191.25 Y99.7459 I-0.2565 J0.7048
G1 Y100.6922
G3 X190.7565 Y101.3969 I-0.75 J0.0
G1 X187.875 Y102.4457
G1 Y102.7047
G1 X190.7565 Y103.7535
G3 X191.25 Y104.4583 I-0.2565 J0.7048
G1 Y105.4046
G3 X190.7565 Y106.1093 I-0.75 J0.0
G1 X187.875 Y107.1581
G1 Y107.4171
G1 X190.7565 Y108.4659
G3 X191.25 Y109.1707 I-0.2565 J0.7048
G1 Y110.1169
G3 X190.7565 Y110.8217 I-0.75 J0.0
G1 X187.875 Y111.8705
G1 F300.0 Z-5.0
G1 F800.0 Y112.0
G3 X187.125 Y112.75 I-0.75 J0.0
G1 X184.75
G0 Z-2.0
G1 X177.25
G1 F300.0 Z-5.0
G1 F800.0 X174.0
G3 X173.25 Y112.0 I0.0 J-0.75
G1 Y106.75
G0 Z-2.0
G1 Y99.25
G1 F300.0 Z-5.0
G1 F800.0 Y86.75
G0 Z-2.0
G1 Y79.25
G1 F300.0 Z-5.0
G1 F800.0 Y69.0
G3 X173.4703 Y68.469 I0.75 J0.0
G0 Z-2.0
G3 X174.0 Y68.25 I0.5297 J0.531
G1 X180.9703
G1 F300.0 Z-5.0
G1 F800.0 X187.125
G3 X187.875 Y69.0 I0.0 J0.75
G1 Y69.718
G1 X190.7565 Y70.7668
G3 X191.25 Y71.4716 I-0.2565 J0.7048
G1 Y72.4178
G3 X190.7565 Y73.1226 I-0.75 J0.0
G1 X187.875 Y74.1714
G1 Y74.4304
G1 X190.7565 Y75.4792
G3 X191.25 Y76.1839 I-0.2565 J0.7048
G1 Y77.1302
G3 X190.7565 Y77.835 I-0.75 J0.0
G1 X187.875 Y78.8838
G1 Y79.1428
G1 X190.7565 Y80.1916
G3 X191.25 Y80.8963 I-0.2565 J0.7048
G1 Y81.8426
G3 X190.7565 Y82.5474 I-0.75 J0.0
G1 X187.875 Y83.5962
G1 Y83.8552
G1 X190.7565 Y84.9039
G3 X191.25 Y85.6087 I-0.2565 J0.7048
G1 Y86.555
G3 X190.7565 Y87.2598 I-0.75 J0.0
G1 X187.875 Y88.3086
G1 Y88.5676
G1 X190.7565 Y89.6163
G3 X191.25 Y90.3211 I-0.2565 J0.7048
G1 Y91.2674
G3 X190.7565 Y91.9722 I-0.75 J0.0
G1 X187.875 Y93.0209
G1 Y93.2799
G1 X190.7565 Y94.3287
G3 X191.25 Y95.0335 I-0.2565 J0.7048
G1 Y95.9798
G3 X190.7565 Y96.6845 I-0.75 J0.0
G1 X187.875 Y97.7333
G1 Y97.9923
G1 X190.7565 Y99.0411
G3 X191.25 Y99.7459 I-0.2565 J0.7048
G1 Y100.6922
G3 X190.7565 Y101.3969 I-0.75 J0.0
G1 X187.875 Y102.4457
G1 Y102.7047
G1 X190.7565 Y103.7535
G3 X191.25 Y104.4583 I-0.2565 J0.7048
G1 Y105.4046
G3 X190.7565 Y106.1093 I-0.75 J0.0
G1 X187.875 Y107.1581
G1 Y107.4171
G1 X190.7565 Y108.4659
G3 X191.25 Y109.1707 I-0.2565 J0.7048
G1 Y110.1169
G3 X190.7565 Y110.8217 I-0.75 J0.0
G1 X187.875 Y111.8705
G1 F300.0 Z-6.0
G1 F800.0 Y112.0
G3 X187.125 Y112.75 I-0.75 J0.0
G1 X184.75
G0 Z-2.0
G1 X177.25
G1 F300.0 Z-6.0
G1 F800.0 X174.0
G3 X173.25 Y112.0 I0.0 J-0.75
G1 Y106.75
G0 Z-2.0
G1 Y99.25
G1 F300.0 Z-6.0
G1 F800.0 Y86.75
G0 Z-2.0
G1 Y79.25
G1 F300.0 Z-6.0
G1 F800.0 Y69.0
G3 X173.4703 Y68.469 I0.75 J0.0
G0 Z-2.0
G3 X174.0 Y68.25 I0.5297 J0.531
G1 X180.9703
G1 F300.0 Z-6.0
G1 F800.0 X187.125
G3 X187.875 Y69.0 I0.0 J0.75
G1 Y69.718
G1 X190.7565 Y70.7668
G3 X191.25 Y71.4716 I-0.2565 J0.7048
G1 Y72.4178
G3 X190.7565 Y73.1226 I-0.75 J0.0
G1 X187.875 Y74.1714
G1 Y74.4304
G1 X190.7565 Y75.4792
G3 X191.25 Y76.1839 I-0.2565 J0.7048
G1 Y77.1302
G3 X190.7565 Y77.835 I-0.75 J0.0
G1 X187.875 Y78.8838
G1 Y79.1428
G1 X190.7565 Y80.1916
G3 X191.25 Y80.8963 I-0.2565 J0.7048
G1 Y81.8426
G3 X190.7565 Y82.5474 I-0.75 J0.0
G1 X187.875 Y83.5962
G1 Y83.8552
G1 X190.7565 Y84.9039
G3 X191.25 Y85.6087 I-0.2565 J0.7048
G1 Y86.555
G3 X190.7565 Y87.2598 I-0.75 J0.0
G1 X187.875 Y88.3086
G1 Y88.5676
G1 X190.7565 Y89.6163
G3 X191.25 Y90.3211 I-0.2565 J0.7048
G1 Y91.2674
G3 X190.7565 Y91.9722 I-0.75 J0.0
G1 X187.875 Y93.0209
G1 Y93.2799
G1 X190.7565 Y94.3287
G3 X191.25 Y95.0335 I-0.2565 J0.7048
G1 Y95.9798
G3 X190.7565 Y96.6845 I-0.75 J0.0
G1 X187.875 Y97.7333
G1 Y97.9923
G1 X190.7565 Y99.0411
G3 X191.25 Y99.7459 I-0.2565 J0.7048
G1 Y100.6922
G3 X190.7565 Y101.3969 I-0.75 J0.0
G1 X187.875 Y102.4457
G1 Y102.7047
G1 X190.7565 Y103.7535
G3 X191.25 Y104.4583 I-0.2565 J0.7048
G1 Y105.4046
G3 X190.7565 Y106.1093 I-0.75 J0.0
G1 X187.875 Y107.1581
G1 Y107.4171
G1 X190.7565 Y108.4659
G3 X191.25 Y109.1707 I-0.2565 J0.7048
G1 Y110.1169
G3 X190.7565 Y110.8217 I-0.75 J0.0
G1 X187.875 Y111.8705
G0 Z3.0
G0 Y120.25
G1 F300.0 Z-1.0
G1 F800.0 X193.0
G3 X193.75 Y121.0 I0.0 J0.75
G1 Y330.26
G3 X193.0 Y331.01 I-0.75 J0.0
G1 X127.0
G3 X126.25 Y330.26 I0.0 J-0.75
G1 Y121.0
G3 X127.0 Y120.25 I0.75 J0.0
G1 X187.875
G1 F300.0 Z-2.0
G1 F800.0 X193.0
G3 X193.75 Y121.0 I0.0 J0.75
G1 Y330.26
G3 X193.0 Y331.01 I-0.75 J0.0
G1 X127.0
G3 X126.25 Y330.26 I0.0 J-0.75
G1 Y121.0
G3 X127.0 Y120.25 I0.75 J0.0
G1 X187.875
G1 F300.0 Z-3.0
G1 F800.0 X193.0
G3 X193.75 Y121.0 I0.0 J0.75
G1 Y143.25
G0 Z-2.0
G1 Y150.75
G1 F300.0 Z-3.0
G1 F800.0 Y286.25
G0 Z-2.0
G1 Y293.75
G1 F300.0 Z-3.0
G1 F800.0 Y330.26
G3 X193.0 Y331.01 I-0.75 J0.0
G1 X182.75
G0 Z-2.0
G1 X175.25
G1 F300.0 Z-3.0
G1 F800.0 X127.0
G3 X126.25 Y330.26 I0.0 J-0.75
G1 Y305.75
G0 Z-2.0
G1 Y298.25
G1 F300.0 Z-3.0
G1 F800.0 Y217.75
G0 Z-2.0
G1 Y210.25
G1 F300.0 Z-3.0
G1 F800.0 Y121.0
G3 X127.0 Y120.25 I0.75 J0.0
G1 X133.25
G0 Z-2.0
G1 X140.75
G1 F300.0 Z-3.0
G1 F800.0 X187.875
G1 F300.0 Z-4.0
G1 F800.0 X193.0
G3 X193.75 Y121.0 I0.0 J0.75
G1 Y143.25
G0 Z-2.0
G1 Y150.75
G1 F300.0 Z-4.0
G1 F800.0 Y286.25
G0 Z-2.0
G1 Y293.75
G1 F300.0 Z-4.0
G1 F800.0 Y330.26
G3 X193.0 Y331.01 I-0.75 J0.0
G1 X182.75
G0 Z-2.0
G1 X175.25
G1 F300.0 Z-4.0
G1 F800.0 X127.0
G3 X126.25 Y330.26 I0.0 J-0.75
G1 Y305.75
G0 Z-2.0
G1 Y298.25
G1 F300.0 Z-4.0
G1 F800.0 Y217.75
G0 Z-2.0
G1 Y210.25
G1 F300.0 Z-4.0
G1 F800.0 Y121.0
G3 X127.0 Y120.25 I0.75 J0.0
G1 X133.25
G0 Z-2.0
G1 X140.75
G1 F300.0 Z-4.0
G1 F800.0 X187.875
G1 F300.0 Z-5.0
G1 F800.0 X193.0
G3 X193.75 Y121.0 I0.0 J0.75
G1 Y143.25
G0 Z-2.0
G1 Y150.75
G1 F300.0 Z-5.0
G1 F800.0 Y286.25
G0 Z-2.0
G1 Y293.75
G1 F300.0 Z-5.0
G1 F800.0 Y330.26
G3 X193.0 Y331.01 I-0.75 J0.0
G1 X182.75
G0 Z-2.0
G1 X175.25
G1 F300.0 Z-5.0
G1 F800.0 X127.0
G3 X126.25 Y330.26 I0.0 J-0.75
G1 Y305.75
G0 Z-2.0
G1 Y298.25
G1 F300.0 Z-5.0
G1 F800.0 Y217.75
G0 Z-2.0
G1 Y210.25
G1 F300.0 Z-5.0
G1 F800.0 Y121.0
G3 X127.0 Y120.25 I0.75 J0.0
G1 X133.25
G0 Z-2.0
G1 X140.75
G1 F300.0 Z-5.0
G1 F800.0 X187.875
G1 F300.0 Z-6.0
G1 F800.0 X193.0
G3 X193.75 Y121.0 I0.0 J0.75
G1 Y143.25
G0 Z-2.0
G1 Y150.75
G1 F300.0 Z-6.0
G1 F800.0 Y286.25
G0 Z-2.0
G1 Y293.75
G1 F300.0 Z-6.0
G1 F800.0 Y330.26
G3 X193.0 Y331.01 I-0.75 J0.0
G1 X182.75
G0 Z-2.0
G1 X175.25
G1 F300.0 Z-6.0
G1 F800.0 X127.0
G3 X126.25 Y330.26 I0.0 J-0.75
G1 Y305.75
G0 Z-2.0
G1 Y298.25
G1 F300.0 Z-6.0
G1 F800.0 Y217.75
G0 Z-2.0
G1 Y210.25
G1 F300.0 Z-6.0
G1 F800.0 Y121.0
G3 X127.0 Y120.25 I0.75 J0.0
G1 X133.25
G0 Z-2.0
G1 X140.75
G1 F300.0 Z-6.0
G1 F800.0 X187.875
G0 Z3.0
G0 X161.1085 Y99.3033
G1 F300.0 Z-1.0
G3 F800.0 X160.5861 Y99.588 I-0.5906 J-0.4622
G3 X157.2917 Y99.0614 I-0.6148 J-6.7219
G3 X157.1561 Y99.2479 I-11.2917 J-8.0614
G3 X158.675 Y102.2184 I-5.0641 J4.4629
G3 X158.4865 Y102.9017 I-0.7314 J0.1658
G3 X157.9017 Y103.4865 I-12.4865 J-11.9017
G3 X157.2184 Y103.675 I-0.5175 J-0.5429
G3 X154.2479 Y102.1561 I1.4925 J-6.5829
G3 X154.0614 Y102.2917 I-8.2479 J-11.1561
G3 X154.588 Y105.5861 I-6.1953 J2.6796
G3 X154.1975 Y106.1777 I-0.7469 J-0.0683
G3 X153.4607 Y106.5532 I-8.1975 J-15.1777
G3 X152.7525 Y106.5213 I-0.3244 J-0.6762
G3 X150.3968 Y104.1589 I3.4537 J-5.7995
G3 X150.1775 Y104.2301 I-4.3968 J-13.1589
G3 X149.6603 Y107.5261 I-6.7202 J0.634
G3 X149.1061 Y107.968 I-0.6892 J-0.2958
G3 X148.2893 Y108.0974 I-3.1061 J-16.968
G3 X147.6257 Y107.8483 I-0.0995 J-0.7434
G3 X146.1153 Y104.8735 I5.0768 J-4.4485
G3 X145.8847 I-0.1153 J-13.8735
G3 X144.3743 Y107.8483 I-6.5872 J-1.4737
G3 X143.7107 Y108.0974 I-0.5641 J-0.4943
G3 X142.8939 Y107.968 I2.2893 J-17.0974
G3 X142.3397 Y107.5261 I0.135 J-0.7377
G3 X141.8225 Y104.2301 I6.203 J-2.6619
G3 X141.6032 Y104.1589 I4.1775 J-13.2301
G3 X139.2475 Y106.5213 I-5.8094 J-3.4371
G3 X138.5393 Y106.5532 I-0.3837 J-0.6444
G3 X137.8025 Y106.1777 I7.4607 J-15.5532
G3 X137.412 Y105.5861 I0.3564 J-0.6599
G3 X137.9386 Y102.2917 I6.7219 J-0.6148
G3 X137.7521 Y102.1561 I8.0614 J-11.2917
G3 X134.7816 Y103.675 I-4.4629 J-5.0641
G3 X134.0983 Y103.4865 I-0.1658 J-0.7314
G3 X133.5135 Y102.9017 I11.9017 J-12.4865
G3 X133.325 Y102.2184 I0.5429 J-0.5175
G3 X134.8439 Y99.2479 I6.5829 J1.4925
G3 X134.7083 Y99.0614 I11.1561 J-8.2479
G3 X131.4139 Y99.588 I-2.6796 J-6.1953
G3 X130.8223 Y99.1975 I0.0683 J-0.7469
G3 X130.4468 Y98.4607 I15.1777 J-8.1975
G3 X130.4787 Y97.7525 I0.6762 J-0.3244
G3 X132.8411 Y95.3968 I5.7995 J3.4537
G3 X132.7699 Y95.1775 I13.1589 J-4.3968
G3 X129.4739 Y94.6603 I-0.634 J-6.7202
G3 X129.032 Y94.1061 I0.2958 J-0.6892
G3 X128.9026 Y93.2893 I16.968 J-3.1061
G3 X129.1517 Y92.6257 I0.7434 J-0.0995
G3 X132.1265 Y91.1153 I4.4485 J5.0768
G3 Y90.8847 I13.8735 J-0.1153
G3 X129.1517 Y89.3743 I1.4737 J-6.5872
G3 X128.9026 Y88.7107 I0.4943 J-0.5641
G3 X129.032 Y87.8939 I17.0974 J2.2893
G3 X129.4739 Y87.3397 I0.7377 J0.135
G3 X132.7699 Y86.8225 I2.6619 J6.203
G3 X132.8411 Y86.6032 I13.2301 J4.1775
G3 X130.4787 Y84.2475 I3.4371 J-5.8094
G3 X130.4468 Y83.5393 I0.6444 J-0.3837
G3 X130.8223 Y82.8025 I15.5532 J7.4607
G3 X131.4139 Y82.412 I0.6599 J0.3564
G3 X134.7083 Y82.9386 I0.6148 J6.7219
G3 X134.8439 Y82.7521 I11.2917 J8.0614
G3 X133.325 Y79.7816 I5.0641 J-4.4629
G3 X133.5135 Y79.0983 I0.7314 J-0.1658
G3 X134.0983 Y78.5135 I12.4865 J11.9017
G3 X134.7816 Y78.325 I0.5175 J0.5429
G3 X137.7521 Y79.8439 I-1.4925 J6.5829
G3 X137.9386 Y79.7083 I8.2479 J11.1561
G3 X137.412 Y76.4139 I6.1953 J-2.6796
G3 X137.8025 Y75.8223 I0.7469 J0.0683
G3 X138.5393 Y75.4468 I8.1975 J15.1777
G3 X139.2475 Y75.4787 I0.3244 J0.6762
G3 X141.6032 Y77.8411 I-3.4537 J5.7995
G3 X141.8225 Y77.7699 I4.3968 J13.1589
G3 X142.3397 Y74.4739 I6.7202 J-0.634
G3 X142.8939 Y74.032 I0.6892 J0.2958
G3 X143.7107 Y73.9026 I3.1061 J16.968
G3 X144.3743 Y74.1517 I0.0995 J0.7434
G3 X145.8847 Y77.1265 I-5.0768 J4.4485
G3 X146.1153 I0.1153 J13.8735
G3 X147.6257 Y74.1517 I6.5872 J1.4737
G3 X148.2893 Y73.9026 I0.5641 J0.4943
G3 X149.1061 Y74.032 I-2.2893 J17.0974
G3 X149.6603 Y74.4739 I-0.135 J0.7377
G3 X150.1775 Y77.7699 I-6.203 J2.6619
G3 X150.3968 Y77.8411 I-4.1775 J13.2301
G3 X152.7525 Y75.4787 I5.8094 J3.4371
G3 X153.4607 Y75.4468 I0.3837 J0.6444
G3 X154.1975 Y75.8223 I-7.4607 J15.5532
G3 X154.588 Y76.4139 I-0.3564 J0.6599
G3 X154.0614 Y79.7083 I-6.7219 J0.6148
G3 X154.2479 Y79.8439 I-8.0614 J11.2917
G3 X157.2184 Y78.325 I4.4629 J5.0641
G3 X157.9017 Y78.5135 I0.1658 J0.7314
G3 X158.4865 Y79.0983 I-11.9017 J12.4865
G3 X158.675 Y79.7816 I-0.5429 J0.5175
G3 X157.1561 Y82.7521 I-6.5829 J-1.4925
G3 X157.2917 Y82.9386 I-11.1561 J8.2479
G3 X160.5861 Y82.412 I2.6796 J6.1953
G3 X161.1777 Y82.8025 I-0.0683 J0.7469
G3 X161.5532 Y83.5393 I-15.1777 J8.1975
G3 X161.5213 Y84.2475 I-0.6762 J0.3244
G3 X159.1589 Y86.6032 I-5.7995 J-3.4537
G3 X159.2301 Y86.8225 I-13.1589 J4.3968
G3 X162.5261 Y87.3397 I0.634 J6.7202
G3 X162.968 Y87.8939 I-0.2958 J0.6892
G3 X163.0974 Y88.7107 I-16.968 J3.1061
G3 X162.8483 Y89.3743 I-0.7434 J0.0995
G3 X159.8735 Y90.8847 I-4.4485 J-5.0768
G3 Y91.1153 I-13.8735 J0.1153
G3 X162.8483 Y92.6257 I-1.4737 J6.5872
G3 X163.0974 Y93.2893 I-0.4943 J0.5641
G3 X162.968 Y94.1061 I-17.0974 J-2.2893
G3 X162.5261 Y94.6603 I-0.7377 J-0.135
G3 X159.2301 Y95.1775 I-2.6619 J-6.203
G3 X159.1589 Y95.3968 I-13.2301 J-4.1775
G3 X161.5213 Y97.7525 I-3.4371 J5.8094
G3 X161.5532 Y98.4607 I-0.6444 J0.3837
G3 X161.1777 Y99.1975 I-15.5532 J-7.4607
G3 X161.1085 Y99.3033 I-0.6599 J-0.3564
G1 F300.0 Z-2.0
G3 F800.0 X160.5861 Y99.588 I-0.5906 J-0.4622
G3 X157.2917 Y99.0614 I-0.6148 J-6.7219
G3 X157.1561 Y99.2479 I-11.2917 J-8.0614
G3 X158.675 Y102.2184 I-5.0641 J4.4629
G3 X158.4865 Y102.9017 I-0.7314 J0.1658
G3 X157.9017 Y103.4865 I-12.4865 J-11.9017
G3 X157.2184 Y103.675 I-0.5175 J-0.5429
G3 X154.2479 Y102.1561 I1.4925 J-6.5829
G3 X154.0614 Y102.2917 I-8.2479 J-11.1561
G3 X154.588 Y105.5861 I-6.1953 J2.6796
G3 X154.1975 Y106.1777 I-0.7469 J-0.0683
G3 X153.4607 Y106.5532 I-8.1975 J-15.1777
G3 X152.7525 Y106.5213 I-0.3244 J-0.6762
G3 X150.3968 Y104.1589 I3.4537 J-5.7995
G3 X150.1775 Y104.2301 I-4.3968 J-13.1589
G3 X149.6603 Y107.5261 I-6.7202 J0.634
G3 X149.1061 Y107.968 I-0.6892 J-0.2958
G3 X148.2893 Y108.0974 I-3.1061 J-16.968
G3 X147.6257 Y107.8483 I-0.0995 J-0.7434
G3 X146.1153 Y104.8735 I5.0768 J-4.4485
G3 X145.8847 I-0.1153 J-13.8735
G3 X144.3743 Y107.8483 I-6.5872 J-1.4737
G3 X143.7107 Y108.0974 I-0.5641 J-0.4943
G3 X142.8939 Y107.968 I2.2893 J-17.0974
G3 X142.3397 Y107.5261 I0.135 J-0.7377
G3 X141.8225 Y104.2301 I6.203 J-2.6619
G3 X141.6032 Y104.1589 I4.1775 J-13.2301
G3 X139.2475 Y106.5213 I-5.8094 J-3.4371
G3 X138.5393 Y106.5532 I-0.3837 J-0.6444
G3 X137.8025 Y106.1777 I7.4607 J-15.5532
G3 X137.412 Y105.5861 I0.3564 J-0.6599
G3 X137.9386 Y102.2917 I6.7219 J-0.6148
G3 X137.7521 Y102.1561 I8.0614 J-11.2917
G3 X134.7816 Y103.675 I-4.4629 J-5.0641
G3 X134.0983 Y103.4865 I-0.1658 J-0.7314
G3 X133.5135 Y102.9017 I11.9017 J-12.4865
G3 X133.325 Y102.2184 I0.5429 J-0.5175
G3 X134.8439 Y99.2479 I6.5829 J1.4925
G3 X134.7083 Y99.0614 I11.1561 J-8.2479
G3 X131.4139 Y99.588 I-2.6796 J-6.1953
G3 X130.8223 Y99.1975 I0.0683 J-0.7469
G3 X130.4468 Y98.4607 I15.1777 J-8.1975
G3 X130.4787 Y97.7525 I0.6762 J-0.3244
G3 X132.8411 Y95.3968 I5.7995 J3.4537
G3 X132.7699 Y95.1775 I13.1589 J-4.3968
G3 X129.4739 Y94.6603 I-0.634 J-6.7202
G3 X129.032 Y94.1061 I0.2958 J-0.6892
G3 X128.9026 Y93.2893 I16.968 J-3.1061
G3 X129.1517 Y92.6257 I0.7434 J-0.0995
G3 X132.1265 Y91.1153 I4.4485 J5.0768
G3 Y90.8847 I13.8735 J-0.1153
G3 X129.1517 Y89.3743 I1.4737 J-6.5872
G3 X128.9026 Y88.7107 I0.4943 J-0.5641
G3 X129.032 Y87.8939 I17.0974 J2.2893
G3 X129.4739 Y87.3397 I0.7377 J0.135
G3 X132.7699 Y86.8225 I2.6619 J6.203
G3 X132.8411 Y86.6032 I13.2301 J4.1775
G3 X130.4787 Y84.2475 I3.4371 J-5.8094
G3 X130.4468 Y83.5393 I0.6444 J-0.3837
G3 X130.8223 Y82.8025 I15.5532 J7.4607
G3 X131.4139 Y82.412 I0.6599 J0.3564
G3 X134.7083 Y82.9386 I0.6148 J6.7219
G3 X134.8439 Y82.7521 I11.2917 J8.0614
G3 X133.325 Y79.7816 I5.0641 J-4.4629
G3 X133.5135 Y79.0983 I0.7314 J-0.1658
G3 X134.0983 Y78.5135 I12.4865 J11.9017
G3 X134.7816 Y78.325 I0.5175 J0.5429
G3 X137.7521 Y79.8439 I-1.4925 J6.5829
G3 X137.9386 Y79.7083 I8.2479 J11.1561
G3 X137.412 Y76.4139 I6.1953 J-2.6796
G3 X137.8025 Y75.8223 I0.7469 J0.0683
G3 X138.5393 Y75.4468 I8.1975 J15.1777
G3 X139.2475 Y75.4787 I0.3244 J0.6762
G3 X141.6032 Y77.8411 I-3.4537 J5.7995
G3 X141.8225 Y77.7699 I4.3968 J13.1589
G3 X142.3397 Y74.4739 I6.7202 J-0.634
G3 X142.8939 Y74.032 I0.6892 J0.2958
G3 X143.7107 Y73.9026 I3.1061 J16.968
G3 X144.3743 Y74.1517 I0.0995 J0.7434
G3 X145.8847 Y77.1265 I-5.0768 J4.4485
G3 X146.1153 I0.1153 J13.8735
G3 X147.6257 Y74.1517 I6.5872 J1.4737
G3 X148.2893 Y73.9026 I0.5641 J0.4943
G3 X149.1061 Y74.032 I-2.2893 J17.0974
G3 X149.6603 Y74.4739 I-0.135 J0.7377
G3 X150.1775 Y77.7699 I-6.203 J2.6619
G3 X150.3968 Y77.8411 I-4.1775 J13.2301
G3 X152.7525 Y75.4787 I5.8094 J3.4371
G3 X153.4607 Y75.4468 I0.3837 J0.6444
G3 X154.1975 Y75.8223 I-7.4607 J15.5532
G3 X154.588 Y76.4139 I-0.3564 J0.6599
G3 X154.0614 Y79.7083 I-6.7219 J0.6148
G3 X154.2479 Y79.8439 I-8.0614 J11.2917
G3 X157.2184 Y78.325 I4.4629 J5.0641
G3 X157.9017 Y78.5135 I0.1658 J0.7314
G3 X158.4865 Y79.0983 I-11.9017 J12.4865
G3 X158.675 Y79.7816 I-0.5429 J0.5175
G3 X157.1561 Y82.7521 I-6.5829 J-1.4925
G3 X157.2917 Y82.9386 I-11.1561 J8.2479
G3 X160.5861 Y82.412 I2.6796 J6.1953
G3 X161.1777 Y82.8025 I-0.0683 J0.7469
G3 X161.5532 Y83.5393 I-15.1777 J8.1975
G3 X161.5213 Y84.2475 I-0.6762 J0.3244
G3 X159.1589 Y86.6032 I-5.7995 J-3.4537
G3 X159.2301 Y86.8225 I-13.1589 J4.3968
G3 X162.5261 Y87.3397 I0.634 J6.7202
G3 X162.968 Y87.8939 I-0.2958 J0.6892
G3 X163.0974 Y88.7107 I-16.968 J3.1061
G3 X162.8483 Y89.3743 I-0.7434 J0.0995
G3 X159.8735 Y90.8847 I-4.4485 J-5.0768
G3 Y91.1153 I-13.8735 J0.1153
G3 X162.8483 Y92.6257 I-1.4737 J6.5872
G3 X163.0974 Y93.2893 I-0.4943 J0.5641
G3 X162.968 Y94.1061 I-17.0974 J-2.2893
G3 X162.5261 Y94.6603 I-0.7377 J-0.135
G3 X159.2301 Y95.1775 I-2.6619 J-6.203
G3 X159.1589 Y95.3968 I-13.2301 J-4.1775
G3 X161.5213 Y97.7525 I-3.4371 J5.8094
G3 X161.5532 Y98.4607 I-0.6444 J0.3837
G3 X161.1777 Y99.1975 I-15.5532 J-7.4607
G3 X161.1085 Y99.3033 I-0.6599 J-0.3564
G1 F300.0 Z-3.0
G3 F800.0 X160.5861 Y99.588 I-0.5906 J-0.4622
G3 X157.2917 Y99.0614 I-0.6148 J-6.7219
G3 X157.1561 Y99.2479 I-11.2917 J-8.0614
G3 X158.675 Y102.2184 I-5.0641 J4.4629
G3 X158.4865 Y102.9017 I-0.7314 J0.1658
G3 X157.9017 Y103.4865 I-12.4865 J-11.9017
G3 X157.2184 Y103.675 I-0.5175 J-0.5429
G3 X154.2479 Y102.1561 I1.4925 J-6.5829
G3 X154.0614 Y102.2917 I-8.2479 J-11.1561
G3 X154.588 Y105.5861 I-6.1953 J2.6796
G3 X154.1975 Y106.1777 I-0.7469 J-0.0683
G3 X153.4607 Y106.5532 I-8.1975 J-15.1777
G3 X152.7525 Y106.5213 I-0.3244 J-0.6762
G3 X150.3968 Y104.1589 I3.4537 J-5.7995
G3 X150.1775 Y104.2301 I-4.3968 J-13.1589
G3 X149.6603 Y107.5261 I-6.7202 J0.634
G3 X149.1061 Y107.968 I-0.6892 J-0.2958
G3 X148.2893 Y108.0974 I-3.1061 J-16.968
G3 X147.6257 Y107.8483 I-0.0995 J-0.7434
G3 X146.1153 Y104.8735 I5.0768 J-4.4485
G3 X145.8847 I-0.1153 J-13.8735
G3 X144.3743 Y107.8483 I-6.5872 J-1.4737
G3 X143.7107 Y108.0974 I-0.5641 J-0.4943
G3 X142.8939 Y107.968 I2.2893 J-17.0974
G3 X142.3397 Y107.5261 I0.135 J-0.7377
G3 X141.8225 Y104.2301 I6.203 J-2.6619
G3 X141.6032 Y104.1589 I4.1775 J-13.2301
G3 X139.2475 Y106.5213 I-5.8094 J-3.4371
G3 X138.5393 Y106.5532 I-0.3837 J-0.6444
G3 X137.8025 Y106.1777 I7.4607 J-15.5532
G3 X137.412 Y105.5861 I0.3564 J-0.6599
G3 X137.9386 Y102.2917 I6.7219 J-0.6148
G3 X137.7521 Y102.1561 I8.0614 J-11.2917
G3 X134.7816 Y103.675 I-4.4629 J-5.0641
G3 X134.0983 Y103.4865 I-0.1658 J-0.7314
G3 X133.5135 Y102.9017 I11.9017 J-12.4865
G3 X133.325 Y102.2184 I0.5429 J-0.5175
G3 X134.8439 Y99.2479 I6.5829 J1.4925
G3 X134.7083 Y99.0614 I11.1561 J-8.2479
G3 X131.4139 Y99.588 I-2.6796 J-6.1953
G3 X130.8223 Y99.1975 I0.0683 J-0.7469
G3 X130.4468 Y98.4607 I15.1777 J-8.1975
G3 X130.4787 Y97.7525 I0.6762 J-0.3244
G3 X132.8411 Y95.3968 I5.7995 J3.4537
G3 X132.7699 Y95.1775 I13.1589 J-4.3968
G3 X129.4739 Y94.6603 I-0.634 J-6.7202
G3 X129.032 Y94.1061 I0.2958 J-0.6892
G3 X128.9026 Y93.2893 I16.968 J-3.1061
G3 X129.1517 Y92.6257 I0.7434 J-0.0995
G3 X132.1265 Y91.1153 I4.4485 J5.0768
G3 Y90.8847 I13.8735 J-0.1153
G3 X129.1517 Y89.3743 I1.4737 J-6.5872
G3 X128.9026 Y88.7107 I0.4943 J-0.5641
G3 X129.032 Y87.8939 I17.0974 J2.2893
G3 X129.4739 Y87.3397 I0.7377 J0.135
G3 X132.7699 Y86.8225 I2.6619 J6.203
G3 X132.8411 Y86.6032 I13.2301 J4.1775
G3 X130.4787 Y84.2475 I3.4371 J-5.8094
G3 X130.4468 Y83.5393 I0.6444 J-0.3837
G3 X130.8223 Y82.8025 I15.5532 J7.4607
G3 X131.4139 Y82.412 I0.6599 J0.3564
G3 X134.7083 Y82.9386 I0.6148 J6.7219
G3 X134.8439 Y82.7521 I11.2917 J8.0614
G3 X133.325 Y79.7816 I5.0641 J-4.4629
G3 X133.5135 Y79.0983 I0.7314 J-0.1658
G3 X134.0983 Y78.5135 I12.4865 J11.9017
G3 X134.7816 Y78.325 I0.5175 J0.5429
G3 X137.7521 Y79.8439 I-1.4925 J6.5829
G3 X137.9386 Y79.7083 I8.2479 J11.1561
G3 X137.412 Y76.4139 I6.1953 J-2.6796
G3 X137.8025 Y75.8223 I0.7469 J0.0683
G3 X138.5393 Y75.4468 I8.1975 J15.1777
G3 X139.2475 Y75.4787 I0.3244 J0.6762
G3 X141.6032 Y77.8411 I-3.4537 J5.7995
G3 X141.8225 Y77.7699 I4.3968 J13.1589
G3 X142.3397 Y74.4739 I6.7202 J-0.634
G3 X142.8939 Y74.032 I0.6892 J0.2958
G3 X143.7107 Y73.9026 I3.1061 J16.968
G3 X144.3743 Y74.1517 I0.0995 J0.7434
G3 X145.8847 Y77.1265 I-5.0768 J4.4485
G3 X146.1153 I0.1153 J13.8735
G3 X147.6257 Y74.1517 I6.5872 J1.4737
G3 X148.2893 Y73.9026 I0.5641 J0.4943
G3 X149.1061 Y74.032 I-2.2893 J17.0974
G3 X149.6603 Y74.4739 I-0.135 J0.7377
G3 X150.1775 Y77.7699 I-6.203 J2.6619
G3 X150.3968 Y77.8411 I-4.1775 J13.2301
G3 X152.7525 Y75.4787 I5.8094 J3.4371
G3 X153.4607 Y75.4468 I0.3837 J0.6444
G3 X154.1975 Y75.8223 I-7.4607 J15.5532
G3 X154.588 Y76.4139 I-0.3564 J0.6599
G3 X154.0614 Y79.7083 I-6.7219 J0.6148
G3 X154.2479 Y79.8439 I-8.0614 J11.2917
G3 X157.2184 Y78.325 I4.4629 J5.0641
G3 X157.9017 Y78.5135 I0.1658 J0.7314
G3 X158.4865 Y79.0983 I-11.9017 J12.4865
G3 X158.675 Y79.7816 I-0.5429 J0.5175
G3 X157.1561 Y82.7521 I-6.5829 J-1.4925
G3 X157.2917 Y82.9386 I-11.1561 J8.2479
G3 X160.5861 Y82.412 I2.6796 J6.1953
G3 X161.1777 Y82.8025 I-0.0683 J0.7469
G3 X161.5532 Y83.5393 I-15.1777 J8.1975
G3 X161.5213 Y84.2475 I-0.6762 J0.3244
G3 X159.1589 Y86.6032 I-5.7995 J-3.4537
G3 X159.2301 Y86.8225 I-13.1589 J4.3968
G3 X162.5261 Y87.3397 I0.634 J6.7202
G3 X162.968 Y87.8939 I-0.2958 J0.6892
G3 X163.0974 Y88.7107 I-16.968 J3.1061
G3 X162.8483 Y89.3743 I-0.7434 J0.0995
G3 X159.8735 Y90.8847 I-4.4485 J-5.0768
G3 Y91.1153 I-13.8735 J0.1153
G3 X162.8483 Y92.6257 I-1.4737 J6.5872
G3 X163.0974 Y93.2893 I-0.4943 J0.5641
G3 X162.968 Y94.1061 I-17.0974 J-2.2893
G3 X162.5261 Y94.6603 I-0.7377 J-0.135
G3 X159.2301 Y95.1775 I-2.6619 J-6.203
G3 X159.1589 Y95.3968 I-13.2301 J-4.1775
G3 X161.5213 Y97.7525 I-3.4371 J5.8094
G3 X161.5532 Y98.4607 I-0.6444 J0.3837
G3 X161.1777 Y99.1975 I-15.5532 J-7.4607
G3 X161.1085 Y99.3033 I-0.6599 J-0.3564
G1 F300.0 Z-4.0
G3 F800.0 X160.5861 Y99.588 I-0.5906 J-0.4622
G3 X157.2917 Y99.0614 I-0.6148 J-6.7219
G3 X157.1561 Y99.2479 I-11.2917 J-8.0614
G3 X158.675 Y102.2184 I-5.0641 J4.4629
G3 X158.4865 Y102.9017 I-0.7314 J0.1658
G3 X157.9017 Y103.4865 I-12.4865 J-11.9017
G3 X157.2184 Y103.675 I-0.5175 J-0.5429
G3 X154.2479 Y102.1561 I1.4925 J-6.5829
G3 X154.0614 Y102.2917 I-8.2479 J-11.1561
G3 X154.588 Y105.5861 I-6.1953 J2.6796
G3 X154.1975 Y106.1777 I-0.7469 J-0.0683
G3 X153.4607 Y106.5532 I-8.1975 J-15.1777
G3 X152.7525 Y106.5213 I-0.3244 J-0.6762
G3 X150.3968 Y104.1589 I3.4537 J-5.7995
G3 X150.1775 Y104.2301 I-4.3968 J-13.1589
G3 X149.6603 Y107.5261 I-6.7202 J0.634
G3 X149.1061 Y107.968 I-0.6892 J-0.2958
G3 X148.2893 Y108.0974 I-3.1061 J-16.968
G3 X147.6257 Y107.8483 I-0.0995 J-0.7434
G3 X146.1153 Y104.8735 I5.0768 J-4.4485
G3 X145.8847 I-0.1153 J-13.8735
G3 X144.3743 Y107.8483 I-6.5872 J-1.4737
G3 X143.7107 Y108.0974 I-0.5641 J-0.4943
G3 X142.8939 Y107.968 I2.2893 J-17.0974
G3 X142.3397 Y107.5261 I0.135 J-0.7377
G3 X141.8225 Y104.2301 I6.203 J-2.6619
G3 X141.6032 Y104.1589 I4.1775 J-13.2301
G3 X139.2475 Y106.5213 I-5.8094 J-3.4371
G3 X138.5393 Y106.5532 I-0.3837 J-0.6444
G3 X137.8025 Y106.1777 I7.4607 J-15.5532
G3 X137.412 Y105.5861 I0.3564 J-0.6599
G3 X137.9386 Y102.2917 I6.7219 J-0.6148
G3 X137.7521 Y102.1561 I8.0614 J-11.2917
G3 X134.7816 Y103.675 I-4.4629 J-5.0641
G3 X134.0983 Y103.4865 I-0.1658 J-0.7314
G3 X133.5135 Y102.9017 I11.9017 J-12.4865
G3 X133.325 Y102.2184 I0.5429 J-0.5175
G3 X134.8439 Y99.2479 I6.5829 J1.4925
G3 X134.7083 Y99.0614 I11.1561 J-8.2479
G3 X131.4139 Y99.588 I-2.6796 J-6.1953
G3 X130.8223 Y99.1975 I0.0683 J-0.7469
G3 X130.4468 Y98.4607 I15.1777 J-8.1975
G3 X130.4787 Y97.7525 I0.6762 J-0.3244
G3 X132.8411 Y95.3968 I5.7995 J3.4537
G3 X132.7699 Y95.1775 I13.1589 J-4.3968
G3 X129.4739 Y94.6603 I-0.634 J-6.7202
G3 X129.032 Y94.1061 I0.2958 J-0.6892
G3 X128.9026 Y93.2893 I16.968 J-3.1061
G3 X129.1517 Y92.6257 I0.7434 J-0.0995
G3 X132.1265 Y91.1153 I4.4485 J5.0768
G3 Y90.8847 I13.8735 J-0.1153
G3 X129.1517 Y89.3743 I1.4737 J-6.5872
G3 X128.9026 Y88.7107 I0.4943 J-0.5641
G3 X129.032 Y87.8939 I17.0974 J2.2893
G3 X129.4739 Y87.3397 I0.7377 J0.135
G3 X132.7699 Y86.8225 I2.6619 J6.203
G3 X132.8411 Y86.6032 I13.2301 J4.1775
G3 X130.4787 Y84.2475 I3.4371 J-5.8094
G3 X130.4468 Y83.5393 I0.6444 J-0.3837
G3 X130.8223 Y82.8025 I15.5532 J7.4607
G3 X131.4139 Y82.412 I0.6599 J0.3564
G3 X134.7083 Y82.9386 I0.6148 J6.7219
G3 X134.8439 Y82.7521 I11.2917 J8.0614
G3 X133.325 Y79.7816 I5.0641 J-4.4629
G3 X133.5135 Y79.0983 I0.7314 J-0.1658
G3 X134.0983 Y78.5135 I12.4865 J11.9017
G3 X134.7816 Y78.325 I0.5175 J0.5429
G3 X137.7521 Y79.8439 I-1.4925 J6.5829
G3 X137.9386 Y79.7083 I8.2479 J11.1561
G3 X137.412 Y76.4139 I6.1953 J-2.6796
G3 X137.8025 Y75.8223 I0.7469 J0.0683
G3 X138.5393 Y75.4468 I8.1975 J15.1777
G3 X139.2475 Y75.4787 I0.3244 J0.6762
G3 X141.6032 Y77.8411 I-3.4537 J5.7995
G3 X141.8225 Y77.7699 I4.3968 J13.1589
G3 X142.3397 Y74.4739 I6.7202 J-0.634
G3 X142.8939 Y74.032 I0.6892 J0.2958
G3 X143.7107 Y73.9026 I3.1061 J16.968
G3 X144.3743 Y74.1517 I0.0995 J0.7434
G3 X145.8847 Y77.1265 I-5.0768 J4.4485
G3 X146.1153 I0.1153 J13.8735
G3 X147.6257 Y74.1517 I6.5872 J1.4737
G3 X148.2893 Y73.9026 I0.5641 J0.4943
G3 X149.1061 Y74.032 I-2.2893 J17.0974
G3 X149.6603 Y74.4739 I-0.135 J0.7377
G3 X150.1775 Y77.7699 I-6.203 J2.6619
G3 X150.3968 Y77.8411 I-4.1775 J13.2301
G3 X152.7525 Y75.4787 I5.8094 J3.4371
G3 X153.4607 Y75.4468 I0.3837 J0.6444
G3 X154.1975 Y75.8223 I-7.4607 J15.5532
G3 X154.588 Y76.4139 I-0.3564 J0.6599
G3 X154.0614 Y79.7083 I-6.7219 J0.6148
G3 X154.2479 Y79.8439 I-8.0614 J11.2917
G3 X157.2184 Y78.325 I4.4629 J5.0641
G3 X157.9017 Y78.5135 I0.1658 J0.7314
G3 X158.4865 Y79.0983 I-11.9017 J12.4865
G3 X158.675 Y79.7816 I-0.5429 J0.5175
G3 X157.1561 Y82.7521 I-6.5829 J-1.4925
G3 X157.2917 Y82.9386 I-11.1561 J8.2479
G3 X160.5861 Y82.412 I2.6796 J6.1953
G3 X161.1777 Y82.8025 I-0.0683 J0.7469
G3 X161.5532 Y83.5393 I-15.1777 J8.1975
G3 X161.5213 Y84.2475 I-0.6762 J0.3244
G3 X159.1589 Y86.6032 I-5.7995 J-3.4537
G3 X159.2301 Y86.8225 I-13.1589 J4.3968
G3 X162.5261 Y87.3397 I0.634 J6.7202
G3 X162.968 Y87.8939 I-0.2958 J0.6892
G3 X163.0974 Y88.7107 I-16.968 J3.1061
G3 X162.8483 Y89.3743 I-0.7434 J0.0995
G3 X159.8735 Y90.8847 I-4.4485 J-5.0768
G3 Y91.1153 I-13.8735 J0.1153
G3 X162.8483 Y92.6257 I-1.4737 J6.5872
G3 X163.0974 Y93.2893 I-0.4943 J0.5641
G3 X162.968 Y94.1061 I-17.0974 J-2.2893
G3 X162.5261 Y94.6603 I-0.7377 J-0.135
G3 X159.2301 Y95.1775 I-2.6619 J-6.203
G3 X159.1589 Y95.3968 I-13.2301 J-4.1775
G3 X161.5213 Y97.7525 I-3.4371 J5.8094
G3 X161.5532 Y98.4607 I-0.6444 J0.3837
G3 X161.1777 Y99.1975 I-15.5532 J-7.4607
G3 X161.1085 Y99.3033 I-0.6599 J-0.3564
G1 F300.0 Z-5.0
G3 F800.0 X160.5861 Y99.588 I-0.5906 J-0.4622
G3 X157.2917 Y99.0614 I-0.6148 J-6.7219
G3 X157.1561 Y99.2479 I-11.2917 J-8.0614
G3 X158.675 Y102.2184 I-5.0641 J4.4629
G3 X158.4865 Y102.9017 I-0.7314 J0.1658
G3 X157.9017 Y103.4865 I-12.4865 J-11.9017
G3 X157.2184 Y103.675 I-0.5175 J-0.5429
G3 X154.2479 Y102.1561 I1.4925 J-6.5829
G3 X154.0614 Y102.2917 I-8.2479 J-11.1561
G3 X154.588 Y105.5861 I-6.1953 J2.6796
G3 X154.1975 Y106.1777 I-0.7469 J-0.0683
G3 X153.4607 Y106.5532 I-8.1975 J-15.1777
G3 X152.7525 Y106.5213 I-0.3244 J-0.6762
G3 X150.3968 Y104.1589 I3.4537 J-5.7995
G3 X150.1775 Y104.2301 I-4.3968 J-13.1589
G3 X149.6603 Y107.5261 I-6.7202 J0.634
G3 X149.1061 Y107.968 I-0.6892 J-0.2958
G3 X148.2893 Y108.0974 I-3.1061 J-16.968
G3 X147.6257 Y107.8483 I-0.0995 J-0.7434
G3 X146.1153 Y104.8735 I5.0768 J-4.4485
G3 X145.8847 I-0.1153 J-13.8735
G3 X144.3743 Y107.8483 I-6.5872 J-1.4737
G3 X143.7107 Y108.0974 I-0.5641 J-0.4943
G3 X142.8939 Y107.968 I2.2893 J-17.0974
G3 X142.3397 Y107.5261 I0.135 J-0.7377
G3 X141.8225 Y104.2301 I6.203 J-2.6619
G3 X141.6032 Y104.1589 I4.1775 J-13.2301
G3 X139.2475 Y106.5213 I-5.8094 J-3.4371
G3 X138.5393 Y106.5532 I-0.3837 J-0.6444
G3 X137.8025 Y106.1777 I7.4607 J-15.5532
G3 X137.412 Y105.5861 I0.3564 J-0.6599
G3 X137.9386 Y102.2917 I6.7219 J-0.6148
G3 X137.7521 Y102.1561 I8.0614 J-11.2917
G3 X134.7816 Y103.675 I-4.4629 J-5.0641
G3 X134.0983 Y103.4865 I-0.1658 J-0.7314
G3 X133.5135 Y102.9017 I11.9017 J-12.4865
G3 X133.325 Y102.2184 I0.5429 J-0.5175
G3 X134.8439 Y99.2479 I6.5829 J1.4925
G3 X134.7083 Y99.0614 I11.1561 J-8.2479
G3 X131.4139 Y99.588 I-2.6796 J-6.1953
G3 X130.8223 Y99.1975 I0.0683 J-0.7469
G3 X130.4468 Y98.4607 I15.1777 J-8.1975
G3 X130.4787 Y97.7525 I0.6762 J-0.3244
G3 X132.8411 Y95.3968 I5.7995 J3.4537
G3 X132.7699 Y95.1775 I13.1589 J-4.3968
G3 X129.4739 Y94.6603 I-0.634 J-6.7202
G3 X129.032 Y94.1061 I0.2958 J-0.6892
G3 X128.9026 Y93.2893 I16.968 J-3.1061
G3 X129.1517 Y92.6257 I0.7434 J-0.0995
G3 X132.1265 Y91.1153 I4.4485 J5.0768
G3 Y90.8847 I13.8735 J-0.1153
G3 X129.1517 Y89.3743 I1.4737 J-6.5872
G3 X128.9026 Y88.7107 I0.4943 J-0.5641
G3 X129.032 Y87.8939 I17.0974 J2.2893
G3 X129.4739 Y87.3397 I0.7377 J0.135
G3 X132.7699 Y86.8225 I2.6619 J6.203
G3 X132.8411 Y86.6032 I13.2301 J4.1775
G3 X130.4787 Y84.2475 I3.4371 J-5.8094
G3 X130.4468 Y83.5393 I0.6444 J-0.3837
G3 X130.8223 Y82.8025 I15.5532 J7.4607
G3 X131.4139 Y82.412 I0.6599 J0.3564
G3 X134.7083 Y82.9386 I0.6148 J6.7219
G3 X134.8439 Y82.7521 I11.2917 J8.0614
G3 X133.325 Y79.7816 I5.0641 J-4.4629
G3 X133.5135 Y79.0983 I0.7314 J-0.1658
G3 X134.0983 Y78.5135 I12.4865 J11.9017
G3 X134.7816 Y78.325 I0.5175 J0.5429
G3 X137.7521 Y79.8439 I-1.4925 J6.5829
G3 X137.9386 Y79.7083 I8.2479 J11.1561
G3 X137.412 Y76.4139 I6.1953 J-2.6796
G3 X137.8025 Y75.8223 I0.7469 J0.0683
G3 X138.5393 Y75.4468 I8.1975 J15.1777
G3 X139.2475 Y75.4787 I0.3244 J0.6762
G3 X141.6032 Y77.8411 I-3.4537 J5.7995
G3 X141.8225 Y77.7699 I4.3968 J13.1589
G3 X142.3397 Y74.4739 I6.7202 J-0.634
G3 X142.8939 Y74.032 I0.6892 J0.2958
G3 X143.7107 Y73.9026 I3.1061 J16.968
G3 X144.3743 Y74.1517 I0.0995 J0.7434
G3 X145.8847 Y77.1265 I-5.0768 J4.4485
G3 X146.1153 I0.1153 J13.8735
G3 X147.6257 Y74.1517 I6.5872 J1.4737
G3 X148.2893 Y73.9026 I0.5641 J0.4943
G3 X149.1061 Y74.032 I-2.2893 J17.0974
G3 X149.6603 Y74.4739 I-0.135 J0.7377
G3 X150.1775 Y77.7699 I-6.203 J2.6619
G3 X150.3968 Y77.8411 I-4.1775 J13.2301
G3 X152.7525 Y75.4787 I5.8094 J3.4371
G3 X153.4607 Y75.4468 I0.3837 J0.6444
G3 X154.1975 Y75.8223 I-7.4607 J15.5532
G3 X154.588 Y76.4139 I-0.3564 J0.6599
G3 X154.0614 Y79.7083 I-6.7219 J0.6148
G3 X154.2479 Y79.8439 I-8.0614 J11.2917
G3 X157.2184 Y78.325 I4.4629 J5.0641
G3 X157.9017 Y78.5135 I0.1658 J0.7314
G3 X158.4865 Y79.0983 I-11.9017 J12.4865
G3 X158.675 Y79.7816 I-0.5429 J0.5175
G3 X157.1561 Y82.7521 I-6.5829 J-1.4925
G3 X157.2917 Y82.9386 I-11.1561 J8.2479
G3 X160.5861 Y82.412 I2.6796 J6.1953
G3 X161.1777 Y82.8025 I-0.0683 J0.7469
G3 X161.5532 Y83.5393 I-15.1777 J8.1975
G3 X161.5213 Y84.2475 I-0.6762 J0.3244
G3 X159.1589 Y86.6032 I-5.7995 J-3.4537
G3 X159.2301 Y86.8225 I-13.1589 J4.3968
G3 X162.5261 Y87.3397 I0.634 J6.7202
G3 X162.968 Y87.8939 I-0.2958 J0.6892
G3 X163.0974 Y88.7107 I-16.968 J3.1061
G3 X162.8483 Y89.3743 I-0.7434 J0.0995
G3 X159.8735 Y90.8847 I-4.4485 J-5.0768
G3 Y91.1153 I-13.8735 J0.1153
G3 X162.8483 Y92.6257 I-1.4737 J6.5872
G3 X163.0974 Y93.2893 I-0.4943 J0.5641
G3 X162.968 Y94.1061 I-17.0974 J-2.2893
G3 X162.5261 Y94.6603 I-0.7377 J-0.135
G3 X159.2301 Y95.1775 I-2.6619 J-6.203
G3 X159.1589 Y95.3968 I-13.2301 J-4.1775
G3 X161.5213 Y97.7525 I-3.4371 J5.8094
G3 X161.5532 Y98.4607 I-0.6444 J0.3837
G3 X161.1777 Y99.1975 I-15.5532 J-7.4607
G3 X161.1085 Y99.3033 I-0.6599 J-0.3564
G1 F300.0 Z-6.0
G3 F800.0 X160.5861 Y99.588 I-0.5906 J-0.4622
G3 X157.2917 Y99.0614 I-0.6148 J-6.7219
G3 X157.1561 Y99.2479 I-11.2917 J-8.0614
G3 X158.675 Y102.2184 I-5.0641 J4.4629
G3 X158.4865 Y102.9017 I-0.7314 J0.1658
G3 X157.9017 Y103.4865 I-12.4865 J-11.9017
G3 X157.2184 Y103.675 I-0.5175 J-0.5429
G3 X154.2479 Y102.1561 I1.4925 J-6.5829
G3 X154.0614 Y102.2917 I-8.2479 J-11.1561
G3 X154.588 Y105.5861 I-6.1953 J2.6796
G3 X154.1975 Y106.1777 I-0.7469 J-0.0683
G3 X153.4607 Y106.5532 I-8.1975 J-15.1777
G3 X152.7525 Y106.5213 I-0.3244 J-0.6762
G3 X150.3968 Y104.1589 I3.4537 J-5.7995
G3 X150.1775 Y104.2301 I-4.3968 J-13.1589
G3 X149.6603 Y107.5261 I-6.7202 J0.634
G3 X149.1061 Y107.968 I-0.6892 J-0.2958
G3 X148.2893 Y108.0974 I-3.1061 J-16.968
G3 X147.6257 Y107.8483 I-0.0995 J-0.7434
G3 X146.1153 Y104.8735 I5.0768 J-4.4485
G3 X145.8847 I-0.1153 J-13.8735
G3 X144.3743 Y107.8483 I-6.5872 J-1.4737
G3 X143.7107 Y108.0974 I-0.5641 J-0.4943
G3 X142.8939 Y107.968 I2.2893 J-17.0974
G3 X142.3397 Y107.5261 I0.135 J-0.7377
G3 X141.8225 Y104.2301 I6.203 J-2.6619
G3 X141.6032 Y104.1589 I4.1775 J-13.2301
G3 X139.2475 Y106.5213 I-5.8094 J-3.4371
G3 X138.5393 Y106.5532 I-0.3837 J-0.6444
G3 X137.8025 Y106.1777 I7.4607 J-15.5532
G3 X137.412 Y105.5861 I0.3564 J-0.6599
G3 X137.9386 Y102.2917 I6.7219 J-0.6148
G3 X137.7521 Y102.1561 I8.0614 J-11.2917
G3 X134.7816 Y103.675 I-4.4629 J-5.0641
G3 X134.0983 Y103.4865 I-0.1658 J-0.7314
G3 X133.5135 Y102.9017 I11.9017 J-12.4865
G3 X133.325 Y102.2184 I0.5429 J-0.5175
G3 X134.8439 Y99.2479 I6.5829 J1.4925
G3 X134.7083 Y99.0614 I11.1561 J-8.2479
G3 X131.4139 Y99.588 I-2.6796 J-6.1953
G3 X130.8223 Y99.1975 I0.0683 J-0.7469
G3 X130.4468 Y98.4607 I15.1777 J-8.1975
G3 X130.4787 Y97.7525 I0.6762 J-0.3244
G3 X132.8411 Y95.3968 I5.7995 J3.4537
G3 X132.7699 Y95.1775 I13.1589 J-4.3968
G3 X129.4739 Y94.6603 I-0.634 J-6.7202
G3 X129.032 Y94.1061 I0.2958 J-0.6892
G3 X128.9026 Y93.2893 I16.968 J-3.1061
G3 X129.1517 Y92.6257 I0.7434 J-0.0995
G3 X132.1265 Y91.1153 I4.4485 J5.0768
G3 Y90.8847 I13.8735 J-0.1153
G3 X129.1517 Y89.3743 I1.4737 J-6.5872
G3 X128.9026 Y88.7107 I0.4943 J-0.5641
G3 X129.032 Y87.8939 I17.0974 J2.2893
G3 X129.4739 Y87.3397 I0.7377 J0.135
G3 X132.7699 Y86.8225 I2.6619 J6.203
G3 X132.8411 Y86.6032 I13.2301 J4.1775
G3 X130.4787 Y84.2475 I3.4371 J-5.8094
G3 X130.4468 Y83.5393 I0.6444 J-0.3837
G3 X130.8223 Y82.8025 I15.5532 J7.4607
G3 X131.4139 Y82.412 I0.6599 J0.3564
G3 X134.7083 Y82.9386 I0.6148 J6.7219
G3 X134.8439 Y82.7521 I11.2917 J8.0614
G3 X133.325 Y79.7816 I5.0641 J-4.4629
G3 X133.5135 Y79.0983 I0.7314 J-0.1658
G3 X134.0983 Y78.5135 I12.4865 J11.9017
G3 X134.7816 Y78.325 I0.5175 J0.5429
G3 X137.7521 Y79.8439 I-1.4925 J6.5829
G3 X137.9386 Y79.7083 I8.2479 J11.1561
G3 X137.412 Y76.4139 I6.1953 J-2.6796
G3 X137.8025 Y75.8223 I0.7469 J0.0683
G3 X138.5393 Y75.4468 I8.1975 J15.1777
G3 X139.2475 Y75.4787 I0.3244 J0.6762
G3 X141.6032 Y77.8411 I-3.4537 J5.7995
G3 X141.8225 Y77.7699 I4.3968 J13.1589
G3 X142.3397 Y74.4739 I6.7202 J-0.634
G3 X142.8939 Y74.032 I0.6892 J0.2958
G3 X143.7107 Y73.9026 I3.1061 J16.968
G3 X144.3743 Y74.1517 I0.0995 J0.7434
G3 X145.8847 Y77.1265 I-5.0768 J4.4485
G3 X146.1153 I0.1153 J13.8735
G3 X147.6257 Y74.1517 I6.5872 J1.4737
G3 X148.2893 Y73.9026 I0.5641 J0.4943
G3 X149.1061 Y74.032 I-2.2893 J17.0974
G3 X149.6603 Y74.4739 I-0.135 J0.7377
G3 X150.1775 Y77.7699 I-6.203 J2.6619
G3 X150.3968 Y77.8411 I-4.1775 J13.2301
G3 X152.7525 Y75.4787 I5.8094 J3.4371
G3 X153.4607 Y75.4468 I0.3837 J0.6444
G3 X154.1975 Y75.8223 I-7.4607 J15.5532
G3 X154.588 Y76.4139 I-0.3564 J0.6599
G3 X154.0614 Y79.7083 I-6.7219 J0.6148
G3 X154.2479 Y79.8439 I-8.0614 J11.2917
G3 X157.2184 Y78.325 I4.4629 J5.0641
G3 X157.9017 Y78.5135 I0.1658 J0.7314
G3 X158.4865 Y79.0983 I-11.9017 J12.4865
G3 X158.675 Y79.7816 I-0.5429 J0.5175
G3 X157.1561 Y82.7521 I-6.5829 J-1.4925
G3 X157.2917 Y82.9386 I-11.1561 J8.2479
G3 X160.5861 Y82.412 I2.6796 J6.1953
G3 X161.1777 Y82.8025 I-0.0683 J0.7469
G3 X161.5532 Y83.5393 I-15.1777 J8.1975
G3 X161.5213 Y84.2475 I-0.6762 J0.3244
G3 X159.1589 Y86.6032 I-5.7995 J-3.4537
G3 X159.2301 Y86.8225 I-13.1589 J4.3968
G3 X162.5261 Y87.3397 I0.634 J6.7202
G3 X162.968 Y87.8939 I-0.2958 J0.6892
G3 X163.0974 Y88.7107 I-16.968 J3.1061
G3 X162.8483 Y89.3743 I-0.7434 J0.0995
G3 X159.8735 Y90.8847 I-4.4485 J-5.0768
G3 Y91.1153 I-13.8735 J0.1153
G3 X162.8483 Y92.6257 I-1.4737 J6.5872
G3 X163.0974 Y93.2893 I-0.4943 J0.5641
G3 X162.968 Y94.1061 I-17.0974 J-2.2893
G3 X162.5261 Y94.6603 I-0.7377 J-0.135
G3 X159.2301 Y95.1775 I-2.6619 J-6.203
G3 X159.1589 Y95.3968 I-13.2301 J-4.1775
G3 X161.5213 Y97.7525 I-3.4371 J5.8094
G3 X161.5532 Y98.4607 I-0.6444 J0.3837
G3 X161.1777 Y99.1975 I-15.5532 J-7.4607
G3 X161.1085 Y99.3033 I-0.6599 J-0.3564
G0 Z3.0
G0 Y60.75
G1 F300.0 Z-1.0
G1 F800.0 X22.0
G3 X21.25 Y60.0 I0.0 J-0.75
G1 Y5.0
G3 X22.0 Y4.25 I0.75 J0.0
G1 X194.0
G3 X194.75 Y5.0 I0.0 J0.75
G1 Y60.0
G3 X194.0 Y60.75 I-0.75 J0.0
G1 X161.1085
G1 F300.0 Z-2.0
G1 F800.0 X22.0
G3 X21.25 Y60.0 I0.0 J-0.75
G1 Y5.0
G3 X22.0 Y4.25 I0.75 J0.0
G1 X194.0
G3 X194.75 Y5.0 I0.0 J0.75
G1 Y60.0
G3 X194.0 Y60.75 I-0.75 J0.0
G1 X161.1085
G1 F300.0 Z-3.0
G1 F800.0 X102.75
G0 Z-2.0
G1 X95.25
G1 F300.0 Z-3.0
G1 F800.0 X47.75
G0 Z-2.0
G1 X40.25
G1 F300.0 Z-3.0
G1 F800.0 X22.0
G3 X21.25 Y60.0 I0.0 J-0.75
G1 Y5.0
G3 X22.0 Y4.25 I0.75 J0.0
G1 X44.25
G0 Z-2.0
G1 X51.75
G1 F300.0 Z-3.0
G1 F800.0 X125.25
G0 Z-2.0
G1 X132.75
G1 F300.0 Z-3.0
G1 F800.0 X168.25
G0 Z-2.0
G1 X175.75
G1 F300.0 Z-3.0
G1 F800.0 X194.0
G3 X194.75 Y5.0 I0.0 J0.75
G1 Y60.0
G3 X194.0 Y60.75 I-0.75 J0.0
G1 X169.75
G0 Z-2.0
G1 X162.25
G1 F300.0 Z-3.0
G1 F800.0 X161.1085
G1 F300.0 Z-4.0
G1 F800.0 X102.75
G0 Z-2.0
G1 X95.25
G1 F300.0 Z-4.0
G1 F800.0 X47.75
G0 Z-2.0
G1 X40.25
G1 F300.0 Z-4.0
G1 F800.0 X22.0
G3 X21.25 Y60.0 I0.0 J-0.75
G1 Y5.0
G3 X22.0 Y4.25 I0.75 J0.0
G1 X44.25
G0 Z-2.0
G1 X51.75
G1 F300.0 Z-4.0
G1 F800.0 X125.25
G0 Z-2.0
G1 X132.75
G1 F300.0 Z-4.0
G1 F800.0 X168.25
G0 Z-2.0
G1 X175.75
G1 F300.0 Z-4.0
G1 F800.0 X194.0
G3 X194.75 Y5.0 I0.0 J0.75
G1 Y60.0
G3 X194.0 Y60.75 I-0.75 J0.0
G1 X169.75
G0 Z-2.0
G1 X162.25
G1 F300.0 Z-4.0
G1 F800.0 X161.1085
G1 F300.0 Z-5.0
G1 F800.0 X102.75
G0 Z-2.0
G1 X95.25
G1 F300.0 Z-5.0
G1 F800.0 X47.75
G0 Z-2.0
G1 X40.25
G1 F300.0 Z-5.0
G1 F800.0 X22.0
G3 X21.25 Y60.0 I0.0 J-0.75
G1 Y5.0
G3 X22.0 Y4.25 I0.75 J0.0
G1 X44.25
G0 Z-2.0
G1 X51.75
G1 F300.0 Z-5.0
G1 F800.0 X125.25
G0 Z-2.0
G1 X132.75
G1 F300.0 Z-5.0
G1 F800.0 X168.25
G0 Z-2.0
G1 X175.75
G1 F300.0 Z-5.0
G1 F800.0 X194.0
G3 X194.75 Y5.0 I0.0 J0.75
G1 Y60.0
G3 X194.0 Y60.75 I-0.75 J0.0
G1 X169.75
G0 Z-2.0
G1 X162.25
G1 F300.0 Z-5.0
G1 F800.0 X161.1085
G1 F300.0 Z-6.0
G1 F800.0 X102.75
G0 Z-2.0
G1 X95.25
G1 F300.0 Z-6.0
G1 F800.0 X47.75
G0 Z-2.0
G1 X40.25
G1 F300.0 Z-6.0
G1 F800.0 X22.0
G3 X21.25 Y60.0 I0.0 J-0.75
G1 Y5.0
G3 X22.0 Y4.25 I0.75 J0.0
G1 X44.25
G0 Z-2.0
G1 X51.75
G1 F300.0 Z-6.0
G1 F800.0 X125.25
G0 Z-2.0
G1 X132.75
G1 F300.0 Z-6.0
G1 F800.0 X168.25
G0 Z-2.0
G1 X175.75
G1 F300.0 Z-6.0
G1 F800.0 X194.0
G3 X194.75 Y5.0 I0.0 J0.75
G1 Y60.0
G3 X194.0 Y60.75 I-0.75 J0.0
G1 X169.75
G0 Z-2.0
G1 X162.25
G1 F300.0 Z-6.0
G1 F800.0 X161.1085
G0 Z3.0
G0 X106.4937 Y152.5898
G1 F300.0 Z-1.0
G1 F800.0 X97.9937
G1 Y157.0898
G1 X106.4937
G1 Y152.5898
G1 F300.0 Z-2.0
G1 F800.0 X97.9937
G1 Y157.0898
G1 X106.4937
G1 Y152.5898
G1 F300.0 Z-3.0
G1 F800.0 X97.9937
G1 Y157.0898
G1 X106.4937
G1 Y152.5898
G1 F300.0 Z-4.0
G1 F800.0 X97.9937
G1 Y157.0898
G1 X106.4937
G1 Y152.5898
G1 F300.0 Z-5.0
G1 F800.0 X97.9937
G1 Y157.0898
G1 X106.4937
G1 Y152.5898
G1 F300.0 Z-6.0
G1 F800.0 X97.9937
G1 Y157.0898
G1 X106.4937
G1 Y152.5898
G0 Z3.0
G0 X95.9987 Y216.5898
G1 F300.0 Z-1.0
G1 F800.0 X82.4987
G1 Y221.0898
G1 X95.9987
G1 Y216.5898
G1 F300.0 Z-2.0
G1 F800.0 X82.4987
G1 Y221.0898
G1 X95.9987
G1 Y216.5898
