( Made using CamBam - http://www.cambam.co.uk )
( Funny Action - Cylindre 3mm 2/8/2016 4:06:39 PM )
( T0 : 1.5 )
G21 G90 G64 G40
G0 Z3.0
( T0 : 1.5 )
T0 M6
( Contour1 )
G17
M3 S1000
G0 X31.75 Y16.0
G1 F300.0 Z-1.0
G3 F800.0 X25.7428 Y28.375 I-15.75 J0.0
G3 X23.875 Y29.6399 Z0.0 I-9.7428 J-12.375
G3 X21.8457 Y30.625 Z-1.0 I-7.875 J-13.6399
G3 X8.125 Y29.6399 I-5.8457 J-14.625
G3 X0.4115 Y18.25 I7.875 J-13.6399
G3 X0.25 Y16.0 Z0.0 I15.5885 J-2.25
G3 X0.4115 Y13.75 Z-1.0 I15.75 J0.0
G3 X8.125 Y2.3601 I15.5885 J2.25
G3 X21.8457 Y1.375 I7.875 J13.6399
G3 X23.875 Y2.3601 Z0.0 I-5.8457 J14.625
G3 X25.7428 Y3.625 Z-1.0 I-7.875 J13.6399
G3 X31.75 Y16.0 I-9.7428 J12.375
G1 F300.0 Z-2.0
G3 F800.0 X25.7428 Y28.375 I-15.75 J0.0
G3 X23.875 Y29.6399 Z0.0 I-9.7428 J-12.375
G3 X21.8457 Y30.625 Z-2.0 I-7.875 J-13.6399
G3 X8.125 Y29.6399 I-5.8457 J-14.625
G3 X0.4115 Y18.25 I7.875 J-13.6399
G3 X0.25 Y16.0 Z0.0 I15.5885 J-2.25
G3 X0.4115 Y13.75 Z-2.0 I15.75 J0.0
G3 X8.125 Y2.3601 I15.5885 J2.25
G3 X21.8457 Y1.375 I7.875 J13.6399
G3 X23.875 Y2.3601 Z0.0 I-5.8457 J14.625
G3 X25.7428 Y3.625 Z-2.0 I-7.875 J13.6399
G3 X31.75 Y16.0 I-9.7428 J12.375
G1 F300.0 Z-3.0
G3 F800.0 X25.7428 Y28.375 I-15.75 J0.0
G3 X23.875 Y29.6399 Z0.0 I-9.7428 J-12.375
G3 X21.8457 Y30.625 Z-3.0 I-7.875 J-13.6399
G3 X8.125 Y29.6399 I-5.8457 J-14.625
G3 X0.4115 Y18.25 I7.875 J-13.6399
G3 X0.25 Y16.0 Z0.0 I15.5885 J-2.25
G3 X0.4115 Y13.75 Z-3.0 I15.75 J0.0
G3 X8.125 Y2.3601 I15.5885 J2.25
G3 X21.8457 Y1.375 I7.875 J13.6399
G3 X23.875 Y2.3601 Z0.0 I-5.8457 J14.625
G3 X25.7428 Y3.625 Z-3.0 I-7.875 J13.6399
G3 X31.75 Y16.0 I-9.7428 J12.375
G0 Z3.0
M5
M30
