( Made using CamBam - http://www.cambam.co.uk )
( Niveau 1 - Au dessus du bloc Moteur droite 1/28/2016 4:13:18 PM )
( T0 : 1.5 )
G21 G90 G64 G40
G0 Z3.0
( T0 : 1.5 )
T0 M6
( Contour1 )
G17
M3 S1000
G0 X143.25 Y44.51
G1 F300.0 Z-1.0
G2 F800.0 X142.875 Y44.2935 I-0.25 J0.0
G2 Y44.7265 I0.125 J0.2165
G2 X143.25 Y44.51 I0.125 J-0.2165
G1 F300.0 Z-2.0
G2 F800.0 X142.875 Y44.2935 I-0.25 J0.0
G2 Y44.7265 I0.125 J0.2165
G2 X143.25 Y44.51 I0.125 J-0.2165
G1 F300.0 Z-3.0
G2 F800.0 X142.875 Y44.2935 I-0.25 J0.0
G2 Y44.7265 I0.125 J0.2165
G2 X143.25 Y44.51 I0.125 J-0.2165
G1 F300.0 Z-4.0
G2 F800.0 X142.875 Y44.2935 I-0.25 J0.0
G2 Y44.7265 I0.125 J0.2165
G2 X143.25 Y44.51 I0.125 J-0.2165
G1 F300.0 Z-5.0
G2 F800.0 X142.875 Y44.2935 I-0.25 J0.0
G2 Y44.7265 I0.125 J0.2165
G2 X143.25 Y44.51 I0.125 J-0.2165
G1 F300.0 Z-6.0
G2 F800.0 X142.875 Y44.2935 I-0.25 J0.0
G2 Y44.7265 I0.125 J0.2165
G2 X143.25 Y44.51 I0.125 J-0.2165
G0 Z3.0
G0 X143.0039 Y60.26
G1 F300.0 Z-1.0
G2 F800.0 X142.875 Y60.2935 I-0.0039 J0.25
G2 Y60.7265 I0.125 J0.2165
G2 X143.25 Y60.51 I0.125 J-0.2165
G2 X143.0039 Y60.26 I-0.25 J0.0
G1 F300.0 Z-2.0
G2 F800.0 X142.875 Y60.2935 I-0.0039 J0.25
G2 Y60.7265 I0.125 J0.2165
G2 X143.25 Y60.51 I0.125 J-0.2165
G2 X143.0039 Y60.26 I-0.25 J0.0
G1 F300.0 Z-3.0
G2 F800.0 X142.875 Y60.2935 I-0.0039 J0.25
G2 Y60.7265 I0.125 J0.2165
G2 X143.25 Y60.51 I0.125 J-0.2165
G2 X143.0039 Y60.26 I-0.25 J0.0
G1 F300.0 Z-4.0
G2 F800.0 X142.875 Y60.2935 I-0.0039 J0.25
G2 Y60.7265 I0.125 J0.2165
G2 X143.25 Y60.51 I0.125 J-0.2165
G2 X143.0039 Y60.26 I-0.25 J0.0
G1 F300.0 Z-5.0
G2 F800.0 X142.875 Y60.2935 I-0.0039 J0.25
G2 Y60.7265 I0.125 J0.2165
G2 X143.25 Y60.51 I0.125 J-0.2165
G2 X143.0039 Y60.26 I-0.25 J0.0
G1 F300.0 Z-6.0
G2 F800.0 X142.875 Y60.2935 I-0.0039 J0.25
G2 Y60.7265 I0.125 J0.2165
G2 X143.25 Y60.51 I0.125 J-0.2165
G2 X143.0039 Y60.26 I-0.25 J0.0
G0 Z3.0
G0 X127.25 Y60.5061
G1 F300.0 Z-1.0
G2 F800.0 X126.875 Y60.2935 I-0.25 J0.0039
G2 Y60.7265 I0.125 J0.2165
G2 X127.25 Y60.51 I0.125 J-0.2165
G2 Y60.5061 I-0.25 J0.0
G1 F300.0 Z-2.0
G2 F800.0 X126.875 Y60.2935 I-0.25 J0.0039
G2 Y60.7265 I0.125 J0.2165
G2 X127.25 Y60.51 I0.125 J-0.2165
G2 Y60.5061 I-0.25 J0.0
G1 F300.0 Z-3.0
G2 F800.0 X126.875 Y60.2935 I-0.25 J0.0039
G2 Y60.7265 I0.125 J0.2165
G2 X127.25 Y60.51 I0.125 J-0.2165
G2 Y60.5061 I-0.25 J0.0
G1 F300.0 Z-4.0
G2 F800.0 X126.875 Y60.2935 I-0.25 J0.0039
G2 Y60.7265 I0.125 J0.2165
G2 X127.25 Y60.51 I0.125 J-0.2165
G2 Y60.5061 I-0.25 J0.0
G1 F300.0 Z-5.0
G2 F800.0 X126.875 Y60.2935 I-0.25 J0.0039
G2 Y60.7265 I0.125 J0.2165
G2 X127.25 Y60.51 I0.125 J-0.2165
G2 Y60.5061 I-0.25 J0.0
G1 F300.0 Z-6.0
G2 F800.0 X126.875 Y60.2935 I-0.25 J0.0039
G2 Y60.7265 I0.125 J0.2165
G2 X127.25 Y60.51 I0.125 J-0.2165
G2 Y60.5061 I-0.25 J0.0
G0 Z3.0
G0 X127.0039 Y44.76
G1 F300.0 Z-1.0
G2 F800.0 X127.25 Y44.51 I-0.0039 J-0.25
G2 X126.875 Y44.2935 I-0.25 J0.0
G2 Y44.7265 I0.125 J0.2165
G2 X127.0039 Y44.76 I0.125 J-0.2165
G1 F300.0 Z-2.0
G2 F800.0 X127.25 Y44.51 I-0.0039 J-0.25
G2 X126.875 Y44.2935 I-0.25 J0.0
G2 Y44.7265 I0.125 J0.2165
G2 X127.0039 Y44.76 I0.125 J-0.2165
G1 F300.0 Z-3.0
G2 F800.0 X127.25 Y44.51 I-0.0039 J-0.25
G2 X126.875 Y44.2935 I-0.25 J0.0
G2 Y44.7265 I0.125 J0.2165
G2 X127.0039 Y44.76 I0.125 J-0.2165
G1 F300.0 Z-4.0
G2 F800.0 X127.25 Y44.51 I-0.0039 J-0.25
G2 X126.875 Y44.2935 I-0.25 J0.0
G2 Y44.7265 I0.125 J0.2165
G2 X127.0039 Y44.76 I0.125 J-0.2165
G1 F300.0 Z-5.0
G2 F800.0 X127.25 Y44.51 I-0.0039 J-0.25
G2 X126.875 Y44.2935 I-0.25 J0.0
G2 Y44.7265 I0.125 J0.2165
G2 X127.0039 Y44.76 I0.125 J-0.2165
G1 F300.0 Z-6.0
G2 F800.0 X127.25 Y44.51 I-0.0039 J-0.25
G2 X126.875 Y44.2935 I-0.25 J0.0
G2 Y44.7265 I0.125 J0.2165
G2 X127.0039 Y44.76 I0.125 J-0.2165
G0 Z3.0
G0 X93.7122 Y55.7548
G1 F300.0 Z-1.0
G2 F800.0 X92.625 Y55.3405 I-0.7122 J0.2352
G2 Y56.6395 I0.375 J0.6495
G2 X93.75 Y55.99 I0.375 J-0.6495
G2 X93.7122 Y55.7548 I-0.75 J0.0
G1 F300.0 Z-2.0
G2 F800.0 X92.625 Y55.3405 I-0.7122 J0.2352
G2 Y56.6395 I0.375 J0.6495
G2 X93.75 Y55.99 I0.375 J-0.6495
G2 X93.7122 Y55.7548 I-0.75 J0.0
G1 F300.0 Z-3.0
G2 F800.0 X92.625 Y55.3405 I-0.7122 J0.2352
G2 Y56.6395 I0.375 J0.6495
G2 X93.75 Y55.99 I0.375 J-0.6495
G2 X93.7122 Y55.7548 I-0.75 J0.0
G1 F300.0 Z-4.0
G2 F800.0 X92.625 Y55.3405 I-0.7122 J0.2352
G2 Y56.6395 I0.375 J0.6495
G2 X93.75 Y55.99 I0.375 J-0.6495
G2 X93.7122 Y55.7548 I-0.75 J0.0
G1 F300.0 Z-5.0
G2 F800.0 X92.625 Y55.3405 I-0.7122 J0.2352
G2 Y56.6395 I0.375 J0.6495
G2 X93.75 Y55.99 I0.375 J-0.6495
G2 X93.7122 Y55.7548 I-0.75 J0.0
G1 F300.0 Z-6.0
G2 F800.0 X92.625 Y55.3405 I-0.7122 J0.2352
G2 Y56.6395 I0.375 J0.6495
G2 X93.75 Y55.99 I0.375 J-0.6495
G2 X93.7122 Y55.7548 I-0.75 J0.0
G0 Z3.0
G0 X93.0124 Y98.0001
G1 F300.0 Z-1.0
G2 F800.0 X92.625 Y98.1005 I-0.0124 J0.7499
G2 Y99.3995 I0.375 J0.6495
G2 X93.75 Y98.75 I0.375 J-0.6495
G2 X93.0124 Y98.0001 I-0.75 J0.0
G1 F300.0 Z-2.0
G2 F800.0 X92.625 Y98.1005 I-0.0124 J0.7499
G2 Y99.3995 I0.375 J0.6495
G2 X93.75 Y98.75 I0.375 J-0.6495
G2 X93.0124 Y98.0001 I-0.75 J0.0
G1 F300.0 Z-3.0
G2 F800.0 X92.625 Y98.1005 I-0.0124 J0.7499
G2 Y99.3995 I0.375 J0.6495
G2 X93.75 Y98.75 I0.375 J-0.6495
G2 X93.0124 Y98.0001 I-0.75 J0.0
G1 F300.0 Z-4.0
G2 F800.0 X92.625 Y98.1005 I-0.0124 J0.7499
G2 Y99.3995 I0.375 J0.6495
G2 X93.75 Y98.75 I0.375 J-0.6495
G2 X93.0124 Y98.0001 I-0.75 J0.0
G1 F300.0 Z-5.0
G2 F800.0 X92.625 Y98.1005 I-0.0124 J0.7499
G2 Y99.3995 I0.375 J0.6495
G2 X93.75 Y98.75 I0.375 J-0.6495
G2 X93.0124 Y98.0001 I-0.75 J0.0
G1 F300.0 Z-6.0
G2 F800.0 X92.625 Y98.1005 I-0.0124 J0.7499
G2 Y99.3995 I0.375 J0.6495
G2 X93.75 Y98.75 I0.375 J-0.6495
G2 X93.0124 Y98.0001 I-0.75 J0.0
( Contour2 )
S1000
G0 Z3.0
G0 X95.25 Y55.99
G1 F300.0 Z-1.0
G3 F800.0 X91.875 Y57.9386 I-2.25 J0.0
G3 Y54.0414 I1.125 J-1.9486
G3 X95.25 Y55.99 I1.125 J1.9486
G1 F300.0 Z-2.0
G3 F800.0 X91.875 Y57.9386 I-2.25 J0.0
G3 Y54.0414 I1.125 J-1.9486
G3 X95.25 Y55.99 I1.125 J1.9486
G1 F300.0 Z-3.0
G3 F800.0 X91.875 Y57.9386 I-2.25 J0.0
G3 Y54.0414 I1.125 J-1.9486
G3 X95.25 Y55.99 I1.125 J1.9486
G0 Z3.0
G0 X125.2675 Y60.2634
G1 F300.0 Z-1.0
G3 F800.0 X126.125 Y58.9945 I1.7325 J0.2466
G3 X128.75 Y60.51 I0.875 J1.5155
G3 X126.125 Y62.0255 I-1.75 J0.0
G3 X125.2675 Y60.2634 I0.875 J-1.5155
G1 F300.0 Z-2.0
G3 F800.0 X126.125 Y58.9945 I1.7325 J0.2466
G3 X128.75 Y60.51 I0.875 J1.5155
G3 X126.125 Y62.0255 I-1.75 J0.0
G3 X125.2675 Y60.2634 I0.875 J-1.5155
G1 F300.0 Z-3.0
G3 F800.0 X126.125 Y58.9945 I1.7325 J0.2466
G3 X128.75 Y60.51 I0.875 J1.5155
G3 X126.125 Y62.0255 I-1.75 J0.0
G3 X125.2675 Y60.2634 I0.875 J-1.5155
G0 Z3.0
G0 X126.8087 Y46.2495
G1 F300.0 Z-1.0
G3 F800.0 X126.125 Y46.0255 I0.1913 J-1.7395
G3 Y42.9945 I0.875 J-1.5155
G3 X128.75 Y44.51 I0.875 J1.5155
G3 X126.8087 Y46.2495 I-1.75 J0.0
G1 F300.0 Z-2.0
G3 F800.0 X126.125 Y46.0255 I0.1913 J-1.7395
G3 Y42.9945 I0.875 J-1.5155
G3 X128.75 Y44.51 I0.875 J1.5155
G3 X126.8087 Y46.2495 I-1.75 J0.0
G1 F300.0 Z-3.0
G3 F800.0 X126.125 Y46.0255 I0.1913 J-1.7395
G3 Y42.9945 I0.875 J-1.5155
G3 X128.75 Y44.51 I0.875 J1.5155
G3 X126.8087 Y46.2495 I-1.75 J0.0
G0 Z3.0
G0 X141.26 Y44.6969
G1 F300.0 Z-1.0
G3 F800.0 X142.125 Y42.9945 I1.74 J-0.1869
G3 X144.75 Y44.51 I0.875 J1.5155
G3 X142.125 Y46.0255 I-1.75 J0.0
G3 X141.26 Y44.6969 I0.875 J-1.5155
G1 F300.0 Z-2.0
G3 F800.0 X142.125 Y42.9945 I1.74 J-0.1869
G3 X144.75 Y44.51 I0.875 J1.5155
G3 X142.125 Y46.0255 I-1.75 J0.0
G3 X141.26 Y44.6969 I0.875 J-1.5155
G1 F300.0 Z-3.0
G3 F800.0 X142.125 Y42.9945 I1.74 J-0.1869
G3 X144.75 Y44.51 I0.875 J1.5155
G3 X142.125 Y46.0255 I-1.75 J0.0
G3 X141.26 Y44.6969 I0.875 J-1.5155
G0 Z3.0
G0 X142.8086 Y58.7705
G1 F300.0 Z-1.0
G3 F800.0 X144.75 Y60.51 I0.1914 J1.7395
G3 X142.125 Y62.0255 I-1.75 J0.0
G3 Y58.9945 I0.875 J-1.5155
G3 X142.8086 Y58.7705 I0.875 J1.5155
G1 F300.0 Z-2.0
G3 F800.0 X144.75 Y60.51 I0.1914 J1.7395
G3 X142.125 Y62.0255 I-1.75 J0.0
G3 Y58.9945 I0.875 J-1.5155
G3 X142.8086 Y58.7705 I0.875 J1.5155
G1 F300.0 Z-3.0
G3 F800.0 X144.75 Y60.51 I0.1914 J1.7395
G3 X142.125 Y62.0255 I-1.75 J0.0
G3 Y58.9945 I0.875 J-1.5155
G3 X142.8086 Y58.7705 I0.875 J1.5155
G0 Z3.0
G0 X94.7547 Y97.3416
G1 F300.0 Z-1.0
G3 F800.0 X95.25 Y98.75 I-1.7547 J1.4084
G3 X91.875 Y100.6986 I-2.25 J0.0
G3 Y96.8014 I1.125 J-1.9486
G3 X94.7547 Y97.3416 I1.125 J1.9486
G1 F300.0 Z-2.0
G3 F800.0 X95.25 Y98.75 I-1.7547 J1.4084
G3 X91.875 Y100.6986 I-2.25 J0.0
G3 Y96.8014 I1.125 J-1.9486
G3 X94.7547 Y97.3416 I1.125 J1.9486
G1 F300.0 Z-3.0
G3 F800.0 X95.25 Y98.75 I-1.7547 J1.4084
G3 X91.875 Y100.6986 I-2.25 J0.0
G3 Y96.8014 I1.125 J-1.9486
G3 X94.7547 Y97.3416 I1.125 J1.9486
( Contour3 )
S1000
G0 Z3.0
G0 X90.75 Y50.24
G1 F300.0 Z-1.0
G1 F800.0 X95.25
G1 Y31.74
G1 X90.75
G1 Y50.24
G1 F300.0 Z-2.0
G1 F800.0 X95.25
G1 Y31.74
G1 X90.75
G1 Y50.24
G1 F300.0 Z-3.0
G1 F800.0 X95.25
G1 Y31.74
G1 X90.75
G1 Y50.24
G1 F300.0 Z-4.0
G1 F800.0 X95.25
G1 Y31.74
G1 X90.75
G1 Y50.24
G1 F300.0 Z-5.0
G1 F800.0 X95.25
G1 Y31.74
G1 X90.75
G1 Y50.24
G1 F300.0 Z-6.0
G1 F800.0 X95.25
G1 Y31.74
G1 X90.75
G1 Y50.24
G0 Z3.0
G0 X106.7365 Y73.5756
G1 F300.0 Z-1.0
G1 F800.0 Y102.0756
G1 X135.2365
G1 Y73.5756
G1 X106.7365
G1 F300.0 Z-2.0
G1 F800.0 Y102.0756
G1 X135.2365
G1 Y73.5756
G1 X106.7365
G1 F300.0 Z-3.0
G1 F800.0 Y102.0756
G1 X135.2365
G1 Y73.5756
G1 X106.7365
G1 F300.0 Z-4.0
G1 F800.0 Y102.0756
G1 X135.2365
G1 Y73.5756
G1 X106.7365
G1 F300.0 Z-5.0
G1 F800.0 Y102.0756
G1 X135.2365
G1 Y73.5756
G1 X106.7365
G1 F300.0 Z-6.0
G1 F800.0 Y102.0756
G1 X135.2365
G1 Y73.5756
G1 X106.7365
G0 Z3.0
G0 X95.25 Y104.5
G1 F300.0 Z-1.0
G1 F800.0 X90.75
G1 Y123.0
G1 X95.25
G1 Y104.5
G1 F300.0 Z-2.0
G1 F800.0 X90.75
G1 Y123.0
G1 X95.25
G1 Y104.5
G1 F300.0 Z-3.0
G1 F800.0 X90.75
G1 Y123.0
G1 X95.25
G1 Y104.5
G1 F300.0 Z-4.0
G1 F800.0 X90.75
G1 Y123.0
G1 X95.25
G1 Y104.5
G1 F300.0 Z-5.0
G1 F800.0 X90.75
G1 Y123.0
G1 X95.25
G1 Y104.5
G1 F300.0 Z-6.0
G1 F800.0 X90.75
G1 Y123.0
G1 X95.25
G1 Y104.5
( Contour4 )
S1000
G0 Z3.0
G0 X18.25 Y10.0
G1 F300.0 Z-1.0
G1 F800.0 Y15.25
G1 X86.75
G1 Y10.0
G3 X87.5 Y9.25 I0.75 J0.0
G1 X102.5
G3 X103.25 Y10.0 I0.0 J0.75
G1 Y15.25
G1 X169.0
G3 X169.75 Y16.0 I0.0 J0.75
G1 Y36.34
G1 X175.0
G3 X175.75 Y37.09 I0.0 J0.75
G1 Y52.09
G3 X175.0 Y52.84 I-0.75 J0.0
G1 X169.75
G1 Y81.34
G1 X175.0
G3 X175.75 Y82.09 I0.0 J0.75
G1 Y97.09
G3 X175.0 Y97.84 I-0.75 J0.0
G1 X169.75
G1 Y111.0
G3 X169.0 Y111.75 I-0.75 J0.0
G1 X141.75
G1 Y138.75
G3 X141.0 Y139.5 I-0.75 J0.0
G1 X111.75
G1 Y144.75
G3 X111.0 Y145.5 I-0.75 J0.0
G1 X91.0
G3 X90.25 Y144.75 I0.0 J-0.75
G1 Y139.5
G1 X70.5
G3 X69.75 Y138.75 I0.0 J-0.75
G1 Y124.5
G1 X41.25
G1 Y138.75
G3 X40.5 Y139.5 I-0.75 J0.0
G1 X20.75
G1 Y144.75
G3 X20.0 Y145.5 I-0.75 J0.0
G1 X10.0
G3 X9.25 Y144.75 I0.0 J-0.75
G1 Y10.0
G3 X10.0 Y9.25 I0.75 J0.0
G1 X17.5
G3 X18.25 Y10.0 I0.0 J0.75
G1 F300.0 Z-2.0
G1 F800.0 Y15.25
G1 X86.75
G1 Y10.0
G3 X87.5 Y9.25 I0.75 J0.0
G1 X102.5
G3 X103.25 Y10.0 I0.0 J0.75
G1 Y15.25
G1 X169.0
G3 X169.75 Y16.0 I0.0 J0.75
G1 Y36.34
G1 X175.0
G3 X175.75 Y37.09 I0.0 J0.75
G1 Y52.09
G3 X175.0 Y52.84 I-0.75 J0.0
G1 X169.75
G1 Y81.34
G1 X175.0
G3 X175.75 Y82.09 I0.0 J0.75
G1 Y97.09
G3 X175.0 Y97.84 I-0.75 J0.0
G1 X169.75
G1 Y111.0
G3 X169.0 Y111.75 I-0.75 J0.0
G1 X141.75
G1 Y138.75
G3 X141.0 Y139.5 I-0.75 J0.0
G1 X111.75
G1 Y144.75
G3 X111.0 Y145.5 I-0.75 J0.0
G1 X91.0
G3 X90.25 Y144.75 I0.0 J-0.75
G1 Y139.5
G1 X70.5
G3 X69.75 Y138.75 I0.0 J-0.75
G1 Y124.5
G1 X41.25
G1 Y138.75
G3 X40.5 Y139.5 I-0.75 J0.0
G1 X20.75
G1 Y144.75
G3 X20.0 Y145.5 I-0.75 J0.0
G1 X10.0
G3 X9.25 Y144.75 I0.0 J-0.75
G1 Y10.0
G3 X10.0 Y9.25 I0.75 J0.0
G1 X17.5
G3 X18.25 Y10.0 I0.0 J0.75
G1 F300.0 Z-3.0
G1 F800.0 Y15.25
G1 X86.75
G1 Y10.0
G3 X87.5 Y9.25 I0.75 J0.0
G1 X102.5
G3 X103.25 Y10.0 I0.0 J0.75
G1 Y15.25
G1 X169.0
G3 X169.75 Y16.0 I0.0 J0.75
G1 Y36.34
G1 X175.0
G3 X175.75 Y37.09 I0.0 J0.75
G1 Y52.09
G3 X175.0 Y52.84 I-0.75 J0.0
G1 X169.75
G1 Y81.34
G1 X175.0
G3 X175.75 Y82.09 I0.0 J0.75
G1 Y97.09
G3 X175.0 Y97.84 I-0.75 J0.0
G1 X169.75
G1 Y111.0
G3 X169.0 Y111.75 I-0.75 J0.0
G1 X141.75
G1 Y138.75
G3 X141.0 Y139.5 I-0.75 J0.0
G1 X111.75
G1 Y144.75
G3 X111.0 Y145.5 I-0.75 J0.0
G1 X91.0
G3 X90.25 Y144.75 I0.0 J-0.75
G1 Y139.5
G1 X70.5
G3 X69.75 Y138.75 I0.0 J-0.75
G1 Y124.5
G1 X41.25
G1 Y138.75
G3 X40.5 Y139.5 I-0.75 J0.0
G1 X20.75
G1 Y144.75
G3 X20.0 Y145.5 I-0.75 J0.0
G1 X10.0
G3 X9.25 Y144.75 I0.0 J-0.75
G1 Y10.0
G3 X10.0 Y9.25 I0.75 J0.0
G1 X17.5
G3 X18.25 Y10.0 I0.0 J0.75
G1 F300.0 Z-4.0
G1 F800.0 Y15.25
G1 X86.75
G1 Y10.0
G3 X87.5 Y9.25 I0.75 J0.0
G1 X102.5
G3 X103.25 Y10.0 I0.0 J0.75
G1 Y15.25
G1 X169.0
G3 X169.75 Y16.0 I0.0 J0.75
G1 Y36.34
G1 X175.0
G3 X175.75 Y37.09 I0.0 J0.75
G1 Y52.09
G3 X175.0 Y52.84 I-0.75 J0.0
G1 X169.75
G1 Y81.34
G1 X175.0
G3 X175.75 Y82.09 I0.0 J0.75
G1 Y97.09
G3 X175.0 Y97.84 I-0.75 J0.0
G1 X169.75
G1 Y111.0
G3 X169.0 Y111.75 I-0.75 J0.0
G1 X141.75
G1 Y138.75
G3 X141.0 Y139.5 I-0.75 J0.0
G1 X111.75
G1 Y144.75
G3 X111.0 Y145.5 I-0.75 J0.0
G1 X91.0
G3 X90.25 Y144.75 I0.0 J-0.75
G1 Y139.5
G1 X70.5
G3 X69.75 Y138.75 I0.0 J-0.75
G1 Y124.5
G1 X41.25
G1 Y138.75
G3 X40.5 Y139.5 I-0.75 J0.0
G1 X20.75
G1 Y144.75
G3 X20.0 Y145.5 I-0.75 J0.0
G1 X10.0
G3 X9.25 Y144.75 I0.0 J-0.75
G1 Y10.0
G3 X10.0 Y9.25 I0.75 J0.0
G1 X17.5
G3 X18.25 Y10.0 I0.0 J0.75
G1 F300.0 Z-5.0
G1 F800.0 Y15.25
G1 X49.75
G0 Z-4.0
G1 X56.25
G1 F300.0 Z-5.0
G1 F800.0 X86.75
G1 Y10.0
G3 X87.5 Y9.25 I0.75 J0.0
G1 X102.5
G3 X103.25 Y10.0 I0.0 J0.75
G1 Y15.25
G1 X169.0
G3 X169.75 Y16.0 I0.0 J0.75
G1 Y23.75
G0 Z-4.0
G1 Y30.25
G1 F300.0 Z-5.0
G1 F800.0 Y36.34
G1 X175.0
G3 X175.75 Y37.09 I0.0 J0.75
G1 Y52.09
G3 X175.0 Y52.84 I-0.75 J0.0
G1 X169.75
G1 Y81.34
G1 X175.0
G3 X175.75 Y82.09 I0.0 J0.75
G1 Y97.09
G3 X175.0 Y97.84 I-0.75 J0.0
G1 X169.75
G1 Y101.75
G0 Z-4.0
G1 Y108.25
G1 F300.0 Z-5.0
G1 F800.0 Y111.0
G3 X169.0 Y111.75 I-0.75 J0.0
G1 X141.75
G1 Y138.75
G3 X141.0 Y139.5 I-0.75 J0.0
G1 X131.25
G0 Z-4.0
G1 X124.75
G1 F300.0 Z-5.0
G1 F800.0 X111.75
G1 Y144.75
G3 X111.0 Y145.5 I-0.75 J0.0
G1 X91.0
G3 X90.25 Y144.75 I0.0 J-0.75
G1 Y139.5
G1 X70.5
G3 X69.75 Y138.75 I0.0 J-0.75
G1 Y124.5
G1 X41.25
G1 Y138.75
G3 X40.5 Y139.5 I-0.75 J0.0
G1 X36.25
G0 Z-4.0
G1 X29.75
G1 F300.0 Z-5.0
G1 F800.0 X20.75
G1 Y144.75
G3 X20.0 Y145.5 I-0.75 J0.0
G1 X10.0
G3 X9.25 Y144.75 I0.0 J-0.75
G1 Y61.2083
G0 Z-4.0
G1 Y54.7083
G1 F300.0 Z-5.0
G1 F800.0 Y10.0
G3 X10.0 Y9.25 I0.75 J0.0
G1 X17.5
G3 X18.25 Y10.0 I0.0 J0.75
G1 F300.0 Z-6.0
G1 F800.0 Y15.25
G1 X49.75
G0 Z-4.0
G1 X56.25
G1 F300.0 Z-6.0
G1 F800.0 X86.75
G1 Y10.0
G3 X87.5 Y9.25 I0.75 J0.0
G1 X102.5
G3 X103.25 Y10.0 I0.0 J0.75
G1 Y15.25
G1 X169.0
G3 X169.75 Y16.0 I0.0 J0.75
G1 Y23.75
G0 Z-4.0
G1 Y30.25
G1 F300.0 Z-6.0
G1 F800.0 Y36.34
G1 X175.0
G3 X175.75 Y37.09 I0.0 J0.75
G1 Y52.09
G3 X175.0 Y52.84 I-0.75 J0.0
G1 X169.75
G1 Y81.34
G1 X175.0
G3 X175.75 Y82.09 I0.0 J0.75
G1 Y97.09
G3 X175.0 Y97.84 I-0.75 J0.0
G1 X169.75
G1 Y101.75
G0 Z-4.0
G1 Y108.25
G1 F300.0 Z-6.0
G1 F800.0 Y111.0
G3 X169.0 Y111.75 I-0.75 J0.0
G1 X141.75
G1 Y138.75
G3 X141.0 Y139.5 I-0.75 J0.0
G1 X131.25
G0 Z-4.0
G1 X124.75
G1 F300.0 Z-6.0
G1 F800.0 X111.75
G1 Y144.75
G3 X111.0 Y145.5 I-0.75 J0.0
G1 X91.0
G3 X90.25 Y144.75 I0.0 J-0.75
G1 Y139.5
G1 X70.5
G3 X69.75 Y138.75 I0.0 J-0.75
G1 Y124.5
G1 X41.25
G1 Y138.75
G3 X40.5 Y139.5 I-0.75 J0.0
G1 X36.25
G0 Z-4.0
G1 X29.75
G1 F300.0 Z-6.0
G1 F800.0 X20.75
G1 Y144.75
G3 X20.0 Y145.5 I-0.75 J0.0
G1 X10.0
G3 X9.25 Y144.75 I0.0 J-0.75
G1 Y61.2083
G0 Z-4.0
G1 Y54.7083
G1 F300.0 Z-6.0
G1 F800.0 Y10.0
G3 X10.0 Y9.25 I0.75 J0.0
G1 X17.5
G3 X18.25 Y10.0 I0.0 J0.75
G0 Z3.0
M5
M30
