( Made using CamBam - http://www.cambam.co.uk )
( Niveau 1 - Au dessus du bloc Moteur gauche 1/28/2016 4:37:05 PM )
( T0 : 1.5 )
G21 G90 G64 G40
G0 Z3.0
( T0 : 1.5 )
T0 M6
( Contour1 )
G17
M3 S1000
G0 X57.25 Y44.42
G1 F300.0 Z-1.0
G2 F800.0 X56.875 Y44.2035 I-0.25 J0.0
G2 Y44.6365 I0.125 J0.2165
G2 X57.25 Y44.42 I0.125 J-0.2165
G1 F300.0 Z-2.0
G2 F800.0 X56.875 Y44.2035 I-0.25 J0.0
G2 Y44.6365 I0.125 J0.2165
G2 X57.25 Y44.42 I0.125 J-0.2165
G1 F300.0 Z-3.0
G2 F800.0 X56.875 Y44.2035 I-0.25 J0.0
G2 Y44.6365 I0.125 J0.2165
G2 X57.25 Y44.42 I0.125 J-0.2165
G1 F300.0 Z-4.0
G2 F800.0 X56.875 Y44.2035 I-0.25 J0.0
G2 Y44.6365 I0.125 J0.2165
G2 X57.25 Y44.42 I0.125 J-0.2165
G1 F300.0 Z-5.0
G2 F800.0 X56.875 Y44.2035 I-0.25 J0.0
G2 Y44.6365 I0.125 J0.2165
G2 X57.25 Y44.42 I0.125 J-0.2165
G1 F300.0 Z-6.0
G2 F800.0 X56.875 Y44.2035 I-0.25 J0.0
G2 Y44.6365 I0.125 J0.2165
G2 X57.25 Y44.42 I0.125 J-0.2165
G0 Z3.0
G0 X57.0039 Y60.17
G1 F300.0 Z-1.0
G2 F800.0 X56.875 Y60.2035 I-0.0039 J0.25
G2 Y60.6365 I0.125 J0.2165
G2 X57.25 Y60.42 I0.125 J-0.2165
G2 X57.0039 Y60.17 I-0.25 J0.0
G1 F300.0 Z-2.0
G2 F800.0 X56.875 Y60.2035 I-0.0039 J0.25
G2 Y60.6365 I0.125 J0.2165
G2 X57.25 Y60.42 I0.125 J-0.2165
G2 X57.0039 Y60.17 I-0.25 J0.0
G1 F300.0 Z-3.0
G2 F800.0 X56.875 Y60.2035 I-0.0039 J0.25
G2 Y60.6365 I0.125 J0.2165
G2 X57.25 Y60.42 I0.125 J-0.2165
G2 X57.0039 Y60.17 I-0.25 J0.0
G1 F300.0 Z-4.0
G2 F800.0 X56.875 Y60.2035 I-0.0039 J0.25
G2 Y60.6365 I0.125 J0.2165
G2 X57.25 Y60.42 I0.125 J-0.2165
G2 X57.0039 Y60.17 I-0.25 J0.0
G1 F300.0 Z-5.0
G2 F800.0 X56.875 Y60.2035 I-0.0039 J0.25
G2 Y60.6365 I0.125 J0.2165
G2 X57.25 Y60.42 I0.125 J-0.2165
G2 X57.0039 Y60.17 I-0.25 J0.0
G1 F300.0 Z-6.0
G2 F800.0 X56.875 Y60.2035 I-0.0039 J0.25
G2 Y60.6365 I0.125 J0.2165
G2 X57.25 Y60.42 I0.125 J-0.2165
G2 X57.0039 Y60.17 I-0.25 J0.0
G0 Z3.0
G0 X41.25 Y60.4161
G1 F300.0 Z-1.0
G2 F800.0 X40.875 Y60.2035 I-0.25 J0.0039
G2 Y60.6365 I0.125 J0.2165
G2 X41.25 Y60.42 I0.125 J-0.2165
G2 Y60.4161 I-0.25 J0.0
G1 F300.0 Z-2.0
G2 F800.0 X40.875 Y60.2035 I-0.25 J0.0039
G2 Y60.6365 I0.125 J0.2165
G2 X41.25 Y60.42 I0.125 J-0.2165
G2 Y60.4161 I-0.25 J0.0
G1 F300.0 Z-3.0
G2 F800.0 X40.875 Y60.2035 I-0.25 J0.0039
G2 Y60.6365 I0.125 J0.2165
G2 X41.25 Y60.42 I0.125 J-0.2165
G2 Y60.4161 I-0.25 J0.0
G1 F300.0 Z-4.0
G2 F800.0 X40.875 Y60.2035 I-0.25 J0.0039
G2 Y60.6365 I0.125 J0.2165
G2 X41.25 Y60.42 I0.125 J-0.2165
G2 Y60.4161 I-0.25 J0.0
G1 F300.0 Z-5.0
G2 F800.0 X40.875 Y60.2035 I-0.25 J0.0039
G2 Y60.6365 I0.125 J0.2165
G2 X41.25 Y60.42 I0.125 J-0.2165
G2 Y60.4161 I-0.25 J0.0
G1 F300.0 Z-6.0
G2 F800.0 X40.875 Y60.2035 I-0.25 J0.0039
G2 Y60.6365 I0.125 J0.2165
G2 X41.25 Y60.42 I0.125 J-0.2165
G2 Y60.4161 I-0.25 J0.0
G0 Z3.0
G0 X41.0039 Y44.67
G1 F300.0 Z-1.0
G2 F800.0 X41.25 Y44.42 I-0.0039 J-0.25
G2 X40.875 Y44.2035 I-0.25 J0.0
G2 Y44.6365 I0.125 J0.2165
G2 X41.0039 Y44.67 I0.125 J-0.2165
G1 F300.0 Z-2.0
G2 F800.0 X41.25 Y44.42 I-0.0039 J-0.25
G2 X40.875 Y44.2035 I-0.25 J0.0
G2 Y44.6365 I0.125 J0.2165
G2 X41.0039 Y44.67 I0.125 J-0.2165
G1 F300.0 Z-3.0
G2 F800.0 X41.25 Y44.42 I-0.0039 J-0.25
G2 X40.875 Y44.2035 I-0.25 J0.0
G2 Y44.6365 I0.125 J0.2165
G2 X41.0039 Y44.67 I0.125 J-0.2165
G1 F300.0 Z-4.0
G2 F800.0 X41.25 Y44.42 I-0.0039 J-0.25
G2 X40.875 Y44.2035 I-0.25 J0.0
G2 Y44.6365 I0.125 J0.2165
G2 X41.0039 Y44.67 I0.125 J-0.2165
G1 F300.0 Z-5.0
G2 F800.0 X41.25 Y44.42 I-0.0039 J-0.25
G2 X40.875 Y44.2035 I-0.25 J0.0
G2 Y44.6365 I0.125 J0.2165
G2 X41.0039 Y44.67 I0.125 J-0.2165
G1 F300.0 Z-6.0
G2 F800.0 X41.25 Y44.42 I-0.0039 J-0.25
G2 X40.875 Y44.2035 I-0.25 J0.0
G2 Y44.6365 I0.125 J0.2165
G2 X41.0039 Y44.67 I0.125 J-0.2165
G0 Z3.0
G0 X80.2779 Y55.6973
G1 F300.0 Z-1.0
G2 F800.0 X80.625 Y56.5495 I0.7221 J0.2027
G2 X81.75 Y55.9 I0.375 J-0.6495
G2 X80.625 Y55.2505 I-0.75 J0.0
G2 X80.2779 Y55.6973 I0.375 J0.6495
G1 F300.0 Z-2.0
G2 F800.0 X80.625 Y56.5495 I0.7221 J0.2027
G2 X81.75 Y55.9 I0.375 J-0.6495
G2 X80.625 Y55.2505 I-0.75 J0.0
G2 X80.2779 Y55.6973 I0.375 J0.6495
G1 F300.0 Z-3.0
G2 F800.0 X80.625 Y56.5495 I0.7221 J0.2027
G2 X81.75 Y55.9 I0.375 J-0.6495
G2 X80.625 Y55.2505 I-0.75 J0.0
G2 X80.2779 Y55.6973 I0.375 J0.6495
G1 F300.0 Z-4.0
G2 F800.0 X80.625 Y56.5495 I0.7221 J0.2027
G2 X81.75 Y55.9 I0.375 J-0.6495
G2 X80.625 Y55.2505 I-0.75 J0.0
G2 X80.2779 Y55.6973 I0.375 J0.6495
G1 F300.0 Z-5.0
G2 F800.0 X80.625 Y56.5495 I0.7221 J0.2027
G2 X81.75 Y55.9 I0.375 J-0.6495
G2 X80.625 Y55.2505 I-0.75 J0.0
G2 X80.2779 Y55.6973 I0.375 J0.6495
G1 F300.0 Z-6.0
G2 F800.0 X80.625 Y56.5495 I0.7221 J0.2027
G2 X81.75 Y55.9 I0.375 J-0.6495
G2 X80.625 Y55.2505 I-0.75 J0.0
G2 X80.2779 Y55.6973 I0.375 J0.6495
G0 Z3.0
G0 X80.9874 Y97.9101
G1 F300.0 Z-1.0
G2 F800.0 X80.625 Y98.0105 I0.0126 J0.7499
G2 Y99.3095 I0.375 J0.6495
G2 X81.75 Y98.66 I0.375 J-0.6495
G2 X80.9874 Y97.9101 I-0.75 J0.0
G1 F300.0 Z-2.0
G2 F800.0 X80.625 Y98.0105 I0.0126 J0.7499
G2 Y99.3095 I0.375 J0.6495
G2 X81.75 Y98.66 I0.375 J-0.6495
G2 X80.9874 Y97.9101 I-0.75 J0.0
G1 F300.0 Z-3.0
G2 F800.0 X80.625 Y98.0105 I0.0126 J0.7499
G2 Y99.3095 I0.375 J0.6495
G2 X81.75 Y98.66 I0.375 J-0.6495
G2 X80.9874 Y97.9101 I-0.75 J0.0
G1 F300.0 Z-4.0
G2 F800.0 X80.625 Y98.0105 I0.0126 J0.7499
G2 Y99.3095 I0.375 J0.6495
G2 X81.75 Y98.66 I0.375 J-0.6495
G2 X80.9874 Y97.9101 I-0.75 J0.0
G1 F300.0 Z-5.0
G2 F800.0 X80.625 Y98.0105 I0.0126 J0.7499
G2 Y99.3095 I0.375 J0.6495
G2 X81.75 Y98.66 I0.375 J-0.6495
G2 X80.9874 Y97.9101 I-0.75 J0.0
G1 F300.0 Z-6.0
G2 F800.0 X80.625 Y98.0105 I0.0126 J0.7499
G2 Y99.3095 I0.375 J0.6495
G2 X81.75 Y98.66 I0.375 J-0.6495
G2 X80.9874 Y97.9101 I-0.75 J0.0
( Contour2 )
S1000
G0 Z3.0
G0 X83.25 Y55.9
G1 F300.0 Z-1.0
G3 F800.0 X79.875 Y57.8486 I-2.25 J0.0
G3 Y53.9514 I1.125 J-1.9486
G3 X83.25 Y55.9 I1.125 J1.9486
G1 F300.0 Z-2.0
G3 F800.0 X79.875 Y57.8486 I-2.25 J0.0
G3 Y53.9514 I1.125 J-1.9486
G3 X83.25 Y55.9 I1.125 J1.9486
G1 F300.0 Z-3.0
G3 F800.0 X79.875 Y57.8486 I-2.25 J0.0
G3 Y53.9514 I1.125 J-1.9486
G3 X83.25 Y55.9 I1.125 J1.9486
G0 Z3.0
G0 X58.7246 Y60.123
G1 F300.0 Z-1.0
G3 F800.0 X58.75 Y60.42 I-1.7246 J0.297
G3 X56.125 Y61.9355 I-1.75 J0.0
G3 Y58.9045 I0.875 J-1.5155
G3 X58.7246 Y60.123 I0.875 J1.5155
G1 F300.0 Z-2.0
G3 F800.0 X58.75 Y60.42 I-1.7246 J0.297
G3 X56.125 Y61.9355 I-1.75 J0.0
G3 Y58.9045 I0.875 J-1.5155
G3 X58.7246 Y60.123 I0.875 J1.5155
G1 F300.0 Z-3.0
G3 F800.0 X58.75 Y60.42 I-1.7246 J0.297
G3 X56.125 Y61.9355 I-1.75 J0.0
G3 Y58.9045 I0.875 J-1.5155
G3 X58.7246 Y60.123 I0.875 J1.5155
G0 Z3.0
G0 X57.191 Y46.1595
G1 F300.0 Z-1.0
G3 F800.0 X56.125 Y45.9355 I-0.191 J-1.7395
G3 Y42.9045 I0.875 J-1.5155
G3 X58.75 Y44.42 I0.875 J1.5155
G3 X57.191 Y46.1595 I-1.75 J0.0
G1 F300.0 Z-2.0
G3 F800.0 X56.125 Y45.9355 I-0.191 J-1.7395
G3 Y42.9045 I0.875 J-1.5155
G3 X58.75 Y44.42 I0.875 J1.5155
G3 X57.191 Y46.1595 I-1.75 J0.0
G1 F300.0 Z-3.0
G3 F800.0 X56.125 Y45.9355 I-0.191 J-1.7395
G3 Y42.9045 I0.875 J-1.5155
G3 X58.75 Y44.42 I0.875 J1.5155
G3 X57.191 Y46.1595 I-1.75 J0.0
G0 Z3.0
G0 X42.74 Y44.6069
G1 F300.0 Z-1.0
G3 F800.0 X40.125 Y45.9355 I-1.74 J-0.1869
G3 Y42.9045 I0.875 J-1.5155
G3 X42.75 Y44.42 I0.875 J1.5155
G3 X42.74 Y44.6069 I-1.75 J0.0
G1 F300.0 Z-2.0
G3 F800.0 X40.125 Y45.9355 I-1.74 J-0.1869
G3 Y42.9045 I0.875 J-1.5155
G3 X42.75 Y44.42 I0.875 J1.5155
G3 X42.74 Y44.6069 I-1.75 J0.0
G1 F300.0 Z-3.0
G3 F800.0 X40.125 Y45.9355 I-1.74 J-0.1869
G3 Y42.9045 I0.875 J-1.5155
G3 X42.75 Y44.42 I0.875 J1.5155
G3 X42.74 Y44.6069 I-1.75 J0.0
G0 Z3.0
G0 X41.1914 Y58.6805
G1 F300.0 Z-1.0
G3 F800.0 X42.75 Y60.42 I-0.1914 J1.7395
G3 X40.125 Y61.9355 I-1.75 J0.0
G3 Y58.9045 I0.875 J-1.5155
G3 X41.1914 Y58.6805 I0.875 J1.5155
G1 F300.0 Z-2.0
G3 F800.0 X42.75 Y60.42 I-0.1914 J1.7395
G3 X40.125 Y61.9355 I-1.75 J0.0
G3 Y58.9045 I0.875 J-1.5155
G3 X41.1914 Y58.6805 I0.875 J1.5155
G1 F300.0 Z-3.0
G3 F800.0 X42.75 Y60.42 I-0.1914 J1.7395
G3 X40.125 Y61.9355 I-1.75 J0.0
G3 Y58.9045 I0.875 J-1.5155
G3 X41.1914 Y58.6805 I0.875 J1.5155
G0 Z3.0
G0 X79.4124 Y97.0656
G1 F300.0 Z-1.0
G3 F800.0 X79.875 Y96.7114 I1.5876 J1.5944
G3 X83.25 Y98.66 I1.125 J1.9486
G3 X79.875 Y100.6086 I-2.25 J0.0
G3 X79.4124 Y97.0656 I1.125 J-1.9486
G1 F300.0 Z-2.0
G3 F800.0 X79.875 Y96.7114 I1.5876 J1.5944
G3 X83.25 Y98.66 I1.125 J1.9486
G3 X79.875 Y100.6086 I-2.25 J0.0
G3 X79.4124 Y97.0656 I1.125 J-1.9486
G1 F300.0 Z-3.0
G3 F800.0 X79.875 Y96.7114 I1.5876 J1.5944
G3 X83.25 Y98.66 I1.125 J1.9486
G3 X79.875 Y100.6086 I-2.25 J0.0
G3 X79.4124 Y97.0656 I1.125 J-1.9486
( Contour3 )
S1000
G0 Z3.0
G0 X78.75 Y50.15
G1 F300.0 Z-1.0
G1 F800.0 X83.25
G1 Y31.65
G1 X78.75
G1 Y50.15
G1 F300.0 Z-2.0
G1 F800.0 X83.25
G1 Y31.65
G1 X78.75
G1 Y50.15
G1 F300.0 Z-3.0
G1 F800.0 X83.25
G1 Y31.65
G1 X78.75
G1 Y50.15
G1 F300.0 Z-4.0
G1 F800.0 X83.25
G1 Y31.65
G1 X78.75
G1 Y50.15
G1 F300.0 Z-5.0
G1 F800.0 X83.25
G1 Y31.65
G1 X78.75
G1 Y50.15
G1 F300.0 Z-6.0
G1 F800.0 X83.25
G1 Y31.65
G1 X78.75
G1 Y50.15
G0 Z3.0
G0 Y104.41
G1 F300.0 Z-1.0
G1 F800.0 Y122.91
G1 X83.25
G1 Y104.41
G1 X78.75
G1 F300.0 Z-2.0
G1 F800.0 Y122.91
G1 X83.25
G1 Y104.41
G1 X78.75
G1 F300.0 Z-3.0
G1 F800.0 Y122.91
G1 X83.25
G1 Y104.41
G1 X78.75
G1 F300.0 Z-4.0
G1 F800.0 Y122.91
G1 X83.25
G1 Y104.41
G1 X78.75
G1 F300.0 Z-5.0
G1 F800.0 Y122.91
G1 X83.25
G1 Y104.41
G1 X78.75
G1 F300.0 Z-6.0
G1 F800.0 Y122.91
G1 X83.25
G1 Y104.41
G1 X78.75
( Contour4 )
S1000
G0 Z3.0
G0 X166.5 Y9.16
G1 F300.0 Z-1.0
G1 F800.0 X174.0
G3 X174.75 Y9.91 I0.0 J0.75
G1 Y144.66
G3 X174.0 Y145.41 I-0.75 J0.0
G1 X164.0
G3 X163.25 Y144.66 I0.0 J-0.75
G1 Y139.41
G1 X93.75
G1 Y144.66
G3 X93.0 Y145.41 I-0.75 J0.0
G1 X73.0
G3 X72.25 Y144.66 I0.0 J-0.75
G1 Y139.41
G1 X43.0
G3 X42.25 Y138.66 I0.0 J-0.75
G1 Y111.66
G1 X15.0
G3 X14.25 Y110.91 I0.0 J-0.75
G1 Y97.75
G1 X9.0
G3 X8.25 Y97.0 I0.0 J-0.75
G1 Y82.0
G3 X9.0 Y81.25 I0.75 J0.0
G1 X14.25
G1 Y52.75
G1 X9.0
G3 X8.25 Y52.0 I0.0 J-0.75
G1 Y37.0
G3 X9.0 Y36.25 I0.75 J0.0
G1 X14.25
G1 Y15.91
G3 X15.0 Y15.16 I0.75 J0.0
G1 X80.75
G1 Y9.91
G3 X81.5 Y9.16 I0.75 J0.0
G1 X96.5
G3 X97.25 Y9.91 I0.0 J0.75
G1 Y15.16
G1 X165.75
G1 Y9.91
G3 X166.5 Y9.16 I0.75 J0.0
G1 F300.0 Z-2.0
G1 F800.0 X174.0
G3 X174.75 Y9.91 I0.0 J0.75
G1 Y144.66
G3 X174.0 Y145.41 I-0.75 J0.0
G1 X164.0
G3 X163.25 Y144.66 I0.0 J-0.75
G1 Y139.41
G1 X93.75
G1 Y144.66
G3 X93.0 Y145.41 I-0.75 J0.0
G1 X73.0
G3 X72.25 Y144.66 I0.0 J-0.75
G1 Y139.41
G1 X43.0
G3 X42.25 Y138.66 I0.0 J-0.75
G1 Y111.66
G1 X15.0
G3 X14.25 Y110.91 I0.0 J-0.75
G1 Y97.75
G1 X9.0
G3 X8.25 Y97.0 I0.0 J-0.75
G1 Y82.0
G3 X9.0 Y81.25 I0.75 J0.0
G1 X14.25
G1 Y52.75
G1 X9.0
G3 X8.25 Y52.0 I0.0 J-0.75
G1 Y37.0
G3 X9.0 Y36.25 I0.75 J0.0
G1 X14.25
G1 Y15.91
G3 X15.0 Y15.16 I0.75 J0.0
G1 X80.75
G1 Y9.91
G3 X81.5 Y9.16 I0.75 J0.0
G1 X96.5
G3 X97.25 Y9.91 I0.0 J0.75
G1 Y15.16
G1 X165.75
G1 Y9.91
G3 X166.5 Y9.16 I0.75 J0.0
G1 F300.0 Z-3.0
G1 F800.0 X174.0
G3 X174.75 Y9.91 I0.0 J0.75
G1 Y144.66
G3 X174.0 Y145.41 I-0.75 J0.0
G1 X164.0
G3 X163.25 Y144.66 I0.0 J-0.75
G1 Y139.41
G1 X93.75
G1 Y144.66
G3 X93.0 Y145.41 I-0.75 J0.0
G1 X73.0
G3 X72.25 Y144.66 I0.0 J-0.75
G1 Y139.41
G1 X43.0
G3 X42.25 Y138.66 I0.0 J-0.75
G1 Y111.66
G1 X15.0
G3 X14.25 Y110.91 I0.0 J-0.75
G1 Y97.75
G1 X9.0
G3 X8.25 Y97.0 I0.0 J-0.75
G1 Y82.0
G3 X9.0 Y81.25 I0.75 J0.0
G1 X14.25
G1 Y52.75
G1 X9.0
G3 X8.25 Y52.0 I0.0 J-0.75
G1 Y37.0
G3 X9.0 Y36.25 I0.75 J0.0
G1 X14.25
G1 Y15.91
G3 X15.0 Y15.16 I0.75 J0.0
G1 X80.75
G1 Y9.91
G3 X81.5 Y9.16 I0.75 J0.0
G1 X96.5
G3 X97.25 Y9.91 I0.0 J0.75
G1 Y15.16
G1 X165.75
G1 Y9.91
G3 X166.5 Y9.16 I0.75 J0.0
G1 F300.0 Z-4.0
G1 F800.0 X174.0
G3 X174.75 Y9.91 I0.0 J0.75
G1 Y144.66
G3 X174.0 Y145.41 I-0.75 J0.0
G1 X164.0
G3 X163.25 Y144.66 I0.0 J-0.75
G1 Y139.41
G1 X93.75
G1 Y144.66
G3 X93.0 Y145.41 I-0.75 J0.0
G1 X73.0
G3 X72.25 Y144.66 I0.0 J-0.75
G1 Y139.41
G1 X43.0
G3 X42.25 Y138.66 I0.0 J-0.75
G1 Y111.66
G1 X15.0
G3 X14.25 Y110.91 I0.0 J-0.75
G1 Y97.75
G1 X9.0
G3 X8.25 Y97.0 I0.0 J-0.75
G1 Y82.0
G3 X9.0 Y81.25 I0.75 J0.0
G1 X14.25
G1 Y52.75
G1 X9.0
G3 X8.25 Y52.0 I0.0 J-0.75
G1 Y37.0
G3 X9.0 Y36.25 I0.75 J0.0
G1 X14.25
G1 Y15.91
G3 X15.0 Y15.16 I0.75 J0.0
G1 X80.75
G1 Y9.91
G3 X81.5 Y9.16 I0.75 J0.0
G1 X96.5
G3 X97.25 Y9.91 I0.0 J0.75
G1 Y15.16
G1 X165.75
G1 Y9.91
G3 X166.5 Y9.16 I0.75 J0.0
G1 F300.0 Z-5.0
G1 F800.0 X174.0
G3 X174.75 Y9.91 I0.0 J0.75
G1 Y28.75
G0 Z-4.0
G1 Y35.25
G1 F300.0 Z-5.0
G1 F800.0 Y144.66
G3 X174.0 Y145.41 I-0.75 J0.0
G1 X164.0
G3 X163.25 Y144.66 I0.0 J-0.75
G1 Y139.41
G1 X116.25
G0 Z-4.0
G1 X109.75
G1 F300.0 Z-5.0
G1 F800.0 X93.75
G1 Y144.66
G3 X93.0 Y145.41 I-0.75 J0.0
G1 X73.0
G3 X72.25 Y144.66 I0.0 J-0.75
G1 Y139.41
G1 X43.0
G3 X42.25 Y138.66 I0.0 J-0.75
G1 Y129.25
G0 Z-4.0
G1 Y122.75
G1 F300.0 Z-5.0
G1 F800.0 Y111.66
G1 X15.0
G3 X14.25 Y110.91 I0.0 J-0.75
G1 Y97.75
G1 X9.0
G3 X8.25 Y97.0 I0.0 J-0.75
G1 Y82.0
G3 X9.0 Y81.25 I0.75 J0.0
G1 X14.25
G1 Y74.25
G0 Z-4.0
G1 Y67.75
G1 F300.0 Z-5.0
G1 F800.0 Y52.75
G1 X9.0
G3 X8.25 Y52.0 I0.0 J-0.75
G1 Y37.0
G3 X9.0 Y36.25 I0.75 J0.0
G1 X14.25
G1 Y15.91
G3 X15.0 Y15.16 I0.75 J0.0
G1 X22.375
G0 Z-4.0
G1 X28.875
G1 F300.0 Z-5.0
G1 F800.0 X80.75
G1 Y9.91
G3 X81.5 Y9.16 I0.75 J0.0
G1 X96.5
G3 X97.25 Y9.91 I0.0 J0.75
G1 Y15.16
G1 X116.75
G0 Z-4.0
G1 X123.25
G1 F300.0 Z-5.0
G1 F800.0 X165.75
G1 Y9.91
G3 X166.5 Y9.16 I0.75 J0.0
G1 F300.0 Z-6.0
G1 F800.0 X174.0
G3 X174.75 Y9.91 I0.0 J0.75
G1 Y28.75
G0 Z-4.0
G1 Y35.25
G1 F300.0 Z-6.0
G1 F800.0 Y144.66
G3 X174.0 Y145.41 I-0.75 J0.0
G1 X164.0
G3 X163.25 Y144.66 I0.0 J-0.75
G1 Y139.41
G1 X116.25
G0 Z-4.0
G1 X109.75
G1 F300.0 Z-6.0
G1 F800.0 X93.75
G1 Y144.66
G3 X93.0 Y145.41 I-0.75 J0.0
G1 X73.0
G3 X72.25 Y144.66 I0.0 J-0.75
G1 Y139.41
G1 X43.0
G3 X42.25 Y138.66 I0.0 J-0.75
G1 Y129.25
G0 Z-4.0
G1 Y122.75
G1 F300.0 Z-6.0
G1 F800.0 Y111.66
G1 X15.0
G3 X14.25 Y110.91 I0.0 J-0.75
G1 Y97.75
G1 X9.0
G3 X8.25 Y97.0 I0.0 J-0.75
G1 Y82.0
G3 X9.0 Y81.25 I0.75 J0.0
G1 X14.25
G1 Y74.25
G0 Z-4.0
G1 Y67.75
G1 F300.0 Z-6.0
G1 F800.0 Y52.75
G1 X9.0
G3 X8.25 Y52.0 I0.0 J-0.75
G1 Y37.0
G3 X9.0 Y36.25 I0.75 J0.0
G1 X14.25
G1 Y15.91
G3 X15.0 Y15.16 I0.75 J0.0
G1 X22.375
G0 Z-4.0
G1 X28.875
G1 F300.0 Z-6.0
G1 F800.0 X80.75
G1 Y9.91
G3 X81.5 Y9.16 I0.75 J0.0
G1 X96.5
G3 X97.25 Y9.91 I0.0 J0.75
G1 Y15.16
G1 X116.75
G0 Z-4.0
G1 X123.25
G1 F300.0 Z-6.0
G1 F800.0 X165.75
G1 Y9.91
G3 X166.5 Y9.16 I0.75 J0.0
G0 Z3.0
M5
M30
