( Made using CamBam - http://www.cambam.co.uk )
( Pièce3 1/26/2016 6:25:06 PM )
( T0 : 1.5 )
G21 G90 G64 G40
G0 Z3.0
( T0 : 1.5 )
T0 M6
( Contour1 )
G17
M3 S1000
G0 X191.0 Y21.75
G1 F300.0 Z-1.0
G1 F800.0 X1.0
G3 X0.25 Y21.0 I0.0 J-0.75
G1 Y1.0
G3 X1.0 Y0.25 I0.75 J0.0
G1 X191.0
G3 X191.75 Y1.0 I0.0 J0.75
G1 Y21.0
G3 X191.0 Y21.75 I-0.75 J0.0
G1 F300.0 Z-2.0
G1 F800.0 X1.0
G3 X0.25 Y21.0 I0.0 J-0.75
G1 Y1.0
G3 X1.0 Y0.25 I0.75 J0.0
G1 X191.0
G3 X191.75 Y1.0 I0.0 J0.75
G1 Y21.0
G3 X191.0 Y21.75 I-0.75 J0.0
G1 F300.0 Z-3.0
G1 F800.0 X1.0
G3 X0.25 Y21.0 I0.0 J-0.75
G1 Y1.0
G3 X1.0 Y0.25 I0.75 J0.0
G1 X191.0
G3 X191.75 Y1.0 I0.0 J0.75
G1 Y21.0
G3 X191.0 Y21.75 I-0.75 J0.0
G1 F300.0 Z-4.0
G1 F800.0 X1.0
G3 X0.25 Y21.0 I0.0 J-0.75
G1 Y1.0
G3 X1.0 Y0.25 I0.75 J0.0
G1 X191.0
G3 X191.75 Y1.0 I0.0 J0.75
G1 Y21.0
G3 X191.0 Y21.75 I-0.75 J0.0
G1 F300.0 Z-5.0
G1 F800.0 X1.0
G3 X0.25 Y21.0 I0.0 J-0.75
G1 Y1.0
G3 X1.0 Y0.25 I0.75 J0.0
G1 X191.0
G3 X191.75 Y1.0 I0.0 J0.75
G1 Y21.0
G3 X191.0 Y21.75 I-0.75 J0.0
G1 F300.0 Z-6.0
G1 F800.0 X1.0
G3 X0.25 Y21.0 I0.0 J-0.75
G1 Y1.0
G3 X1.0 Y0.25 I0.75 J0.0
G1 X191.0
G3 X191.75 Y1.0 I0.0 J0.75
G1 Y21.0
G3 X191.0 Y21.75 I-0.75 J0.0
G1 F300.0 Z-7.0
G1 F800.0 X1.0
G3 X0.25 Y21.0 I0.0 J-0.75
G1 Y1.0
G3 X1.0 Y0.25 I0.75 J0.0
G1 X191.0
G3 X191.75 Y1.0 I0.0 J0.75
G1 Y21.0
G3 X191.0 Y21.75 I-0.75 J0.0
G1 F300.0 Z-8.0
G1 F800.0 X91.25
G0 Z-7.0
G1 X86.75
G1 F300.0 Z-8.0
G1 F800.0 X1.0
G3 X0.25 Y21.0 I0.0 J-0.75
G1 Y1.0
G3 X1.0 Y0.25 I0.75 J0.0
G1 X18.75
G0 Z-7.0
G1 X23.25
G1 F300.0 Z-8.0
G1 F800.0 X158.75
G0 Z-7.0
G1 X163.25
G1 F300.0 Z-8.0
G1 F800.0 X191.0
G3 X191.75 Y1.0 I0.0 J0.75
G1 Y21.0
G3 X191.0 Y21.75 I-0.75 J0.0
G1 F300.0 Z-9.0
G1 F800.0 X91.25
G0 Z-7.0
G1 X86.75
G1 F300.0 Z-9.0
G1 F800.0 X1.0
G3 X0.25 Y21.0 I0.0 J-0.75
G1 Y1.0
G3 X1.0 Y0.25 I0.75 J0.0
G1 X18.75
G0 Z-7.0
G1 X23.25
G1 F300.0 Z-9.0
G1 F800.0 X158.75
G0 Z-7.0
G1 X163.25
G1 F300.0 Z-9.0
G1 F800.0 X191.0
G3 X191.75 Y1.0 I0.0 J0.75
G1 Y21.0
G3 X191.0 Y21.75 I-0.75 J0.0
G1 F300.0 Z-10.0
G1 F800.0 X91.25
G0 Z-7.0
G1 X86.75
G1 F300.0 Z-10.0
G1 F800.0 X1.0
G3 X0.25 Y21.0 I0.0 J-0.75
G1 Y1.0
G3 X1.0 Y0.25 I0.75 J0.0
G1 X18.75
G0 Z-7.0
G1 X23.25
G1 F300.0 Z-10.0
G1 F800.0 X158.75
G0 Z-7.0
G1 X163.25
G1 F300.0 Z-10.0
G1 F800.0 X191.0
G3 X191.75 Y1.0 I0.0 J0.75
G1 Y21.0
G3 X191.0 Y21.75 I-0.75 J0.0
( Contour2 )
S1000
G0 Z3.0
G0 X4.75 Y11.0
G1 F300.0 Z-1.0
G2 F800.0 X3.625 Y10.3505 I-0.75 J0.0
G2 Y11.6495 I0.375 J0.6495
G2 X4.75 Y11.0 I0.375 J-0.6495
G1 F300.0 Z-2.0
G2 F800.0 X3.625 Y10.3505 I-0.75 J0.0
G2 Y11.6495 I0.375 J0.6495
G2 X4.75 Y11.0 I0.375 J-0.6495
G1 F300.0 Z-3.0
G2 F800.0 X3.625 Y10.3505 I-0.75 J0.0
G2 Y11.6495 I0.375 J0.6495
G2 X4.75 Y11.0 I0.375 J-0.6495
G1 F300.0 Z-4.0
G2 F800.0 X3.625 Y10.3505 I-0.75 J0.0
G2 Y11.6495 I0.375 J0.6495
G2 X4.75 Y11.0 I0.375 J-0.6495
G1 F300.0 Z-5.0
G2 F800.0 X3.625 Y10.3505 I-0.75 J0.0
G2 Y11.6495 I0.375 J0.6495
G2 X4.75 Y11.0 I0.375 J-0.6495
G1 F300.0 Z-6.0
G2 F800.0 X3.625 Y10.3505 I-0.75 J0.0
G2 Y11.6495 I0.375 J0.6495
G2 X4.75 Y11.0 I0.375 J-0.6495
G1 F300.0 Z-7.0
G2 F800.0 X3.625 Y10.3505 I-0.75 J0.0
G2 Y11.6495 I0.375 J0.6495
G2 X4.75 Y11.0 I0.375 J-0.6495
G1 F300.0 Z-8.0
G2 F800.0 X3.625 Y10.3505 I-0.75 J0.0
G2 Y11.6495 I0.375 J0.6495
G2 X4.75 Y11.0 I0.375 J-0.6495
G1 F300.0 Z-9.0
G2 F800.0 X3.625 Y10.3505 I-0.75 J0.0
G2 Y11.6495 I0.375 J0.6495
G2 X4.75 Y11.0 I0.375 J-0.6495
G1 F300.0 Z-10.0
G2 F800.0 X3.625 Y10.3505 I-0.75 J0.0
G2 Y11.6495 I0.375 J0.6495
G2 X4.75 Y11.0 I0.375 J-0.6495
( Poche1 )
S1000
G0 Z3.0
G0 X187.55 Y3.55
G1 F300.0 Z-1.0
G1 F800.0 Y18.45
G1 X188.45
G1 Y3.55
G1 X187.55
G1 F300.0 Y2.95
G1 F800.0 X186.95
G1 Y19.05
G1 X189.05
G1 Y2.95
G1 X187.55
G1 F300.0 Y2.35
G1 F800.0 X186.35
G1 Y19.65
G1 X189.65
G1 Y2.35
G1 X187.55
G1 F300.0 Y1.75
G1 F800.0 X185.75
G1 Y20.25
G1 X190.25
G1 Y1.75
G1 X187.55
G0 Z3.0
G0 Y3.55
G1 F300.0 Z-2.0
G1 F800.0 Y18.45
G1 X188.45
G1 Y3.55
G1 X187.55
G1 F300.0 Y2.95
G1 F800.0 X186.95
G1 Y19.05
G1 X189.05
G1 Y2.95
G1 X187.55
G1 F300.0 Y2.35
G1 F800.0 X186.35
G1 Y19.65
G1 X189.65
G1 Y2.35
G1 X187.55
G1 F300.0 Y1.75
G1 F800.0 X185.75
G1 Y20.25
G1 X190.25
G1 Y1.75
G1 X187.55
G0 Z3.0
G0 Y3.55
G1 F300.0 Z-3.0
G1 F800.0 Y18.45
G1 X188.45
G1 Y3.55
G1 X187.55
G1 F300.0 Y2.95
G1 F800.0 X186.95
G1 Y19.05
G1 X189.05
G1 Y2.95
G1 X187.55
G1 F300.0 Y2.35
G1 F800.0 X186.35
G1 Y19.65
G1 X189.65
G1 Y2.35
G1 X187.55
G1 F300.0 Y1.75
G1 F800.0 X185.75
G1 Y20.25
G1 X190.25
G1 Y1.75
G1 X187.55
G0 Z3.0
G0 Y3.55
G1 F300.0 Z-4.0
G1 F800.0 Y18.45
G1 X188.45
G1 Y3.55
G1 X187.55
G1 F300.0 Y2.95
G1 F800.0 X186.95
G1 Y19.05
G1 X189.05
G1 Y2.95
G1 X187.55
G1 F300.0 Y2.35
G1 F800.0 X186.35
G1 Y19.65
G1 X189.65
G1 Y2.35
G1 X187.55
G1 F300.0 Y1.75
G1 F800.0 X185.75
G1 Y20.25
G1 X190.25
G1 Y1.75
G1 X187.55
G0 Z3.0
G0 Y3.55
G1 F300.0 Z-5.0
G1 F800.0 Y18.45
G1 X188.45
G1 Y3.55
G1 X187.55
G1 F300.0 Y2.95
G1 F800.0 X186.95
G1 Y19.05
G1 X189.05
G1 Y2.95
G1 X187.55
G1 F300.0 Y2.35
G1 F800.0 X186.35
G1 Y19.65
G1 X189.65
G1 Y2.35
G1 X187.55
G1 F300.0 Y1.75
G1 F800.0 X185.75
G1 Y20.25
G1 X190.25
G1 Y1.75
G1 X187.55
G0 Z3.0
G0 Y3.55
G1 F300.0 Z-6.0
G1 F800.0 Y18.45
G1 X188.45
G1 Y3.55
G1 X187.55
G1 F300.0 Y2.95
G1 F800.0 X186.95
G1 Y19.05
G1 X189.05
G1 Y2.95
G1 X187.55
G1 F300.0 Y2.35
G1 F800.0 X186.35
G1 Y19.65
G1 X189.65
G1 Y2.35
G1 X187.55
G1 F300.0 Y1.75
G1 F800.0 X185.75
G1 Y20.25
G1 X190.25
G1 Y1.75
G1 X187.55
G0 Z3.0
G0 X4.45 Y3.55
G1 F300.0 Z-1.0
G1 F800.0 X3.55
G1 Y6.9763
G3 X4.45 I0.45 J4.0237
G1 Y3.55
G1 F300.0 Y2.95
G1 F800.0 X2.95
G1 Y7.7149
G3 X5.05 I1.05 J3.2851
G1 Y2.95
G1 X4.45
G1 F300.0 Y2.35
G1 F800.0 X2.35
G1 Y8.6777
G3 X2.5756 Y8.5329 I1.65 J2.3223
G3 X5.65 Y8.6777 I1.4244 J2.4671
G1 Y2.35
G1 X4.45
G0 Z3.0
G0 Y15.0237
G1 F300.0 Z-1.0
G3 F800.0 X3.55 I-0.45 J-4.0237
G1 Y18.45
G1 X4.45
G1 Y15.0237
G1 F300.0 X4.3833 Y14.4274
G3 F800.0 X2.95 Y14.2851 I-0.3833 J-3.4274
G1 Y19.05
G1 X5.05
G1 Y14.2851
G3 X4.3833 Y14.4274 I-1.05 J-3.2851
G1 F300.0 X4.3166 Y13.8311
G3 F800.0 X2.5756 Y13.4671 I-0.3166 J-2.8311
G3 X2.35 Y13.3223 I1.4244 J-2.4671
G1 Y19.65
G1 X5.65
G1 Y13.3223
G3 X4.3166 Y13.8311 I-1.65 J-2.3223
G1 F300.0 X4.2501 Y13.2361
G2 F800.0 X6.25 Y11.0 I-0.2501 J-2.2361
G2 X2.875 Y9.0514 I-2.25 J0.0
G2 X1.75 Y11.0 I1.125 J1.9486
G1 Y20.25
G1 X6.25
G1 Y11.0
G1 Y1.75
G1 X1.75
G1 Y11.0
G2 X2.875 Y12.9486 I2.25 J0.0
G2 X4.2501 Y13.2361 I1.125 J-1.9486
G0 Z3.0
G0 X4.45 Y15.0237
G1 F300.0 Z-2.0
G3 F800.0 X3.55 I-0.45 J-4.0237
G1 Y18.45
G1 X4.45
G1 Y15.0237
G1 F300.0 X4.3833 Y14.4274
G3 F800.0 X2.95 Y14.2851 I-0.3833 J-3.4274
G1 Y19.05
G1 X5.05
G1 Y14.2851
G3 X4.3833 Y14.4274 I-1.05 J-3.2851
G1 F300.0 X4.3166 Y13.8311
G3 F800.0 X2.5756 Y13.4671 I-0.3166 J-2.8311
G3 X2.35 Y13.3223 I1.4244 J-2.4671
G1 Y19.65
G1 X5.65
G1 Y13.3223
G3 X4.3166 Y13.8311 I-1.65 J-2.3223
G0 Z3.0
G0 X4.45 Y6.9763
G1 F300.0 Z-2.0
G1 F800.0 Y3.55
G1 X3.55
G1 Y6.9763
G3 X4.45 I0.45 J4.0237
G1 F300.0 X4.3833 Y7.5726
G3 F800.0 X5.05 Y7.7149 I-0.3833 J3.4274
G1 Y2.95
G1 X2.95
G1 Y7.7149
G3 X4.3833 Y7.5726 I1.05 J3.2851
G1 F300.0 X4.3166 Y8.1689
G3 F800.0 X5.65 Y8.6777 I-0.3166 J2.8311
G1 Y2.35
G1 X2.35
G1 Y8.6777
G3 X2.5756 Y8.5329 I1.65 J2.3223
G3 X4.3166 Y8.1689 I1.4244 J2.4671
G1 F300.0 X4.2501 Y8.7639
G2 F800.0 X2.875 Y9.0514 I-0.2501 J2.2361
G2 X1.75 Y11.0 I1.125 J1.9486
G1 Y20.25
G1 X6.25
G1 Y11.0
G1 Y1.75
G1 X1.75
G1 Y11.0
G2 X2.875 Y12.9486 I2.25 J0.0
G2 X6.25 Y11.0 I1.125 J-1.9486
G2 X4.2501 Y8.7639 I-2.25 J0.0
G0 Z3.0
G0 X4.45 Y6.9763
G1 F300.0 Z-3.0
G1 F800.0 Y3.55
G1 X3.55
G1 Y6.9763
G3 X4.45 I0.45 J4.0237
G1 F300.0 X4.3833 Y7.5726
G3 F800.0 X5.05 Y7.7149 I-0.3833 J3.4274
G1 Y2.95
G1 X2.95
G1 Y7.7149
G3 X4.3833 Y7.5726 I1.05 J3.2851
G1 F300.0 X4.3166 Y8.1689
G3 F800.0 X5.65 Y8.6777 I-0.3166 J2.8311
G1 Y2.35
G1 X2.35
G1 Y8.6777
G3 X2.5756 Y8.5329 I1.65 J2.3223
G3 X4.3166 Y8.1689 I1.4244 J2.4671
G0 Z3.0
G0 X4.45 Y15.0237
G1 F300.0 Z-3.0
G3 F800.0 X3.55 I-0.45 J-4.0237
G1 Y18.45
G1 X4.45
G1 Y15.0237
G1 F300.0 X4.3833 Y14.4274
G3 F800.0 X2.95 Y14.2851 I-0.3833 J-3.4274
G1 Y19.05
G1 X5.05
G1 Y14.2851
G3 X4.3833 Y14.4274 I-1.05 J-3.2851
G1 F300.0 X4.3166 Y13.8311
G3 F800.0 X2.5756 Y13.4671 I-0.3166 J-2.8311
G3 X2.35 Y13.3223 I1.4244 J-2.4671
G1 Y19.65
G1 X5.65
G1 Y13.3223
G3 X4.3166 Y13.8311 I-1.65 J-2.3223
G1 F300.0 X4.2501 Y13.2361
G2 F800.0 X6.25 Y11.0 I-0.2501 J-2.2361
G2 X2.875 Y9.0514 I-2.25 J0.0
G2 X1.75 Y11.0 I1.125 J1.9486
G1 Y20.25
G1 X6.25
G1 Y11.0
G1 Y1.75
G1 X1.75
G1 Y11.0
G2 X2.875 Y12.9486 I2.25 J0.0
G2 X4.2501 Y13.2361 I1.125 J-1.9486
G0 Z3.0
G0 X4.45 Y15.0237
G1 F300.0 Z-4.0
G3 F800.0 X3.55 I-0.45 J-4.0237
G1 Y18.45
G1 X4.45
G1 Y15.0237
G1 F300.0 X4.3833 Y14.4274
G3 F800.0 X2.95 Y14.2851 I-0.3833 J-3.4274
G1 Y19.05
G1 X5.05
G1 Y14.2851
G3 X4.3833 Y14.4274 I-1.05 J-3.2851
G1 F300.0 X4.3166 Y13.8311
G3 F800.0 X2.5756 Y13.4671 I-0.3166 J-2.8311
G3 X2.35 Y13.3223 I1.4244 J-2.4671
G1 Y19.65
G1 X5.65
G1 Y13.3223
G3 X4.3166 Y13.8311 I-1.65 J-2.3223
G0 Z3.0
G0 X4.45 Y6.9763
G1 F300.0 Z-4.0
G1 F800.0 Y3.55
G1 X3.55
G1 Y6.9763
G3 X4.45 I0.45 J4.0237
G1 F300.0 X4.3833 Y7.5726
G3 F800.0 X5.05 Y7.7149 I-0.3833 J3.4274
G1 Y2.95
G1 X2.95
G1 Y7.7149
G3 X4.3833 Y7.5726 I1.05 J3.2851
G1 F300.0 X4.3166 Y8.1689
G3 F800.0 X5.65 Y8.6777 I-0.3166 J2.8311
G1 Y2.35
G1 X2.35
G1 Y8.6777
G3 X2.5756 Y8.5329 I1.65 J2.3223
G3 X4.3166 Y8.1689 I1.4244 J2.4671
G1 F300.0 X4.2501 Y8.7639
G2 F800.0 X2.875 Y9.0514 I-0.2501 J2.2361
G2 X1.75 Y11.0 I1.125 J1.9486
G1 Y20.25
G1 X6.25
G1 Y11.0
G1 Y1.75
G1 X1.75
G1 Y11.0
G2 X2.875 Y12.9486 I2.25 J0.0
G2 X6.25 Y11.0 I1.125 J-1.9486
G2 X4.2501 Y8.7639 I-2.25 J0.0
G0 Z3.0
G0 X4.45 Y6.9763
G1 F300.0 Z-5.0
G1 F800.0 Y3.55
G1 X3.55
G1 Y6.9763
G3 X4.45 I0.45 J4.0237
G1 F300.0 X4.3833 Y7.5726
G3 F800.0 X5.05 Y7.7149 I-0.3833 J3.4274
G1 Y2.95
G1 X2.95
G1 Y7.7149
G3 X4.3833 Y7.5726 I1.05 J3.2851
G1 F300.0 X4.3166 Y8.1689
G3 F800.0 X5.65 Y8.6777 I-0.3166 J2.8311
G1 Y2.35
G1 X2.35
G1 Y8.6777
G3 X2.5756 Y8.5329 I1.65 J2.3223
G3 X4.3166 Y8.1689 I1.4244 J2.4671
G0 Z3.0
G0 X4.45 Y15.0237
G1 F300.0 Z-5.0
G3 F800.0 X3.55 I-0.45 J-4.0237
G1 Y18.45
G1 X4.45
G1 Y15.0237
G1 F300.0 X4.3833 Y14.4274
G3 F800.0 X2.95 Y14.2851 I-0.3833 J-3.4274
G1 Y19.05
G1 X5.05
G1 Y14.2851
G3 X4.3833 Y14.4274 I-1.05 J-3.2851
G1 F300.0 X4.3166 Y13.8311
G3 F800.0 X2.5756 Y13.4671 I-0.3166 J-2.8311
G3 X2.35 Y13.3223 I1.4244 J-2.4671
G1 Y19.65
G1 X5.65
G1 Y13.3223
G3 X4.3166 Y13.8311 I-1.65 J-2.3223
G1 F300.0 X4.2501 Y13.2361
G2 F800.0 X6.25 Y11.0 I-0.2501 J-2.2361
G2 X2.875 Y9.0514 I-2.25 J0.0
G2 X1.75 Y11.0 I1.125 J1.9486
G1 Y20.25
G1 X6.25
G1 Y11.0
G1 Y1.75
G1 X1.75
G1 Y11.0
G2 X2.875 Y12.9486 I2.25 J0.0
G2 X4.2501 Y13.2361 I1.125 J-1.9486
G0 Z3.0
G0 X4.45 Y15.0237
G1 F300.0 Z-6.0
G3 F800.0 X3.55 I-0.45 J-4.0237
G1 Y18.45
G1 X4.45
G1 Y15.0237
G1 F300.0 X4.3833 Y14.4274
G3 F800.0 X2.95 Y14.2851 I-0.3833 J-3.4274
G1 Y19.05
G1 X5.05
G1 Y14.2851
G3 X4.3833 Y14.4274 I-1.05 J-3.2851
G1 F300.0 X4.3166 Y13.8311
G3 F800.0 X2.5756 Y13.4671 I-0.3166 J-2.8311
G3 X2.35 Y13.3223 I1.4244 J-2.4671
G1 Y19.65
G1 X5.65
G1 Y13.3223
G3 X4.3166 Y13.8311 I-1.65 J-2.3223
G0 Z3.0
G0 X4.45 Y6.9763
G1 F300.0 Z-6.0
G1 F800.0 Y3.55
G1 X3.55
G1 Y6.9763
G3 X4.45 I0.45 J4.0237
G1 F300.0 X4.3833 Y7.5726
G3 F800.0 X5.05 Y7.7149 I-0.3833 J3.4274
G1 Y2.95
G1 X2.95
G1 Y7.7149
G3 X4.3833 Y7.5726 I1.05 J3.2851
G1 F300.0 X4.3166 Y8.1689
G3 F800.0 X5.65 Y8.6777 I-0.3166 J2.8311
G1 Y2.35
G1 X2.35
G1 Y8.6777
G3 X2.5756 Y8.5329 I1.65 J2.3223
G3 X4.3166 Y8.1689 I1.4244 J2.4671
G1 F300.0 X4.2501 Y8.7639
G2 F800.0 X2.875 Y9.0514 I-0.2501 J2.2361
G2 X1.75 Y11.0 I1.125 J1.9486
G1 Y20.25
G1 X6.25
G1 Y11.0
G1 Y1.75
G1 X1.75
G1 Y11.0
G2 X2.875 Y12.9486 I2.25 J0.0
G2 X6.25 Y11.0 I1.125 J-1.9486
G2 X4.2501 Y8.7639 I-2.25 J0.0
G0 Z3.0
M5
M30
