( Made using CamBam - http://www.cambam.co.uk )
( regle_petit_robot 2/9/2016 4:46:26 PM )
( T0 : 1.5 )
G21 G90 G64 G40
G0 Z3.0
( T0 : 1.5 )
T0 M6
( Contour1 )
G17
M3 S1000
G0 X79.3154 Y24.0481
G1 F300.0 Z-1.0
G1 F800.0 X80.6413
G1 X80.861 Y24.2677
G1 X80.6413 Y24.0481
G1 Y16.25
G3 X81.3913 Y15.5 I0.75 J0.0
G1 X82.2462
G3 X82.9962 Y16.25 I0.0 J0.75
G1 Y24.0481
G1 X82.7765 Y24.2677
G1 X82.9962 Y24.0481
G1 X84.3221
G3 X85.0721 Y24.7981 I0.0 J0.75
G1 Y25.775
G3 X84.3221 Y26.525 I-0.75 J0.0
G1 X79.3154
G3 X78.5654 Y25.775 I0.0 J-0.75
G1 Y24.7981
G3 X79.3154 Y24.0481 I0.75 J0.0
G0 Z3.0
G0 X76.4906 Y22.5345
G1 F300.0 Z-1.0
G2 F800.0 X76.5207 Y22.4767 I-2.497 J-1.3379
G3 X76.5215 Y22.4751 I0.6691 J0.3389
G2 X76.6105 Y22.285 I-2.7866 J-1.4197
G2 X76.6856 Y22.0904 I-2.8655 J-1.217
G3 X76.6858 Y22.0898 I0.7084 J0.2463
G2 X76.7446 Y21.8974 I-2.4477 J-0.8534
G2 X76.7942 Y21.6814 I-3.9483 J-1.0195
G3 X76.7948 Y21.678 I0.7353 J0.1478
G2 X76.8262 Y21.4811 I-2.1758 J-0.4478
G3 X76.8265 Y21.479 I0.7452 J0.0847
G1 X76.8407 Y21.357
G1 X76.8504 Y21.2371
G2 X76.8536 Y21.1534 I-1.2187 J-0.0889
G3 X76.8544 Y21.1223 I0.75 J0.0032
G2 X76.8559 Y21.0294 I-1.5575 J-0.0713
G1 X76.8538 Y20.8994
G1 X76.8487 Y20.7694
G2 X76.8426 Y20.6927 I-0.9673 J0.0391
G3 X76.8402 Y20.6697 I0.7446 J-0.0897
G2 X76.8289 Y20.5727 I-1.8652 J0.1665
G1 X76.8112 Y20.4488
G2 X76.7916 Y20.3359 I-9.2266 J1.5483
G2 X76.7468 Y20.1398 I-2.3312 J0.4287
G3 X76.7461 Y20.1372 I0.7235 J-0.1977
G2 X76.6828 Y19.9266 I-3.6909 J0.9944
G2 X76.6099 Y19.7347 I-2.6028 J0.8797
G3 X76.609 Y19.7327 I0.6906 J-0.2925
G2 X76.5198 Y19.5388 I-2.9382 J1.2346
G2 X76.415 Y19.3465 I-3.1016 J1.5652
G3 X76.4145 Y19.3456 I0.6469 J-0.3794
G2 X76.3014 Y19.1676 I-2.4479 J1.4309
G2 X76.1717 Y18.9897 I-3.412 J2.3525
G2 X76.043 Y18.838 I-1.9255 J1.5027
G2 X75.8917 Y18.6836 I-2.6349 J2.4299
G3 X75.8898 Y18.6818 I0.5197 J-0.5408
G2 X75.7389 Y18.547 I-1.779 J1.8388
G1 X75.6476 Y18.4723
G1 X75.5549 Y18.4017
G2 X75.395 Y18.2939 I-1.1879 J1.5893
G3 X75.3929 Y18.2926 I0.3886 J-0.6415
G1 X75.2858 Y18.2273
G1 X75.1796 Y18.167
G2 X75.0952 Y18.123 I-0.8949 J1.6127
G3 X75.0794 Y18.115 I0.3296 J-0.6737
G2 X74.9915 Y18.0723 I-0.8398 J1.6182
G3 X74.9905 Y18.0719 I0.3093 J-0.6832
G1 X74.8775 Y18.0205
G1 X74.7664 Y17.9743
G2 X74.5807 Y17.9093 I-0.7903 J1.9609
G3 X74.5746 Y17.9075 I0.2145 J-0.7187
G2 X74.3474 Y17.8427 I-1.6679 J5.4208
G2 X74.1253 Y17.7937 I-0.9948 J3.9748
G3 X74.1227 Y17.7932 I0.1414 J-0.7365
G2 X73.9109 Y17.7605 I-0.5099 J2.6066
G2 X73.7897 Y17.7475 I-2.5235 J22.9881
G1 X73.6664 Y17.7386
G2 X73.5684 Y17.7351 I-0.117 J1.876
G3 X73.5451 Y17.7345 I0.0076 J-0.75
G2 X73.4404 Y17.7327 I-0.0894 J2.1623
G2 X73.0776 Y17.7473 I0.0434 J5.5874
G2 X72.749 Y17.7923 I0.3773 J3.9745
G1 X72.6648 Y17.8088
G1 X72.5852 Y17.8261
G2 X72.4186 Y17.869 I2.012 J8.1728
G2 X72.2867 Y17.9104 I0.4717 J1.7325
G3 X72.2742 Y17.9147 I-0.2521 J-0.7063
G2 X72.131 Y17.9677 I0.8301 J2.462
G2 X71.8321 Y18.1035 I1.549 J3.8064
G2 X71.5615 Y18.2609 I1.354 J2.6398
G3 X71.5597 Y18.2621 I-0.4107 J-0.6276
G2 X71.2906 Y18.4556 I1.9233 J2.9576
G3 X71.29 Y18.4561 I-0.4661 J-0.5876
G2 X71.0323 Y18.6806 I2.2512 J2.8442
G3 X71.0317 Y18.6812 I-0.5187 J-0.5417
G2 X70.7948 Y18.9292 I2.5978 J2.7185
G2 X70.596 Y19.1818 I2.4592 J2.14
G2 X70.4286 Y19.4477 I2.6282 J1.8405
G3 X70.4275 Y19.4497 I-0.6535 J-0.368
G2 X70.2979 Y19.7146 I2.0982 J1.1902
G3 X70.2966 Y19.7179 I-0.6926 J-0.2877
G2 X70.2524 Y19.8261 I4.7789 J2.0116
G1 X70.2111 Y19.9402
G1 X70.1861 Y20.018
G2 X70.1505 Y20.1475 I1.645 J0.5214
G3 X70.1452 Y20.169 I-0.7304 J-0.1703
G2 X70.1168 Y20.2977 I1.523 J0.4028
G3 X70.113 Y20.3176 I-0.7386 J-0.1305
G2 X70.0685 Y20.6232 I2.6386 J0.5401
G2 X70.052 Y20.975 I6.0363 J0.4596
G1 X70.0538 Y21.0943
G1 X70.059 Y21.2253
G2 X70.065 Y21.3003 I0.9163 J-0.0363
G3 X70.068 Y21.3291 I-0.7444 J0.0911
G2 X70.0783 Y21.4187 I1.4373 J-0.1199
G3 X70.079 Y21.4234 I-0.742 J0.109
G1 X70.0961 Y21.5452
G1 X70.1167 Y21.6639
G2 X70.1334 Y21.7403 I1.1122 J-0.202
G3 X70.1373 Y21.7567 I-0.7269 J0.1847
G2 X70.1618 Y21.8529 I2.1876 J-0.5041
G2 X70.2277 Y22.0726 I5.8666 J-1.6419
G2 X70.3016 Y22.2681 I3.0108 J-1.0262
G3 X70.3017 Y22.2684 I-0.6925 J0.288
G2 X70.3862 Y22.4488 I2.0794 J-0.8637
G2 X70.4989 Y22.654 I5.1816 J-2.7113
G2 X70.6088 Y22.8268 I2.1974 J-1.276
G2 X70.6727 Y22.9178 I7.3239 J-5.0834
G1 X70.7435 Y23.0107
G2 X70.8663 Y23.1537 I1.5827 J-1.2348
G3 X70.8672 Y23.1547 I-0.5454 J0.5148
G1 X70.9524 Y23.2453
G2 X71.0277 Y23.3205 I3.3933 J-3.3224
G2 X71.1817 Y23.4595 I1.9107 J-1.9617
G3 X71.1848 Y23.4622 I-0.4811 J0.5753
G2 X71.3554 Y23.5971 I2.15 J-2.5423
G2 X71.542 Y23.7263 I2.3889 J-3.2511
G2 X71.7309 Y23.839 I1.6484 J-2.5487
G3 X71.7357 Y23.8417 I-0.3606 J0.6576
G2 X71.939 Y23.9474 I1.8907 J-3.3882
G2 X72.1549 Y24.0436 I2.5156 J-5.3511
G2 X72.3469 Y24.1143 I0.92 J-2.2028
G3 X72.3489 Y24.115 I-0.2287 J0.7143
G1 X72.4682 Y24.1536
G2 X72.5726 Y24.1836 I1.6953 J-5.6848
G2 X72.7698 Y24.2285 I0.6479 J-2.3922
G3 X72.7808 Y24.2306 I-0.1364 J0.7375
G2 X72.985 Y24.2632 I0.5128 J-2.559
G1 X73.1047 Y24.2773
G1 X73.2225 Y24.287
G2 X73.3027 Y24.2901 I0.0855 J-1.1559
G3 X73.3341 Y24.2909 I-0.0035 J0.75
G2 X73.4235 Y24.2924 I0.069 J-1.4811
G1 X73.5514 Y24.2903
G1 X73.6794 Y24.2853
G2 X73.7549 Y24.2792 I-0.0389 J-0.9483
G3 X73.7754 Y24.277 I0.0903 J0.7445
G2 X73.8757 Y24.2653 I-0.2102 J-2.2477
G1 X74.005 Y24.2468
G2 X74.1065 Y24.2294 I-0.406 J-2.6667
G3 X74.1074 Y24.2292 I0.1411 J0.7366
G2 X74.3265 Y24.1803 I-0.6682 J-3.5119
G2 X74.5261 Y24.1202 I-0.6218 J-2.4235
G3 X74.5306 Y24.1186 I0.2462 J0.7084
G2 X74.7513 Y24.038 I-1.7136 J-5.0336
G2 X74.9625 Y23.9458 I-1.5361 J-3.8062
G3 X74.9645 Y23.9449 I0.3193 J0.6786
G2 X75.1601 Y23.8441 I-1.1946 J-2.5585
G1 X75.2712 Y23.781
G1 X75.3778 Y23.7163
G2 X75.5494 Y23.5998 I-1.3514 J-2.1753
G3 X75.5527 Y23.5973 I0.446 J0.603
G2 X75.7351 Y23.4574 I-2.9371 J-4.0173
G2 X75.8914 Y23.319 I-1.9533 J-2.3625
G3 X75.8938 Y23.3167 I0.5161 J0.5442
G2 X76.0329 Y23.1748 I-1.6669 J-1.773
G1 X76.1115 Y23.0869
G2 X76.1837 Y23.0006 I-20.9015 J-17.5525
G2 X76.2981 Y22.8469 I-1.6913 J-1.3784
G3 X76.3 Y22.8442 I0.6207 J0.421
G2 X76.4207 Y22.6576 I-3.524 J-2.4119
G2 X76.4906 Y22.5345 I-2.4271 J-1.461
G1 F300.0 Z-2.0
G2 F800.0 X76.5207 Y22.4767 I-2.497 J-1.3379
G3 X76.5215 Y22.4751 I0.6691 J0.3389
G2 X76.6105 Y22.285 I-2.7866 J-1.4197
G2 X76.6856 Y22.0904 I-2.8655 J-1.217
G3 X76.6858 Y22.0898 I0.7084 J0.2463
G2 X76.7446 Y21.8974 I-2.4477 J-0.8534
G2 X76.7942 Y21.6814 I-3.9483 J-1.0195
G3 X76.7948 Y21.678 I0.7353 J0.1478
G2 X76.8262 Y21.4811 I-2.1758 J-0.4478
G3 X76.8265 Y21.479 I0.7452 J0.0847
G1 X76.8407 Y21.357
G1 X76.8504 Y21.2371
G2 X76.8536 Y21.1534 I-1.2187 J-0.0889
G3 X76.8544 Y21.1223 I0.75 J0.0032
G2 X76.8559 Y21.0294 I-1.5575 J-0.0713
G1 X76.8538 Y20.8994
G1 X76.8487 Y20.7694
G2 X76.8426 Y20.6927 I-0.9673 J0.0391
G3 X76.8402 Y20.6697 I0.7446 J-0.0897
G2 X76.8289 Y20.5727 I-1.8652 J0.1665
G1 X76.8112 Y20.4488
G2 X76.7916 Y20.3359 I-9.2266 J1.5483
G2 X76.7468 Y20.1398 I-2.3312 J0.4287
G3 X76.7461 Y20.1372 I0.7235 J-0.1977
G2 X76.6828 Y19.9266 I-3.6909 J0.9944
G2 X76.6099 Y19.7347 I-2.6028 J0.8797
G3 X76.609 Y19.7327 I0.6906 J-0.2925
G2 X76.5198 Y19.5388 I-2.9382 J1.2346
G2 X76.415 Y19.3465 I-3.1016 J1.5652
G3 X76.4145 Y19.3456 I0.6469 J-0.3794
G2 X76.3014 Y19.1676 I-2.4479 J1.4309
G2 X76.1717 Y18.9897 I-3.412 J2.3525
G2 X76.043 Y18.838 I-1.9255 J1.5027
G2 X75.8917 Y18.6836 I-2.6349 J2.4299
G3 X75.8898 Y18.6818 I0.5197 J-0.5408
G2 X75.7389 Y18.547 I-1.779 J1.8388
G1 X75.6476 Y18.4723
G1 X75.5549 Y18.4017
G2 X75.395 Y18.2939 I-1.1879 J1.5893
G3 X75.3929 Y18.2926 I0.3886 J-0.6415
G1 X75.2858 Y18.2273
G1 X75.1796 Y18.167
G2 X75.0952 Y18.123 I-0.8949 J1.6127
G3 X75.0794 Y18.115 I0.3296 J-0.6737
G2 X74.9915 Y18.0723 I-0.8398 J1.6182
G3 X74.9905 Y18.0719 I0.3093 J-0.6832
G1 X74.8775 Y18.0205
G1 X74.7664 Y17.9743
G2 X74.5807 Y17.9093 I-0.7903 J1.9609
G3 X74.5746 Y17.9075 I0.2145 J-0.7187
G2 X74.3474 Y17.8427 I-1.6679 J5.4208
G2 X74.1253 Y17.7937 I-0.9948 J3.9748
G3 X74.1227 Y17.7932 I0.1414 J-0.7365
G2 X73.9109 Y17.7605 I-0.5099 J2.6066
G2 X73.7897 Y17.7475 I-2.5235 J22.9881
G1 X73.6664 Y17.7386
G2 X73.5684 Y17.7351 I-0.117 J1.876
G3 X73.5451 Y17.7345 I0.0076 J-0.75
G2 X73.4404 Y17.7327 I-0.0894 J2.1623
G2 X73.0776 Y17.7473 I0.0434 J5.5874
G2 X72.749 Y17.7923 I0.3773 J3.9745
G1 X72.6648 Y17.8088
G1 X72.5852 Y17.8261
G2 X72.4186 Y17.869 I2.012 J8.1728
G2 X72.2867 Y17.9104 I0.4717 J1.7325
G3 X72.2742 Y17.9147 I-0.2521 J-0.7063
G2 X72.131 Y17.9677 I0.8301 J2.462
G2 X71.8321 Y18.1035 I1.549 J3.8064
G2 X71.5615 Y18.2609 I1.354 J2.6398
G3 X71.5597 Y18.2621 I-0.4107 J-0.6276
G2 X71.2906 Y18.4556 I1.9233 J2.9576
G3 X71.29 Y18.4561 I-0.4661 J-0.5876
G2 X71.0323 Y18.6806 I2.2512 J2.8442
G3 X71.0317 Y18.6812 I-0.5187 J-0.5417
G2 X70.7948 Y18.9292 I2.5978 J2.7185
G2 X70.596 Y19.1818 I2.4592 J2.14
G2 X70.4286 Y19.4477 I2.6282 J1.8405
G3 X70.4275 Y19.4497 I-0.6535 J-0.368
G2 X70.2979 Y19.7146 I2.0982 J1.1902
G3 X70.2966 Y19.7179 I-0.6926 J-0.2877
G2 X70.2524 Y19.8261 I4.7789 J2.0116
G1 X70.2111 Y19.9402
G1 X70.1861 Y20.018
G2 X70.1505 Y20.1475 I1.645 J0.5214
G3 X70.1452 Y20.169 I-0.7304 J-0.1703
G2 X70.1168 Y20.2977 I1.523 J0.4028
G3 X70.113 Y20.3176 I-0.7386 J-0.1305
G2 X70.0685 Y20.6232 I2.6386 J0.5401
G2 X70.052 Y20.975 I6.0363 J0.4596
G1 X70.0538 Y21.0943
G1 X70.059 Y21.2253
G2 X70.065 Y21.3003 I0.9163 J-0.0363
G3 X70.068 Y21.3291 I-0.7444 J0.0911
G2 X70.0783 Y21.4187 I1.4373 J-0.1199
G3 X70.079 Y21.4234 I-0.742 J0.109
G1 X70.0961 Y21.5452
G1 X70.1167 Y21.6639
G2 X70.1334 Y21.7403 I1.1122 J-0.202
G3 X70.1373 Y21.7567 I-0.7269 J0.1847
G2 X70.1618 Y21.8529 I2.1876 J-0.5041
G2 X70.2277 Y22.0726 I5.8666 J-1.6419
G2 X70.3016 Y22.2681 I3.0108 J-1.0262
G3 X70.3017 Y22.2684 I-0.6925 J0.288
G2 X70.3862 Y22.4488 I2.0794 J-0.8637
G2 X70.4989 Y22.654 I5.1816 J-2.7113
G2 X70.6088 Y22.8268 I2.1974 J-1.276
G2 X70.6727 Y22.9178 I7.3239 J-5.0834
G1 X70.7435 Y23.0107
G2 X70.8663 Y23.1537 I1.5827 J-1.2348
G3 X70.8672 Y23.1547 I-0.5454 J0.5148
G1 X70.9524 Y23.2453
G2 X71.0277 Y23.3205 I3.3933 J-3.3224
G2 X71.1817 Y23.4595 I1.9107 J-1.9617
G3 X71.1848 Y23.4622 I-0.4811 J0.5753
G2 X71.3554 Y23.5971 I2.15 J-2.5423
G2 X71.542 Y23.7263 I2.3889 J-3.2511
G2 X71.7309 Y23.839 I1.6484 J-2.5487
G3 X71.7357 Y23.8417 I-0.3606 J0.6576
G2 X71.939 Y23.9474 I1.8907 J-3.3882
G2 X72.1549 Y24.0436 I2.5156 J-5.3511
G2 X72.3469 Y24.1143 I0.92 J-2.2028
G3 X72.3489 Y24.115 I-0.2287 J0.7143
G1 X72.4682 Y24.1536
G2 X72.5726 Y24.1836 I1.6953 J-5.6848
G2 X72.7698 Y24.2285 I0.6479 J-2.3922
G3 X72.7808 Y24.2306 I-0.1364 J0.7375
G2 X72.985 Y24.2632 I0.5128 J-2.559
G1 X73.1047 Y24.2773
G1 X73.2225 Y24.287
G2 X73.3027 Y24.2901 I0.0855 J-1.1559
G3 X73.3341 Y24.2909 I-0.0035 J0.75
G2 X73.4235 Y24.2924 I0.069 J-1.4811
G1 X73.5514 Y24.2903
G1 X73.6794 Y24.2853
G2 X73.7549 Y24.2792 I-0.0389 J-0.9483
G3 X73.7754 Y24.277 I0.0903 J0.7445
G2 X73.8757 Y24.2653 I-0.2102 J-2.2477
G1 X74.005 Y24.2468
G2 X74.1065 Y24.2294 I-0.406 J-2.6667
G3 X74.1074 Y24.2292 I0.1411 J0.7366
G2 X74.3265 Y24.1803 I-0.6682 J-3.5119
G2 X74.5261 Y24.1202 I-0.6218 J-2.4235
G3 X74.5306 Y24.1186 I0.2462 J0.7084
G2 X74.7513 Y24.038 I-1.7136 J-5.0336
G2 X74.9625 Y23.9458 I-1.5361 J-3.8062
G3 X74.9645 Y23.9449 I0.3193 J0.6786
G2 X75.1601 Y23.8441 I-1.1946 J-2.5585
G1 X75.2712 Y23.781
G1 X75.3778 Y23.7163
G2 X75.5494 Y23.5998 I-1.3514 J-2.1753
G3 X75.5527 Y23.5973 I0.446 J0.603
G2 X75.7351 Y23.4574 I-2.9371 J-4.0173
G2 X75.8914 Y23.319 I-1.9533 J-2.3625
G3 X75.8938 Y23.3167 I0.5161 J0.5442
G2 X76.0329 Y23.1748 I-1.6669 J-1.773
G1 X76.1115 Y23.0869
G2 X76.1837 Y23.0006 I-20.9015 J-17.5525
G2 X76.2981 Y22.8469 I-1.6913 J-1.3784
G3 X76.3 Y22.8442 I0.6207 J0.421
G2 X76.4207 Y22.6576 I-3.524 J-2.4119
G2 X76.4906 Y22.5345 I-2.4271 J-1.461
G1 F300.0 Z-3.0
G2 F800.0 X76.5207 Y22.4767 I-2.497 J-1.3379
G3 X76.5215 Y22.4751 I0.6691 J0.3389
G2 X76.6105 Y22.285 I-2.7866 J-1.4197
G2 X76.6856 Y22.0904 I-2.8655 J-1.217
G3 X76.6858 Y22.0898 I0.7084 J0.2463
G2 X76.7446 Y21.8974 I-2.4477 J-0.8534
G2 X76.7942 Y21.6814 I-3.9483 J-1.0195
G3 X76.7948 Y21.678 I0.7353 J0.1478
G2 X76.8262 Y21.4811 I-2.1758 J-0.4478
G3 X76.8265 Y21.479 I0.7452 J0.0847
G1 X76.8407 Y21.357
G1 X76.8504 Y21.2371
G2 X76.8536 Y21.1534 I-1.2187 J-0.0889
G3 X76.8544 Y21.1223 I0.75 J0.0032
G2 X76.8559 Y21.0294 I-1.5575 J-0.0713
G1 X76.8538 Y20.8994
G1 X76.8487 Y20.7694
G2 X76.8426 Y20.6927 I-0.9673 J0.0391
G3 X76.8402 Y20.6697 I0.7446 J-0.0897
G2 X76.8289 Y20.5727 I-1.8652 J0.1665
G1 X76.8112 Y20.4488
G2 X76.7916 Y20.3359 I-9.2266 J1.5483
G2 X76.7468 Y20.1398 I-2.3312 J0.4287
G3 X76.7461 Y20.1372 I0.7235 J-0.1977
G2 X76.6828 Y19.9266 I-3.6909 J0.9944
G2 X76.6099 Y19.7347 I-2.6028 J0.8797
G3 X76.609 Y19.7327 I0.6906 J-0.2925
G2 X76.5198 Y19.5388 I-2.9382 J1.2346
G2 X76.415 Y19.3465 I-3.1016 J1.5652
G3 X76.4145 Y19.3456 I0.6469 J-0.3794
G2 X76.3014 Y19.1676 I-2.4479 J1.4309
G2 X76.1717 Y18.9897 I-3.412 J2.3525
G2 X76.043 Y18.838 I-1.9255 J1.5027
G2 X75.8917 Y18.6836 I-2.6349 J2.4299
G3 X75.8898 Y18.6818 I0.5197 J-0.5408
G2 X75.7389 Y18.547 I-1.779 J1.8388
G1 X75.6476 Y18.4723
G1 X75.5549 Y18.4017
G2 X75.395 Y18.2939 I-1.1879 J1.5893
G3 X75.3929 Y18.2926 I0.3886 J-0.6415
G1 X75.2858 Y18.2273
G1 X75.1796 Y18.167
G2 X75.0952 Y18.123 I-0.8949 J1.6127
G3 X75.0794 Y18.115 I0.3296 J-0.6737
G2 X74.9915 Y18.0723 I-0.8398 J1.6182
G3 X74.9905 Y18.0719 I0.3093 J-0.6832
G1 X74.8775 Y18.0205
G1 X74.7664 Y17.9743
G2 X74.5807 Y17.9093 I-0.7903 J1.9609
G3 X74.5746 Y17.9075 I0.2145 J-0.7187
G2 X74.3474 Y17.8427 I-1.6679 J5.4208
G2 X74.1253 Y17.7937 I-0.9948 J3.9748
G3 X74.1227 Y17.7932 I0.1414 J-0.7365
G2 X73.9109 Y17.7605 I-0.5099 J2.6066
G2 X73.7897 Y17.7475 I-2.5235 J22.9881
G1 X73.6664 Y17.7386
G2 X73.5684 Y17.7351 I-0.117 J1.876
G3 X73.5451 Y17.7345 I0.0076 J-0.75
G2 X73.4404 Y17.7327 I-0.0894 J2.1623
G2 X73.0776 Y17.7473 I0.0434 J5.5874
G2 X72.749 Y17.7923 I0.3773 J3.9745
G1 X72.6648 Y17.8088
G1 X72.5852 Y17.8261
G2 X72.4186 Y17.869 I2.012 J8.1728
G2 X72.2867 Y17.9104 I0.4717 J1.7325
G3 X72.2742 Y17.9147 I-0.2521 J-0.7063
G2 X72.131 Y17.9677 I0.8301 J2.462
G2 X71.8321 Y18.1035 I1.549 J3.8064
G2 X71.5615 Y18.2609 I1.354 J2.6398
G3 X71.5597 Y18.2621 I-0.4107 J-0.6276
G2 X71.2906 Y18.4556 I1.9233 J2.9576
G3 X71.29 Y18.4561 I-0.4661 J-0.5876
G2 X71.0323 Y18.6806 I2.2512 J2.8442
G3 X71.0317 Y18.6812 I-0.5187 J-0.5417
G2 X70.7948 Y18.9292 I2.5978 J2.7185
G2 X70.596 Y19.1818 I2.4592 J2.14
G2 X70.4286 Y19.4477 I2.6282 J1.8405
G3 X70.4275 Y19.4497 I-0.6535 J-0.368
G2 X70.2979 Y19.7146 I2.0982 J1.1902
G3 X70.2966 Y19.7179 I-0.6926 J-0.2877
G2 X70.2524 Y19.8261 I4.7789 J2.0116
G1 X70.2111 Y19.9402
G1 X70.1861 Y20.018
G2 X70.1505 Y20.1475 I1.645 J0.5214
G3 X70.1452 Y20.169 I-0.7304 J-0.1703
G2 X70.1168 Y20.2977 I1.523 J0.4028
G3 X70.113 Y20.3176 I-0.7386 J-0.1305
G2 X70.0685 Y20.6232 I2.6386 J0.5401
G2 X70.052 Y20.975 I6.0363 J0.4596
G1 X70.0538 Y21.0943
G1 X70.059 Y21.2253
G2 X70.065 Y21.3003 I0.9163 J-0.0363
G3 X70.068 Y21.3291 I-0.7444 J0.0911
G2 X70.0783 Y21.4187 I1.4373 J-0.1199
G3 X70.079 Y21.4234 I-0.742 J0.109
G1 X70.0961 Y21.5452
G1 X70.1167 Y21.6639
G2 X70.1334 Y21.7403 I1.1122 J-0.202
G3 X70.1373 Y21.7567 I-0.7269 J0.1847
G2 X70.1618 Y21.8529 I2.1876 J-0.5041
G2 X70.2277 Y22.0726 I5.8666 J-1.6419
G2 X70.3016 Y22.2681 I3.0108 J-1.0262
G3 X70.3017 Y22.2684 I-0.6925 J0.288
G2 X70.3862 Y22.4488 I2.0794 J-0.8637
G2 X70.4989 Y22.654 I5.1816 J-2.7113
G2 X70.6088 Y22.8268 I2.1974 J-1.276
G2 X70.6727 Y22.9178 I7.3239 J-5.0834
G1 X70.7435 Y23.0107
G2 X70.8663 Y23.1537 I1.5827 J-1.2348
G3 X70.8672 Y23.1547 I-0.5454 J0.5148
G1 X70.9524 Y23.2453
G2 X71.0277 Y23.3205 I3.3933 J-3.3224
G2 X71.1817 Y23.4595 I1.9107 J-1.9617
G3 X71.1848 Y23.4622 I-0.4811 J0.5753
G2 X71.3554 Y23.5971 I2.15 J-2.5423
G2 X71.542 Y23.7263 I2.3889 J-3.2511
G2 X71.7309 Y23.839 I1.6484 J-2.5487
G3 X71.7357 Y23.8417 I-0.3606 J0.6576
G2 X71.939 Y23.9474 I1.8907 J-3.3882
G2 X72.1549 Y24.0436 I2.5156 J-5.3511
G2 X72.3469 Y24.1143 I0.92 J-2.2028
G3 X72.3489 Y24.115 I-0.2287 J0.7143
G1 X72.4682 Y24.1536
G2 X72.5726 Y24.1836 I1.6953 J-5.6848
G2 X72.7698 Y24.2285 I0.6479 J-2.3922
G3 X72.7808 Y24.2306 I-0.1364 J0.7375
G2 X72.985 Y24.2632 I0.5128 J-2.559
G1 X73.1047 Y24.2773
G1 X73.2225 Y24.287
G2 X73.3027 Y24.2901 I0.0855 J-1.1559
G3 X73.3341 Y24.2909 I-0.0035 J0.75
G2 X73.4235 Y24.2924 I0.069 J-1.4811
G1 X73.5514 Y24.2903
G1 X73.6794 Y24.2853
G2 X73.7549 Y24.2792 I-0.0389 J-0.9483
G3 X73.7754 Y24.277 I0.0903 J0.7445
G2 X73.8757 Y24.2653 I-0.2102 J-2.2477
G1 X74.005 Y24.2468
G2 X74.1065 Y24.2294 I-0.406 J-2.6667
G3 X74.1074 Y24.2292 I0.1411 J0.7366
G2 X74.3265 Y24.1803 I-0.6682 J-3.5119
G2 X74.5261 Y24.1202 I-0.6218 J-2.4235
G3 X74.5306 Y24.1186 I0.2462 J0.7084
G2 X74.7513 Y24.038 I-1.7136 J-5.0336
G2 X74.9625 Y23.9458 I-1.5361 J-3.8062
G3 X74.9645 Y23.9449 I0.3193 J0.6786
G2 X75.1601 Y23.8441 I-1.1946 J-2.5585
G1 X75.2712 Y23.781
G1 X75.3778 Y23.7163
G2 X75.5494 Y23.5998 I-1.3514 J-2.1753
G3 X75.5527 Y23.5973 I0.446 J0.603
G2 X75.7351 Y23.4574 I-2.9371 J-4.0173
G2 X75.8914 Y23.319 I-1.9533 J-2.3625
G3 X75.8938 Y23.3167 I0.5161 J0.5442
G2 X76.0329 Y23.1748 I-1.6669 J-1.773
G1 X76.1115 Y23.0869
G2 X76.1837 Y23.0006 I-20.9015 J-17.5525
G2 X76.2981 Y22.8469 I-1.6913 J-1.3784
G3 X76.3 Y22.8442 I0.6207 J0.421
G2 X76.4207 Y22.6576 I-3.524 J-2.4119
G2 X76.4906 Y22.5345 I-2.4271 J-1.461
G0 Z3.0
G0 X78.6345 Y23.5908
G1 F300.0 Z-1.0
G3 F800.0 X78.5543 Y23.7476 I-5.1526 J-2.5386
G3 X78.5529 Y23.7502 I-0.6623 J-0.3519
G3 X78.2636 Y24.2294 I-4.8601 J-2.6071
G3 X78.2633 Y24.2298 I-0.6216 J-0.4197
G3 X77.9211 Y24.6826 I-4.4649 J-3.0188
G3 X77.5324 Y25.1059 I-4.6375 J-3.8683
G1 Y25.106
G3 X77.1106 Y25.4889 I-4.6623 J-4.7101
G3 X77.1074 Y25.4917 I-0.4799 J-0.5764
G3 X76.65 Y25.8304 I-3.5365 J-4.297
G3 X76.1636 Y26.119 I-2.8997 J-4.3319
G3 X75.9169 Y26.2414 I-2.9217 J-5.5789
G3 X75.9032 Y26.2477 I-0.3186 J-0.679
G3 X75.6641 Y26.3508 I-4.5568 J-10.2435
G3 X75.6577 Y26.3534 I-0.2888 J-0.6921
G3 X75.3833 Y26.454 I-1.5807 J-3.8877
G3 X75.1126 Y26.5376 I-1.5654 J-4.5854
G3 X74.5698 Y26.6658 I-1.8632 J-6.676
G3 X74.5632 Y26.6671 I-0.1429 J-0.7363
G3 X74.1276 Y26.7304 I-1.0419 J-5.6386
G3 X74.1174 Y26.7314 I-0.0793 J-0.7458
G1 X73.9904 Y26.7431
G3 X73.9736 Y26.7445 I-0.0691 J-0.7468
G3 X73.4054 Y26.7691 I-0.7494 J-10.7299
G3 X73.38 I-0.0126 J-0.7499
G1 X73.2148 Y26.7663
G3 X73.1971 Y26.7658 I0.0128 J-0.7499
G1 X73.0322 Y26.7591
G3 X73.0315 Y26.759 I0.0305 J-0.7494
G3 X72.821 Y26.7422 I0.1154 J-2.7719
G3 X72.6303 Y26.7194 I0.3506 J-3.7417
G3 X72.6301 I0.108 J-0.7422
G1 X72.4704 Y26.6961
G3 X72.4474 Y26.6924 I0.1082 J-0.7422
G1 X72.2885 Y26.6642
G3 X72.2819 Y26.663 I0.1312 J-0.7384
G3 X71.9072 Y26.5757 I0.8009 J-4.2849
G3 X71.5654 Y26.4716 I1.9391 J-6.9833
G3 X71.563 Y26.4708 I0.236 J-0.7119
G3 X71.2063 Y26.3354 I1.5406 J-4.5943
G3 X71.2054 Y26.335 I0.2937 J-0.6901
G3 X70.8802 Y26.1871 I3.052 J-7.146
G3 X70.8778 Y26.186 I0.326 J-0.6755
G3 X70.5329 Y25.9999 I2.0617 J-4.2345
G3 X70.5299 Y25.9982 I0.3833 J-0.6447
G1 X70.3892 Y25.9136
G3 X70.3734 Y25.9038 I0.3862 J-0.6429
G3 X70.2253 Y25.8082 I5.8382 J-9.1947
G3 X70.2234 Y25.8069 I0.4122 J-0.6266
G3 X69.909 Y25.5791 I2.5521 J-3.8527
G3 X69.9083 Y25.5785 I0.4652 J-0.5883
G3 X69.6339 Y25.3505 I4.8517 J-6.1192
G3 X69.6329 Y25.3496 I0.4923 J-0.5658
G3 X69.3541 Y25.0845 I2.9889 J-3.4227
G3 X69.3526 Y25.083 I0.5393 J-0.5212
G1 X69.2407 Y24.9666
G3 X69.2228 Y24.9473 I0.5409 J-0.5196
G1 X69.1152 Y24.827
G3 X69.1102 Y24.8214 I0.5588 J-0.5003
G3 X68.9827 Y24.6673 I2.5932 J-2.2751
G3 X68.8667 Y24.5162 I3.2635 J-2.6263
G3 X68.8646 Y24.5134 I0.6051 J-0.4431
G1 X68.7681 Y24.3803
G3 X68.7597 Y24.3685 I0.6071 J-0.4404
G3 X68.6577 Y24.2183 I6.4643 J-4.5017
G3 X68.6569 Y24.2172 I0.6252 J-0.4143
G3 X68.4551 Y23.8847 I4.2905 J-2.8321
G3 X68.2787 Y23.5469 I4.9769 J-2.8142
G3 X68.2013 Y23.3813 I7.4661 J-3.5876
G3 X68.1944 Y23.3656 I0.683 J-0.3098
G1 X68.1293 Y23.2128
G3 X68.1262 Y23.2054 I0.6899 J-0.2942
G3 X67.992 Y22.8372 I4.2243 J-1.7479
G3 X67.8896 Y22.4924 I7.8532 J-2.5189
G3 X67.8874 Y22.4839 I0.7235 J-0.1977
G3 X67.8037 Y22.1119 I5.4549 J-1.4219
G3 Y22.1117 I0.7369 J-0.1397
G3 X67.7722 Y21.9294 I5.6162 J-1.0629
G3 X67.7439 Y21.7287 I3.524 J-0.6002
G1 X67.7249 Y21.5628
G3 X67.7223 Y21.5369 I0.7451 J-0.0855
G1 X67.709 Y21.3697
G3 X67.7087 Y21.3649 I0.7476 J-0.0595
G3 X67.7001 Y21.1599 I3.2708 J-0.2395
G3 X67.6972 Y20.9624 I3.6911 J-0.1534
G3 X67.7221 Y20.4088 I7.8529 J0.0765
G3 X67.7372 Y20.257 I2.6246 J0.184
G3 X67.7559 Y20.1125 I2.5891 J0.2618
G3 X67.8029 Y19.833 I4.0496 J0.5375
G3 X67.9307 Y19.3027 I5.5702 J1.0622
G3 X68.0204 Y19.0289 I3.6044 J1.0286
G3 X68.1207 Y18.7705 I4.4181 J1.5667
G3 X68.1215 Y18.7688 I0.6908 J0.292
G3 X68.3524 Y18.2832 I5.9613 J2.5373
G3 X68.354 Y18.2802 I0.6634 J0.3499
G3 X68.6466 Y17.7977 I4.5187 J2.4103
G3 X68.9808 Y17.3528 I5.0963 J3.4808
G3 X68.981 Y17.3525 I0.5787 J0.4771
G3 X69.3749 Y16.9233 I4.2719 J3.5249
G3 X69.7948 Y16.5421 I4.7185 J4.775
G3 X69.7974 Y16.5399 I0.4803 J0.5761
G3 X70.2496 Y16.2013 I3.7711 J4.5649
G3 X70.2504 Y16.2008 I0.4204 J0.6211
G3 X70.7335 Y15.9104 I2.9965 J4.4387
G3 X71.2376 Y15.6739 I2.5567 J4.7934
G3 X71.241 Y15.6725 I0.2834 J0.6944
G3 X71.7654 Y15.4904 I2.1468 J5.3357
G3 X71.7666 Y15.49 I0.2116 J0.7195
G3 X72.0385 Y15.4187 I1.4147 J4.8405
G3 X72.3237 Y15.3588 I0.9623 J3.8674
G3 X72.5222 Y15.325 I1.6973 J9.3924
G3 X72.5415 Y15.3222 I0.1178 J0.7407
G1 X72.7284 Y15.2975
G3 X72.7534 Y15.2946 I0.0985 J0.7435
G1 X72.8786 Y15.2823
G3 X72.8864 Y15.2815 I0.0735 J0.7464
G3 X73.0495 Y15.2701 I0.4041 J4.603
G3 X73.2174 Y15.2624 I0.2174 J2.9136
G3 X73.3202 Y15.2592 I0.1352 J2.691
G3 X73.4637 Y15.2558 I0.1739 J4.2432
G3 X73.4895 Y15.256 I0.0054 J0.75
G1 X73.6821 Y15.2613
G3 X73.6949 Y15.2617 I-0.0204 J0.7497
G1 X73.8874 Y15.2703
G3 X73.9018 Y15.271 I-0.0332 J0.7493
G3 X74.0374 Y15.2807 I-0.5727 J9.0219
G3 X74.1906 Y15.2957 I-0.1844 J2.6713
G3 X74.3362 Y15.3143 I-0.2629 J2.6352
G3 X74.6192 Y15.3614 I-0.5309 J4.0644
G3 X75.1546 Y15.4896 I-1.0926 J5.7477
G3 X75.1607 Y15.4913 I-0.2087 J0.7204
G3 X75.6838 Y15.6767 I-1.5851 J5.3028
G3 X75.6959 Y15.6818 I-0.2857 J0.6935
G1 X75.8608 Y15.7532
G3 X75.8867 Y15.765 I-0.2978 J0.6884
G1 X76.0487 Y15.8425
G3 X76.0695 Y15.8528 I-0.3236 J0.6766
G3 X76.1799 Y15.9103 I-8.8681 J17.157
G3 X76.1805 Y15.9106 I-0.3487 J0.664
G3 X76.4338 Y16.0563 I-1.8147 J3.4491
G3 X76.6705 Y16.2097 I-2.3726 J3.9196
G3 X76.6727 Y16.2112 I-0.4271 J0.6165
G1 X76.7736 Y16.2817
G3 X76.7879 Y16.2919 I-0.4293 J0.615
G1 X76.8871 Y16.3646
G3 X76.899 Y16.3736 I-0.4435 J0.6048
G3 X77.1112 Y16.5413 I-5.0438 J6.5971
G3 X77.1121 Y16.5421 I-0.4747 J0.5807
G3 X77.335 Y16.737 I-2.9808 J3.634
G3 X77.5433 Y16.9376 I-3.6175 J3.9634
G3 X77.5434 Y16.9377 I-0.5347 J0.5259
G3 X77.9229 Y17.3556 I-5.0865 J5.0007
G3 X77.925 Y17.3581 I-0.5747 J0.4819
G3 X78.2663 Y17.8139 I-4.3236 J3.5931
G3 X78.2667 Y17.8145 I-0.6223 J0.4186
G3 X78.5538 Y18.2901 I-4.8121 J3.2295
G3 X78.554 Y18.2904 I-0.6599 J0.3564
G3 X78.7937 Y18.8014 I-4.4437 J2.3971
G3 X78.7945 Y18.8033 I-0.6957 J0.2802
G3 X78.9749 Y19.3205 I-5.7133 J2.2825
G3 X78.9756 Y19.3228 I-0.7185 J0.2152
G3 X79.0474 Y19.5944 I-4.6002 J1.3614
G3 X79.1074 Y19.8775 I-3.8277 J0.9595
G3 X79.1412 Y20.0746 I-9.3065 J1.6949
G3 X79.144 Y20.0942 I-0.7405 J0.1187
G1 X79.1688 Y20.2797
G3 X79.1717 Y20.3049 I-0.7434 J0.0992
G1 X79.184 Y20.429
G3 X79.1848 Y20.437 I-0.7463 J0.074
G3 X79.1962 Y20.5991 I-4.5656 J0.4034
G3 X79.2039 Y20.7661 I-2.8847 J0.2167
G3 X79.2071 Y20.8682 I-2.6646 J0.1347
G3 X79.2106 Y21.0109 I-4.1955 J0.1731
G3 X79.2103 Y21.0367 I-0.75 J0.0054
G1 X79.205 Y21.2307
G3 X79.2046 Y21.2433 I-0.7497 J-0.0204
G1 X79.196 Y21.4372
G3 X79.1954 Y21.4495 I-0.7493 J-0.0329
G3 X79.1857 Y21.5886 I-7.1926 J-0.434
G3 X79.1708 Y21.7422 I-2.7143 J-0.1855
G3 X79.1522 Y21.8893 I-2.7247 J-0.2695
G3 X79.1057 Y22.1721 I-4.3354 J-0.5676
G3 X78.977 Y22.7146 I-5.3472 J-0.9823
G3 X78.7882 Y23.2515 I-4.5612 J-1.3017
G3 X78.6345 Y23.5908 I-5.3063 J-2.1993
G1 F300.0 X78.947 Y24.1448
G1 Z-2.0
G3 F800.0 X79.3154 Y24.0481 I0.3684 J0.6533
G1 X80.6413
G1 X80.861 Y24.2677
G1 X80.6413 Y24.0481
G1 Y16.25
G3 X81.3913 Y15.5 I0.75 J0.0
G1 X82.2462
G3 X82.9962 Y16.25 I0.0 J0.75
G1 Y24.0481
G1 X82.7765 Y24.2677
G1 X82.9962 Y24.0481
G1 X84.3221
G3 X85.0721 Y24.7981 I0.0 J0.75
G1 Y25.775
G3 X84.3221 Y26.525 I-0.75 J0.0
G1 X79.3154
G3 X78.5654 Y25.775 I0.0 J-0.75
G1 Y24.7981
G3 X78.947 Y24.1448 I0.75 J0.0
G0 Z3.0
G0 X84.7494 Y32.5088
G1 F300.0 Z-1.0
G3 F800.0 X85.1769 Y32.375 I0.4275 J0.6162
G1 X86.0317
G3 X86.7817 Y33.125 I0.0 J0.75
G1 Y38.5443
G1 X86.2883 Y39.8998
G1 X86.7817 Y38.5443
G1 X91.7347 Y32.6428
G3 X92.3092 Y32.375 I0.5745 J0.4822
G1 X92.5038
G3 X93.2538 Y33.125 I0.0 J0.75
G1 Y42.65
G3 X92.5038 Y43.4 I-0.75 J0.0
G1 X91.649
G3 X90.899 Y42.65 I0.0 J-0.75
G1 Y37.2133
G1 X91.3925 Y35.858
G1 X90.899 Y37.2133
G1 X85.9307 Y43.1322
G3 X85.3563 Y43.4 I-0.5744 J-0.4822
G1 X85.1769
G3 X84.4269 Y42.65 I0.0 J-0.75
G1 Y33.125
G3 X84.7494 Y32.5088 I0.75 J0.0
G0 Z3.0
G0 X80.873 Y35.7895
G1 F300.0 Z-1.0
G2 F800.0 X80.8055 Y35.713 I-1.8644 J1.5779
G2 X80.6542 Y35.5586 I-2.6349 J2.4299
G3 X80.6523 Y35.5568 I0.5197 J-0.5408
G2 X80.5014 Y35.422 I-1.779 J1.8388
G1 X80.4101 Y35.3473
G1 X80.3174 Y35.2767
G2 X80.1575 Y35.1689 I-1.1879 J1.5893
G3 X80.1554 Y35.1676 I0.3886 J-0.6415
G1 X80.0483 Y35.1023
G1 X79.9421 Y35.042
G2 X79.8577 Y34.998 I-0.8949 J1.6127
G3 X79.8419 Y34.99 I0.3296 J-0.6737
G2 X79.754 Y34.9473 I-0.8398 J1.6182
G3 X79.753 Y34.9469 I0.3093 J-0.6832
G1 X79.64 Y34.8955
G1 X79.5289 Y34.8493
G2 X79.3432 Y34.7843 I-0.7903 J1.9609
G3 X79.3371 Y34.7825 I0.2145 J-0.7187
G2 X79.1099 Y34.7177 I-1.6679 J5.4208
G2 X78.8878 Y34.6687 I-0.9948 J3.9748
G3 X78.8852 Y34.6682 I0.1414 J-0.7365
G2 X78.6734 Y34.6355 I-0.5099 J2.6066
G2 X78.5522 Y34.6225 I-2.5235 J22.9881
G1 X78.4289 Y34.6136
G2 X78.3309 Y34.6101 I-0.117 J1.876
G3 X78.3076 Y34.6095 I0.0076 J-0.75
G2 X78.2029 Y34.6077 I-0.0894 J2.1623
G2 X77.8401 Y34.6223 I0.0434 J5.5874
G2 X77.5115 Y34.6673 I0.3773 J3.9745
G1 X77.4273 Y34.6838
G1 X77.3477 Y34.7011
G2 X77.1811 Y34.744 I2.012 J8.1728
G2 X77.0492 Y34.7854 I0.4717 J1.7325
G3 X77.0367 Y34.7897 I-0.2521 J-0.7063
G2 X76.8935 Y34.8427 I0.8301 J2.462
G2 X76.5946 Y34.9785 I1.549 J3.8064
G2 X76.324 Y35.1359 I1.354 J2.6398
G3 X76.3222 Y35.1371 I-0.4107 J-0.6276
G2 X76.0531 Y35.3306 I1.9233 J2.9576
G3 X76.0525 Y35.3311 I-0.4661 J-0.5876
G2 X75.7948 Y35.5556 I2.2512 J2.8442
G3 X75.7942 Y35.5562 I-0.5187 J-0.5417
G2 X75.5573 Y35.8042 I2.5978 J2.7185
G2 X75.3585 Y36.0568 I2.4592 J2.14
G2 X75.1911 Y36.3227 I2.6282 J1.8405
G3 X75.19 Y36.3247 I-0.6535 J-0.368
G2 X75.0604 Y36.5896 I2.0982 J1.1902
G3 X75.0591 Y36.5929 I-0.6926 J-0.2877
G2 X75.0149 Y36.7011 I4.7789 J2.0116
G1 X74.9736 Y36.8152
G1 X74.9486 Y36.893
G2 X74.913 Y37.0225 I1.645 J0.5214
G3 X74.9077 Y37.044 I-0.7304 J-0.1703
G2 X74.8793 Y37.1727 I1.523 J0.4028
G3 X74.8755 Y37.1926 I-0.7386 J-0.1305
G2 X74.831 Y37.4982 I2.6386 J0.5401
G2 X74.8145 Y37.85 I6.0363 J0.4596
G1 X74.8163 Y37.9693
G1 X74.8215 Y38.1003
G2 X74.8275 Y38.1753 I0.9163 J-0.0363
G3 X74.8305 Y38.2041 I-0.7444 J0.0911
G2 X74.8408 Y38.2937 I1.4373 J-0.1199
G3 X74.8415 Y38.2984 I-0.742 J0.109
G1 X74.8586 Y38.4202
G1 X74.8792 Y38.5389
G2 X74.8959 Y38.6153 I1.1122 J-0.202
G3 X74.8998 Y38.6317 I-0.7269 J0.1847
G2 X74.9243 Y38.7279 I2.1876 J-0.5041
G2 X74.9902 Y38.9476 I5.8666 J-1.6419
G2 X75.0641 Y39.1431 I3.0108 J-1.0262
G3 X75.0642 Y39.1434 I-0.6925 J0.288
G2 X75.1487 Y39.3238 I2.0794 J-0.8637
G2 X75.2614 Y39.529 I5.1816 J-2.7113
G2 X75.3713 Y39.7018 I2.1974 J-1.276
G2 X75.4352 Y39.7928 I7.3239 J-5.0834
G1 X75.506 Y39.8857
G2 X75.6288 Y40.0287 I1.5827 J-1.2348
G3 X75.6297 Y40.0297 I-0.5454 J0.5148
G1 X75.7149 Y40.1203
G2 X75.7902 Y40.1955 I3.3933 J-3.3224
G2 X75.9442 Y40.3345 I1.9107 J-1.9617
G3 X75.9473 Y40.3372 I-0.4811 J0.5753
G2 X76.1179 Y40.4721 I2.15 J-2.5423
G2 X76.3045 Y40.6013 I2.3889 J-3.2511
G2 X76.4934 Y40.714 I1.6484 J-2.5487
G3 X76.4982 Y40.7167 I-0.3606 J0.6576
G2 X76.7015 Y40.8224 I1.8907 J-3.3882
G2 X76.9174 Y40.9186 I2.5156 J-5.3511
G2 X77.1094 Y40.9893 I0.92 J-2.2028
G3 X77.1114 Y40.99 I-0.2287 J0.7143
G1 X77.2307 Y41.0286
G2 X77.3351 Y41.0586 I1.6953 J-5.6848
G2 X77.5323 Y41.1035 I0.6479 J-2.3922
G3 X77.5433 Y41.1056 I-0.1364 J0.7375
G2 X77.7475 Y41.1382 I0.5128 J-2.559
G1 X77.8672 Y41.1523
G1 X77.985 Y41.162
G2 X78.0652 Y41.1651 I0.0855 J-1.1559
G3 X78.0966 Y41.1659 I-0.0035 J0.75
G2 X78.186 Y41.1674 I0.069 J-1.4811
G1 X78.3139 Y41.1653
G1 X78.4419 Y41.1603
G2 X78.5174 Y41.1542 I-0.0389 J-0.9483
G3 X78.5379 Y41.152 I0.0903 J0.7445
G2 X78.6382 Y41.1403 I-0.2102 J-2.2477
G1 X78.7675 Y41.1218
G2 X78.869 Y41.1044 I-0.406 J-2.6667
G3 X78.8699 Y41.1042 I0.1411 J0.7366
G2 X79.089 Y41.0553 I-0.6682 J-3.5119
G2 X79.2886 Y40.9952 I-0.6218 J-2.4235
G3 X79.2931 Y40.9936 I0.2462 J0.7084
G2 X79.5138 Y40.913 I-1.7136 J-5.0336
G2 X79.725 Y40.8208 I-1.5361 J-3.8062
G3 X79.727 Y40.8199 I0.3193 J0.6786
G2 X79.9226 Y40.7191 I-1.1946 J-2.5585
G1 X80.0337 Y40.656
G1 X80.1403 Y40.5913
G2 X80.3119 Y40.4748 I-1.3514 J-2.1753
G3 X80.3152 Y40.4723 I0.446 J0.603
G2 X80.4976 Y40.3324 I-2.9371 J-4.0173
G2 X80.6539 Y40.194 I-1.9533 J-2.3625
G3 X80.6563 Y40.1917 I0.5161 J0.5442
G2 X80.7954 Y40.0498 I-1.6669 J-1.773
G1 X80.874 Y39.9619
G2 X80.9462 Y39.8756 I-20.9015 J-17.5525
G2 X81.0606 Y39.7219 I-1.6913 J-1.3784
G3 X81.0625 Y39.7192 I0.6207 J0.421
G2 X81.1832 Y39.5326 I-3.524 J-2.4119
G2 X81.2832 Y39.3517 I-2.4271 J-1.461
G3 X81.284 Y39.3501 I0.6691 J0.3389
G2 X81.373 Y39.16 I-2.7866 J-1.4197
G2 X81.4481 Y38.9654 I-2.8655 J-1.217
G3 X81.4483 Y38.9648 I0.7084 J0.2463
G2 X81.5071 Y38.7724 I-2.4477 J-0.8534
G2 X81.5567 Y38.5564 I-3.9483 J-1.0195
G3 X81.5573 Y38.553 I0.7353 J0.1478
G2 X81.5887 Y38.3561 I-2.1758 J-0.4478
G3 X81.589 Y38.354 I0.7452 J0.0847
G1 X81.6032 Y38.232
G1 X81.6129 Y38.1121
G2 X81.6161 Y38.0284 I-1.2187 J-0.0889
G3 X81.6169 Y37.9973 I0.75 J0.0032
G2 X81.6184 Y37.9044 I-1.5575 J-0.0713
G1 X81.6163 Y37.7744
G1 X81.6112 Y37.6444
G2 X81.6051 Y37.5677 I-0.9673 J0.0391
G3 X81.6027 Y37.5447 I0.7446 J-0.0897
G2 X81.5914 Y37.4477 I-1.8652 J0.1665
G1 X81.5737 Y37.3238
G2 X81.5541 Y37.2109 I-9.2266 J1.5483
G2 X81.5093 Y37.0148 I-2.3312 J0.4287
G3 X81.5086 Y37.0122 I0.7235 J-0.1977
G2 X81.4453 Y36.8016 I-3.6909 J0.9944
G2 X81.3724 Y36.6097 I-2.6028 J0.8797
G3 X81.3715 Y36.6077 I0.6906 J-0.2925
G2 X81.2823 Y36.4138 I-2.9382 J1.2346
G2 X81.1775 Y36.2215 I-3.1016 J1.5652
G3 X81.177 Y36.2206 I0.6469 J-0.3794
G2 X81.0639 Y36.0426 I-2.4479 J1.4309
G2 X80.9342 Y35.8647 I-3.412 J2.3525
G2 X80.873 Y35.7895 I-1.9255 J1.5027
G1 F300.0 Z-2.0
G2 F800.0 X80.8055 Y35.713 I-1.8644 J1.5779
G2 X80.6542 Y35.5586 I-2.6349 J2.4299
G3 X80.6523 Y35.5568 I0.5197 J-0.5408
G2 X80.5014 Y35.422 I-1.779 J1.8388
G1 X80.4101 Y35.3473
G1 X80.3174 Y35.2767
G2 X80.1575 Y35.1689 I-1.1879 J1.5893
G3 X80.1554 Y35.1676 I0.3886 J-0.6415
G1 X80.0483 Y35.1023
G1 X79.9421 Y35.042
G2 X79.8577 Y34.998 I-0.8949 J1.6127
G3 X79.8419 Y34.99 I0.3296 J-0.6737
G2 X79.754 Y34.9473 I-0.8398 J1.6182
G3 X79.753 Y34.9469 I0.3093 J-0.6832
G1 X79.64 Y34.8955
G1 X79.5289 Y34.8493
G2 X79.3432 Y34.7843 I-0.7903 J1.9609
G3 X79.3371 Y34.7825 I0.2145 J-0.7187
G2 X79.1099 Y34.7177 I-1.6679 J5.4208
G2 X78.8878 Y34.6687 I-0.9948 J3.9748
G3 X78.8852 Y34.6682 I0.1414 J-0.7365
G2 X78.6734 Y34.6355 I-0.5099 J2.6066
G2 X78.5522 Y34.6225 I-2.5235 J22.9881
G1 X78.4289 Y34.6136
G2 X78.3309 Y34.6101 I-0.117 J1.876
G3 X78.3076 Y34.6095 I0.0076 J-0.75
G2 X78.2029 Y34.6077 I-0.0894 J2.1623
G2 X77.8401 Y34.6223 I0.0434 J5.5874
G2 X77.5115 Y34.6673 I0.3773 J3.9745
G1 X77.4273 Y34.6838
G1 X77.3477 Y34.7011
G2 X77.1811 Y34.744 I2.012 J8.1728
G2 X77.0492 Y34.7854 I0.4717 J1.7325
G3 X77.0367 Y34.7897 I-0.2521 J-0.7063
G2 X76.8935 Y34.8427 I0.8301 J2.462
G2 X76.5946 Y34.9785 I1.549 J3.8064
G2 X76.324 Y35.1359 I1.354 J2.6398
G3 X76.3222 Y35.1371 I-0.4107 J-0.6276
G2 X76.0531 Y35.3306 I1.9233 J2.9576
G3 X76.0525 Y35.3311 I-0.4661 J-0.5876
G2 X75.7948 Y35.5556 I2.2512 J2.8442
G3 X75.7942 Y35.5562 I-0.5187 J-0.5417
G2 X75.5573 Y35.8042 I2.5978 J2.7185
G2 X75.3585 Y36.0568 I2.4592 J2.14
G2 X75.1911 Y36.3227 I2.6282 J1.8405
G3 X75.19 Y36.3247 I-0.6535 J-0.368
G2 X75.0604 Y36.5896 I2.0982 J1.1902
G3 X75.0591 Y36.5929 I-0.6926 J-0.2877
G2 X75.0149 Y36.7011 I4.7789 J2.0116
G1 X74.9736 Y36.8152
G1 X74.9486 Y36.893
G2 X74.913 Y37.0225 I1.645 J0.5214
G3 X74.9077 Y37.044 I-0.7304 J-0.1703
G2 X74.8793 Y37.1727 I1.523 J0.4028
G3 X74.8755 Y37.1926 I-0.7386 J-0.1305
G2 X74.831 Y37.4982 I2.6386 J0.5401
G2 X74.8145 Y37.85 I6.0363 J0.4596
G1 X74.8163 Y37.9693
G1 X74.8215 Y38.1003
G2 X74.8275 Y38.1753 I0.9163 J-0.0363
G3 X74.8305 Y38.2041 I-0.7444 J0.0911
G2 X74.8408 Y38.2937 I1.4373 J-0.1199
G3 X74.8415 Y38.2984 I-0.742 J0.109
G1 X74.8586 Y38.4202
G1 X74.8792 Y38.5389
G2 X74.8959 Y38.6153 I1.1122 J-0.202
G3 X74.8998 Y38.6317 I-0.7269 J0.1847
G2 X74.9243 Y38.7279 I2.1876 J-0.5041
G2 X74.9902 Y38.9476 I5.8666 J-1.6419
G2 X75.0641 Y39.1431 I3.0108 J-1.0262
G3 X75.0642 Y39.1434 I-0.6925 J0.288
G2 X75.1487 Y39.3238 I2.0794 J-0.8637
G2 X75.2614 Y39.529 I5.1816 J-2.7113
G2 X75.3713 Y39.7018 I2.1974 J-1.276
G2 X75.4352 Y39.7928 I7.3239 J-5.0834
G1 X75.506 Y39.8857
G2 X75.6288 Y40.0287 I1.5827 J-1.2348
G3 X75.6297 Y40.0297 I-0.5454 J0.5148
G1 X75.7149 Y40.1203
G2 X75.7902 Y40.1955 I3.3933 J-3.3224
G2 X75.9442 Y40.3345 I1.9107 J-1.9617
G3 X75.9473 Y40.3372 I-0.4811 J0.5753
G2 X76.1179 Y40.4721 I2.15 J-2.5423
G2 X76.3045 Y40.6013 I2.3889 J-3.2511
G2 X76.4934 Y40.714 I1.6484 J-2.5487
G3 X76.4982 Y40.7167 I-0.3606 J0.6576
G2 X76.7015 Y40.8224 I1.8907 J-3.3882
G2 X76.9174 Y40.9186 I2.5156 J-5.3511
G2 X77.1094 Y40.9893 I0.92 J-2.2028
G3 X77.1114 Y40.99 I-0.2287 J0.7143
G1 X77.2307 Y41.0286
G2 X77.3351 Y41.0586 I1.6953 J-5.6848
G2 X77.5323 Y41.1035 I0.6479 J-2.3922
G3 X77.5433 Y41.1056 I-0.1364 J0.7375
G2 X77.7475 Y41.1382 I0.5128 J-2.559
G1 X77.8672 Y41.1523
G1 X77.985 Y41.162
G2 X78.0652 Y41.1651 I0.0855 J-1.1559
G3 X78.0966 Y41.1659 I-0.0035 J0.75
G2 X78.186 Y41.1674 I0.069 J-1.4811
G1 X78.3139 Y41.1653
G1 X78.4419 Y41.1603
G2 X78.5174 Y41.1542 I-0.0389 J-0.9483
G3 X78.5379 Y41.152 I0.0903 J0.7445
G2 X78.6382 Y41.1403 I-0.2102 J-2.2477
G1 X78.7675 Y41.1218
G2 X78.869 Y41.1044 I-0.406 J-2.6667
G3 X78.8699 Y41.1042 I0.1411 J0.7366
G2 X79.089 Y41.0553 I-0.6682 J-3.5119
G2 X79.2886 Y40.9952 I-0.6218 J-2.4235
G3 X79.2931 Y40.9936 I0.2462 J0.7084
G2 X79.5138 Y40.913 I-1.7136 J-5.0336
G2 X79.725 Y40.8208 I-1.5361 J-3.8062
G3 X79.727 Y40.8199 I0.3193 J0.6786
G2 X79.9226 Y40.7191 I-1.1946 J-2.5585
G1 X80.0337 Y40.656
G1 X80.1403 Y40.5913
G2 X80.3119 Y40.4748 I-1.3514 J-2.1753
G3 X80.3152 Y40.4723 I0.446 J0.603
G2 X80.4976 Y40.3324 I-2.9371 J-4.0173
G2 X80.6539 Y40.194 I-1.9533 J-2.3625
G3 X80.6563 Y40.1917 I0.5161 J0.5442
G2 X80.7954 Y40.0498 I-1.6669 J-1.773
G1 X80.874 Y39.9619
G2 X80.9462 Y39.8756 I-20.9015 J-17.5525
G2 X81.0606 Y39.7219 I-1.6913 J-1.3784
G3 X81.0625 Y39.7192 I0.6207 J0.421
G2 X81.1832 Y39.5326 I-3.524 J-2.4119
G2 X81.2832 Y39.3517 I-2.4271 J-1.461
G3 X81.284 Y39.3501 I0.6691 J0.3389
G2 X81.373 Y39.16 I-2.7866 J-1.4197
G2 X81.4481 Y38.9654 I-2.8655 J-1.217
G3 X81.4483 Y38.9648 I0.7084 J0.2463
G2 X81.5071 Y38.7724 I-2.4477 J-0.8534
G2 X81.5567 Y38.5564 I-3.9483 J-1.0195
G3 X81.5573 Y38.553 I0.7353 J0.1478
G2 X81.5887 Y38.3561 I-2.1758 J-0.4478
G3 X81.589 Y38.354 I0.7452 J0.0847
G1 X81.6032 Y38.232
G1 X81.6129 Y38.1121
G2 X81.6161 Y38.0284 I-1.2187 J-0.0889
G3 X81.6169 Y37.9973 I0.75 J0.0032
G2 X81.6184 Y37.9044 I-1.5575 J-0.0713
G1 X81.6163 Y37.7744
G1 X81.6112 Y37.6444
G2 X81.6051 Y37.5677 I-0.9673 J0.0391
G3 X81.6027 Y37.5447 I0.7446 J-0.0897
G2 X81.5914 Y37.4477 I-1.8652 J0.1665
G1 X81.5737 Y37.3238
G2 X81.5541 Y37.2109 I-9.2266 J1.5483
G2 X81.5093 Y37.0148 I-2.3312 J0.4287
G3 X81.5086 Y37.0122 I0.7235 J-0.1977
G2 X81.4453 Y36.8016 I-3.6909 J0.9944
G2 X81.3724 Y36.6097 I-2.6028 J0.8797
G3 X81.3715 Y36.6077 I0.6906 J-0.2925
G2 X81.2823 Y36.4138 I-2.9382 J1.2346
G2 X81.1775 Y36.2215 I-3.1016 J1.5652
G3 X81.177 Y36.2206 I0.6469 J-0.3794
G2 X81.0639 Y36.0426 I-2.4479 J1.4309
G2 X80.9342 Y35.8647 I-3.412 J2.3525
G2 X80.873 Y35.7895 I-1.9255 J1.5027
G1 F300.0 Z-3.0
G2 F800.0 X80.8055 Y35.713 I-1.8644 J1.5779
G2 X80.6542 Y35.5586 I-2.6349 J2.4299
G3 X80.6523 Y35.5568 I0.5197 J-0.5408
G2 X80.5014 Y35.422 I-1.779 J1.8388
G1 X80.4101 Y35.3473
G1 X80.3174 Y35.2767
G2 X80.1575 Y35.1689 I-1.1879 J1.5893
G3 X80.1554 Y35.1676 I0.3886 J-0.6415
G1 X80.0483 Y35.1023
G1 X79.9421 Y35.042
G2 X79.8577 Y34.998 I-0.8949 J1.6127
G3 X79.8419 Y34.99 I0.3296 J-0.6737
G2 X79.754 Y34.9473 I-0.8398 J1.6182
G3 X79.753 Y34.9469 I0.3093 J-0.6832
G1 X79.64 Y34.8955
G1 X79.5289 Y34.8493
G2 X79.3432 Y34.7843 I-0.7903 J1.9609
G3 X79.3371 Y34.7825 I0.2145 J-0.7187
G2 X79.1099 Y34.7177 I-1.6679 J5.4208
G2 X78.8878 Y34.6687 I-0.9948 J3.9748
G3 X78.8852 Y34.6682 I0.1414 J-0.7365
G2 X78.6734 Y34.6355 I-0.5099 J2.6066
G2 X78.5522 Y34.6225 I-2.5235 J22.9881
G1 X78.4289 Y34.6136
G2 X78.3309 Y34.6101 I-0.117 J1.876
G3 X78.3076 Y34.6095 I0.0076 J-0.75
G2 X78.2029 Y34.6077 I-0.0894 J2.1623
G2 X77.8401 Y34.6223 I0.0434 J5.5874
G2 X77.5115 Y34.6673 I0.3773 J3.9745
G1 X77.4273 Y34.6838
G1 X77.3477 Y34.7011
G2 X77.1811 Y34.744 I2.012 J8.1728
G2 X77.0492 Y34.7854 I0.4717 J1.7325
G3 X77.0367 Y34.7897 I-0.2521 J-0.7063
G2 X76.8935 Y34.8427 I0.8301 J2.462
G2 X76.5946 Y34.9785 I1.549 J3.8064
G2 X76.324 Y35.1359 I1.354 J2.6398
G3 X76.3222 Y35.1371 I-0.4107 J-0.6276
G2 X76.0531 Y35.3306 I1.9233 J2.9576
G3 X76.0525 Y35.3311 I-0.4661 J-0.5876
G2 X75.7948 Y35.5556 I2.2512 J2.8442
G3 X75.7942 Y35.5562 I-0.5187 J-0.5417
G2 X75.5573 Y35.8042 I2.5978 J2.7185
G2 X75.3585 Y36.0568 I2.4592 J2.14
G2 X75.1911 Y36.3227 I2.6282 J1.8405
G3 X75.19 Y36.3247 I-0.6535 J-0.368
G2 X75.0604 Y36.5896 I2.0982 J1.1902
G3 X75.0591 Y36.5929 I-0.6926 J-0.2877
G2 X75.0149 Y36.7011 I4.7789 J2.0116
G1 X74.9736 Y36.8152
G1 X74.9486 Y36.893
G2 X74.913 Y37.0225 I1.645 J0.5214
G3 X74.9077 Y37.044 I-0.7304 J-0.1703
G2 X74.8793 Y37.1727 I1.523 J0.4028
G3 X74.8755 Y37.1926 I-0.7386 J-0.1305
G2 X74.831 Y37.4982 I2.6386 J0.5401
G2 X74.8145 Y37.85 I6.0363 J0.4596
G1 X74.8163 Y37.9693
G1 X74.8215 Y38.1003
G2 X74.8275 Y38.1753 I0.9163 J-0.0363
G3 X74.8305 Y38.2041 I-0.7444 J0.0911
G2 X74.8408 Y38.2937 I1.4373 J-0.1199
G3 X74.8415 Y38.2984 I-0.742 J0.109
G1 X74.8586 Y38.4202
G1 X74.8792 Y38.5389
G2 X74.8959 Y38.6153 I1.1122 J-0.202
G3 X74.8998 Y38.6317 I-0.7269 J0.1847
G2 X74.9243 Y38.7279 I2.1876 J-0.5041
G2 X74.9902 Y38.9476 I5.8666 J-1.6419
G2 X75.0641 Y39.1431 I3.0108 J-1.0262
G3 X75.0642 Y39.1434 I-0.6925 J0.288
G2 X75.1487 Y39.3238 I2.0794 J-0.8637
G2 X75.2614 Y39.529 I5.1816 J-2.7113
G2 X75.3713 Y39.7018 I2.1974 J-1.276
G2 X75.4352 Y39.7928 I7.3239 J-5.0834
G1 X75.506 Y39.8857
G2 X75.6288 Y40.0287 I1.5827 J-1.2348
G3 X75.6297 Y40.0297 I-0.5454 J0.5148
G1 X75.7149 Y40.1203
G2 X75.7902 Y40.1955 I3.3933 J-3.3224
G2 X75.9442 Y40.3345 I1.9107 J-1.9617
G3 X75.9473 Y40.3372 I-0.4811 J0.5753
G2 X76.1179 Y40.4721 I2.15 J-2.5423
G2 X76.3045 Y40.6013 I2.3889 J-3.2511
G2 X76.4934 Y40.714 I1.6484 J-2.5487
G3 X76.4982 Y40.7167 I-0.3606 J0.6576
G2 X76.7015 Y40.8224 I1.8907 J-3.3882
G2 X76.9174 Y40.9186 I2.5156 J-5.3511
G2 X77.1094 Y40.9893 I0.92 J-2.2028
G3 X77.1114 Y40.99 I-0.2287 J0.7143
G1 X77.2307 Y41.0286
G2 X77.3351 Y41.0586 I1.6953 J-5.6848
G2 X77.5323 Y41.1035 I0.6479 J-2.3922
G3 X77.5433 Y41.1056 I-0.1364 J0.7375
G2 X77.7475 Y41.1382 I0.5128 J-2.559
G1 X77.8672 Y41.1523
G1 X77.985 Y41.162
G2 X78.0652 Y41.1651 I0.0855 J-1.1559
G3 X78.0966 Y41.1659 I-0.0035 J0.75
G2 X78.186 Y41.1674 I0.069 J-1.4811
G1 X78.3139 Y41.1653
G1 X78.4419 Y41.1603
G2 X78.5174 Y41.1542 I-0.0389 J-0.9483
G3 X78.5379 Y41.152 I0.0903 J0.7445
G2 X78.6382 Y41.1403 I-0.2102 J-2.2477
G1 X78.7675 Y41.1218
G2 X78.869 Y41.1044 I-0.406 J-2.6667
G3 X78.8699 Y41.1042 I0.1411 J0.7366
G2 X79.089 Y41.0553 I-0.6682 J-3.5119
G2 X79.2886 Y40.9952 I-0.6218 J-2.4235
G3 X79.2931 Y40.9936 I0.2462 J0.7084
G2 X79.5138 Y40.913 I-1.7136 J-5.0336
G2 X79.725 Y40.8208 I-1.5361 J-3.8062
G3 X79.727 Y40.8199 I0.3193 J0.6786
G2 X79.9226 Y40.7191 I-1.1946 J-2.5585
G1 X80.0337 Y40.656
G1 X80.1403 Y40.5913
G2 X80.3119 Y40.4748 I-1.3514 J-2.1753
G3 X80.3152 Y40.4723 I0.446 J0.603
G2 X80.4976 Y40.3324 I-2.9371 J-4.0173
G2 X80.6539 Y40.194 I-1.9533 J-2.3625
G3 X80.6563 Y40.1917 I0.5161 J0.5442
G2 X80.7954 Y40.0498 I-1.6669 J-1.773
G1 X80.874 Y39.9619
G2 X80.9462 Y39.8756 I-20.9015 J-17.5525
G2 X81.0606 Y39.7219 I-1.6913 J-1.3784
G3 X81.0625 Y39.7192 I0.6207 J0.421
G2 X81.1832 Y39.5326 I-3.524 J-2.4119
G2 X81.2832 Y39.3517 I-2.4271 J-1.461
G3 X81.284 Y39.3501 I0.6691 J0.3389
G2 X81.373 Y39.16 I-2.7866 J-1.4197
G2 X81.4481 Y38.9654 I-2.8655 J-1.217
G3 X81.4483 Y38.9648 I0.7084 J0.2463
G2 X81.5071 Y38.7724 I-2.4477 J-0.8534
G2 X81.5567 Y38.5564 I-3.9483 J-1.0195
G3 X81.5573 Y38.553 I0.7353 J0.1478
G2 X81.5887 Y38.3561 I-2.1758 J-0.4478
G3 X81.589 Y38.354 I0.7452 J0.0847
G1 X81.6032 Y38.232
G1 X81.6129 Y38.1121
G2 X81.6161 Y38.0284 I-1.2187 J-0.0889
G3 X81.6169 Y37.9973 I0.75 J0.0032
G2 X81.6184 Y37.9044 I-1.5575 J-0.0713
G1 X81.6163 Y37.7744
G1 X81.6112 Y37.6444
G2 X81.6051 Y37.5677 I-0.9673 J0.0391
G3 X81.6027 Y37.5447 I0.7446 J-0.0897
G2 X81.5914 Y37.4477 I-1.8652 J0.1665
G1 X81.5737 Y37.3238
G2 X81.5541 Y37.2109 I-9.2266 J1.5483
G2 X81.5093 Y37.0148 I-2.3312 J0.4287
G3 X81.5086 Y37.0122 I0.7235 J-0.1977
G2 X81.4453 Y36.8016 I-3.6909 J0.9944
G2 X81.3724 Y36.6097 I-2.6028 J0.8797
G3 X81.3715 Y36.6077 I0.6906 J-0.2925
G2 X81.2823 Y36.4138 I-2.9382 J1.2346
G2 X81.1775 Y36.2215 I-3.1016 J1.5652
G3 X81.177 Y36.2206 I0.6469 J-0.3794
G2 X81.0639 Y36.0426 I-2.4479 J1.4309
G2 X80.9342 Y35.8647 I-3.412 J2.3525
G2 X80.873 Y35.7895 I-1.9255 J1.5027
G0 Z3.0
G0 X82.7287 Y34.2832
G1 F300.0 Z-1.0
G3 F800.0 X83.0288 Y34.6889 I-4.3647 J3.543
G3 X83.0292 Y34.6895 I-0.6223 J0.4186
G3 X83.3163 Y35.1651 I-4.8121 J3.2295
G3 X83.3165 Y35.1654 I-0.6599 J0.3564
G3 X83.5562 Y35.6764 I-4.4437 J2.3971
G3 X83.557 Y35.6783 I-0.6957 J0.2802
G3 X83.7374 Y36.1955 I-5.7133 J2.2825
G3 X83.7381 Y36.1978 I-0.7185 J0.2152
G3 X83.8099 Y36.4694 I-4.6002 J1.3614
G3 X83.8699 Y36.7525 I-3.8277 J0.9595
G3 X83.9037 Y36.9496 I-9.3065 J1.6949
G3 X83.9065 Y36.9692 I-0.7405 J0.1187
G1 X83.9313 Y37.1547
G3 X83.9342 Y37.1799 I-0.7434 J0.0992
G1 X83.9465 Y37.304
G3 X83.9473 Y37.312 I-0.7463 J0.074
G3 X83.9587 Y37.4741 I-4.5656 J0.4034
G3 X83.9664 Y37.6411 I-2.8847 J0.2167
G3 X83.9696 Y37.7432 I-2.6646 J0.1347
G3 X83.9731 Y37.8859 I-4.1955 J0.1731
G3 X83.9728 Y37.9117 I-0.75 J0.0054
G1 X83.9675 Y38.1057
G3 X83.9671 Y38.1183 I-0.7497 J-0.0204
G1 X83.9585 Y38.3122
G3 X83.9579 Y38.3245 I-0.7493 J-0.0329
G3 X83.9482 Y38.4636 I-7.1926 J-0.434
G3 X83.9333 Y38.6172 I-2.7143 J-0.1855
G3 X83.9147 Y38.7643 I-2.7247 J-0.2695
G3 X83.8682 Y39.0471 I-4.3354 J-0.5676
G3 X83.7395 Y39.5896 I-5.3472 J-0.9823
G3 X83.5507 Y40.1265 I-4.5612 J-1.3017
G3 X83.3168 Y40.6226 I-5.3063 J-2.1993
G3 X83.3154 Y40.6252 I-0.6623 J-0.3519
G3 X83.0261 Y41.1044 I-4.8601 J-2.6071
G3 X83.0258 Y41.1048 I-0.6216 J-0.4197
G3 X82.6836 Y41.5576 I-4.4649 J-3.0188
G3 X82.2949 Y41.9809 I-4.6375 J-3.8683
G1 Y41.981
G3 X81.8731 Y42.3639 I-4.6623 J-4.7101
G3 X81.8699 Y42.3667 I-0.4799 J-0.5764
G3 X81.4125 Y42.7054 I-3.5365 J-4.297
G3 X80.9261 Y42.994 I-2.8997 J-4.3319
G3 X80.6794 Y43.1164 I-2.9217 J-5.5789
G3 X80.6657 Y43.1227 I-0.3186 J-0.679
G3 X80.4266 Y43.2258 I-4.5568 J-10.2435
G3 X80.4202 Y43.2284 I-0.2888 J-0.6921
G3 X80.1458 Y43.329 I-1.5807 J-3.8877
G3 X79.8751 Y43.4126 I-1.5654 J-4.5854
G3 X79.3323 Y43.5408 I-1.8632 J-6.676
G3 X79.3257 Y43.5421 I-0.1429 J-0.7363
G3 X78.8901 Y43.6054 I-1.0419 J-5.6386
G3 X78.8799 Y43.6064 I-0.0793 J-0.7458
G1 X78.7529 Y43.6181
G3 X78.7361 Y43.6195 I-0.0691 J-0.7468
G3 X78.1679 Y43.6441 I-0.7494 J-10.7299
G3 X78.1425 I-0.0126 J-0.7499
G1 X77.9773 Y43.6413
G3 X77.9596 Y43.6408 I0.0128 J-0.7499
G1 X77.7947 Y43.6341
G3 X77.794 Y43.634 I0.0305 J-0.7494
G3 X77.5835 Y43.6172 I0.1154 J-2.7719
G3 X77.3928 Y43.5944 I0.3506 J-3.7417
G3 X77.3926 I0.108 J-0.7422
G1 X77.2329 Y43.5711
G3 X77.2099 Y43.5674 I0.1082 J-0.7422
G1 X77.051 Y43.5392
G3 X77.0444 Y43.538 I0.1312 J-0.7384
G3 X76.6697 Y43.4507 I0.8009 J-4.2849
G3 X76.3279 Y43.3466 I1.9391 J-6.9833
G3 X76.3255 Y43.3458 I0.236 J-0.7119
G3 X75.9688 Y43.2104 I1.5406 J-4.5943
G3 X75.9679 Y43.21 I0.2937 J-0.6901
G3 X75.6427 Y43.0621 I3.052 J-7.146
G3 X75.6403 Y43.061 I0.326 J-0.6755
G3 X75.2954 Y42.8749 I2.0617 J-4.2345
G3 X75.2924 Y42.8732 I0.3833 J-0.6447
G1 X75.1517 Y42.7886
G3 X75.1359 Y42.7788 I0.3862 J-0.6429
G3 X74.9878 Y42.6832 I5.8382 J-9.1947
G3 X74.9859 Y42.6819 I0.4122 J-0.6266
G3 X74.6715 Y42.4541 I2.5521 J-3.8527
G3 X74.6708 Y42.4535 I0.4652 J-0.5883
G3 X74.3964 Y42.2255 I4.8517 J-6.1192
G3 X74.3954 Y42.2246 I0.4923 J-0.5658
G3 X74.1166 Y41.9595 I2.9889 J-3.4227
G3 X74.1151 Y41.958 I0.5393 J-0.5212
G1 X74.0032 Y41.8416
G3 X73.9853 Y41.8223 I0.5409 J-0.5196
G1 X73.8777 Y41.702
G3 X73.8727 Y41.6964 I0.5588 J-0.5003
G3 X73.7452 Y41.5423 I2.5932 J-2.2751
G3 X73.6292 Y41.3912 I3.2635 J-2.6263
G3 X73.6271 Y41.3884 I0.6051 J-0.4431
G1 X73.5306 Y41.2553
G3 X73.5222 Y41.2435 I0.6071 J-0.4404
G3 X73.4202 Y41.0933 I6.4643 J-4.5017
G3 X73.4194 Y41.0922 I0.6252 J-0.4143
G3 X73.2176 Y40.7597 I4.2905 J-2.8321
G3 X73.0412 Y40.4219 I4.9769 J-2.8142
G3 X72.9638 Y40.2563 I7.4661 J-3.5876
G3 X72.9569 Y40.2406 I0.683 J-0.3098
G1 X72.8918 Y40.0878
G3 X72.8887 Y40.0804 I0.6899 J-0.2942
G3 X72.7545 Y39.7122 I4.2243 J-1.7479
G3 X72.6521 Y39.3674 I7.8532 J-2.5189
G3 X72.6499 Y39.3589 I0.7235 J-0.1977
G3 X72.5662 Y38.9869 I5.4549 J-1.4219
G3 Y38.9867 I0.7369 J-0.1397
G3 X72.5347 Y38.8044 I5.6162 J-1.0629
G3 X72.5064 Y38.6037 I3.524 J-0.6002
G1 X72.4874 Y38.4378
G3 X72.4848 Y38.4119 I0.7451 J-0.0855
G1 X72.4715 Y38.2447
G3 X72.4712 Y38.2399 I0.7476 J-0.0595
G3 X72.4626 Y38.0349 I3.2708 J-0.2395
G3 X72.4597 Y37.8374 I3.6911 J-0.1534
G3 X72.4846 Y37.2838 I7.8529 J0.0765
G3 X72.4997 Y37.132 I2.6246 J0.184
G3 X72.5184 Y36.9875 I2.5891 J0.2618
G3 X72.5654 Y36.708 I4.0496 J0.5375
G3 X72.6932 Y36.1777 I5.5702 J1.0622
G3 X72.7829 Y35.9039 I3.6044 J1.0286
G3 X72.8832 Y35.6455 I4.4181 J1.5667
G3 X72.884 Y35.6438 I0.6908 J0.292
G3 X73.1149 Y35.1582 I5.9613 J2.5373
G3 X73.1165 Y35.1552 I0.6634 J0.3499
G3 X73.4091 Y34.6727 I4.5187 J2.4103
G3 X73.7433 Y34.2278 I5.0963 J3.4808
G3 X73.7435 Y34.2275 I0.5787 J0.4771
G3 X74.1374 Y33.7983 I4.2719 J3.5249
G3 X74.5573 Y33.4171 I4.7185 J4.775
G3 X74.5599 Y33.4149 I0.4803 J0.5761
G3 X75.0121 Y33.0763 I3.7711 J4.5649
G3 X75.0129 Y33.0758 I0.4204 J0.6211
G3 X75.496 Y32.7854 I2.9965 J4.4387
G3 X76.0001 Y32.5489 I2.5567 J4.7934
G3 X76.0035 Y32.5475 I0.2834 J0.6944
G3 X76.5279 Y32.3654 I2.1468 J5.3357
G3 X76.5291 Y32.365 I0.2116 J0.7195
G3 X76.801 Y32.2937 I1.4147 J4.8405
G3 X77.0862 Y32.2338 I0.9623 J3.8674
G3 X77.2847 Y32.2 I1.6973 J9.3924
G3 X77.304 Y32.1972 I0.1178 J0.7407
G1 X77.4909 Y32.1725
G3 X77.5159 Y32.1696 I0.0985 J0.7435
G1 X77.6411 Y32.1573
G3 X77.6489 Y32.1565 I0.0735 J0.7464
G3 X77.812 Y32.1451 I0.4041 J4.603
G3 X77.9799 Y32.1374 I0.2174 J2.9136
G3 X78.0827 Y32.1342 I0.1352 J2.691
G3 X78.2262 Y32.1308 I0.1739 J4.2432
G3 X78.252 Y32.131 I0.0054 J0.75
G1 X78.4446 Y32.1363
G3 X78.4574 Y32.1367 I-0.0204 J0.7497
G1 X78.6499 Y32.1453
G3 X78.6643 Y32.146 I-0.0332 J0.7493
G3 X78.7999 Y32.1557 I-0.5727 J9.0219
G3 X78.9531 Y32.1707 I-0.1844 J2.6713
G3 X79.0987 Y32.1893 I-0.2629 J2.6352
G3 X79.3817 Y32.2364 I-0.5309 J4.0644
G3 X79.9171 Y32.3646 I-1.0926 J5.7477
G3 X79.9232 Y32.3663 I-0.2087 J0.7204
G3 X80.4463 Y32.5517 I-1.5851 J5.3028
G3 X80.4584 Y32.5568 I-0.2857 J0.6935
G1 X80.6233 Y32.6282
G3 X80.6492 Y32.64 I-0.2978 J0.6884
G1 X80.8112 Y32.7175
G3 X80.832 Y32.7278 I-0.3236 J0.6766
G3 X80.9424 Y32.7853 I-8.8681 J17.157
G3 X80.943 Y32.7856 I-0.3487 J0.664
G3 X81.1963 Y32.9313 I-1.8147 J3.4491
G3 X81.433 Y33.0847 I-2.3726 J3.9196
G3 X81.4352 Y33.0862 I-0.4271 J0.6165
G1 X81.5361 Y33.1567
G3 X81.5504 Y33.1669 I-0.4293 J0.615
G1 X81.6496 Y33.2396
G3 X81.6615 Y33.2486 I-0.4435 J0.6048
G3 X81.8737 Y33.4163 I-5.0438 J6.5971
G3 X81.8746 Y33.4171 I-0.4747 J0.5807
G3 X82.0975 Y33.612 I-2.9808 J3.634
G3 X82.3058 Y33.8126 I-3.6175 J3.9634
G3 X82.3059 Y33.8127 I-0.5347 J0.5259
G3 X82.6854 Y34.2306 I-5.0865 J5.0007
G3 X82.6875 Y34.2331 I-0.5747 J0.4819
G3 X82.7287 Y34.2832 I-4.3236 J3.5931
G0 Z3.0
G0 X84.4269
G1 F300.0 Z-2.0
G1 F800.0 Y33.125
G3 X85.1769 Y32.375 I0.75 J0.0
G1 X86.0317
G3 X86.7817 Y33.125 I0.0 J0.75
G1 Y38.5443
G1 X86.2883 Y39.8998
G1 X86.7817 Y38.5443
G1 X91.7347 Y32.6428
G3 X92.3092 Y32.375 I0.5745 J0.4822
G1 X92.5038
G3 X93.2538 Y33.125 I0.0 J0.75
G1 Y42.65
G3 X92.5038 Y43.4 I-0.75 J0.0
G1 X91.649
G3 X90.899 Y42.65 I0.0 J-0.75
G1 Y37.2133
G1 X91.3925 Y35.858
G1 X90.899 Y37.2133
G1 X85.9307 Y43.1322
G3 X85.3563 Y43.4 I-0.5744 J-0.4822
G1 X85.1769
G3 X84.4269 Y42.65 I0.0 J-0.75
G1 Y34.2832
G0 Z3.0
G0 X72.0058
G1 F300.0 Z-1.0
G1 F800.0 Y42.65
G3 X71.2558 Y43.4 I-0.75 J0.0
G1 X70.401
G3 X69.6683 Y42.8102 I0.0 J-0.75
G3 X68.9356 Y43.4 I-0.7327 J-0.1602
G1 X63.9288
G3 X63.1788 Y42.65 I0.0 J-0.75
G1 Y41.6731
G3 X63.9288 Y40.9231 I0.75 J0.0
G1 X65.2548
G1 X65.4745 Y41.1427
G1 X65.2548 Y40.9231
G1 Y33.125
G3 X66.0048 Y32.375 I0.75 J0.0
G1 X66.8596
G3 X67.6096 Y33.125 I0.0 J0.75
G1 Y40.9231
G1 X67.3899 Y41.1427
G1 X67.6096 Y40.9231
G1 X68.9356
G3 X69.651 Y41.4479 I0.0 J0.75
G1 Y33.125
G3 X70.401 Y32.375 I0.75 J0.0
G1 X71.2558
G3 X72.0058 Y33.125 I0.0 J0.75
G1 Y34.2832
G1 F300.0 Z-2.0
G1 F800.0 Y42.65
G3 X71.2558 Y43.4 I-0.75 J0.0
G1 X70.401
G3 X69.6683 Y42.8102 I0.0 J-0.75
G3 X68.9356 Y43.4 I-0.7327 J-0.1602
G1 X63.9288
G3 X63.1788 Y42.65 I0.0 J-0.75
G1 Y41.6731
G3 X63.9288 Y40.9231 I0.75 J0.0
G1 X65.2548
G1 X65.4745 Y41.1427
G1 X65.2548 Y40.9231
G1 Y33.125
G3 X66.0048 Y32.375 I0.75 J0.0
G1 X66.8596
G3 X67.6096 Y33.125 I0.0 J0.75
G1 Y40.9231
G1 X67.3899 Y41.1427
G1 X67.6096 Y40.9231
G1 X68.9356
G3 X69.651 Y41.4479 I0.0 J0.75
G1 Y33.125
G3 X70.401 Y32.375 I0.75 J0.0
G1 X71.2558
G3 X72.0058 Y33.125 I0.0 J0.75
G1 Y34.2832
G0 Z3.0
G0 X73.2109 Y34.9859
G1 F300.0 Z-2.0
G3 F800.0 X73.4091 Y34.6727 I4.4242 J2.5796
G3 X73.7433 Y34.2278 I5.0963 J3.4808
G3 X73.7435 Y34.2275 I0.5787 J0.4771
G3 X74.1374 Y33.7983 I4.2719 J3.5249
G3 X74.5573 Y33.4171 I4.7185 J4.775
G3 X74.5599 Y33.4149 I0.4803 J0.5761
G3 X75.0121 Y33.0763 I3.7711 J4.5649
G3 X75.0129 Y33.0758 I0.4204 J0.6211
G3 X75.496 Y32.7854 I2.9965 J4.4387
G3 X76.0001 Y32.5489 I2.5567 J4.7934
G3 X76.0035 Y32.5475 I0.2834 J0.6944
G3 X76.5279 Y32.3654 I2.1468 J5.3357
G3 X76.5291 Y32.365 I0.2116 J0.7195
G3 X76.801 Y32.2937 I1.4147 J4.8405
G3 X77.0862 Y32.2338 I0.9623 J3.8674
G3 X77.2847 Y32.2 I1.6973 J9.3924
G3 X77.304 Y32.1972 I0.1178 J0.7407
G1 X77.4909 Y32.1725
G3 X77.5159 Y32.1696 I0.0985 J0.7435
G1 X77.6411 Y32.1573
G3 X77.6489 Y32.1565 I0.0735 J0.7464
G3 X77.812 Y32.1451 I0.4041 J4.603
G3 X77.9799 Y32.1374 I0.2174 J2.9136
G3 X78.0827 Y32.1342 I0.1352 J2.691
G3 X78.2262 Y32.1308 I0.1739 J4.2432
G3 X78.252 Y32.131 I0.0054 J0.75
G1 X78.4446 Y32.1363
G3 X78.4574 Y32.1367 I-0.0204 J0.7497
G1 X78.6499 Y32.1453
G3 X78.6643 Y32.146 I-0.0332 J0.7493
G3 X78.7999 Y32.1557 I-0.5727 J9.0219
G3 X78.9531 Y32.1707 I-0.1844 J2.6713
G3 X79.0987 Y32.1893 I-0.2629 J2.6352
G3 X79.3817 Y32.2364 I-0.5309 J4.0644
G3 X79.9171 Y32.3646 I-1.0926 J5.7477
G3 X79.9232 Y32.3663 I-0.2087 J0.7204
G3 X80.4463 Y32.5517 I-1.5851 J5.3028
G3 X80.4584 Y32.5568 I-0.2857 J0.6935
G1 X80.6233 Y32.6282
G3 X80.6492 Y32.64 I-0.2978 J0.6884
G1 X80.8112 Y32.7175
G3 X80.832 Y32.7278 I-0.3236 J0.6766
G3 X80.9424 Y32.7853 I-8.8681 J17.157
G3 X80.943 Y32.7856 I-0.3487 J0.664
G3 X81.1963 Y32.9313 I-1.8147 J3.4491
G3 X81.433 Y33.0847 I-2.3726 J3.9196
G3 X81.4352 Y33.0862 I-0.4271 J0.6165
G1 X81.5361 Y33.1567
G3 X81.5504 Y33.1669 I-0.4293 J0.615
G1 X81.6496 Y33.2396
G3 X81.6615 Y33.2486 I-0.4435 J0.6048
G3 X81.8737 Y33.4163 I-5.0438 J6.5971
G3 X81.8746 Y33.4171 I-0.4747 J0.5807
G3 X82.0975 Y33.612 I-2.9808 J3.634
G3 X82.3058 Y33.8126 I-3.6175 J3.9634
G3 X82.3059 Y33.8127 I-0.5347 J0.5259
G3 X82.6854 Y34.2306 I-5.0865 J5.0007
G3 X82.6875 Y34.2331 I-0.5747 J0.4819
G3 X83.0288 Y34.6889 I-4.3236 J3.5931
G3 X83.0292 Y34.6895 I-0.6223 J0.4186
G3 X83.3163 Y35.1651 I-4.8121 J3.2295
G3 X83.3165 Y35.1654 I-0.6599 J0.3564
G3 X83.5562 Y35.6764 I-4.4437 J2.3971
G3 X83.557 Y35.6783 I-0.6957 J0.2802
G3 X83.7374 Y36.1955 I-5.7133 J2.2825
G3 X83.7381 Y36.1978 I-0.7185 J0.2152
G3 X83.8099 Y36.4694 I-4.6002 J1.3614
G3 X83.8699 Y36.7525 I-3.8277 J0.9595
G3 X83.9037 Y36.9496 I-9.3065 J1.6949
G3 X83.9065 Y36.9692 I-0.7405 J0.1187
G1 X83.9313 Y37.1547
G3 X83.9342 Y37.1799 I-0.7434 J0.0992
G1 X83.9465 Y37.304
G3 X83.9473 Y37.312 I-0.7463 J0.074
G3 X83.9587 Y37.4741 I-4.5656 J0.4034
G3 X83.9664 Y37.6411 I-2.8847 J0.2167
G3 X83.9696 Y37.7432 I-2.6646 J0.1347
G3 X83.9731 Y37.8859 I-4.1955 J0.1731
G3 X83.9728 Y37.9117 I-0.75 J0.0054
G1 X83.9675 Y38.1057
G3 X83.9671 Y38.1183 I-0.7497 J-0.0204
G1 X83.9585 Y38.3122
G3 X83.9579 Y38.3245 I-0.7493 J-0.0329
G3 X83.9482 Y38.4636 I-7.1926 J-0.434
G3 X83.9333 Y38.6172 I-2.7143 J-0.1855
G3 X83.9147 Y38.7643 I-2.7247 J-0.2695
G3 X83.8682 Y39.0471 I-4.3354 J-0.5676
G3 X83.7395 Y39.5896 I-5.3472 J-0.9823
G3 X83.5507 Y40.1265 I-4.5612 J-1.3017
G3 X83.3168 Y40.6226 I-5.3063 J-2.1993
G3 X83.3154 Y40.6252 I-0.6623 J-0.3519
G3 X83.0261 Y41.1044 I-4.8601 J-2.6071
G3 X83.0258 Y41.1048 I-0.6216 J-0.4197
G3 X82.6836 Y41.5576 I-4.4649 J-3.0188
G3 X82.2949 Y41.9809 I-4.6375 J-3.8683
G1 Y41.981
G3 X81.8731 Y42.3639 I-4.6623 J-4.7101
G3 X81.8699 Y42.3667 I-0.4799 J-0.5764
G3 X81.4125 Y42.7054 I-3.5365 J-4.297
G3 X80.9261 Y42.994 I-2.8997 J-4.3319
G3 X80.6794 Y43.1164 I-2.9217 J-5.5789
G3 X80.6657 Y43.1227 I-0.3186 J-0.679
G3 X80.4266 Y43.2258 I-4.5568 J-10.2435
G3 X80.4202 Y43.2284 I-0.2888 J-0.6921
G3 X80.1458 Y43.329 I-1.5807 J-3.8877
G3 X79.8751 Y43.4126 I-1.5654 J-4.5854
G3 X79.3323 Y43.5408 I-1.8632 J-6.676
G3 X79.3257 Y43.5421 I-0.1429 J-0.7363
G3 X78.8901 Y43.6054 I-1.0419 J-5.6386
G3 X78.8799 Y43.6064 I-0.0793 J-0.7458
G1 X78.7529 Y43.6181
G3 X78.7361 Y43.6195 I-0.0691 J-0.7468
G3 X78.1679 Y43.6441 I-0.7494 J-10.7299
G3 X78.1425 I-0.0126 J-0.7499
G1 X77.9773 Y43.6413
G3 X77.9596 Y43.6408 I0.0128 J-0.7499
G1 X77.7947 Y43.6341
G3 X77.794 Y43.634 I0.0305 J-0.7494
G3 X77.5835 Y43.6172 I0.1154 J-2.7719
G3 X77.3928 Y43.5944 I0.3506 J-3.7417
G3 X77.3926 I0.108 J-0.7422
G1 X77.2329 Y43.5711
G3 X77.2099 Y43.5674 I0.1082 J-0.7422
G1 X77.051 Y43.5392
G3 X77.0444 Y43.538 I0.1312 J-0.7384
G3 X76.6697 Y43.4507 I0.8009 J-4.2849
G3 X76.3279 Y43.3466 I1.9391 J-6.9833
G3 X76.3255 Y43.3458 I0.236 J-0.7119
G3 X75.9688 Y43.2104 I1.5406 J-4.5943
G3 X75.9679 Y43.21 I0.2937 J-0.6901
G3 X75.6427 Y43.0621 I3.052 J-7.146
G3 X75.6403 Y43.061 I0.326 J-0.6755
G3 X75.2954 Y42.8749 I2.0617 J-4.2345
G3 X75.2924 Y42.8732 I0.3833 J-0.6447
G1 X75.1517 Y42.7886
G3 X75.1359 Y42.7788 I0.3862 J-0.6429
G3 X74.9878 Y42.6832 I5.8382 J-9.1947
G3 X74.9859 Y42.6819 I0.4122 J-0.6266
G3 X74.6715 Y42.4541 I2.5521 J-3.8527
G3 X74.6708 Y42.4535 I0.4652 J-0.5883
G3 X74.3964 Y42.2255 I4.8517 J-6.1192
G3 X74.3954 Y42.2246 I0.4923 J-0.5658
G3 X74.1166 Y41.9595 I2.9889 J-3.4227
G3 X74.1151 Y41.958 I0.5393 J-0.5212
G1 X74.0032 Y41.8416
G3 X73.9853 Y41.8223 I0.5409 J-0.5196
G1 X73.8777 Y41.702
G3 X73.8727 Y41.6964 I0.5588 J-0.5003
G3 X73.7452 Y41.5423 I2.5932 J-2.2751
G3 X73.6292 Y41.3912 I3.2635 J-2.6263
G3 X73.6271 Y41.3884 I0.6051 J-0.4431
G1 X73.5306 Y41.2553
G3 X73.5222 Y41.2435 I0.6071 J-0.4404
G3 X73.4202 Y41.0933 I6.4643 J-4.5017
G3 X73.4194 Y41.0922 I0.6252 J-0.4143
G3 X73.2176 Y40.7597 I4.2905 J-2.8321
G3 X73.0412 Y40.4219 I4.9769 J-2.8142
G3 X72.9638 Y40.2563 I7.4661 J-3.5876
G3 X72.9569 Y40.2406 I0.683 J-0.3098
G1 X72.8918 Y40.0878
G3 X72.8887 Y40.0804 I0.6899 J-0.2942
G3 X72.7545 Y39.7122 I4.2243 J-1.7479
G3 X72.6521 Y39.3674 I7.8532 J-2.5189
G3 X72.6499 Y39.3589 I0.7235 J-0.1977
G3 X72.5662 Y38.9869 I5.4549 J-1.4219
G3 Y38.9867 I0.7369 J-0.1397
G3 X72.5347 Y38.8044 I5.6162 J-1.0629
G3 X72.5064 Y38.6037 I3.524 J-0.6002
G1 X72.4874 Y38.4378
G3 X72.4848 Y38.4119 I0.7451 J-0.0855
G1 X72.4715 Y38.2447
G3 X72.4712 Y38.2399 I0.7476 J-0.0595
G3 X72.4626 Y38.0349 I3.2708 J-0.2395
G3 X72.4597 Y37.8374 I3.6911 J-0.1534
G3 X72.4846 Y37.2838 I7.8529 J0.0765
G3 X72.4997 Y37.132 I2.6246 J0.184
G3 X72.5184 Y36.9875 I2.5891 J0.2618
G3 X72.5654 Y36.708 I4.0496 J0.5375
G3 X72.6932 Y36.1777 I5.5702 J1.0622
G3 X72.7829 Y35.9039 I3.6044 J1.0286
G3 X72.8832 Y35.6455 I4.4181 J1.5667
G3 X72.884 Y35.6438 I0.6908 J0.292
G3 X73.1149 Y35.1582 I5.9613 J2.5373
G3 X73.1165 Y35.1552 I0.6634 J0.3499
G3 X73.2109 Y34.9859 I4.5187 J2.4103
G1 F300.0 Z-3.0
G3 F800.0 X73.4091 Y34.6727 I4.4242 J2.5796
G3 X73.7433 Y34.2278 I5.0963 J3.4808
G3 X73.7435 Y34.2275 I0.5787 J0.4771
G3 X74.1374 Y33.7983 I4.2719 J3.5249
G3 X74.5573 Y33.4171 I4.7185 J4.775
G3 X74.5599 Y33.4149 I0.4803 J0.5761
G3 X75.0121 Y33.0763 I3.7711 J4.5649
G3 X75.0129 Y33.0758 I0.4204 J0.6211
G3 X75.496 Y32.7854 I2.9965 J4.4387
G3 X76.0001 Y32.5489 I2.5567 J4.7934
G3 X76.0035 Y32.5475 I0.2834 J0.6944
G3 X76.5279 Y32.3654 I2.1468 J5.3357
G3 X76.5291 Y32.365 I0.2116 J0.7195
G3 X76.801 Y32.2937 I1.4147 J4.8405
G3 X77.0862 Y32.2338 I0.9623 J3.8674
G3 X77.2847 Y32.2 I1.6973 J9.3924
G3 X77.304 Y32.1972 I0.1178 J0.7407
G1 X77.4909 Y32.1725
G3 X77.5159 Y32.1696 I0.0985 J0.7435
G1 X77.6411 Y32.1573
G3 X77.6489 Y32.1565 I0.0735 J0.7464
G3 X77.812 Y32.1451 I0.4041 J4.603
G3 X77.9799 Y32.1374 I0.2174 J2.9136
G3 X78.0827 Y32.1342 I0.1352 J2.691
G3 X78.2262 Y32.1308 I0.1739 J4.2432
G3 X78.252 Y32.131 I0.0054 J0.75
G1 X78.4446 Y32.1363
G3 X78.4574 Y32.1367 I-0.0204 J0.7497
G1 X78.6499 Y32.1453
G3 X78.6643 Y32.146 I-0.0332 J0.7493
G3 X78.7999 Y32.1557 I-0.5727 J9.0219
G3 X78.9531 Y32.1707 I-0.1844 J2.6713
G3 X79.0987 Y32.1893 I-0.2629 J2.6352
G3 X79.3817 Y32.2364 I-0.5309 J4.0644
G3 X79.9171 Y32.3646 I-1.0926 J5.7477
G3 X79.9232 Y32.3663 I-0.2087 J0.7204
G3 X80.4463 Y32.5517 I-1.5851 J5.3028
G3 X80.4584 Y32.5568 I-0.2857 J0.6935
G1 X80.6233 Y32.6282
G3 X80.6492 Y32.64 I-0.2978 J0.6884
G1 X80.8112 Y32.7175
G3 X80.832 Y32.7278 I-0.3236 J0.6766
G3 X80.9424 Y32.7853 I-8.8681 J17.157
G3 X80.943 Y32.7856 I-0.3487 J0.664
G3 X81.1963 Y32.9313 I-1.8147 J3.4491
G3 X81.433 Y33.0847 I-2.3726 J3.9196
G3 X81.4352 Y33.0862 I-0.4271 J0.6165
G1 X81.5361 Y33.1567
G3 X81.5504 Y33.1669 I-0.4293 J0.615
G1 X81.6496 Y33.2396
G3 X81.6615 Y33.2486 I-0.4435 J0.6048
G3 X81.8737 Y33.4163 I-5.0438 J6.5971
G3 X81.8746 Y33.4171 I-0.4747 J0.5807
G3 X82.0975 Y33.612 I-2.9808 J3.634
G3 X82.3058 Y33.8126 I-3.6175 J3.9634
G3 X82.3059 Y33.8127 I-0.5347 J0.5259
G3 X82.6854 Y34.2306 I-5.0865 J5.0007
G3 X82.6875 Y34.2331 I-0.5747 J0.4819
G3 X83.0288 Y34.6889 I-4.3236 J3.5931
G3 X83.0292 Y34.6895 I-0.6223 J0.4186
G3 X83.3163 Y35.1651 I-4.8121 J3.2295
G3 X83.3165 Y35.1654 I-0.6599 J0.3564
G3 X83.5562 Y35.6764 I-4.4437 J2.3971
G3 X83.557 Y35.6783 I-0.6957 J0.2802
G3 X83.7374 Y36.1955 I-5.7133 J2.2825
G3 X83.7381 Y36.1978 I-0.7185 J0.2152
G3 X83.8099 Y36.4694 I-4.6002 J1.3614
G3 X83.8699 Y36.7525 I-3.8277 J0.9595
G3 X83.9037 Y36.9496 I-9.3065 J1.6949
G3 X83.9065 Y36.9692 I-0.7405 J0.1187
G1 X83.9313 Y37.1547
G3 X83.9342 Y37.1799 I-0.7434 J0.0992
G1 X83.9465 Y37.304
G3 X83.9473 Y37.312 I-0.7463 J0.074
G3 X83.9587 Y37.4741 I-4.5656 J0.4034
G3 X83.9664 Y37.6411 I-2.8847 J0.2167
G3 X83.9696 Y37.7432 I-2.6646 J0.1347
G3 X83.9731 Y37.8859 I-4.1955 J0.1731
G3 X83.9728 Y37.9117 I-0.75 J0.0054
G1 X83.9675 Y38.1057
G3 X83.9671 Y38.1183 I-0.7497 J-0.0204
G1 X83.9585 Y38.3122
G3 X83.9579 Y38.3245 I-0.7493 J-0.0329
G3 X83.9482 Y38.4636 I-7.1926 J-0.434
G3 X83.9333 Y38.6172 I-2.7143 J-0.1855
G3 X83.9147 Y38.7643 I-2.7247 J-0.2695
G3 X83.8682 Y39.0471 I-4.3354 J-0.5676
G3 X83.7395 Y39.5896 I-5.3472 J-0.9823
G3 X83.5507 Y40.1265 I-4.5612 J-1.3017
G3 X83.3168 Y40.6226 I-5.3063 J-2.1993
G3 X83.3154 Y40.6252 I-0.6623 J-0.3519
G3 X83.0261 Y41.1044 I-4.8601 J-2.6071
G3 X83.0258 Y41.1048 I-0.6216 J-0.4197
G3 X82.6836 Y41.5576 I-4.4649 J-3.0188
G3 X82.2949 Y41.9809 I-4.6375 J-3.8683
G1 Y41.981
G3 X81.8731 Y42.3639 I-4.6623 J-4.7101
G3 X81.8699 Y42.3667 I-0.4799 J-0.5764
G3 X81.4125 Y42.7054 I-3.5365 J-4.297
G3 X80.9261 Y42.994 I-2.8997 J-4.3319
G3 X80.6794 Y43.1164 I-2.9217 J-5.5789
G3 X80.6657 Y43.1227 I-0.3186 J-0.679
G3 X80.4266 Y43.2258 I-4.5568 J-10.2435
G3 X80.4202 Y43.2284 I-0.2888 J-0.6921
G3 X80.1458 Y43.329 I-1.5807 J-3.8877
G3 X79.8751 Y43.4126 I-1.5654 J-4.5854
G3 X79.3323 Y43.5408 I-1.8632 J-6.676
G3 X79.3257 Y43.5421 I-0.1429 J-0.7363
G3 X78.8901 Y43.6054 I-1.0419 J-5.6386
G3 X78.8799 Y43.6064 I-0.0793 J-0.7458
G1 X78.7529 Y43.6181
G3 X78.7361 Y43.6195 I-0.0691 J-0.7468
G3 X78.1679 Y43.6441 I-0.7494 J-10.7299
G3 X78.1425 I-0.0126 J-0.7499
G1 X77.9773 Y43.6413
G3 X77.9596 Y43.6408 I0.0128 J-0.7499
G1 X77.7947 Y43.6341
G3 X77.794 Y43.634 I0.0305 J-0.7494
G3 X77.5835 Y43.6172 I0.1154 J-2.7719
G3 X77.3928 Y43.5944 I0.3506 J-3.7417
G3 X77.3926 I0.108 J-0.7422
G1 X77.2329 Y43.5711
G3 X77.2099 Y43.5674 I0.1082 J-0.7422
G1 X77.051 Y43.5392
G3 X77.0444 Y43.538 I0.1312 J-0.7384
G3 X76.6697 Y43.4507 I0.8009 J-4.2849
G3 X76.3279 Y43.3466 I1.9391 J-6.9833
G3 X76.3255 Y43.3458 I0.236 J-0.7119
G3 X75.9688 Y43.2104 I1.5406 J-4.5943
G3 X75.9679 Y43.21 I0.2937 J-0.6901
G3 X75.6427 Y43.0621 I3.052 J-7.146
G3 X75.6403 Y43.061 I0.326 J-0.6755
G3 X75.2954 Y42.8749 I2.0617 J-4.2345
G3 X75.2924 Y42.8732 I0.3833 J-0.6447
G1 X75.1517 Y42.7886
G3 X75.1359 Y42.7788 I0.3862 J-0.6429
G3 X74.9878 Y42.6832 I5.8382 J-9.1947
G3 X74.9859 Y42.6819 I0.4122 J-0.6266
G3 X74.6715 Y42.4541 I2.5521 J-3.8527
G3 X74.6708 Y42.4535 I0.4652 J-0.5883
G3 X74.3964 Y42.2255 I4.8517 J-6.1192
G3 X74.3954 Y42.2246 I0.4923 J-0.5658
G3 X74.1166 Y41.9595 I2.9889 J-3.4227
G3 X74.1151 Y41.958 I0.5393 J-0.5212
G1 X74.0032 Y41.8416
G3 X73.9853 Y41.8223 I0.5409 J-0.5196
G1 X73.8777 Y41.702
G3 X73.8727 Y41.6964 I0.5588 J-0.5003
G3 X73.7452 Y41.5423 I2.5932 J-2.2751
G3 X73.6292 Y41.3912 I3.2635 J-2.6263
G3 X73.6271 Y41.3884 I0.6051 J-0.4431
G1 X73.5306 Y41.2553
G3 X73.5222 Y41.2435 I0.6071 J-0.4404
G3 X73.4202 Y41.0933 I6.4643 J-4.5017
G3 X73.4194 Y41.0922 I0.6252 J-0.4143
G3 X73.2176 Y40.7597 I4.2905 J-2.8321
G3 X73.0412 Y40.4219 I4.9769 J-2.8142
G3 X72.9638 Y40.2563 I7.4661 J-3.5876
G3 X72.9569 Y40.2406 I0.683 J-0.3098
G1 X72.8918 Y40.0878
G3 X72.8887 Y40.0804 I0.6899 J-0.2942
G3 X72.7545 Y39.7122 I4.2243 J-1.7479
G3 X72.6521 Y39.3674 I7.8532 J-2.5189
G3 X72.6499 Y39.3589 I0.7235 J-0.1977
G3 X72.5662 Y38.9869 I5.4549 J-1.4219
G3 Y38.9867 I0.7369 J-0.1397
G3 X72.5347 Y38.8044 I5.6162 J-1.0629
G3 X72.5064 Y38.6037 I3.524 J-0.6002
G1 X72.4874 Y38.4378
G3 X72.4848 Y38.4119 I0.7451 J-0.0855
G1 X72.4715 Y38.2447
G3 X72.4712 Y38.2399 I0.7476 J-0.0595
G3 X72.4626 Y38.0349 I3.2708 J-0.2395
G3 X72.4597 Y37.8374 I3.6911 J-0.1534
G3 X72.4846 Y37.2838 I7.8529 J0.0765
G3 X72.4997 Y37.132 I2.6246 J0.184
G3 X72.5184 Y36.9875 I2.5891 J0.2618
G3 X72.5654 Y36.708 I4.0496 J0.5375
G3 X72.6932 Y36.1777 I5.5702 J1.0622
G3 X72.7829 Y35.9039 I3.6044 J1.0286
G3 X72.8832 Y35.6455 I4.4181 J1.5667
G3 X72.884 Y35.6438 I0.6908 J0.292
G3 X73.1149 Y35.1582 I5.9613 J2.5373
G3 X73.1165 Y35.1552 I0.6634 J0.3499
G3 X73.2109 Y34.9859 I4.5187 J2.4103
G0 Z3.0
G0 X72.0058
G1 F300.0 Z-3.0
G1 F800.0 Y42.65
G3 X71.2558 Y43.4 I-0.75 J0.0
G1 X70.401
G3 X69.6683 Y42.8102 I0.0 J-0.75
G3 X68.9356 Y43.4 I-0.7327 J-0.1602
G1 X63.9288
G3 X63.1788 Y42.65 I0.0 J-0.75
G1 Y41.6731
G3 X63.9288 Y40.9231 I0.75 J0.0
G1 X65.2548
G1 X65.4745 Y41.1427
G1 X65.2548 Y40.9231
G1 Y33.125
G3 X66.0048 Y32.375 I0.75 J0.0
G1 X66.8596
G3 X67.6096 Y33.125 I0.0 J0.75
G1 Y40.9231
G1 X67.3899 Y41.1427
G1 X67.6096 Y40.9231
G1 X68.9356
G3 X69.651 Y41.4479 I0.0 J0.75
G1 Y33.125
G3 X70.401 Y32.375 I0.75 J0.0
G1 X71.2558
G3 X72.0058 Y33.125 I0.0 J0.75
G1 Y34.9859
G0 Z3.0
G0 X84.4269
G1 F300.0 Z-3.0
G1 F800.0 Y33.125
G3 X85.1769 Y32.375 I0.75 J0.0
G1 X86.0317
G3 X86.7817 Y33.125 I0.0 J0.75
G1 Y38.5443
G1 X86.2883 Y39.8998
G1 X86.7817 Y38.5443
G1 X91.7347 Y32.6428
G3 X92.3092 Y32.375 I0.5745 J0.4822
G1 X92.5038
G3 X93.2538 Y33.125 I0.0 J0.75
G1 Y42.65
G3 X92.5038 Y43.4 I-0.75 J0.0
G1 X91.649
G3 X90.899 Y42.65 I0.0 J-0.75
G1 Y37.2133
G1 X91.3925 Y35.858
G1 X90.899 Y37.2133
G1 X85.9307 Y43.1322
G3 X85.3563 Y43.4 I-0.5744 J-0.4822
G1 X85.1769
G3 X84.4269 Y42.65 I0.0 J-0.75
G1 Y34.9859
G0 Z3.0
G0 X68.3926 Y49.4967
G1 F300.0 Z-1.0
G3 F800.0 X68.5865 Y50.0 I-0.5561 J0.5033
G1 Y50.9769
G3 X67.8365 Y51.7269 I-0.75 J0.0
G1 X64.0683
G1 X63.8486 Y51.5073
G1 X64.0683 Y51.7269
G1 Y53.8904
G1 X63.8486 Y54.1101
G1 X64.0683 Y53.8904
G1 X67.8365
G3 X68.5865 Y54.6404 I0.0 J0.75
G1 Y55.6173
G3 X67.8365 Y56.3673 I-0.75 J0.0
G1 X64.0683
G1 X63.8486 Y56.1476
G1 X64.0683 Y56.3673
G1 Y57.7981
G1 X63.8486 Y58.0177
G1 X64.0683 Y57.7981
G1 X67.8365
G3 X68.5865 Y58.5481 I0.0 J0.75
G1 Y59.525
G3 X67.8365 Y60.275 I-0.75 J0.0
G1 X62.4635
G3 X61.7135 Y59.525 I0.0 J-0.75
G1 Y50.0
G3 X62.4635 Y49.25 I0.75 J0.0
G1 X67.8365
G3 X68.3926 Y49.4967 I0.0 J0.75
G0 Z3.0
G0 X58.6878 Y53.3785
G1 F300.0 Z-1.0
G2 F800.0 X58.6345 Y53.2577 I-1.7359 J0.6943
G3 X58.6335 Y53.2556 I0.675 J-0.327
G2 X58.5284 Y53.0502 I-4.2146 J2.0253
G2 X58.424 Y52.882 I-1.886 J1.0546
G3 X58.4229 Y52.8804 I0.6183 J-0.4244
G2 X58.2993 Y52.7141 I-2.1377 J1.4593
G2 X58.1673 Y52.5647 I-1.889 J1.5366
G3 X58.1655 Y52.5629 I0.5411 J-0.5193
G2 X58.0262 Y52.4291 I-1.5795 J1.5053
G2 X57.8656 Y52.2988 I-2.0334 J2.3426
G2 X57.7166 Y52.1987 I-1.0245 J1.3634
G3 X57.7145 Y52.1974 I0.385 J-0.6436
G2 X57.5282 Y52.0925 I-1.8647 J3.0943
G2 X57.3481 Y52.0118 I-1.013 J2.0186
G3 X57.3416 Y52.0092 I0.2766 J-0.6971
G2 X57.1439 Y51.936 I-1.2224 J2.9998
G1 X57.0624 Y51.9127
G1 X56.9658 Y51.8872
G2 X56.9021 Y51.8731 I-0.2072 J0.7851
G3 X56.8863 Y51.8701 I0.1325 J-0.7382
G2 X56.7944 Y51.8533 I-0.5022 J2.4899
G2 X56.5338 Y51.8166 I-1.862 J12.2695
G2 X56.235 Y51.7848 I-1.3566 J11.3348
G2 X55.9033 Y51.7601 I-0.8537 J9.2262
G3 X55.9009 Y51.7599 I0.0423 J-0.7488
G2 X55.5223 Y51.7417 I-0.9779 J16.3835
G2 X55.0997 Y51.7306 I-0.9385 J27.6443
G3 X55.0991 I0.014 J-0.7499
G2 X54.6447 Y51.7269 I-0.3911 J20.2349
G3 X54.6424 I-0.0023 J-0.75
G1 X54.299
G1 X54.0794 Y51.5073
G1 X54.299 Y51.7269
G1 Y57.7974
G1 X54.7031 Y57.7943
G2 X55.1333 Y57.7817 I-0.1864 J-13.6774
G3 X55.1371 Y57.7815 I0.0338 J0.7492
G2 X55.5411 Y57.7613 I-0.8106 J-20.2692
G2 X55.9023 Y57.7344 I-0.9083 J-14.6187
G2 X56.2237 Y57.699 I-1.0432 J-10.9646
G2 X56.3656 Y57.6796 I-0.9763 J-7.6562
G3 X56.3796 Y57.6777 I0.1087 J0.7421
G2 X56.4944 Y57.6598 I-0.2625 J-2.0626
G3 X56.4992 Y57.6589 I0.1361 J0.7375
G1 X56.6252 Y57.6365
G1 X56.7479 Y57.6106
G2 X56.8201 Y57.5924 I-0.2562 J-1.1695
G3 X56.8477 Y57.5851 I0.2057 J0.7212
G2 X56.9202 Y57.5656 I-0.3778 J-1.5449
G1 X57.0498 Y57.5226
G2 X57.1729 Y57.4786 I-2.1089 J-6.0979
G2 X57.3755 Y57.3915 I-0.7967 J-2.1324
G3 X57.3826 Y57.3881 I0.3292 J0.6739
G2 X57.5726 Y57.286 I-0.9518 J-2.0004
G2 X57.6714 Y57.2252 I-4.559 J-7.5167
G1 X57.772 Y57.1568
G2 X57.921 Y57.0382 I-0.9746 J-1.3779
G3 X57.9258 Y57.034 I0.4993 J0.5596
G2 X58.0936 Y56.8773 I-2.421 J-2.7602
G2 X58.2396 Y56.7149 I-1.9246 J-1.8778
G3 X58.2424 Y56.7116 I0.5775 J0.4785
G2 X58.3676 Y56.5452 I-1.5262 J-1.2791
G1 X58.4386 Y56.4386
G1 X58.5031 Y56.3322
G2 X58.5449 Y56.2547 I-1.1123 J-0.6501
G3 X58.5527 Y56.2393 I0.6718 J0.3333
G2 X58.5967 Y56.1495 I-1.5477 J-0.8127
G1 X58.6508 Y56.028
G2 X58.6962 Y55.9144 I-7.8819 J-3.2143
G2 X58.7653 Y55.7041 I-2.0578 J-0.7927
G2 X58.828 Y55.4486 I-5.0308 J-1.37
G2 X58.849 Y55.3347 I-2.3353 J-0.4896
G3 X58.8518 Y55.318 I0.7406 J0.1181
G2 X58.8681 Y55.2102 I-1.7195 J-0.314
G3 X58.8682 Y55.2093 I0.7448 J0.0885
G1 X58.8857 Y55.0631
G1 X58.8974 Y54.921
G2 X58.901 Y54.839 I-1.6333 J-0.1125
G3 X58.902 Y54.8122 I0.7499 J0.014
G2 X58.9037 Y54.7351 I-1.2019 J-0.0654
G3 X58.904 Y54.706 I0.75 J-0.0073
G2 X58.9048 Y54.6519 I-1.952 J-0.0566
G1 X58.9019 Y54.5083
G1 X58.896 Y54.3597
G2 X58.8743 Y54.1308 I-2.3767 J0.1096
G3 X58.8739 Y54.128 I0.7424 J-0.1067
G2 X58.8321 Y53.8719 I-5.6176 J0.7855
G2 X58.7809 Y53.6573 I-2.4828 J0.4786
G3 X58.7806 Y53.6561 I0.7213 J-0.2056
G2 X58.7494 Y53.5512 I-4.2065 J1.1918
G1 X58.7091 Y53.4344
G2 X58.6878 Y53.3785 I-1.7572 J0.6384
G1 F300.0 Z-2.0
G2 F800.0 X58.6345 Y53.2577 I-1.7359 J0.6943
G3 X58.6335 Y53.2556 I0.675 J-0.327
G2 X58.5284 Y53.0502 I-4.2146 J2.0253
G2 X58.424 Y52.882 I-1.886 J1.0546
G3 X58.4229 Y52.8804 I0.6183 J-0.4244
G2 X58.2993 Y52.7141 I-2.1377 J1.4593
G2 X58.1673 Y52.5647 I-1.889 J1.5366
G3 X58.1655 Y52.5629 I0.5411 J-0.5193
G2 X58.0262 Y52.4291 I-1.5795 J1.5053
G2 X57.8656 Y52.2988 I-2.0334 J2.3426
G2 X57.7166 Y52.1987 I-1.0245 J1.3634
G3 X57.7145 Y52.1974 I0.385 J-0.6436
G2 X57.5282 Y52.0925 I-1.8647 J3.0943
G2 X57.3481 Y52.0118 I-1.013 J2.0186
G3 X57.3416 Y52.0092 I0.2766 J-0.6971
G2 X57.1439 Y51.936 I-1.2224 J2.9998
G1 X57.0624 Y51.9127
G1 X56.9658 Y51.8872
G2 X56.9021 Y51.8731 I-0.2072 J0.7851
G3 X56.8863 Y51.8701 I0.1325 J-0.7382
G2 X56.7944 Y51.8533 I-0.5022 J2.4899
G2 X56.5338 Y51.8166 I-1.862 J12.2695
G2 X56.235 Y51.7848 I-1.3566 J11.3348
G2 X55.9033 Y51.7601 I-0.8537 J9.2262
G3 X55.9009 Y51.7599 I0.0423 J-0.7488
G2 X55.5223 Y51.7417 I-0.9779 J16.3835
G2 X55.0997 Y51.7306 I-0.9385 J27.6443
G3 X55.0991 I0.014 J-0.7499
G2 X54.6447 Y51.7269 I-0.3911 J20.2349
G3 X54.6424 I-0.0023 J-0.75
G1 X54.299
G1 X54.0794 Y51.5073
G1 X54.299 Y51.7269
G1 Y57.7974
G1 X54.7031 Y57.7943
G2 X55.1333 Y57.7817 I-0.1864 J-13.6774
G3 X55.1371 Y57.7815 I0.0338 J0.7492
G2 X55.5411 Y57.7613 I-0.8106 J-20.2692
G2 X55.9023 Y57.7344 I-0.9083 J-14.6187
G2 X56.2237 Y57.699 I-1.0432 J-10.9646
G2 X56.3656 Y57.6796 I-0.9763 J-7.6562
G3 X56.3796 Y57.6777 I0.1087 J0.7421
G2 X56.4944 Y57.6598 I-0.2625 J-2.0626
G3 X56.4992 Y57.6589 I0.1361 J0.7375
G1 X56.6252 Y57.6365
G1 X56.7479 Y57.6106
G2 X56.8201 Y57.5924 I-0.2562 J-1.1695
G3 X56.8477 Y57.5851 I0.2057 J0.7212
G2 X56.9202 Y57.5656 I-0.3778 J-1.5449
G1 X57.0498 Y57.5226
G2 X57.1729 Y57.4786 I-2.1089 J-6.0979
G2 X57.3755 Y57.3915 I-0.7967 J-2.1324
G3 X57.3826 Y57.3881 I0.3292 J0.6739
G2 X57.5726 Y57.286 I-0.9518 J-2.0004
G2 X57.6714 Y57.2252 I-4.559 J-7.5167
G1 X57.772 Y57.1568
G2 X57.921 Y57.0382 I-0.9746 J-1.3779
G3 X57.9258 Y57.034 I0.4993 J0.5596
G2 X58.0936 Y56.8773 I-2.421 J-2.7602
G2 X58.2396 Y56.7149 I-1.9246 J-1.8778
G3 X58.2424 Y56.7116 I0.5775 J0.4785
G2 X58.3676 Y56.5452 I-1.5262 J-1.2791
G1 X58.4386 Y56.4386
G1 X58.5031 Y56.3322
G2 X58.5449 Y56.2547 I-1.1123 J-0.6501
G3 X58.5527 Y56.2393 I0.6718 J0.3333
G2 X58.5967 Y56.1495 I-1.5477 J-0.8127
G1 X58.6508 Y56.028
G2 X58.6962 Y55.9144 I-7.8819 J-3.2143
G2 X58.7653 Y55.7041 I-2.0578 J-0.7927
G2 X58.828 Y55.4486 I-5.0308 J-1.37
G2 X58.849 Y55.3347 I-2.3353 J-0.4896
G3 X58.8518 Y55.318 I0.7406 J0.1181
G2 X58.8681 Y55.2102 I-1.7195 J-0.314
G3 X58.8682 Y55.2093 I0.7448 J0.0885
G1 X58.8857 Y55.0631
G1 X58.8974 Y54.921
G2 X58.901 Y54.839 I-1.6333 J-0.1125
G3 X58.902 Y54.8122 I0.7499 J0.014
G2 X58.9037 Y54.7351 I-1.2019 J-0.0654
G3 X58.904 Y54.706 I0.75 J-0.0073
G2 X58.9048 Y54.6519 I-1.952 J-0.0566
G1 X58.9019 Y54.5083
G1 X58.896 Y54.3597
G2 X58.8743 Y54.1308 I-2.3767 J0.1096
G3 X58.8739 Y54.128 I0.7424 J-0.1067
G2 X58.8321 Y53.8719 I-5.6176 J0.7855
G2 X58.7809 Y53.6573 I-2.4828 J0.4786
G3 X58.7806 Y53.6561 I0.7213 J-0.2056
G2 X58.7494 Y53.5512 I-4.2065 J1.1918
G1 X58.7091 Y53.4344
G2 X58.6878 Y53.3785 I-1.7572 J0.6384
G1 F300.0 Z-3.0
G2 F800.0 X58.6345 Y53.2577 I-1.7359 J0.6943
G3 X58.6335 Y53.2556 I0.675 J-0.327
G2 X58.5284 Y53.0502 I-4.2146 J2.0253
G2 X58.424 Y52.882 I-1.886 J1.0546
G3 X58.4229 Y52.8804 I0.6183 J-0.4244
G2 X58.2993 Y52.7141 I-2.1377 J1.4593
G2 X58.1673 Y52.5647 I-1.889 J1.5366
G3 X58.1655 Y52.5629 I0.5411 J-0.5193
G2 X58.0262 Y52.4291 I-1.5795 J1.5053
G2 X57.8656 Y52.2988 I-2.0334 J2.3426
G2 X57.7166 Y52.1987 I-1.0245 J1.3634
G3 X57.7145 Y52.1974 I0.385 J-0.6436
G2 X57.5282 Y52.0925 I-1.8647 J3.0943
G2 X57.3481 Y52.0118 I-1.013 J2.0186
G3 X57.3416 Y52.0092 I0.2766 J-0.6971
G2 X57.1439 Y51.936 I-1.2224 J2.9998
G1 X57.0624 Y51.9127
G1 X56.9658 Y51.8872
G2 X56.9021 Y51.8731 I-0.2072 J0.7851
G3 X56.8863 Y51.8701 I0.1325 J-0.7382
G2 X56.7944 Y51.8533 I-0.5022 J2.4899
G2 X56.5338 Y51.8166 I-1.862 J12.2695
G2 X56.235 Y51.7848 I-1.3566 J11.3348
G2 X55.9033 Y51.7601 I-0.8537 J9.2262
G3 X55.9009 Y51.7599 I0.0423 J-0.7488
G2 X55.5223 Y51.7417 I-0.9779 J16.3835
G2 X55.0997 Y51.7306 I-0.9385 J27.6443
G3 X55.0991 I0.014 J-0.7499
G2 X54.6447 Y51.7269 I-0.3911 J20.2349
G3 X54.6424 I-0.0023 J-0.75
G1 X54.299
G1 X54.0794 Y51.5073
G1 X54.299 Y51.7269
G1 Y57.7974
G1 X54.7031 Y57.7943
G2 X55.1333 Y57.7817 I-0.1864 J-13.6774
G3 X55.1371 Y57.7815 I0.0338 J0.7492
G2 X55.5411 Y57.7613 I-0.8106 J-20.2692
G2 X55.9023 Y57.7344 I-0.9083 J-14.6187
G2 X56.2237 Y57.699 I-1.0432 J-10.9646
G2 X56.3656 Y57.6796 I-0.9763 J-7.6562
G3 X56.3796 Y57.6777 I0.1087 J0.7421
G2 X56.4944 Y57.6598 I-0.2625 J-2.0626
G3 X56.4992 Y57.6589 I0.1361 J0.7375
G1 X56.6252 Y57.6365
G1 X56.7479 Y57.6106
G2 X56.8201 Y57.5924 I-0.2562 J-1.1695
G3 X56.8477 Y57.5851 I0.2057 J0.7212
G2 X56.9202 Y57.5656 I-0.3778 J-1.5449
G1 X57.0498 Y57.5226
G2 X57.1729 Y57.4786 I-2.1089 J-6.0979
G2 X57.3755 Y57.3915 I-0.7967 J-2.1324
G3 X57.3826 Y57.3881 I0.3292 J0.6739
G2 X57.5726 Y57.286 I-0.9518 J-2.0004
G2 X57.6714 Y57.2252 I-4.559 J-7.5167
G1 X57.772 Y57.1568
G2 X57.921 Y57.0382 I-0.9746 J-1.3779
G3 X57.9258 Y57.034 I0.4993 J0.5596
G2 X58.0936 Y56.8773 I-2.421 J-2.7602
G2 X58.2396 Y56.7149 I-1.9246 J-1.8778
G3 X58.2424 Y56.7116 I0.5775 J0.4785
G2 X58.3676 Y56.5452 I-1.5262 J-1.2791
G1 X58.4386 Y56.4386
G1 X58.5031 Y56.3322
G2 X58.5449 Y56.2547 I-1.1123 J-0.6501
G3 X58.5527 Y56.2393 I0.6718 J0.3333
G2 X58.5967 Y56.1495 I-1.5477 J-0.8127
G1 X58.6508 Y56.028
G2 X58.6962 Y55.9144 I-7.8819 J-3.2143
G2 X58.7653 Y55.7041 I-2.0578 J-0.7927
G2 X58.828 Y55.4486 I-5.0308 J-1.37
G2 X58.849 Y55.3347 I-2.3353 J-0.4896
G3 X58.8518 Y55.318 I0.7406 J0.1181
G2 X58.8681 Y55.2102 I-1.7195 J-0.314
G3 X58.8682 Y55.2093 I0.7448 J0.0885
G1 X58.8857 Y55.0631
G1 X58.8974 Y54.921
G2 X58.901 Y54.839 I-1.6333 J-0.1125
G3 X58.902 Y54.8122 I0.7499 J0.014
G2 X58.9037 Y54.7351 I-1.2019 J-0.0654
G3 X58.904 Y54.706 I0.75 J-0.0073
G2 X58.9048 Y54.6519 I-1.952 J-0.0566
G1 X58.9019 Y54.5083
G1 X58.896 Y54.3597
G2 X58.8743 Y54.1308 I-2.3767 J0.1096
G3 X58.8739 Y54.128 I0.7424 J-0.1067
G2 X58.8321 Y53.8719 I-5.6176 J0.7855
G2 X58.7809 Y53.6573 I-2.4828 J0.4786
G3 X58.7806 Y53.6561 I0.7213 J-0.2056
G2 X58.7494 Y53.5512 I-4.2065 J1.1918
G1 X58.7091 Y53.4344
G2 X58.6878 Y53.3785 I-1.7572 J0.6384
G0 Z3.0
G0 X60.9466 Y52.6305
G1 F300.0 Z-1.0
G1 F800.0 X60.9869 Y52.7523
G3 X60.9892 Y52.7593 I-0.712 J0.2358
G3 X61.0434 Y52.9459 I-3.4019 J1.0895
G3 X61.0904 Y53.1317 I-3.6401 J1.0196
G3 X61.0906 Y53.1324 I-0.7315 J0.1654
G1 X61.1265 Y53.2922
G3 X61.1314 Y53.3157 I-0.7317 J0.1647
G1 X61.1622 Y53.4765
G3 X61.1633 Y53.482 I-0.7366 J0.1412
G3 X61.1941 Y53.6801 I-3.5753 J0.6577
G3 X61.2179 Y53.875 I-3.843 J0.5684
G1 X61.2346 Y54.0448
G3 X61.2365 Y54.0667 I-0.7464 J0.0735
G1 X61.2483 Y54.2376
G3 X61.2485 Y54.2409 I-0.7482 J0.0517
G3 X61.2563 Y54.447 I-3.8717 J0.2504
G3 X61.2596 Y54.647 I-4.4393 J0.1722
G3 X61.2595 Y54.6556 I-0.75 J-0.0047
G1 X61.2559 Y54.8589
G3 X61.2554 Y54.8745 I-0.7499 J-0.0133
G1 X61.2476 Y55.0776
G3 Y55.0789 I-0.7494 J-0.0289
G3 X61.2299 Y55.318 I-3.5878 J-0.1446
G3 X61.2052 Y55.5417 I-4.7184 J-0.4075
G3 X61.2048 Y55.545 I-0.7433 J-0.1
G1 X61.1783 Y55.7354
G3 X61.1759 Y55.7512 I-0.7429 J-0.1033
G3 X61.1403 Y55.9575 I-9.0162 J-1.4504
G3 X61.14 Y55.9591 I-0.7376 J-0.1361
G3 X61.0426 Y56.3826 I-5.1304 J-0.9578
G3 X60.9212 Y56.7791 I-5.8471 J-1.5736
G3 X60.9205 Y56.7811 I-0.7092 J-0.244
G3 X60.7721 Y57.1652 I-5.6327 J-1.9555
G3 X60.7711 Y57.1674 I-0.6898 J-0.2943
G3 X60.5889 Y57.5454 I-4.5071 J-1.9399
G3 X60.3822 Y57.8995 I-4.828 J-2.5808
G3 X60.1493 Y58.2375 I-4.194 J-2.6404
G3 X60.1465 Y58.2412 I-0.5994 J-0.4507
G3 X59.9659 Y58.4683 I-5.4457 J-4.1471
G3 X59.9541 Y58.4821 I-0.5769 J-0.4793
G1 X59.8975 Y58.547
G3 X59.8957 Y58.549 I-0.5651 J-0.4931
G3 X59.7533 Y58.7013 I-2.5481 J-2.2398
G3 X59.604 Y58.8477 I-2.4265 J-2.3246
G3 X59.6028 Y58.8489 I-0.5083 J-0.5515
G1 X59.4782 Y58.9632
G3 X59.4547 Y58.9838 I-0.507 J-0.5527
G1 X59.3255 Y59.0928
G3 X59.3165 Y59.1003 I-0.4835 J-0.5733
G3 X58.9801 Y59.3453 I-2.3748 J-2.9069
G3 X58.6402 Y59.5517 I-2.7194 J-4.0961
G3 X58.6325 Y59.5558 I-0.363 J-0.6563
G3 X58.3775 Y59.6871 I-3.6963 J-6.8704
G3 X58.3586 Y59.696 I-0.3308 J-0.6731
G1 X58.28 Y59.7319
G3 X58.2758 Y59.7339 I-0.3119 J-0.682
G3 X58.132 Y59.7948 I-1.4643 J-3.2549
G3 X57.988 Y59.8515 I-1.0871 J-2.549
G3 X57.8965 Y59.8863 I-1.2936 J-3.2667
G3 X57.8729 Y59.8944 I-0.2566 J-0.7047
G1 X57.7464 Y59.9358
G3 X57.732 Y59.9403 I-0.233 J-0.7129
G1 X57.6048 Y59.9791
G3 X57.6044 Y59.9792 I-0.2186 J-0.7174
G3 X57.4157 Y60.0294 I-0.7977 J-2.6219
G3 X57.2479 Y60.0672 I-1.0132 J-4.1077
G3 X57.2423 Y60.0683 I-0.1499 J-0.7349
G1 X57.0805 Y60.1
G3 X57.0654 Y60.1028 I-0.1443 J-0.736
G3 X56.8939 Y60.1317 I-2.4856 J-14.2118
G3 X56.8931 Y60.1319 I-0.1203 J-0.7403
G3 X56.494 Y60.185 I-1.1593 J-7.1877
G3 X56.0818 Y60.2246 I-2.0441 J-19.0995
G3 X56.079 Y60.2248 I-0.0637 J-0.7473
G3 X55.6188 Y60.2533 I-0.9631 J-11.8171
G3 X55.1365 Y60.2691 I-1.0188 J-23.8054
G3 X54.6174 Y60.275 I-0.5098 J-21.9383
G1 X52.6942
G3 X51.9442 Y59.525 I0.0 J-0.75
G1 Y50.0
G3 X52.6942 Y49.25 I0.75 J0.0
G1 X55.646
G3 X55.6541 I0.0 J0.75
G1 X55.865 Y49.2523
G3 X55.8759 Y49.2525 I-0.0081 J0.75
G1 X56.0867 Y49.2579
G3 X56.0877 I-0.0191 J0.7498
G3 X56.315 Y49.2693 I-0.1303 J4.8818
G3 X56.5341 Y49.2857 I-0.3429 J6.0542
G3 X56.5353 Y49.2858 I-0.0695 J0.7468
G1 X56.7225 Y49.3035
G3 X56.7343 Y49.3047 I-0.0707 J0.7467
G3 X56.9341 Y49.3286 I-1.2558 J11.3505
G3 X56.9353 Y49.3288 I-0.0956 J0.7439
G3 X57.3317 Y49.3937 I-0.7883 J6.0556
G3 X57.6967 Y49.4753 I-1.2363 J6.3843
G3 X57.6979 Y49.4756 I-0.1847 J0.7269
G3 X58.0467 Y49.5772 I-1.3696 J5.3542
G3 X58.0498 Y49.5782 I-0.2332 J0.7128
G3 X58.3855 Y49.7055 I-1.3425 J4.0456
G3 X58.3891 Y49.7071 I-0.2953 J0.6894
G3 X58.6961 Y49.8559 I-1.6441 J3.783
G3 X58.9884 Y50.0295 I-1.768 J3.3111
G3 X58.989 Y50.0299 I-0.4117 J0.6269
G3 X59.2453 Y50.208 I-3.3938 J5.1572
G3 X59.2505 Y50.2118 I-0.4434 J0.6049
G3 X59.5137 Y50.4274 I-2.2492 J3.0133
G3 X59.7515 Y50.6541 I-3.2336 J3.6305
G3 X59.7527 Y50.6554 I-0.5355 J0.5251
G3 X59.9777 Y50.9031 I-3.3452 J3.2643
G3 X59.9778 Y50.9032 I-0.5729 J0.4841
G3 X60.1909 Y51.1752 I-3.5887 J3.031
G3 X60.383 Y51.4578 I-4.3014 J3.1307
G3 X60.5635 Y51.7617 I-4.6065 J2.9419
G3 X60.5654 Y51.7651 I-0.6569 J0.362
G3 X60.7247 Y52.0773 I-5.786 J3.1496
G3 X60.7248 Y52.0774 I-0.6769 J0.323
G3 X60.8728 Y52.4266 I-3.8726 J1.8473
G3 X60.8734 Y52.4284 I-0.7028 J0.2619
G1 X60.9285 Y52.5773
G3 X60.937 Y52.6016 I-0.7035 J0.2601
G1 X60.9466 Y52.6305
G1 F300.0 Z-2.0
G1 F800.0 X60.9869 Y52.7523
G3 X60.9892 Y52.7593 I-0.712 J0.2358
G3 X61.0434 Y52.9459 I-3.4019 J1.0895
G3 X61.0904 Y53.1317 I-3.6401 J1.0196
G3 X61.0906 Y53.1324 I-0.7315 J0.1654
G1 X61.1265 Y53.2922
G3 X61.1314 Y53.3157 I-0.7317 J0.1647
G1 X61.1622 Y53.4765
G3 X61.1633 Y53.482 I-0.7366 J0.1412
G3 X61.1941 Y53.6801 I-3.5753 J0.6577
G3 X61.2179 Y53.875 I-3.843 J0.5684
G1 X61.2346 Y54.0448
G3 X61.2365 Y54.0667 I-0.7464 J0.0735
G1 X61.2483 Y54.2376
G3 X61.2485 Y54.2409 I-0.7482 J0.0517
G3 X61.2563 Y54.447 I-3.8717 J0.2504
G3 X61.2596 Y54.647 I-4.4393 J0.1722
G3 X61.2595 Y54.6556 I-0.75 J-0.0047
G1 X61.2559 Y54.8589
G3 X61.2554 Y54.8745 I-0.7499 J-0.0133
G1 X61.2476 Y55.0776
G3 Y55.0789 I-0.7494 J-0.0289
G3 X61.2299 Y55.318 I-3.5878 J-0.1446
G3 X61.2052 Y55.5417 I-4.7184 J-0.4075
G3 X61.2048 Y55.545 I-0.7433 J-0.1
G1 X61.1783 Y55.7354
G3 X61.1759 Y55.7512 I-0.7429 J-0.1033
G3 X61.1403 Y55.9575 I-9.0162 J-1.4504
G3 X61.14 Y55.9591 I-0.7376 J-0.1361
G3 X61.0426 Y56.3826 I-5.1304 J-0.9578
G3 X60.9212 Y56.7791 I-5.8471 J-1.5736
G3 X60.9205 Y56.7811 I-0.7092 J-0.244
G3 X60.7721 Y57.1652 I-5.6327 J-1.9555
G3 X60.7711 Y57.1674 I-0.6898 J-0.2943
G3 X60.5889 Y57.5454 I-4.5071 J-1.9399
G3 X60.3822 Y57.8995 I-4.828 J-2.5808
G3 X60.1493 Y58.2375 I-4.194 J-2.6404
G3 X60.1465 Y58.2412 I-0.5994 J-0.4507
G3 X59.9659 Y58.4683 I-5.4457 J-4.1471
G3 X59.9541 Y58.4821 I-0.5769 J-0.4793
G1 X59.8975 Y58.547
G3 X59.8957 Y58.549 I-0.5651 J-0.4931
G3 X59.7533 Y58.7013 I-2.5481 J-2.2398
G3 X59.604 Y58.8477 I-2.4265 J-2.3246
G3 X59.6028 Y58.8489 I-0.5083 J-0.5515
G1 X59.4782 Y58.9632
G3 X59.4547 Y58.9838 I-0.507 J-0.5527
G1 X59.3255 Y59.0928
G3 X59.3165 Y59.1003 I-0.4835 J-0.5733
G3 X58.9801 Y59.3453 I-2.3748 J-2.9069
G3 X58.6402 Y59.5517 I-2.7194 J-4.0961
G3 X58.6325 Y59.5558 I-0.363 J-0.6563
G3 X58.3775 Y59.6871 I-3.6963 J-6.8704
G3 X58.3586 Y59.696 I-0.3308 J-0.6731
G1 X58.28 Y59.7319
G3 X58.2758 Y59.7339 I-0.3119 J-0.682
G3 X58.132 Y59.7948 I-1.4643 J-3.2549
G3 X57.988 Y59.8515 I-1.0871 J-2.549
G3 X57.8965 Y59.8863 I-1.2936 J-3.2667
G3 X57.8729 Y59.8944 I-0.2566 J-0.7047
G1 X57.7464 Y59.9358
G3 X57.732 Y59.9403 I-0.233 J-0.7129
G1 X57.6048 Y59.9791
G3 X57.6044 Y59.9792 I-0.2186 J-0.7174
G3 X57.4157 Y60.0294 I-0.7977 J-2.6219
G3 X57.2479 Y60.0672 I-1.0132 J-4.1077
G3 X57.2423 Y60.0683 I-0.1499 J-0.7349
G1 X57.0805 Y60.1
G3 X57.0654 Y60.1028 I-0.1443 J-0.736
G3 X56.8939 Y60.1317 I-2.4856 J-14.2118
G3 X56.8931 Y60.1319 I-0.1203 J-0.7403
G3 X56.494 Y60.185 I-1.1593 J-7.1877
G3 X56.0818 Y60.2246 I-2.0441 J-19.0995
G3 X56.079 Y60.2248 I-0.0637 J-0.7473
G3 X55.6188 Y60.2533 I-0.9631 J-11.8171
G3 X55.1365 Y60.2691 I-1.0188 J-23.8054
G3 X54.6174 Y60.275 I-0.5098 J-21.9383
G1 X52.6942
G3 X51.9442 Y59.525 I0.0 J-0.75
G1 Y50.0
G3 X52.6942 Y49.25 I0.75 J0.0
G1 X55.646
G3 X55.6541 I0.0 J0.75
G1 X55.865 Y49.2523
G3 X55.8759 Y49.2525 I-0.0081 J0.75
G1 X56.0867 Y49.2579
G3 X56.0877 I-0.0191 J0.7498
G3 X56.315 Y49.2693 I-0.1303 J4.8818
G3 X56.5341 Y49.2857 I-0.3429 J6.0542
G3 X56.5353 Y49.2858 I-0.0695 J0.7468
G1 X56.7225 Y49.3035
G3 X56.7343 Y49.3047 I-0.0707 J0.7467
G3 X56.9341 Y49.3286 I-1.2558 J11.3505
G3 X56.9353 Y49.3288 I-0.0956 J0.7439
G3 X57.3317 Y49.3937 I-0.7883 J6.0556
G3 X57.6967 Y49.4753 I-1.2363 J6.3843
G3 X57.6979 Y49.4756 I-0.1847 J0.7269
G3 X58.0467 Y49.5772 I-1.3696 J5.3542
G3 X58.0498 Y49.5782 I-0.2332 J0.7128
G3 X58.3855 Y49.7055 I-1.3425 J4.0456
G3 X58.3891 Y49.7071 I-0.2953 J0.6894
G3 X58.6961 Y49.8559 I-1.6441 J3.783
G3 X58.9884 Y50.0295 I-1.768 J3.3111
G3 X58.989 Y50.0299 I-0.4117 J0.6269
G3 X59.2453 Y50.208 I-3.3938 J5.1572
G3 X59.2505 Y50.2118 I-0.4434 J0.6049
G3 X59.5137 Y50.4274 I-2.2492 J3.0133
G3 X59.7515 Y50.6541 I-3.2336 J3.6305
G3 X59.7527 Y50.6554 I-0.5355 J0.5251
G3 X59.9777 Y50.9031 I-3.3452 J3.2643
G3 X59.9778 Y50.9032 I-0.5729 J0.4841
G3 X60.1909 Y51.1752 I-3.5887 J3.031
G3 X60.383 Y51.4578 I-4.3014 J3.1307
G3 X60.5635 Y51.7617 I-4.6065 J2.9419
G3 X60.5654 Y51.7651 I-0.6569 J0.362
G3 X60.7247 Y52.0773 I-5.786 J3.1496
G3 X60.7248 Y52.0774 I-0.6769 J0.323
G3 X60.8728 Y52.4266 I-3.8726 J1.8473
G3 X60.8734 Y52.4284 I-0.7028 J0.2619
G1 X60.9285 Y52.5773
G3 X60.937 Y52.6016 I-0.7035 J0.2601
G1 X60.9466 Y52.6305
G1 F300.0 X61.7135
G1 F800.0 Y50.0
G3 X62.4635 Y49.25 I0.75 J0.0
G1 X67.8365
G3 X68.5865 Y50.0 I0.0 J0.75
G1 Y50.9769
G3 X67.8365 Y51.7269 I-0.75 J0.0
G1 X64.0683
G1 X63.8486 Y51.5073
G1 X64.0683 Y51.7269
G1 Y53.8904
G1 X63.8486 Y54.1101
G1 X64.0683 Y53.8904
G1 X67.8365
G3 X68.5865 Y54.6404 I0.0 J0.75
G1 Y55.6173
G3 X67.8365 Y56.3673 I-0.75 J0.0
G1 X64.0683
G1 X63.8486 Y56.1476
G1 X64.0683 Y56.3673
G1 Y57.7981
G1 X63.8486 Y58.0177
G1 X64.0683 Y57.7981
G1 X67.8365
G3 X68.5865 Y58.5481 I0.0 J0.75
G1 Y59.525
G3 X67.8365 Y60.275 I-0.75 J0.0
G1 X62.4635
G3 X61.7135 Y59.525 I0.0 J-0.75
G1 Y52.6305
G1 F300.0 Z-3.0
G1 F800.0 Y50.0
G3 X62.4635 Y49.25 I0.75 J0.0
G1 X67.8365
G3 X68.5865 Y50.0 I0.0 J0.75
G1 Y50.9769
G3 X67.8365 Y51.7269 I-0.75 J0.0
G1 X64.0683
G1 X63.8486 Y51.5073
G1 X64.0683 Y51.7269
G1 Y53.8904
G1 X63.8486 Y54.1101
G1 X64.0683 Y53.8904
G1 X67.8365
G3 X68.5865 Y54.6404 I0.0 J0.75
G1 Y55.6173
G3 X67.8365 Y56.3673 I-0.75 J0.0
G1 X64.0683
G1 X63.8486 Y56.1476
G1 X64.0683 Y56.3673
G1 Y57.7981
G1 X63.8486 Y58.0177
G1 X64.0683 Y57.7981
G1 X67.8365
G3 X68.5865 Y58.5481 I0.0 J0.75
G1 Y59.525
G3 X67.8365 Y60.275 I-0.75 J0.0
G1 X62.4635
G3 X61.7135 Y59.525 I0.0 J-0.75
G1 Y52.6305
G1 F300.0 X61.0132 Y52.8373
G3 F800.0 X61.0434 Y52.9459 I-3.4259 J1.0115
G3 X61.0904 Y53.1317 I-3.6401 J1.0196
G3 X61.0906 Y53.1324 I-0.7315 J0.1654
G1 X61.1265 Y53.2922
G3 X61.1314 Y53.3157 I-0.7317 J0.1647
G1 X61.1622 Y53.4765
G3 X61.1633 Y53.482 I-0.7366 J0.1412
G3 X61.1941 Y53.6801 I-3.5753 J0.6577
G3 X61.2179 Y53.875 I-3.843 J0.5684
G1 X61.2346 Y54.0448
G3 X61.2365 Y54.0667 I-0.7464 J0.0735
G1 X61.2483 Y54.2376
G3 X61.2485 Y54.2409 I-0.7482 J0.0517
G3 X61.2563 Y54.447 I-3.8717 J0.2504
G3 X61.2596 Y54.647 I-4.4393 J0.1722
G3 X61.2595 Y54.6556 I-0.75 J-0.0047
G1 X61.2559 Y54.8589
G3 X61.2554 Y54.8745 I-0.7499 J-0.0133
G1 X61.2476 Y55.0776
G3 Y55.0789 I-0.7494 J-0.0289
G3 X61.2299 Y55.318 I-3.5878 J-0.1446
G3 X61.2052 Y55.5417 I-4.7184 J-0.4075
G3 X61.2048 Y55.545 I-0.7433 J-0.1
G1 X61.1783 Y55.7354
G3 X61.1759 Y55.7512 I-0.7429 J-0.1033
G3 X61.1403 Y55.9575 I-9.0162 J-1.4504
G3 X61.14 Y55.9591 I-0.7376 J-0.1361
G3 X61.0426 Y56.3826 I-5.1304 J-0.9578
G3 X60.9212 Y56.7791 I-5.8471 J-1.5736
G3 X60.9205 Y56.7811 I-0.7092 J-0.244
G3 X60.7721 Y57.1652 I-5.6327 J-1.9555
G3 X60.7711 Y57.1674 I-0.6898 J-0.2943
G3 X60.5889 Y57.5454 I-4.5071 J-1.9399
G3 X60.3822 Y57.8995 I-4.828 J-2.5808
G3 X60.1493 Y58.2375 I-4.194 J-2.6404
G3 X60.1465 Y58.2412 I-0.5994 J-0.4507
G3 X59.9659 Y58.4683 I-5.4457 J-4.1471
G3 X59.9541 Y58.4821 I-0.5769 J-0.4793
G1 X59.8975 Y58.547
G3 X59.8957 Y58.549 I-0.5651 J-0.4931
G3 X59.7533 Y58.7013 I-2.5481 J-2.2398
G3 X59.604 Y58.8477 I-2.4265 J-2.3246
G3 X59.6028 Y58.8489 I-0.5083 J-0.5515
G1 X59.4782 Y58.9632
G3 X59.4547 Y58.9838 I-0.507 J-0.5527
G1 X59.3255 Y59.0928
G3 X59.3165 Y59.1003 I-0.4835 J-0.5733
G3 X58.9801 Y59.3453 I-2.3748 J-2.9069
G3 X58.6402 Y59.5517 I-2.7194 J-4.0961
G3 X58.6325 Y59.5558 I-0.363 J-0.6563
G3 X58.3775 Y59.6871 I-3.6963 J-6.8704
G3 X58.3586 Y59.696 I-0.3308 J-0.6731
G1 X58.28 Y59.7319
G3 X58.2758 Y59.7339 I-0.3119 J-0.682
G3 X58.132 Y59.7948 I-1.4643 J-3.2549
G3 X57.988 Y59.8515 I-1.0871 J-2.549
G3 X57.8965 Y59.8863 I-1.2936 J-3.2667
G3 X57.8729 Y59.8944 I-0.2566 J-0.7047
G1 X57.7464 Y59.9358
G3 X57.732 Y59.9403 I-0.233 J-0.7129
G1 X57.6048 Y59.9791
G3 X57.6044 Y59.9792 I-0.2186 J-0.7174
G3 X57.4157 Y60.0294 I-0.7977 J-2.6219
G3 X57.2479 Y60.0672 I-1.0132 J-4.1077
G3 X57.2423 Y60.0683 I-0.1499 J-0.7349
G1 X57.0805 Y60.1
G3 X57.0654 Y60.1028 I-0.1443 J-0.736
G3 X56.8939 Y60.1317 I-2.4856 J-14.2118
G3 X56.8931 Y60.1319 I-0.1203 J-0.7403
G3 X56.494 Y60.185 I-1.1593 J-7.1877
G3 X56.0818 Y60.2246 I-2.0441 J-19.0995
G3 X56.079 Y60.2248 I-0.0637 J-0.7473
G3 X55.6188 Y60.2533 I-0.9631 J-11.8171
G3 X55.1365 Y60.2691 I-1.0188 J-23.8054
G3 X54.6174 Y60.275 I-0.5098 J-21.9383
G1 X52.6942
G3 X51.9442 Y59.525 I0.0 J-0.75
G1 Y50.0
G3 X52.6942 Y49.25 I0.75 J0.0
G1 X55.646
G3 X55.6541 I0.0 J0.75
G1 X55.865 Y49.2523
G3 X55.8759 Y49.2525 I-0.0081 J0.75
G1 X56.0867 Y49.2579
G3 X56.0877 I-0.0191 J0.7498
G3 X56.315 Y49.2693 I-0.1303 J4.8818
G3 X56.5341 Y49.2857 I-0.3429 J6.0542
G3 X56.5353 Y49.2858 I-0.0695 J0.7468
G1 X56.7225 Y49.3035
G3 X56.7343 Y49.3047 I-0.0707 J0.7467
G3 X56.9341 Y49.3286 I-1.2558 J11.3505
G3 X56.9353 Y49.3288 I-0.0956 J0.7439
G3 X57.3317 Y49.3937 I-0.7883 J6.0556
G3 X57.6967 Y49.4753 I-1.2363 J6.3843
G3 X57.6979 Y49.4756 I-0.1847 J0.7269
G3 X58.0467 Y49.5772 I-1.3696 J5.3542
G3 X58.0498 Y49.5782 I-0.2332 J0.7128
G3 X58.3855 Y49.7055 I-1.3425 J4.0456
G3 X58.3891 Y49.7071 I-0.2953 J0.6894
G3 X58.6961 Y49.8559 I-1.6441 J3.783
G3 X58.9884 Y50.0295 I-1.768 J3.3111
G3 X58.989 Y50.0299 I-0.4117 J0.6269
G3 X59.2453 Y50.208 I-3.3938 J5.1572
G3 X59.2505 Y50.2118 I-0.4434 J0.6049
G3 X59.5137 Y50.4274 I-2.2492 J3.0133
G3 X59.7515 Y50.6541 I-3.2336 J3.6305
G3 X59.7527 Y50.6554 I-0.5355 J0.5251
G3 X59.9777 Y50.9031 I-3.3452 J3.2643
G3 X59.9778 Y50.9032 I-0.5729 J0.4841
G3 X60.1909 Y51.1752 I-3.5887 J3.031
G3 X60.383 Y51.4578 I-4.3014 J3.1307
G3 X60.5635 Y51.7617 I-4.6065 J2.9419
G3 X60.5654 Y51.7651 I-0.6569 J0.362
G3 X60.7247 Y52.0773 I-5.786 J3.1496
G3 X60.7248 Y52.0774 I-0.6769 J0.323
G3 X60.8728 Y52.4266 I-3.8726 J1.8473
G3 X60.8734 Y52.4284 I-0.7028 J0.2619
G1 X60.9285 Y52.5773
G3 X60.937 Y52.6016 I-0.7035 J0.2601
G1 X60.9869 Y52.7523
G3 X60.9892 Y52.7593 I-0.712 J0.2358
G3 X61.0132 Y52.8373 I-3.4019 J1.0895
G0 Z3.0
G0 X58.8476 Y40.0435
G1 F300.0 Z-1.0
G1 F800.0 X58.8424 Y39.0233
G1 X59.3585 Y37.9048
G1 X59.8989 Y37.559
G1 X59.3585 Y37.9048
G1 X58.3122
G1 X57.7605 Y37.5558
G1 X58.3122 Y37.9048
G1 X58.8424 Y39.0233
G1 X58.8476 Y40.0435
G1 F300.0 Z-2.0
G1 F800.0 X58.8424 Y39.0233
G1 X59.3585 Y37.9048
G1 X59.8989 Y37.559
G1 X59.3585 Y37.9048
G1 X58.3122
G1 X57.7605 Y37.5558
G1 X58.3122 Y37.9048
G1 X58.8424 Y39.0233
G1 X58.8476 Y40.0435
G1 F300.0 Z-3.0
G1 F800.0 X58.8424 Y39.0233
G1 X59.3585 Y37.9048
G1 X59.8989 Y37.559
G1 X59.3585 Y37.9048
G1 X58.3122
G1 X57.7605 Y37.5558
G1 X58.3122 Y37.9048
G1 X58.8424 Y39.0233
G1 X58.8476 Y40.0435
G0 Z3.0
G0 X51.3331 Y40.105
G1 F300.0 Z-1.0
G2 F800.0 X51.3228 Y39.9684 I-2.2862 J0.1039
G2 X51.299 Y39.8681 I-0.7348 J0.1214
G3 X51.2985 Y39.8665 I0.716 J-0.2233
G2 X51.2572 Y39.7624 I-0.692 J0.2141
G3 X51.2544 Y39.7566 I0.6738 J-0.3294
G2 X51.2032 Y39.6705 I-0.5013 J0.2397
G3 X51.1965 Y39.6611 I0.6076 J-0.4397
G2 X51.1227 Y39.5708 I-0.6445 J0.4515
G2 X51.0581 Y39.5102 I-0.7724 J0.7594
G1 X51.0327 Y39.4904
G2 X50.9361 Y39.4305 I-0.4495 J0.6181
G3 X50.927 Y39.4257 I0.3462 J-0.6653
G2 X50.7946 Y39.3661 I-0.4873 J0.9059
G3 X50.7934 Y39.3657 I0.2587 J-0.704
G2 X50.7221 Y39.3426 I-0.3175 J0.8595
G3 X50.718 Y39.3415 I0.2015 J-0.7224
G2 X50.623 Y39.318 I-0.3761 J1.3198
G3 X50.622 Y39.3178 I0.1536 J-0.7341
G2 X50.4918 Y39.2933 I-0.6329 J3.0039
G2 X50.3529 Y39.2741 I-0.4296 J2.593
G2 X50.1751 Y39.2568 I-0.8086 J7.4076
G3 X50.174 Y39.2567 I0.0635 J-0.7473
G2 X49.997 Y39.2456 I-0.3286 J3.8018
G3 X49.9955 Y39.2455 I0.0298 J-0.7494
G1 X49.7697 Y39.2361
G2 X49.6801 Y39.2349 I-0.076 J2.3222
G3 X49.6623 Y39.2348 I-0.0044 J-0.75
G2 X49.5646 Y39.2346 I-0.0537 J2.996
G3 X49.5593 Y39.2347 I-0.011 J-0.7499
G1 X48.5596 Y39.2424
G1 X48.342 Y39.0264
G1 X48.5596 Y39.2424
G1 Y40.9231
G1 X48.3399 Y41.1427
G1 X48.5596 Y40.9231
G1 X49.5927
G1 X49.8378 Y40.9212
G2 X50.0379 Y40.9146 I-0.0666 J-5.072
G2 X50.2375 Y40.9022 I-0.7523 J-13.6508
G2 X50.4002 Y40.8863 I-0.2963 J-3.8877
G3 X50.4052 Y40.8857 I0.0883 J0.7448
G2 X50.5501 Y40.8669 I-0.4538 J-4.0575
G2 X50.6712 Y40.845 I-0.4592 J-2.8828
G2 X50.7556 Y40.8241 I-0.2468 J-1.1794
G3 X50.7614 Y40.8225 I0.2062 J0.7211
G2 X50.837 Y40.7989 I-0.3252 J-1.1734
G3 X50.8393 Y40.7981 I0.2469 J0.7082
G2 X50.933 Y40.7562 I-0.191 J-0.5536
G3 X50.9383 Y40.7533 I0.3646 J0.6554
G2 X51.0316 Y40.6928 I-0.3504 J-0.6422
G2 X51.1224 Y40.6121 I-0.5425 J-0.7019
G2 X51.1925 Y40.5276 I-0.4789 J-0.4685
G3 X51.1942 Y40.5251 I0.6145 J0.4299
G2 X51.2631 Y40.4125 I-0.8232 J-0.5809
G3 X51.2636 Y40.4116 I0.6641 J0.3486
G2 X51.3016 Y40.3214 I-0.5084 J-0.2677
G3 X51.3071 Y40.3053 I0.7133 J0.2317
G2 X51.322 Y40.2426 I-0.2974 J-0.1041
G2 X51.3331 Y40.105 I-1.9617 J-0.2271
G1 F300.0 Z-2.0
G2 F800.0 X51.3228 Y39.9684 I-2.2862 J0.1039
G2 X51.299 Y39.8681 I-0.7348 J0.1214
G3 X51.2985 Y39.8665 I0.716 J-0.2233
G2 X51.2572 Y39.7624 I-0.692 J0.2141
G3 X51.2544 Y39.7566 I0.6738 J-0.3294
G2 X51.2032 Y39.6705 I-0.5013 J0.2397
G3 X51.1965 Y39.6611 I0.6076 J-0.4397
G2 X51.1227 Y39.5708 I-0.6445 J0.4515
G2 X51.0581 Y39.5102 I-0.7724 J0.7594
G1 X51.0327 Y39.4904
G2 X50.9361 Y39.4305 I-0.4495 J0.6181
G3 X50.927 Y39.4257 I0.3462 J-0.6653
G2 X50.7946 Y39.3661 I-0.4873 J0.9059
G3 X50.7934 Y39.3657 I0.2587 J-0.704
G2 X50.7221 Y39.3426 I-0.3175 J0.8595
G3 X50.718 Y39.3415 I0.2015 J-0.7224
G2 X50.623 Y39.318 I-0.3761 J1.3198
G3 X50.622 Y39.3178 I0.1536 J-0.7341
G2 X50.4918 Y39.2933 I-0.6329 J3.0039
G2 X50.3529 Y39.2741 I-0.4296 J2.593
G2 X50.1751 Y39.2568 I-0.8086 J7.4076
G3 X50.174 Y39.2567 I0.0635 J-0.7473
G2 X49.997 Y39.2456 I-0.3286 J3.8018
G3 X49.9955 Y39.2455 I0.0298 J-0.7494
G1 X49.7697 Y39.2361
G2 X49.6801 Y39.2349 I-0.076 J2.3222
G3 X49.6623 Y39.2348 I-0.0044 J-0.75
G2 X49.5646 Y39.2346 I-0.0537 J2.996
G3 X49.5593 Y39.2347 I-0.011 J-0.7499
G1 X48.5596 Y39.2424
G1 X48.342 Y39.0264
G1 X48.5596 Y39.2424
G1 Y40.9231
G1 X48.3399 Y41.1427
G1 X48.5596 Y40.9231
G1 X49.5927
G1 X49.8378 Y40.9212
G2 X50.0379 Y40.9146 I-0.0666 J-5.072
G2 X50.2375 Y40.9022 I-0.7523 J-13.6508
G2 X50.4002 Y40.8863 I-0.2963 J-3.8877
G3 X50.4052 Y40.8857 I0.0883 J0.7448
G2 X50.5501 Y40.8669 I-0.4538 J-4.0575
G2 X50.6712 Y40.845 I-0.4592 J-2.8828
G2 X50.7556 Y40.8241 I-0.2468 J-1.1794
G3 X50.7614 Y40.8225 I0.2062 J0.7211
G2 X50.837 Y40.7989 I-0.3252 J-1.1734
G3 X50.8393 Y40.7981 I0.2469 J0.7082
G2 X50.933 Y40.7562 I-0.191 J-0.5536
G3 X50.9383 Y40.7533 I0.3646 J0.6554
G2 X51.0316 Y40.6928 I-0.3504 J-0.6422
G2 X51.1224 Y40.6121 I-0.5425 J-0.7019
G2 X51.1925 Y40.5276 I-0.4789 J-0.4685
G3 X51.1942 Y40.5251 I0.6145 J0.4299
G2 X51.2631 Y40.4125 I-0.8232 J-0.5809
G3 X51.2636 Y40.4116 I0.6641 J0.3486
G2 X51.3016 Y40.3214 I-0.5084 J-0.2677
G3 X51.3071 Y40.3053 I0.7133 J0.2317
G2 X51.322 Y40.2426 I-0.2974 J-0.1041
G2 X51.3331 Y40.105 I-1.9617 J-0.2271
G1 F300.0 Z-3.0
G2 F800.0 X51.3228 Y39.9684 I-2.2862 J0.1039
G2 X51.299 Y39.8681 I-0.7348 J0.1214
G3 X51.2985 Y39.8665 I0.716 J-0.2233
G2 X51.2572 Y39.7624 I-0.692 J0.2141
G3 X51.2544 Y39.7566 I0.6738 J-0.3294
G2 X51.2032 Y39.6705 I-0.5013 J0.2397
G3 X51.1965 Y39.6611 I0.6076 J-0.4397
G2 X51.1227 Y39.5708 I-0.6445 J0.4515
G2 X51.0581 Y39.5102 I-0.7724 J0.7594
G1 X51.0327 Y39.4904
G2 X50.9361 Y39.4305 I-0.4495 J0.6181
G3 X50.927 Y39.4257 I0.3462 J-0.6653
G2 X50.7946 Y39.3661 I-0.4873 J0.9059
G3 X50.7934 Y39.3657 I0.2587 J-0.704
G2 X50.7221 Y39.3426 I-0.3175 J0.8595
G3 X50.718 Y39.3415 I0.2015 J-0.7224
G2 X50.623 Y39.318 I-0.3761 J1.3198
G3 X50.622 Y39.3178 I0.1536 J-0.7341
G2 X50.4918 Y39.2933 I-0.6329 J3.0039
G2 X50.3529 Y39.2741 I-0.4296 J2.593
G2 X50.1751 Y39.2568 I-0.8086 J7.4076
G3 X50.174 Y39.2567 I0.0635 J-0.7473
G2 X49.997 Y39.2456 I-0.3286 J3.8018
G3 X49.9955 Y39.2455 I0.0298 J-0.7494
G1 X49.7697 Y39.2361
G2 X49.6801 Y39.2349 I-0.076 J2.3222
G3 X49.6623 Y39.2348 I-0.0044 J-0.75
G2 X49.5646 Y39.2346 I-0.0537 J2.996
G3 X49.5593 Y39.2347 I-0.011 J-0.7499
G1 X48.5596 Y39.2424
G1 X48.342 Y39.0264
G1 X48.5596 Y39.2424
G1 Y40.9231
G1 X48.3399 Y41.1427
G1 X48.5596 Y40.9231
G1 X49.5927
G1 X49.8378 Y40.9212
G2 X50.0379 Y40.9146 I-0.0666 J-5.072
G2 X50.2375 Y40.9022 I-0.7523 J-13.6508
G2 X50.4002 Y40.8863 I-0.2963 J-3.8877
G3 X50.4052 Y40.8857 I0.0883 J0.7448
G2 X50.5501 Y40.8669 I-0.4538 J-4.0575
G2 X50.6712 Y40.845 I-0.4592 J-2.8828
G2 X50.7556 Y40.8241 I-0.2468 J-1.1794
G3 X50.7614 Y40.8225 I0.2062 J0.7211
G2 X50.837 Y40.7989 I-0.3252 J-1.1734
G3 X50.8393 Y40.7981 I0.2469 J0.7082
G2 X50.933 Y40.7562 I-0.191 J-0.5536
G3 X50.9383 Y40.7533 I0.3646 J0.6554
G2 X51.0316 Y40.6928 I-0.3504 J-0.6422
G2 X51.1224 Y40.6121 I-0.5425 J-0.7019
G2 X51.1925 Y40.5276 I-0.4789 J-0.4685
G3 X51.1942 Y40.5251 I0.6145 J0.4299
G2 X51.2631 Y40.4125 I-0.8232 J-0.5809
G3 X51.2636 Y40.4116 I0.6641 J0.3486
G2 X51.3016 Y40.3214 I-0.5084 J-0.2677
G3 X51.3071 Y40.3053 I0.7133 J0.2317
G2 X51.322 Y40.2426 I-0.2974 J-0.1041
G2 X51.3331 Y40.105 I-1.9617 J-0.2271
G0 Z3.0
G0 X53.6875 Y40.1547
G1 F300.0 Z-1.0
G1 F800.0 X53.6859 Y40.2331
G3 X53.6853 Y40.2515 I-0.7498 J-0.0158
G1 X53.6801 Y40.3659
G3 X53.6798 Y40.371 I-0.7492 J-0.0342
G3 X53.6453 Y40.6796 I-2.6267 J-0.1376
G3 X53.5949 Y40.9313 I-4.37 J-0.7436
G3 X53.594 Y40.9353 I-0.7309 J-0.1684
G3 X53.5127 Y41.2133 I-2.6772 J-0.632
G3 X53.5113 Y41.2172 I-0.7078 J-0.2481
G3 X53.4229 Y41.4461 I-4.4656 J-1.5928
G3 X53.4208 Y41.4512 I-0.6924 J-0.2882
G3 X53.2877 Y41.7173 I-2.2135 J-0.9404
G3 X53.286 Y41.7202 I-0.6488 J-0.3763
G1 X53.2338 Y41.8093
G3 X53.2142 Y41.8409 I-0.6471 J-0.3791
G1 X53.1577 Y41.9273
G3 X53.1521 Y41.9358 I-0.6276 J-0.4107
G3 X53.0631 Y42.0578 I-1.6833 J-1.1346
G3 X52.9735 Y42.169 I-1.7409 J-1.3106
G1 X52.9074 Y42.2464
G3 X52.8876 Y42.2687 I-0.5704 J-0.487
G1 X52.8174 Y42.3446
G3 X52.8115 Y42.3508 I-0.5505 J-0.5093
G3 X52.5993 Y42.5498 I-1.767 J-1.6724
G3 X52.4089 Y42.701 I-2.691 J-3.1916
G3 X52.4037 Y42.7049 I-0.4492 J-0.6006
G3 X52.1822 Y42.8534 I-1.8347 J-2.4971
G3 X52.1798 Y42.8548 I-0.3905 J-0.6403
G3 X51.9498 Y42.9811 I-1.6261 J-2.6888
G3 X51.6952 Y43.0941 I-1.2655 J-2.5088
G3 X51.6919 Y43.0954 I-0.2698 J-0.6998
G1 X51.5934 Y43.1328
G3 X51.563 Y43.1436 I-0.2665 J-0.701
G1 X51.4631 Y43.1768
G3 X51.4564 Y43.179 I-0.2361 J-0.7119
G3 X51.3148 Y43.2193 I-0.6678 J-2.0779
G3 X51.1779 Y43.2532 I-0.6408 J-2.2895
G3 X51.1626 Y43.2564 I-0.159 J-0.733
G1 X51.0061 Y43.2869
G3 X50.9978 Y43.2885 I-0.1436 J-0.7361
G3 X50.7483 Y43.3236 I-0.5465 J-2.9803
G3 X50.5116 Y43.346 I-1.0113 J-9.4248
G3 X50.5066 Y43.3464 I-0.0613 J-0.7475
G1 X50.2528 Y43.3655
G3 X50.2491 Y43.3657 I-0.0562 J-0.7479
G3 X49.9327 Y43.3806 I-0.4798 J-6.8309
G1 X49.6207 Y43.3919
G3 X49.619 I-0.0271 J-0.7495
G3 X49.244 Y43.3981 I-0.3639 J-10.7394
G1 X48.8647 Y43.4
G3 X48.861 I-0.0037 J-0.75
G1 X46.9548
G3 X46.2048 Y42.65 I0.0 J-0.75
G1 Y33.125
G3 X46.9548 Y32.375 I0.75 J0.0
G1 X47.8096
G3 X48.5596 Y33.125 I0.0 J0.75
G1 Y36.2472
G1 X51.4167 Y32.6579
G3 X52.0035 Y32.375 I0.5868 J0.4671
G1 X53.0606
G3 X53.6712 Y32.6895 I0.0 J0.75
G3 X54.2817 Y32.375 I0.6106 J0.4355
G1 X55.2148
G3 X55.8924 Y32.8036 I0.0 J0.75
G1 X57.1373 Y35.4279
G1 X57.0639 Y35.544
G1 X57.1373 Y35.4279
G1 X60.5009
G1 X60.5766 Y35.5462
G1 X60.5009 Y35.4279
G1 X61.708 Y32.8109
G3 X62.389 Y32.375 I0.681 J0.3141
G1 X63.3183
G3 X63.9992 Y33.4393 I0.0 J0.75
G1 X59.6031 Y42.9643
G3 X58.9221 Y43.4 I-0.681 J-0.3143
G1 X58.8
G3 X58.1224 Y42.9714 I0.0 J-0.75
G1 X53.6633 Y33.5713
G3 X53.6474 Y33.5921 I-0.6028 J-0.4463
G1 X51.0113 Y36.9036
G3 X51.0557 Y36.9135 I-0.8199 J3.8138
G1 X51.1622 Y36.9371
G3 X51.1851 Y36.9426 I-0.1628 J0.7321
G1 X51.2925 Y36.9701
G3 X51.2966 Y36.9711 I-0.1857 J0.7266
G3 X51.5657 Y37.0564 I-0.7042 J2.6907
G1 X51.6556 Y37.0893
G3 X51.6707 Y37.0951 I-0.2583 J0.7041
G3 X51.7772 Y37.1381 I-1.8816 J4.8075
G3 X51.7872 Y37.1424 I-0.2888 J0.6922
G3 X52.2026 Y37.357 I-1.3891 J3.1968
G3 X52.5857 Y37.6292 I-1.4999 J2.5178
G3 X52.9221 Y37.9582 I-1.7432 J2.1189
G3 X53.195 Y38.3238 I-2.3507 J2.0385
G3 X53.1966 Y38.3264 I-0.6324 J0.4032
G3 X53.4123 Y38.7322 I-2.5953 J1.6399
G3 X53.5683 Y39.1697 I-2.7056 J1.2107
G3 X53.6602 Y39.6333 I-3.0058 J0.8369
G3 X53.6608 Y39.6384 I-0.7446 J0.0897
G3 X53.6847 Y39.9764 I-3.9791 J0.4518
G3 X53.6884 Y40.0972 I-2.5815 J0.1399
G3 X53.6883 Y40.1186 I-0.75 J0.0055
G1 X53.6875 Y40.1547
G0 Z3.0
G0 X47.7284 Y49.3702
G1 F300.0 Z-1.0
G3 F800.0 X48.0712 Y50.0 I-0.4073 J0.6298
G1 Y50.9769
G3 X47.3212 Y51.7269 I-0.75 J0.0
G1 X43.5529
G1 X43.3332 Y51.5073
G1 X43.5529 Y51.7269
G1 Y53.8904
G1 X43.3332 Y54.1101
G1 X43.5529 Y53.8904
G1 X47.3212
G3 X48.0712 Y54.6404 I0.0 J0.75
G1 Y55.6173
G3 X47.3212 Y56.3673 I-0.75 J0.0
G1 X43.5529
G1 X43.3332 Y56.1476
G1 X43.5529 Y56.3673
G1 Y57.7981
G1 X43.3332 Y58.0177
G1 X43.5529 Y57.7981
G1 X47.3212
G3 X48.0712 Y58.5481 I0.0 J0.75
G1 Y59.525
G3 X47.3212 Y60.275 I-0.75 J0.0
G1 X41.9481
G3 X41.1981 Y59.525 I0.0 J-0.75
G1 Y50.0
G3 X41.9481 Y49.25 I0.75 J0.0
G1 X47.3212
G3 X47.7284 Y49.3702 I0.0 J0.75
G0 Z3.0
G0 X41.1079 Y49.9361
G1 F300.0 Z-1.0
G3 F800.0 X41.1106 Y50.0 I-0.7473 J0.0639
G1 Y50.9769
G3 X40.3606 Y51.7269 I-0.75 J0.0
G1 X37.4471
G1 X37.2274 Y51.5073
G1 X37.4471 Y51.7269
G1 Y59.525
G3 X36.6971 Y60.275 I-0.75 J0.0
G1 X35.8423
G3 X35.0923 Y59.525 I0.0 J-0.75
G1 Y50.0
G3 X35.8423 Y49.25 I0.75 J0.0
G1 X40.3606
G3 X41.1079 Y49.9361 I0.0 J0.75
G1 F300.0 X41.2002 Y49.9431
G1 Z-2.0
G3 F800.0 X41.9481 Y49.25 I0.7478 J0.0569
G1 X47.3212
G3 X48.0712 Y50.0 I0.0 J0.75
G1 Y50.9769
G3 X47.3212 Y51.7269 I-0.75 J0.0
G1 X43.5529
G1 X43.3332 Y51.5073
G1 X43.5529 Y51.7269
G1 Y53.8904
G1 X43.3332 Y54.1101
G1 X43.5529 Y53.8904
G1 X47.3212
G3 X48.0712 Y54.6404 I0.0 J0.75
G1 Y55.6173
G3 X47.3212 Y56.3673 I-0.75 J0.0
G1 X43.5529
G1 X43.3332 Y56.1476
G1 X43.5529 Y56.3673
G1 Y57.7981
G1 X43.3332 Y58.0177
G1 X43.5529 Y57.7981
G1 X47.3212
G3 X48.0712 Y58.5481 I0.0 J0.75
G1 Y59.525
G3 X47.3212 Y60.275 I-0.75 J0.0
G1 X41.9481
G3 X41.1981 Y59.525 I0.0 J-0.75
G1 Y50.0
G3 X41.2002 Y49.9431 I0.75 J0.0
G0 Z3.0
G0 X34.2759 Y52.4063
G1 F300.0 Z-1.0
G3 F800.0 X34.4261 Y52.9009 I-5.1836 J1.844
G3 X34.5429 Y53.4554 I-5.8822 J1.5289
G3 X34.5435 Y53.4592 I-0.7403 J0.1202
G3 X34.5999 Y53.8834 I-8.891 J1.3974
G3 X34.6015 Y53.8996 I-0.7456 J0.0811
G1 X34.6128 Y54.0298
G3 X34.614 Y54.0457 I-0.7472 J0.0648
G3 X34.6383 Y54.6265 I-12.3963 J0.811
G3 X33.8885 Y55.3904 I-0.7499 J0.0139
G1 X29.8587
G3 X29.1087 Y54.6404 I0.0 J-0.75
