( Made using CamBam - http://www.cambam.co.uk )
( Renfort Pince vertical avec glissière face gauche 1/28/2016 3:51:28 PM )
( T0 : 1.5 )
G21 G90 G64 G40
G0 Z3.0
( T0 : 1.5 )
T0 M6
( Contour1 )
G17
M3 S1000
G0 X49.75 Y231.0
G1 F300.0 Z-1.0
G2 F800.0 X48.625 Y230.3505 I-0.75 J0.0
G2 Y231.6495 I0.375 J0.6495
G2 X49.75 Y231.0 I0.375 J-0.6495
G1 F300.0 Z-2.0
G2 F800.0 X48.625 Y230.3505 I-0.75 J0.0
G2 Y231.6495 I0.375 J0.6495
G2 X49.75 Y231.0 I0.375 J-0.6495
G1 F300.0 Z-3.0
G2 F800.0 X48.625 Y230.3505 I-0.75 J0.0
G2 Y231.6495 I0.375 J0.6495
G2 X49.75 Y231.0 I0.375 J-0.6495
G1 F300.0 Z-4.0
G2 F800.0 X48.625 Y230.3505 I-0.75 J0.0
G2 Y231.6495 I0.375 J0.6495
G2 X49.75 Y231.0 I0.375 J-0.6495
G1 F300.0 Z-5.0
G2 F800.0 X48.625 Y230.3505 I-0.75 J0.0
G2 Y231.6495 I0.375 J0.6495
G2 X49.75 Y231.0 I0.375 J-0.6495
G1 F300.0 Z-6.0
G2 F800.0 X48.625 Y230.3505 I-0.75 J0.0
G2 Y231.6495 I0.375 J0.6495
G2 X49.75 Y231.0 I0.375 J-0.6495
G0 Z3.0
G0 X30.4537 Y256.4028
G1 F300.0 Z-1.0
G2 F800.0 X29.625 Y256.3505 I-0.4537 J0.5972
G2 Y257.6495 I0.375 J0.6495
G2 X30.75 Y257.0 I0.375 J-0.6495
G2 X30.4537 Y256.4028 I-0.75 J0.0
G1 F300.0 Z-2.0
G2 F800.0 X29.625 Y256.3505 I-0.4537 J0.5972
G2 Y257.6495 I0.375 J0.6495
G2 X30.75 Y257.0 I0.375 J-0.6495
G2 X30.4537 Y256.4028 I-0.75 J0.0
G1 F300.0 Z-3.0
G2 F800.0 X29.625 Y256.3505 I-0.4537 J0.5972
G2 Y257.6495 I0.375 J0.6495
G2 X30.75 Y257.0 I0.375 J-0.6495
G2 X30.4537 Y256.4028 I-0.75 J0.0
G1 F300.0 Z-4.0
G2 F800.0 X29.625 Y256.3505 I-0.4537 J0.5972
G2 Y257.6495 I0.375 J0.6495
G2 X30.75 Y257.0 I0.375 J-0.6495
G2 X30.4537 Y256.4028 I-0.75 J0.0
G1 F300.0 Z-5.0
G2 F800.0 X29.625 Y256.3505 I-0.4537 J0.5972
G2 Y257.6495 I0.375 J0.6495
G2 X30.75 Y257.0 I0.375 J-0.6495
G2 X30.4537 Y256.4028 I-0.75 J0.0
G1 F300.0 Z-6.0
G2 F800.0 X29.625 Y256.3505 I-0.4537 J0.5972
G2 Y257.6495 I0.375 J0.6495
G2 X30.75 Y257.0 I0.375 J-0.6495
G2 X30.4537 Y256.4028 I-0.75 J0.0
G0 Z3.0
G0 X104.25 Y256.994
G1 F300.0 Z-1.0
G2 F800.0 X104.625 Y257.6495 I0.75 J0.006
G2 X105.75 Y257.0 I0.375 J-0.6495
G2 X104.625 Y256.3505 I-0.75 J0.0
G2 X104.25 Y256.994 I0.375 J0.6495
G1 F300.0 Z-2.0
G2 F800.0 X104.625 Y257.6495 I0.75 J0.006
G2 X105.75 Y257.0 I0.375 J-0.6495
G2 X104.625 Y256.3505 I-0.75 J0.0
G2 X104.25 Y256.994 I0.375 J0.6495
G1 F300.0 Z-3.0
G2 F800.0 X104.625 Y257.6495 I0.75 J0.006
G2 X105.75 Y257.0 I0.375 J-0.6495
G2 X104.625 Y256.3505 I-0.75 J0.0
G2 X104.25 Y256.994 I0.375 J0.6495
G1 F300.0 Z-4.0
G2 F800.0 X104.625 Y257.6495 I0.75 J0.006
G2 X105.75 Y257.0 I0.375 J-0.6495
G2 X104.625 Y256.3505 I-0.75 J0.0
G2 X104.25 Y256.994 I0.375 J0.6495
G1 F300.0 Z-5.0
G2 F800.0 X104.625 Y257.6495 I0.75 J0.006
G2 X105.75 Y257.0 I0.375 J-0.6495
G2 X104.625 Y256.3505 I-0.75 J0.0
G2 X104.25 Y256.994 I0.375 J0.6495
G1 F300.0 Z-6.0
G2 F800.0 X104.625 Y257.6495 I0.75 J0.006
G2 X105.75 Y257.0 I0.375 J-0.6495
G2 X104.625 Y256.3505 I-0.75 J0.0
G2 X104.25 Y256.994 I0.375 J0.6495
G0 Z3.0
G0 X120.7388 Y235.8352
G1 F300.0 Z-1.0
G2 F800.0 X120.7875 Y235.8681 I0.2612 J-0.3352
G2 X121.425 Y235.5 I0.2125 J-0.3681
G2 X120.7875 Y235.1319 I-0.425 J0.0
G2 X120.7388 Y235.8352 I0.2125 J0.3681
G1 F300.0 Z-2.0
G2 F800.0 X120.7875 Y235.8681 I0.2612 J-0.3352
G2 X121.425 Y235.5 I0.2125 J-0.3681
G2 X120.7875 Y235.1319 I-0.425 J0.0
G2 X120.7388 Y235.8352 I0.2125 J0.3681
G1 F300.0 Z-3.0
G2 F800.0 X120.7875 Y235.8681 I0.2612 J-0.3352
G2 X121.425 Y235.5 I0.2125 J-0.3681
G2 X120.7875 Y235.1319 I-0.425 J0.0
G2 X120.7388 Y235.8352 I0.2125 J0.3681
G1 F300.0 Z-4.0
G2 F800.0 X120.7875 Y235.8681 I0.2612 J-0.3352
G2 X121.425 Y235.5 I0.2125 J-0.3681
G2 X120.7875 Y235.1319 I-0.425 J0.0
G2 X120.7388 Y235.8352 I0.2125 J0.3681
G1 F300.0 Z-5.0
G2 F800.0 X120.7875 Y235.8681 I0.2612 J-0.3352
G2 X121.425 Y235.5 I0.2125 J-0.3681
G2 X120.7875 Y235.1319 I-0.425 J0.0
G2 X120.7388 Y235.8352 I0.2125 J0.3681
G1 F300.0 Z-6.0
G2 F800.0 X120.7875 Y235.8681 I0.2612 J-0.3352
G2 X121.425 Y235.5 I0.2125 J-0.3681
G2 X120.7875 Y235.1319 I-0.425 J0.0
G2 X120.7388 Y235.8352 I0.2125 J0.3681
G0 Z3.0
G0 X120.9932 Y219.9249
G1 F300.0 Z-1.0
G2 F800.0 X121.425 Y219.5 I0.0068 J-0.4249
G2 X120.7875 Y219.1319 I-0.425 J0.0
G2 Y219.8681 I0.2125 J0.3681
G2 X120.9932 Y219.9249 I0.2125 J-0.3681
G1 F300.0 Z-2.0
G2 F800.0 X121.425 Y219.5 I0.0068 J-0.4249
G2 X120.7875 Y219.1319 I-0.425 J0.0
G2 Y219.8681 I0.2125 J0.3681
G2 X120.9932 Y219.9249 I0.2125 J-0.3681
G1 F300.0 Z-3.0
G2 F800.0 X121.425 Y219.5 I0.0068 J-0.4249
G2 X120.7875 Y219.1319 I-0.425 J0.0
G2 Y219.8681 I0.2125 J0.3681
G2 X120.9932 Y219.9249 I0.2125 J-0.3681
G1 F300.0 Z-4.0
G2 F800.0 X121.425 Y219.5 I0.0068 J-0.4249
G2 X120.7875 Y219.1319 I-0.425 J0.0
G2 Y219.8681 I0.2125 J0.3681
G2 X120.9932 Y219.9249 I0.2125 J-0.3681
G1 F300.0 Z-5.0
G2 F800.0 X121.425 Y219.5 I0.0068 J-0.4249
G2 X120.7875 Y219.1319 I-0.425 J0.0
G2 Y219.8681 I0.2125 J0.3681
G2 X120.9932 Y219.9249 I0.2125 J-0.3681
G1 F300.0 Z-6.0
G2 F800.0 X121.425 Y219.5 I0.0068 J-0.4249
G2 X120.7875 Y219.1319 I-0.425 J0.0
G2 Y219.8681 I0.2125 J0.3681
G2 X120.9932 Y219.9249 I0.2125 J-0.3681
G0 Z3.0
G0 X78.0914 Y186.4613
G1 F300.0 Z-1.0
G2 F800.0 X78.25 Y186.0 I-0.5914 J-0.4613
G2 X77.125 Y185.3505 I-0.75 J0.0
G2 Y186.6495 I0.375 J0.6495
G2 X78.0914 Y186.4613 I0.375 J-0.6495
G1 F300.0 Z-2.0
G2 F800.0 X78.25 Y186.0 I-0.5914 J-0.4613
G2 X77.125 Y185.3505 I-0.75 J0.0
G2 Y186.6495 I0.375 J0.6495
G2 X78.0914 Y186.4613 I0.375 J-0.6495
G1 F300.0 Z-3.0
G2 F800.0 X78.25 Y186.0 I-0.5914 J-0.4613
G2 X77.125 Y185.3505 I-0.75 J0.0
G2 Y186.6495 I0.375 J0.6495
G2 X78.0914 Y186.4613 I0.375 J-0.6495
G1 F300.0 Z-4.0
G2 F800.0 X78.25 Y186.0 I-0.5914 J-0.4613
G2 X77.125 Y185.3505 I-0.75 J0.0
G2 Y186.6495 I0.375 J0.6495
G2 X78.0914 Y186.4613 I0.375 J-0.6495
G1 F300.0 Z-5.0
G2 F800.0 X78.25 Y186.0 I-0.5914 J-0.4613
G2 X77.125 Y185.3505 I-0.75 J0.0
G2 Y186.6495 I0.375 J0.6495
G2 X78.0914 Y186.4613 I0.375 J-0.6495
G1 F300.0 Z-6.0
G2 F800.0 X78.25 Y186.0 I-0.5914 J-0.4613
G2 X77.125 Y185.3505 I-0.75 J0.0
G2 Y186.6495 I0.375 J0.6495
G2 X78.0914 Y186.4613 I0.375 J-0.6495
G0 Z3.0
G0 X38.7373 Y179.1372
G1 F300.0 Z-1.0
G2 F800.0 X38.75 Y179.0 I-0.7373 J-0.1372
G2 X37.625 Y178.3505 I-0.75 J0.0
G2 Y179.6495 I0.375 J0.6495
G2 X38.7373 Y179.1372 I0.375 J-0.6495
G1 F300.0 Z-2.0
G2 F800.0 X38.75 Y179.0 I-0.7373 J-0.1372
G2 X37.625 Y178.3505 I-0.75 J0.0
G2 Y179.6495 I0.375 J0.6495
G2 X38.7373 Y179.1372 I0.375 J-0.6495
G1 F300.0 Z-3.0
G2 F800.0 X38.75 Y179.0 I-0.7373 J-0.1372
G2 X37.625 Y178.3505 I-0.75 J0.0
G2 Y179.6495 I0.375 J0.6495
G2 X38.7373 Y179.1372 I0.375 J-0.6495
G1 F300.0 Z-4.0
G2 F800.0 X38.75 Y179.0 I-0.7373 J-0.1372
G2 X37.625 Y178.3505 I-0.75 J0.0
G2 Y179.6495 I0.375 J0.6495
G2 X38.7373 Y179.1372 I0.375 J-0.6495
G1 F300.0 Z-5.0
G2 F800.0 X38.75 Y179.0 I-0.7373 J-0.1372
G2 X37.625 Y178.3505 I-0.75 J0.0
G2 Y179.6495 I0.375 J0.6495
G2 X38.7373 Y179.1372 I0.375 J-0.6495
G1 F300.0 Z-6.0
G2 F800.0 X38.75 Y179.0 I-0.7373 J-0.1372
G2 X37.625 Y178.3505 I-0.75 J0.0
G2 Y179.6495 I0.375 J0.6495
G2 X38.7373 Y179.1372 I0.375 J-0.6495
G0 Z3.0
G0 X52.8184 Y122.7277
G1 F300.0 Z-1.0
G2 F800.0 X53.75 Y122.0 I0.1816 J-0.7277
G2 X52.625 Y121.3505 I-0.75 J0.0
G2 Y122.6495 I0.375 J0.6495
G2 X52.8184 Y122.7277 I0.375 J-0.6495
G1 F300.0 Z-2.0
G2 F800.0 X53.75 Y122.0 I0.1816 J-0.7277
G2 X52.625 Y121.3505 I-0.75 J0.0
G2 Y122.6495 I0.375 J0.6495
G2 X52.8184 Y122.7277 I0.375 J-0.6495
G1 F300.0 Z-3.0
G2 F800.0 X53.75 Y122.0 I0.1816 J-0.7277
G2 X52.625 Y121.3505 I-0.75 J0.0
G2 Y122.6495 I0.375 J0.6495
G2 X52.8184 Y122.7277 I0.375 J-0.6495
G1 F300.0 Z-4.0
G2 F800.0 X53.75 Y122.0 I0.1816 J-0.7277
G2 X52.625 Y121.3505 I-0.75 J0.0
G2 Y122.6495 I0.375 J0.6495
G2 X52.8184 Y122.7277 I0.375 J-0.6495
G1 F300.0 Z-5.0
G2 F800.0 X53.75 Y122.0 I0.1816 J-0.7277
G2 X52.625 Y121.3505 I-0.75 J0.0
G2 Y122.6495 I0.375 J0.6495
G2 X52.8184 Y122.7277 I0.375 J-0.6495
G1 F300.0 Z-6.0
G2 F800.0 X53.75 Y122.0 I0.1816 J-0.7277
G2 X52.625 Y121.3505 I-0.75 J0.0
G2 Y122.6495 I0.375 J0.6495
G2 X52.8184 Y122.7277 I0.375 J-0.6495
G0 Z3.0
G0 X113.2501 Y122.0089
G1 F300.0 Z-1.0
G2 F800.0 X113.625 Y122.6495 I0.7499 J-0.0089
G2 X114.75 Y122.0 I0.375 J-0.6495
G2 X113.625 Y121.3505 I-0.75 J0.0
G2 X113.2501 Y122.0089 I0.375 J0.6495
G1 F300.0 Z-2.0
G2 F800.0 X113.625 Y122.6495 I0.7499 J-0.0089
G2 X114.75 Y122.0 I0.375 J-0.6495
G2 X113.625 Y121.3505 I-0.75 J0.0
G2 X113.2501 Y122.0089 I0.375 J0.6495
G1 F300.0 Z-3.0
G2 F800.0 X113.625 Y122.6495 I0.7499 J-0.0089
G2 X114.75 Y122.0 I0.375 J-0.6495
G2 X113.625 Y121.3505 I-0.75 J0.0
G2 X113.2501 Y122.0089 I0.375 J0.6495
G1 F300.0 Z-4.0
G2 F800.0 X113.625 Y122.6495 I0.7499 J-0.0089
G2 X114.75 Y122.0 I0.375 J-0.6495
G2 X113.625 Y121.3505 I-0.75 J0.0
G2 X113.2501 Y122.0089 I0.375 J0.6495
G1 F300.0 Z-5.0
G2 F800.0 X113.625 Y122.6495 I0.7499 J-0.0089
G2 X114.75 Y122.0 I0.375 J-0.6495
G2 X113.625 Y121.3505 I-0.75 J0.0
G2 X113.2501 Y122.0089 I0.375 J0.6495
G1 F300.0 Z-6.0
G2 F800.0 X113.625 Y122.6495 I0.7499 J-0.0089
G2 X114.75 Y122.0 I0.375 J-0.6495
G2 X113.625 Y121.3505 I-0.75 J0.0
G2 X113.2501 Y122.0089 I0.375 J0.6495
G0 Z3.0
G0 X38.5455 Y51.5147
G1 F300.0 Z-1.0
G2 F800.0 X38.75 Y51.0 I-0.5455 J-0.5147
G2 X37.625 Y50.3505 I-0.75 J0.0
G2 Y51.6495 I0.375 J0.6495
G2 X38.5455 Y51.5147 I0.375 J-0.6495
G1 F300.0 Z-2.0
G2 F800.0 X38.75 Y51.0 I-0.5455 J-0.5147
G2 X37.625 Y50.3505 I-0.75 J0.0
G2 Y51.6495 I0.375 J0.6495
G2 X38.5455 Y51.5147 I0.375 J-0.6495
G1 F300.0 Z-3.0
G2 F800.0 X38.75 Y51.0 I-0.5455 J-0.5147
G2 X37.625 Y50.3505 I-0.75 J0.0
G2 Y51.6495 I0.375 J0.6495
G2 X38.5455 Y51.5147 I0.375 J-0.6495
G1 F300.0 Z-4.0
G2 F800.0 X38.75 Y51.0 I-0.5455 J-0.5147
G2 X37.625 Y50.3505 I-0.75 J0.0
G2 Y51.6495 I0.375 J0.6495
G2 X38.5455 Y51.5147 I0.375 J-0.6495
G1 F300.0 Z-5.0
G2 F800.0 X38.75 Y51.0 I-0.5455 J-0.5147
G2 X37.625 Y50.3505 I-0.75 J0.0
G2 Y51.6495 I0.375 J0.6495
G2 X38.5455 Y51.5147 I0.375 J-0.6495
G1 F300.0 Z-6.0
G2 F800.0 X38.75 Y51.0 I-0.5455 J-0.5147
G2 X37.625 Y50.3505 I-0.75 J0.0
G2 Y51.6495 I0.375 J0.6495
G2 X38.5455 Y51.5147 I0.375 J-0.6495
( Contour2 )
S1000
G0 Z3.0
G0 X51.25 Y231.0
G1 F300.0 Z-1.0
G3 F800.0 X47.875 Y232.9486 I-2.25 J0.0
G3 Y229.0514 I1.125 J-1.9486
G3 X51.25 Y231.0 I1.125 J1.9486
G1 F300.0 Z-2.0
G3 F800.0 X47.875 Y232.9486 I-2.25 J0.0
G3 Y229.0514 I1.125 J-1.9486
G3 X51.25 Y231.0 I1.125 J1.9486
G1 F300.0 Z-3.0
G3 F800.0 X47.875 Y232.9486 I-2.25 J0.0
G3 Y229.0514 I1.125 J-1.9486
G3 X51.25 Y231.0 I1.125 J1.9486
G0 Z3.0
G0 X31.4239 Y255.2578
G1 F300.0 Z-1.0
G3 F800.0 X32.25 Y257.0 I-1.4239 J1.7422
G3 X28.875 Y258.9486 I-2.25 J0.0
G3 Y255.0514 I1.125 J-1.9486
G3 X31.4239 Y255.2578 I1.125 J1.9486
G1 F300.0 Z-2.0
G3 F800.0 X32.25 Y257.0 I-1.4239 J1.7422
G3 X28.875 Y258.9486 I-2.25 J0.0
G3 Y255.0514 I1.125 J-1.9486
G3 X31.4239 Y255.2578 I1.125 J1.9486
G1 F300.0 Z-3.0
G3 F800.0 X32.25 Y257.0 I-1.4239 J1.7422
G3 X28.875 Y258.9486 I-2.25 J0.0
G3 Y255.0514 I1.125 J-1.9486
G3 X31.4239 Y255.2578 I1.125 J1.9486
G0 Z3.0
G0 X102.7506 Y256.9467
G1 F300.0 Z-1.0
G3 F800.0 X103.875 Y255.0514 I2.2494 J0.0533
G3 X107.25 Y257.0 I1.125 J1.9486
G3 X103.875 Y258.9486 I-2.25 J0.0
G3 X102.7506 Y256.9467 I1.125 J-1.9486
G1 F300.0 Z-2.0
G3 F800.0 X103.875 Y255.0514 I2.2494 J0.0533
G3 X107.25 Y257.0 I1.125 J1.9486
G3 X103.875 Y258.9486 I-2.25 J0.0
G3 X102.7506 Y256.9467 I1.125 J-1.9486
G1 F300.0 Z-3.0
G3 F800.0 X103.875 Y255.0514 I2.2494 J0.0533
G3 X107.25 Y257.0 I1.125 J1.9486
G3 X103.875 Y258.9486 I-2.25 J0.0
G3 X102.7506 Y256.9467 I1.125 J-1.9486
G0 Z3.0
G0 X113.8131 Y124.2422
G1 F300.0 Z-1.0
G3 F800.0 X112.875 Y123.9486 I0.1869 J-2.2422
G3 Y120.0514 I1.125 J-1.9486
G3 X116.25 Y122.0 I1.125 J1.9486
G3 X113.8131 Y124.2422 I-2.25 J0.0
G1 F300.0 Z-2.0
G3 F800.0 X112.875 Y123.9486 I0.1869 J-2.2422
G3 Y120.0514 I1.125 J-1.9486
G3 X116.25 Y122.0 I1.125 J1.9486
G3 X113.8131 Y124.2422 I-2.25 J0.0
G1 F300.0 Z-3.0
G3 F800.0 X112.875 Y123.9486 I0.1869 J-2.2422
G3 Y120.0514 I1.125 J-1.9486
G3 X116.25 Y122.0 I1.125 J1.9486
G3 X113.8131 Y124.2422 I-2.25 J0.0
G0 Z3.0
G0 X55.2485 Y122.0829
G1 F300.0 Z-1.0
G3 F800.0 X51.875 Y123.9486 I-2.2485 J-0.0829
G3 Y120.0514 I1.125 J-1.9486
G3 X55.25 Y122.0 I1.125 J1.9486
G3 X55.2485 Y122.0829 I-2.25 J0.0
G1 F300.0 Z-2.0
G3 F800.0 X51.875 Y123.9486 I-2.2485 J-0.0829
G3 Y120.0514 I1.125 J-1.9486
G3 X55.25 Y122.0 I1.125 J1.9486
G3 X55.2485 Y122.0829 I-2.25 J0.0
G1 F300.0 Z-3.0
G3 F800.0 X51.875 Y123.9486 I-2.2485 J-0.0829
G3 Y120.0514 I1.125 J-1.9486
G3 X55.25 Y122.0 I1.125 J1.9486
G3 X55.2485 Y122.0829 I-2.25 J0.0
( Contour3 )
S1000
G0 Z3.0
G0 X43.25 Y228.75
G1 F300.0 Z-1.0
G1 F800.0 X24.75
G1 Y233.25
G1 X43.25
G1 Y228.75
G1 F300.0 Z-2.0
G1 F800.0 X24.75
G1 Y233.25
G1 X43.25
G1 Y228.75
G1 F300.0 Z-3.0
G1 F800.0 X24.75
G1 Y233.25
G1 X43.25
G1 Y228.75
G1 F300.0 Z-4.0
G1 F800.0 X24.75
G1 Y233.25
G1 X43.25
G1 Y228.75
G1 F300.0 Z-5.0
G1 F800.0 X24.75
G1 Y233.25
G1 X43.25
G1 Y228.75
G1 F300.0 Z-6.0
G1 F800.0 X24.75
G1 Y233.25
G1 X43.25
G1 Y228.75
G0 Z3.0
G0 X54.75
G1 F300.0 Z-1.0
G1 F800.0 Y233.25
G1 X73.25
G1 Y228.75
G1 X54.75
G1 F300.0 Z-2.0
G1 F800.0 Y233.25
G1 X73.25
G1 Y228.75
G1 X54.75
G1 F300.0 Z-3.0
G1 F800.0 Y233.25
G1 X73.25
G1 Y228.75
G1 X54.75
G1 F300.0 Z-4.0
G1 F800.0 Y233.25
G1 X73.25
G1 Y228.75
G1 X54.75
G1 F300.0 Z-5.0
G1 F800.0 Y233.25
G1 X73.25
G1 Y228.75
G1 X54.75
G1 F300.0 Z-6.0
G1 F800.0 Y233.25
G1 X73.25
G1 Y228.75
G1 X54.75
G0 Z3.0
G0 X90.75 Y213.25
G1 F300.0 Z-1.0
G1 F800.0 X104.25
G1 Y199.75
G1 X90.75
G1 Y213.25
G1 F300.0 Z-2.0
G1 F800.0 X104.25
G1 Y199.75
G1 X90.75
G1 Y213.25
G1 F300.0 Z-3.0
G1 F800.0 X104.25
G1 Y199.75
G1 X90.75
G1 Y213.25
G1 F300.0 Z-4.0
G1 F800.0 X104.25
G1 Y199.75
G1 X90.75
G1 Y213.25
G1 F300.0 Z-5.0
G1 F800.0 X104.25
G1 Y199.75
G1 X90.75
G1 Y213.25
G1 F300.0 Z-6.0
G1 F800.0 X104.25
G1 Y199.75
G1 X90.75
G1 Y213.25
G0 Z3.0
G0 X71.75 Y188.25
G1 F300.0 Z-1.0
G1 F800.0 Y183.75
G1 X53.25
G1 Y188.25
G1 X71.75
G1 F300.0 Z-2.0
G1 F800.0 Y183.75
G1 X53.25
G1 Y188.25
G1 X71.75
G1 F300.0 Z-3.0
G1 F800.0 Y183.75
G1 X53.25
G1 Y188.25
G1 X71.75
G1 F300.0 Z-4.0
G1 F800.0 Y183.75
G1 X53.25
G1 Y188.25
G1 X71.75
G1 F300.0 Z-5.0
G1 F800.0 Y183.75
G1 X53.25
G1 Y188.25
G1 X71.75
G1 F300.0 Z-6.0
G1 F800.0 Y183.75
G1 X53.25
G1 Y188.25
G1 X71.75
G0 Z3.0
G0 X47.25 Y124.25
G1 F300.0 Z-1.0
G1 F800.0 Y119.75
G1 X28.75
G1 Y124.25
G1 X47.25
G1 F300.0 Z-2.0
G1 F800.0 Y119.75
G1 X28.75
G1 Y124.25
G1 X47.25
G1 F300.0 Z-3.0
G1 F800.0 Y119.75
G1 X28.75
G1 Y124.25
G1 X47.25
G1 F300.0 Z-4.0
G1 F800.0 Y119.75
G1 X28.75
G1 Y124.25
G1 X47.25
G1 F300.0 Z-5.0
G1 F800.0 Y119.75
G1 X28.75
G1 Y124.25
G1 X47.25
G1 F300.0 Z-6.0
G1 F800.0 Y119.75
G1 X28.75
G1 Y124.25
G1 X47.25
G0 Z3.0
G0 X69.25 Y85.25
G1 F300.0 Z-1.0
G1 F800.0 X97.75
G1 Y66.75
G1 X69.25
G1 Y85.25
G1 F300.0 Z-2.0
G1 F800.0 X97.75
G1 Y66.75
G1 X69.25
G1 Y85.25
G1 F300.0 Z-3.0
G1 F800.0 X97.75
G1 Y66.75
G1 X69.25
G1 Y85.25
G1 F300.0 Z-4.0
G1 F800.0 X97.75
G1 Y66.75
G1 X69.25
G1 Y85.25
G1 F300.0 Z-5.0
G1 F800.0 X97.75
G1 Y66.75
G1 X69.25
G1 Y85.25
G1 F300.0 Z-6.0
G1 F800.0 X97.75
G1 Y66.75
G1 X69.25
G1 Y85.25
( Contour4 )
S1000
G0 Z3.0
G0 X19.25 Y254.75
G1 F300.0 Z-1.0
G1 F800.0 X10.0
G3 X9.25 Y254.0 I0.0 J-0.75
G1 Y10.0
G3 X10.0 Y9.25 I0.75 J0.0
G1 X20.0
G3 X20.75 Y10.0 I0.0 J0.75
G1 Y27.25
G1 X40.0
G3 X40.75 Y28.0 I0.0 J0.75
G1 Y40.25
G1 X79.25
G1 Y16.0
G3 X80.0 Y15.25 I0.75 J0.0
G1 X94.25
G1 Y10.0
G3 X95.0 Y9.25 I0.75 J0.0
G1 X115.0
G3 X115.75 Y10.0 I0.0 J0.75
G1 Y15.25
G1 X129.0
G3 X129.75 Y16.0 I0.0 J0.75
G1 Y119.0
G3 X129.0 Y119.75 I-0.75 J0.0
G1 X119.75
G1 Y124.25
G1 X129.0
G3 X129.75 Y125.0 I0.0 J0.75
G1 Y254.0
G3 X129.0 Y254.75 I-0.75 J0.0
G1 X115.75
G1 Y260.0
G3 X115.0 Y260.75 I-0.75 J0.0
G1 X95.0
G3 X94.25 Y260.0 I0.0 J-0.75
G1 Y254.75
G1 X40.75
G1 Y260.0
G3 X40.0 Y260.75 I-0.75 J0.0
G1 X20.0
G3 X19.25 Y260.0 I0.0 J-0.75
G1 Y254.75
G1 F300.0 Z-2.0
G1 F800.0 X10.0
G3 X9.25 Y254.0 I0.0 J-0.75
G1 Y10.0
G3 X10.0 Y9.25 I0.75 J0.0
G1 X20.0
G3 X20.75 Y10.0 I0.0 J0.75
G1 Y27.25
G1 X40.0
G3 X40.75 Y28.0 I0.0 J0.75
G1 Y40.25
G1 X79.25
G1 Y16.0
G3 X80.0 Y15.25 I0.75 J0.0
G1 X94.25
G1 Y10.0
G3 X95.0 Y9.25 I0.75 J0.0
G1 X115.0
G3 X115.75 Y10.0 I0.0 J0.75
G1 Y15.25
G1 X129.0
G3 X129.75 Y16.0 I0.0 J0.75
G1 Y119.0
G3 X129.0 Y119.75 I-0.75 J0.0
G1 X119.75
G1 Y124.25
G1 X129.0
G3 X129.75 Y125.0 I0.0 J0.75
G1 Y254.0
G3 X129.0 Y254.75 I-0.75 J0.0
G1 X115.75
G1 Y260.0
G3 X115.0 Y260.75 I-0.75 J0.0
G1 X95.0
G3 X94.25 Y260.0 I0.0 J-0.75
G1 Y254.75
G1 X40.75
G1 Y260.0
G3 X40.0 Y260.75 I-0.75 J0.0
G1 X20.0
G3 X19.25 Y260.0 I0.0 J-0.75
G1 Y254.75
G1 F300.0 Z-3.0
G1 F800.0 X10.0
G3 X9.25 Y254.0 I0.0 J-0.75
G1 Y10.0
G3 X10.0 Y9.25 I0.75 J0.0
G1 X20.0
G3 X20.75 Y10.0 I0.0 J0.75
G1 Y27.25
G1 X40.0
G3 X40.75 Y28.0 I0.0 J0.75
G1 Y40.25
G1 X79.25
G1 Y16.0
G3 X80.0 Y15.25 I0.75 J0.0
G1 X94.25
G1 Y10.0
G3 X95.0 Y9.25 I0.75 J0.0
G1 X115.0
G3 X115.75 Y10.0 I0.0 J0.75
G1 Y15.25
G1 X129.0
G3 X129.75 Y16.0 I0.0 J0.75
G1 Y119.0
G3 X129.0 Y119.75 I-0.75 J0.0
G1 X119.75
G1 Y124.25
G1 X129.0
G3 X129.75 Y125.0 I0.0 J0.75
G1 Y254.0
G3 X129.0 Y254.75 I-0.75 J0.0
G1 X115.75
G1 Y260.0
G3 X115.0 Y260.75 I-0.75 J0.0
G1 X95.0
G3 X94.25 Y260.0 I0.0 J-0.75
G1 Y254.75
G1 X40.75
G1 Y260.0
G3 X40.0 Y260.75 I-0.75 J0.0
G1 X20.0
G3 X19.25 Y260.0 I0.0 J-0.75
G1 Y254.75
G1 F300.0 Z-4.0
G1 F800.0 X10.0
G3 X9.25 Y254.0 I0.0 J-0.75
G1 Y10.0
G3 X10.0 Y9.25 I0.75 J0.0
G1 X20.0
G3 X20.75 Y10.0 I0.0 J0.75
G1 Y27.25
G1 X40.0
G3 X40.75 Y28.0 I0.0 J0.75
G1 Y40.25
G1 X79.25
G1 Y16.0
G3 X80.0 Y15.25 I0.75 J0.0
G1 X94.25
G1 Y10.0
G3 X95.0 Y9.25 I0.75 J0.0
G1 X115.0
G3 X115.75 Y10.0 I0.0 J0.75
G1 Y15.25
G1 X129.0
G3 X129.75 Y16.0 I0.0 J0.75
G1 Y119.0
G3 X129.0 Y119.75 I-0.75 J0.0
G1 X119.75
G1 Y124.25
G1 X129.0
G3 X129.75 Y125.0 I0.0 J0.75
G1 Y254.0
G3 X129.0 Y254.75 I-0.75 J0.0
G1 X115.75
G1 Y260.0
G3 X115.0 Y260.75 I-0.75 J0.0
G1 X95.0
G3 X94.25 Y260.0 I0.0 J-0.75
G1 Y254.75
G1 X40.75
G1 Y260.0
G3 X40.0 Y260.75 I-0.75 J0.0
G1 X20.0
G3 X19.25 Y260.0 I0.0 J-0.75
G1 Y254.75
G1 F300.0 Z-5.0
G1 F800.0 X10.0
G3 X9.25 Y254.0 I0.0 J-0.75
G1 Y232.25
G0 Z-4.0
G1 Y225.75
G1 F300.0 Z-5.0
G1 F800.0 Y26.25
G0 Z-4.0
G1 Y19.75
G1 F300.0 Z-5.0
G1 F800.0 Y10.0
G3 X10.0 Y9.25 I0.75 J0.0
G1 X20.0
G3 X20.75 Y10.0 I0.0 J0.75
G1 Y27.25
G1 X40.0
G3 X40.75 Y28.0 I0.0 J0.75
G1 Y40.25
G1 X59.75
G0 Z-4.0
G1 X66.25
G1 F300.0 Z-5.0
G1 F800.0 X79.25
G1 Y16.0
G3 X80.0 Y15.25 I0.75 J0.0
G1 X94.25
G1 Y10.0
G3 X95.0 Y9.25 I0.75 J0.0
G1 X115.0
G3 X115.75 Y10.0 I0.0 J0.75
G1 Y15.25
G1 X129.0
G3 X129.75 Y16.0 I0.0 J0.75
G1 Y64.75
G0 Z-4.0
G1 Y71.25
G1 F300.0 Z-5.0
G1 F800.0 Y119.0
G3 X129.0 Y119.75 I-0.75 J0.0
G1 X119.75
G1 Y124.25
G1 X129.0
G3 X129.75 Y125.0 I0.0 J0.75
G1 Y186.75
G0 Z-4.0
G1 Y193.25
G1 F300.0 Z-5.0
G1 F800.0 Y254.0
G3 X129.0 Y254.75 I-0.75 J0.0
G1 X115.75
G1 Y260.0
G3 X115.0 Y260.75 I-0.75 J0.0
G1 X95.0
G3 X94.25 Y260.0 I0.0 J-0.75
G1 Y254.75
G1 X66.25
G0 Z-4.0
G1 X59.75
G1 F300.0 Z-5.0
G1 F800.0 X40.75
G1 Y260.0
G3 X40.0 Y260.75 I-0.75 J0.0
G1 X20.0
G3 X19.25 Y260.0 I0.0 J-0.75
G1 Y254.75
G1 F300.0 Z-6.0
G1 F800.0 X10.0
G3 X9.25 Y254.0 I0.0 J-0.75
G1 Y232.25
G0 Z-4.0
G1 Y225.75
G1 F300.0 Z-6.0
G1 F800.0 Y26.25
G0 Z-4.0
G1 Y19.75
G1 F300.0 Z-6.0
G1 F800.0 Y10.0
G3 X10.0 Y9.25 I0.75 J0.0
G1 X20.0
G3 X20.75 Y10.0 I0.0 J0.75
G1 Y27.25
G1 X40.0
G3 X40.75 Y28.0 I0.0 J0.75
G1 Y40.25
G1 X59.75
G0 Z-4.0
G1 X66.25
G1 F300.0 Z-6.0
G1 F800.0 X79.25
G1 Y16.0
G3 X80.0 Y15.25 I0.75 J0.0
G1 X94.25
G1 Y10.0
G3 X95.0 Y9.25 I0.75 J0.0
G1 X115.0
G3 X115.75 Y10.0 I0.0 J0.75
G1 Y15.25
G1 X129.0
G3 X129.75 Y16.0 I0.0 J0.75
G1 Y64.75
G0 Z-4.0
G1 Y71.25
G1 F300.0 Z-6.0
G1 F800.0 Y119.0
G3 X129.0 Y119.75 I-0.75 J0.0
G1 X119.75
G1 Y124.25
G1 X129.0
G3 X129.75 Y125.0 I0.0 J0.75
G1 Y186.75
G0 Z-4.0
G1 Y193.25
G1 F300.0 Z-6.0
G1 F800.0 Y254.0
G3 X129.0 Y254.75 I-0.75 J0.0
G1 X115.75
G1 Y260.0
G3 X115.0 Y260.75 I-0.75 J0.0
G1 X95.0
G3 X94.25 Y260.0 I0.0 J-0.75
G1 Y254.75
G1 X66.25
G0 Z-4.0
G1 X59.75
G1 F300.0 Z-6.0
G1 F800.0 X40.75
G1 Y260.0
G3 X40.0 Y260.75 I-0.75 J0.0
G1 X20.0
G3 X19.25 Y260.0 I0.0 J-0.75
G1 Y254.75
G0 Z3.0
M5
M30
