( Made using CamBam - http://www.cambam.co.uk )
( Renfort Pince vertical avec glissière face droite 1/28/2016 4:29:40 PM )
( T0 : 1.5 )
G21 G90 G64 G40
G0 Z3.0
( T0 : 1.5 )
T0 M6
( Contour1 )
G17
M3 S1000
G0 X18.425 Y219.5
G1 F300.0 Z-1.0
G2 F800.0 X17.7875 Y219.1319 I-0.425 J0.0
G2 Y219.8681 I0.2125 J0.3681
G2 X18.425 Y219.5 I0.2125 J-0.3681
G1 F300.0 Z-2.0
G2 F800.0 X17.7875 Y219.1319 I-0.425 J0.0
G2 Y219.8681 I0.2125 J0.3681
G2 X18.425 Y219.5 I0.2125 J-0.3681
G1 F300.0 Z-3.0
G2 F800.0 X17.7875 Y219.1319 I-0.425 J0.0
G2 Y219.8681 I0.2125 J0.3681
G2 X18.425 Y219.5 I0.2125 J-0.3681
G1 F300.0 Z-4.0
G2 F800.0 X17.7875 Y219.1319 I-0.425 J0.0
G2 Y219.8681 I0.2125 J0.3681
G2 X18.425 Y219.5 I0.2125 J-0.3681
G1 F300.0 Z-5.0
G2 F800.0 X17.7875 Y219.1319 I-0.425 J0.0
G2 Y219.8681 I0.2125 J0.3681
G2 X18.425 Y219.5 I0.2125 J-0.3681
G1 F300.0 Z-6.0
G2 F800.0 X17.7875 Y219.1319 I-0.425 J0.0
G2 Y219.8681 I0.2125 J0.3681
G2 X18.425 Y219.5 I0.2125 J-0.3681
G0 Z3.0
G0 X18.0113 Y235.0751
G1 F300.0 Z-1.0
G2 F800.0 X17.7875 Y235.1319 I-0.0113 J0.4249
G2 Y235.8681 I0.2125 J0.3681
G2 X18.425 Y235.5 I0.2125 J-0.3681
G2 X18.0113 Y235.0751 I-0.425 J0.0
G1 F300.0 Z-2.0
G2 F800.0 X17.7875 Y235.1319 I-0.0113 J0.4249
G2 Y235.8681 I0.2125 J0.3681
G2 X18.425 Y235.5 I0.2125 J-0.3681
G2 X18.0113 Y235.0751 I-0.425 J0.0
G1 F300.0 Z-3.0
G2 F800.0 X17.7875 Y235.1319 I-0.0113 J0.4249
G2 Y235.8681 I0.2125 J0.3681
G2 X18.425 Y235.5 I0.2125 J-0.3681
G2 X18.0113 Y235.0751 I-0.425 J0.0
G1 F300.0 Z-4.0
G2 F800.0 X17.7875 Y235.1319 I-0.0113 J0.4249
G2 Y235.8681 I0.2125 J0.3681
G2 X18.425 Y235.5 I0.2125 J-0.3681
G2 X18.0113 Y235.0751 I-0.425 J0.0
G1 F300.0 Z-5.0
G2 F800.0 X17.7875 Y235.1319 I-0.0113 J0.4249
G2 Y235.8681 I0.2125 J0.3681
G2 X18.425 Y235.5 I0.2125 J-0.3681
G2 X18.0113 Y235.0751 I-0.425 J0.0
G1 F300.0 Z-6.0
G2 F800.0 X17.7875 Y235.1319 I-0.0113 J0.4249
G2 Y235.8681 I0.2125 J0.3681
G2 X18.425 Y235.5 I0.2125 J-0.3681
G2 X18.0113 Y235.0751 I-0.425 J0.0
G0 Z3.0
G0 X33.5581 Y256.394
G1 F300.0 Z-1.0
G2 F800.0 X33.625 Y257.6495 I0.4419 J0.606
G2 X34.75 Y257.0 I0.375 J-0.6495
G2 X33.625 Y256.3505 I-0.75 J0.0
G2 X33.5581 Y256.394 I0.375 J0.6495
G1 F300.0 Z-2.0
G2 F800.0 X33.625 Y257.6495 I0.4419 J0.606
G2 X34.75 Y257.0 I0.375 J-0.6495
G2 X33.625 Y256.3505 I-0.75 J0.0
G2 X33.5581 Y256.394 I0.375 J0.6495
G1 F300.0 Z-3.0
G2 F800.0 X33.625 Y257.6495 I0.4419 J0.606
G2 X34.75 Y257.0 I0.375 J-0.6495
G2 X33.625 Y256.3505 I-0.75 J0.0
G2 X33.5581 Y256.394 I0.375 J0.6495
G1 F300.0 Z-4.0
G2 F800.0 X33.625 Y257.6495 I0.4419 J0.606
G2 X34.75 Y257.0 I0.375 J-0.6495
G2 X33.625 Y256.3505 I-0.75 J0.0
G2 X33.5581 Y256.394 I0.375 J0.6495
G1 F300.0 Z-5.0
G2 F800.0 X33.625 Y257.6495 I0.4419 J0.606
G2 X34.75 Y257.0 I0.375 J-0.6495
G2 X33.625 Y256.3505 I-0.75 J0.0
G2 X33.5581 Y256.394 I0.375 J0.6495
G1 F300.0 Z-6.0
G2 F800.0 X33.625 Y257.6495 I0.4419 J0.606
G2 X34.75 Y257.0 I0.375 J-0.6495
G2 X33.625 Y256.3505 I-0.75 J0.0
G2 X33.5581 Y256.394 I0.375 J0.6495
G0 Z3.0
G0 X108.25 Y256.994
G1 F300.0 Z-1.0
G2 F800.0 X108.625 Y257.6495 I0.75 J0.006
G2 X109.75 Y257.0 I0.375 J-0.6495
G2 X108.625 Y256.3505 I-0.75 J0.0
G2 X108.25 Y256.994 I0.375 J0.6495
G1 F300.0 Z-2.0
G2 F800.0 X108.625 Y257.6495 I0.75 J0.006
G2 X109.75 Y257.0 I0.375 J-0.6495
G2 X108.625 Y256.3505 I-0.75 J0.0
G2 X108.25 Y256.994 I0.375 J0.6495
G1 F300.0 Z-3.0
G2 F800.0 X108.625 Y257.6495 I0.75 J0.006
G2 X109.75 Y257.0 I0.375 J-0.6495
G2 X108.625 Y256.3505 I-0.75 J0.0
G2 X108.25 Y256.994 I0.375 J0.6495
G1 F300.0 Z-4.0
G2 F800.0 X108.625 Y257.6495 I0.75 J0.006
G2 X109.75 Y257.0 I0.375 J-0.6495
G2 X108.625 Y256.3505 I-0.75 J0.0
G2 X108.25 Y256.994 I0.375 J0.6495
G1 F300.0 Z-5.0
G2 F800.0 X108.625 Y257.6495 I0.75 J0.006
G2 X109.75 Y257.0 I0.375 J-0.6495
G2 X108.625 Y256.3505 I-0.75 J0.0
G2 X108.25 Y256.994 I0.375 J0.6495
G1 F300.0 Z-6.0
G2 F800.0 X108.625 Y257.6495 I0.75 J0.006
G2 X109.75 Y257.0 I0.375 J-0.6495
G2 X108.625 Y256.3505 I-0.75 J0.0
G2 X108.25 Y256.994 I0.375 J0.6495
G0 Z3.0
G0 X101.0694 Y179.7468
G1 F300.0 Z-1.0
G2 F800.0 X101.75 Y179.0 I-0.0694 J-0.7468
G2 X100.625 Y178.3505 I-0.75 J0.0
G2 Y179.6495 I0.375 J0.6495
G2 X101.0694 Y179.7468 I0.375 J-0.6495
G1 F300.0 Z-2.0
G2 F800.0 X101.75 Y179.0 I-0.0694 J-0.7468
G2 X100.625 Y178.3505 I-0.75 J0.0
G2 Y179.6495 I0.375 J0.6495
G2 X101.0694 Y179.7468 I0.375 J-0.6495
G1 F300.0 Z-3.0
G2 F800.0 X101.75 Y179.0 I-0.0694 J-0.7468
G2 X100.625 Y178.3505 I-0.75 J0.0
G2 Y179.6495 I0.375 J0.6495
G2 X101.0694 Y179.7468 I0.375 J-0.6495
G1 F300.0 Z-4.0
G2 F800.0 X101.75 Y179.0 I-0.0694 J-0.7468
G2 X100.625 Y178.3505 I-0.75 J0.0
G2 Y179.6495 I0.375 J0.6495
G2 X101.0694 Y179.7468 I0.375 J-0.6495
G1 F300.0 Z-5.0
G2 F800.0 X101.75 Y179.0 I-0.0694 J-0.7468
G2 X100.625 Y178.3505 I-0.75 J0.0
G2 Y179.6495 I0.375 J0.6495
G2 X101.0694 Y179.7468 I0.375 J-0.6495
G1 F300.0 Z-6.0
G2 F800.0 X101.75 Y179.0 I-0.0694 J-0.7468
G2 X100.625 Y178.3505 I-0.75 J0.0
G2 Y179.6495 I0.375 J0.6495
G2 X101.0694 Y179.7468 I0.375 J-0.6495
G0 Z3.0
G0 X62.2408 Y185.8829
G1 F300.0 Z-1.0
G2 F800.0 X61.125 Y185.3505 I-0.7408 J0.1171
G2 Y186.6495 I0.375 J0.6495
G2 X62.25 Y186.0 I0.375 J-0.6495
G2 X62.2408 Y185.8829 I-0.75 J0.0
G1 F300.0 Z-2.0
G2 F800.0 X61.125 Y185.3505 I-0.7408 J0.1171
G2 Y186.6495 I0.375 J0.6495
G2 X62.25 Y186.0 I0.375 J-0.6495
G2 X62.2408 Y185.8829 I-0.75 J0.0
G1 F300.0 Z-3.0
G2 F800.0 X61.125 Y185.3505 I-0.7408 J0.1171
G2 Y186.6495 I0.375 J0.6495
G2 X62.25 Y186.0 I0.375 J-0.6495
G2 X62.2408 Y185.8829 I-0.75 J0.0
G1 F300.0 Z-4.0
G2 F800.0 X61.125 Y185.3505 I-0.7408 J0.1171
G2 Y186.6495 I0.375 J0.6495
G2 X62.25 Y186.0 I0.375 J-0.6495
G2 X62.2408 Y185.8829 I-0.75 J0.0
G1 F300.0 Z-5.0
G2 F800.0 X61.125 Y185.3505 I-0.7408 J0.1171
G2 Y186.6495 I0.375 J0.6495
G2 X62.25 Y186.0 I0.375 J-0.6495
G2 X62.2408 Y185.8829 I-0.75 J0.0
G1 F300.0 Z-6.0
G2 F800.0 X61.125 Y185.3505 I-0.7408 J0.1171
G2 Y186.6495 I0.375 J0.6495
G2 X62.25 Y186.0 I0.375 J-0.6495
G2 X62.2408 Y185.8829 I-0.75 J0.0
G0 Z3.0
G0 X85.7386 Y122.703
G1 F300.0 Z-1.0
G2 F800.0 X86.75 Y122.0 I0.2614 J-0.703
G2 X85.625 Y121.3505 I-0.75 J0.0
G2 Y122.6495 I0.375 J0.6495
G2 X85.7386 Y122.703 I0.375 J-0.6495
G1 F300.0 Z-2.0
G2 F800.0 X86.75 Y122.0 I0.2614 J-0.703
G2 X85.625 Y121.3505 I-0.75 J0.0
G2 Y122.6495 I0.375 J0.6495
G2 X85.7386 Y122.703 I0.375 J-0.6495
G1 F300.0 Z-3.0
G2 F800.0 X86.75 Y122.0 I0.2614 J-0.703
G2 X85.625 Y121.3505 I-0.75 J0.0
G2 Y122.6495 I0.375 J0.6495
G2 X85.7386 Y122.703 I0.375 J-0.6495
G1 F300.0 Z-4.0
G2 F800.0 X86.75 Y122.0 I0.2614 J-0.703
G2 X85.625 Y121.3505 I-0.75 J0.0
G2 Y122.6495 I0.375 J0.6495
G2 X85.7386 Y122.703 I0.375 J-0.6495
G1 F300.0 Z-5.0
G2 F800.0 X86.75 Y122.0 I0.2614 J-0.703
G2 X85.625 Y121.3505 I-0.75 J0.0
G2 Y122.6495 I0.375 J0.6495
G2 X85.7386 Y122.703 I0.375 J-0.6495
G1 F300.0 Z-6.0
G2 F800.0 X86.75 Y122.0 I0.2614 J-0.703
G2 X85.625 Y121.3505 I-0.75 J0.0
G2 Y122.6495 I0.375 J0.6495
G2 X85.7386 Y122.703 I0.375 J-0.6495
G0 Z3.0
G0 X25.7499 Y122.0087
G1 F300.0 Z-1.0
G2 F800.0 X25.75 Y122.0 I-0.7499 J-0.0087
G2 X24.625 Y121.3505 I-0.75 J0.0
G2 Y122.6495 I0.375 J0.6495
G2 X25.7499 Y122.0087 I0.375 J-0.6495
G1 F300.0 Z-2.0
G2 F800.0 X25.75 Y122.0 I-0.7499 J-0.0087
G2 X24.625 Y121.3505 I-0.75 J0.0
G2 Y122.6495 I0.375 J0.6495
G2 X25.7499 Y122.0087 I0.375 J-0.6495
G1 F300.0 Z-3.0
G2 F800.0 X25.75 Y122.0 I-0.7499 J-0.0087
G2 X24.625 Y121.3505 I-0.75 J0.0
G2 Y122.6495 I0.375 J0.6495
G2 X25.7499 Y122.0087 I0.375 J-0.6495
G1 F300.0 Z-4.0
G2 F800.0 X25.75 Y122.0 I-0.7499 J-0.0087
G2 X24.625 Y121.3505 I-0.75 J0.0
G2 Y122.6495 I0.375 J0.6495
G2 X25.7499 Y122.0087 I0.375 J-0.6495
G1 F300.0 Z-5.0
G2 F800.0 X25.75 Y122.0 I-0.7499 J-0.0087
G2 X24.625 Y121.3505 I-0.75 J0.0
G2 Y122.6495 I0.375 J0.6495
G2 X25.7499 Y122.0087 I0.375 J-0.6495
G1 F300.0 Z-6.0
G2 F800.0 X25.75 Y122.0 I-0.7499 J-0.0087
G2 X24.625 Y121.3505 I-0.75 J0.0
G2 Y122.6495 I0.375 J0.6495
G2 X25.7499 Y122.0087 I0.375 J-0.6495
G0 Z3.0
G0 X100.4545 Y51.5147
G1 F300.0 Z-1.0
G2 F800.0 X100.625 Y51.6495 I0.5455 J-0.5147
G2 X101.75 Y51.0 I0.375 J-0.6495
G2 X100.625 Y50.3505 I-0.75 J0.0
G2 X100.4545 Y51.5147 I0.375 J0.6495
G1 F300.0 Z-2.0
G2 F800.0 X100.625 Y51.6495 I0.5455 J-0.5147
G2 X101.75 Y51.0 I0.375 J-0.6495
G2 X100.625 Y50.3505 I-0.75 J0.0
G2 X100.4545 Y51.5147 I0.375 J0.6495
G1 F300.0 Z-3.0
G2 F800.0 X100.625 Y51.6495 I0.5455 J-0.5147
G2 X101.75 Y51.0 I0.375 J-0.6495
G2 X100.625 Y50.3505 I-0.75 J0.0
G2 X100.4545 Y51.5147 I0.375 J0.6495
G1 F300.0 Z-4.0
G2 F800.0 X100.625 Y51.6495 I0.5455 J-0.5147
G2 X101.75 Y51.0 I0.375 J-0.6495
G2 X100.625 Y50.3505 I-0.75 J0.0
G2 X100.4545 Y51.5147 I0.375 J0.6495
G1 F300.0 Z-5.0
G2 F800.0 X100.625 Y51.6495 I0.5455 J-0.5147
G2 X101.75 Y51.0 I0.375 J-0.6495
G2 X100.625 Y50.3505 I-0.75 J0.0
G2 X100.4545 Y51.5147 I0.375 J0.6495
G1 F300.0 Z-6.0
G2 F800.0 X100.625 Y51.6495 I0.5455 J-0.5147
G2 X101.75 Y51.0 I0.375 J-0.6495
G2 X100.625 Y50.3505 I-0.75 J0.0
G2 X100.4545 Y51.5147 I0.375 J0.6495
( Contour2 )
S1000
G0 Z3.0
G0 X27.25 Y122.0
G1 F300.0 Z-1.0
G3 F800.0 X23.875 Y123.9486 I-2.25 J0.0
G3 Y120.0514 I1.125 J-1.9486
G3 X27.25 Y122.0 I1.125 J1.9486
G1 F300.0 Z-2.0
G3 F800.0 X23.875 Y123.9486 I-2.25 J0.0
G3 Y120.0514 I1.125 J-1.9486
G3 X27.25 Y122.0 I1.125 J1.9486
G1 F300.0 Z-3.0
G3 F800.0 X23.875 Y123.9486 I-2.25 J0.0
G3 Y120.0514 I1.125 J-1.9486
G3 X27.25 Y122.0 I1.125 J1.9486
G0 Z3.0
G0 X83.75
G1 F300.0 Z-1.0
G3 F800.0 X84.875 Y120.0514 I2.25 J0.0
G3 X88.25 Y122.0 I1.125 J1.9486
G3 X84.875 Y123.9486 I-2.25 J0.0
G3 X83.75 Y122.0 I1.125 J-1.9486
G1 F300.0 Z-2.0
G3 F800.0 X84.875 Y120.0514 I2.25 J0.0
G3 X88.25 Y122.0 I1.125 J1.9486
G3 X84.875 Y123.9486 I-2.25 J0.0
G3 X83.75 Y122.0 I1.125 J-1.9486
G1 F300.0 Z-3.0
G3 F800.0 X84.875 Y120.0514 I2.25 J0.0
G3 X88.25 Y122.0 I1.125 J1.9486
G3 X84.875 Y123.9486 I-2.25 J0.0
G3 X83.75 Y122.0 I1.125 J-1.9486
G0 Z3.0
G0 X108.5863 Y254.7884
G1 F300.0 Z-1.0
G3 F800.0 X111.25 Y257.0 I0.4137 J2.2116
G3 X107.875 Y258.9486 I-2.25 J0.0
G3 Y255.0514 I1.125 J-1.9486
G3 X108.5863 Y254.7884 I1.125 J1.9486
G1 F300.0 Z-2.0
G3 F800.0 X111.25 Y257.0 I0.4137 J2.2116
G3 X107.875 Y258.9486 I-2.25 J0.0
G3 Y255.0514 I1.125 J-1.9486
G3 X108.5863 Y254.7884 I1.125 J1.9486
G1 F300.0 Z-3.0
G3 F800.0 X111.25 Y257.0 I0.4137 J2.2116
G3 X107.875 Y258.9486 I-2.25 J0.0
G3 Y255.0514 I1.125 J-1.9486
G3 X108.5863 Y254.7884 I1.125 J1.9486
G0 Z3.0
G0 X36.249 Y256.9333
G1 F300.0 Z-1.0
G3 F800.0 X36.25 Y257.0 I-2.249 J0.0667
G3 X32.875 Y258.9486 I-2.25 J0.0
G3 Y255.0514 I1.125 J-1.9486
G3 X36.249 Y256.9333 I1.125 J1.9486
G1 F300.0 Z-2.0
G3 F800.0 X36.25 Y257.0 I-2.249 J0.0667
G3 X32.875 Y258.9486 I-2.25 J0.0
G3 Y255.0514 I1.125 J-1.9486
G3 X36.249 Y256.9333 I1.125 J1.9486
G1 F300.0 Z-3.0
G3 F800.0 X36.25 Y257.0 I-2.249 J0.0667
G3 X32.875 Y258.9486 I-2.25 J0.0
G3 Y255.0514 I1.125 J-1.9486
G3 X36.249 Y256.9333 I1.125 J1.9486
( Contour3 )
S1000
G0 Z3.0
G0 X85.75 Y183.75
G1 F300.0 Z-1.0
G1 F800.0 X67.25
G1 Y188.25
G1 X85.75
G1 Y183.75
G1 F300.0 Z-2.0
G1 F800.0 X67.25
G1 Y188.25
G1 X85.75
G1 Y183.75
G1 F300.0 Z-3.0
G1 F800.0 X67.25
G1 Y188.25
G1 X85.75
G1 Y183.75
G1 F300.0 Z-4.0
G1 F800.0 X67.25
G1 Y188.25
G1 X85.75
G1 Y183.75
G1 F300.0 Z-5.0
G1 F800.0 X67.25
G1 Y188.25
G1 X85.75
G1 Y183.75
G1 F300.0 Z-6.0
G1 F800.0 X67.25
G1 Y188.25
G1 X85.75
G1 Y183.75
G0 Z3.0
G0 X91.75 Y124.25
G1 F300.0 Z-1.0
G1 F800.0 X110.25
G1 Y119.75
G1 X91.75
G1 Y124.25
G1 F300.0 Z-2.0
G1 F800.0 X110.25
G1 Y119.75
G1 X91.75
G1 Y124.25
G1 F300.0 Z-3.0
G1 F800.0 X110.25
G1 Y119.75
G1 X91.75
G1 Y124.25
G1 F300.0 Z-4.0
G1 F800.0 X110.25
G1 Y119.75
G1 X91.75
G1 Y124.25
G1 F300.0 Z-5.0
G1 F800.0 X110.25
G1 Y119.75
G1 X91.75
G1 Y124.25
G1 F300.0 Z-6.0
G1 F800.0 X110.25
G1 Y119.75
G1 X91.75
G1 Y124.25
( Contour4 )
S1000
G0 Z3.0
G0 X19.25
G1 F300.0 Z-1.0
G1 F800.0 Y119.75
G1 X10.0
G3 X9.25 Y119.0 I0.0 J-0.75
G1 Y16.0
G3 X10.0 Y15.25 I0.75 J0.0
G1 X23.25
G1 Y10.0
G3 X24.0 Y9.25 I0.75 J0.0
G1 X44.0
G3 X44.75 Y10.0 I0.0 J0.75
G1 Y15.25
G1 X59.0
G3 X59.75 Y16.0 I0.0 J0.75
G1 Y40.25
G1 X98.25
G1 Y28.0
G3 X99.0 Y27.25 I0.75 J0.0
G1 X118.25
G1 Y10.0
G3 X119.0 Y9.25 I0.75 J0.0
G1 X129.0
G3 X129.75 Y10.0 I0.0 J0.75
G1 Y254.0
G3 X129.0 Y254.75 I-0.75 J0.0
G1 X119.75
G1 Y260.0
G3 X119.0 Y260.75 I-0.75 J0.0
G1 X99.0
G3 X98.25 Y260.0 I0.0 J-0.75
G1 Y254.75
G1 X44.75
G1 Y260.0
G3 X44.0 Y260.75 I-0.75 J0.0
G1 X24.0
G3 X23.25 Y260.0 I0.0 J-0.75
G1 Y254.75
G1 X10.0
G3 X9.25 Y254.0 I0.0 J-0.75
G1 Y125.0
G3 X10.0 Y124.25 I0.75 J0.0
G1 X19.25
G1 F300.0 Z-2.0
G1 F800.0 Y119.75
G1 X10.0
G3 X9.25 Y119.0 I0.0 J-0.75
G1 Y16.0
G3 X10.0 Y15.25 I0.75 J0.0
G1 X23.25
G1 Y10.0
G3 X24.0 Y9.25 I0.75 J0.0
G1 X44.0
G3 X44.75 Y10.0 I0.0 J0.75
G1 Y15.25
G1 X59.0
G3 X59.75 Y16.0 I0.0 J0.75
G1 Y40.25
G1 X98.25
G1 Y28.0
G3 X99.0 Y27.25 I0.75 J0.0
G1 X118.25
G1 Y10.0
G3 X119.0 Y9.25 I0.75 J0.0
G1 X129.0
G3 X129.75 Y10.0 I0.0 J0.75
G1 Y254.0
G3 X129.0 Y254.75 I-0.75 J0.0
G1 X119.75
G1 Y260.0
G3 X119.0 Y260.75 I-0.75 J0.0
G1 X99.0
G3 X98.25 Y260.0 I0.0 J-0.75
G1 Y254.75
G1 X44.75
G1 Y260.0
G3 X44.0 Y260.75 I-0.75 J0.0
G1 X24.0
G3 X23.25 Y260.0 I0.0 J-0.75
G1 Y254.75
G1 X10.0
G3 X9.25 Y254.0 I0.0 J-0.75
G1 Y125.0
G3 X10.0 Y124.25 I0.75 J0.0
G1 X19.25
G1 F300.0 Z-3.0
G1 F800.0 Y119.75
G1 X10.0
G3 X9.25 Y119.0 I0.0 J-0.75
G1 Y16.0
G3 X10.0 Y15.25 I0.75 J0.0
G1 X23.25
G1 Y10.0
G3 X24.0 Y9.25 I0.75 J0.0
G1 X44.0
G3 X44.75 Y10.0 I0.0 J0.75
G1 Y15.25
G1 X59.0
G3 X59.75 Y16.0 I0.0 J0.75
G1 Y40.25
G1 X98.25
G1 Y28.0
G3 X99.0 Y27.25 I0.75 J0.0
G1 X118.25
G1 Y10.0
G3 X119.0 Y9.25 I0.75 J0.0
G1 X129.0
G3 X129.75 Y10.0 I0.0 J0.75
G1 Y254.0
G3 X129.0 Y254.75 I-0.75 J0.0
G1 X119.75
G1 Y260.0
G3 X119.0 Y260.75 I-0.75 J0.0
G1 X99.0
G3 X98.25 Y260.0 I0.0 J-0.75
G1 Y254.75
G1 X44.75
G1 Y260.0
G3 X44.0 Y260.75 I-0.75 J0.0
G1 X24.0
G3 X23.25 Y260.0 I0.0 J-0.75
G1 Y254.75
G1 X10.0
G3 X9.25 Y254.0 I0.0 J-0.75
G1 Y125.0
G3 X10.0 Y124.25 I0.75 J0.0
G1 X19.25
G1 F300.0 Z-4.0
G1 F800.0 Y119.75
G1 X10.0
G3 X9.25 Y119.0 I0.0 J-0.75
G1 Y16.0
G3 X10.0 Y15.25 I0.75 J0.0
G1 X23.25
G1 Y10.0
G3 X24.0 Y9.25 I0.75 J0.0
G1 X44.0
G3 X44.75 Y10.0 I0.0 J0.75
G1 Y15.25
G1 X59.0
G3 X59.75 Y16.0 I0.0 J0.75
G1 Y40.25
G1 X98.25
G1 Y28.0
G3 X99.0 Y27.25 I0.75 J0.0
G1 X118.25
G1 Y10.0
G3 X119.0 Y9.25 I0.75 J0.0
G1 X129.0
G3 X129.75 Y10.0 I0.0 J0.75
G1 Y254.0
G3 X129.0 Y254.75 I-0.75 J0.0
G1 X119.75
G1 Y260.0
G3 X119.0 Y260.75 I-0.75 J0.0
G1 X99.0
G3 X98.25 Y260.0 I0.0 J-0.75
G1 Y254.75
G1 X44.75
G1 Y260.0
G3 X44.0 Y260.75 I-0.75 J0.0
G1 X24.0
G3 X23.25 Y260.0 I0.0 J-0.75
G1 Y254.75
G1 X10.0
G3 X9.25 Y254.0 I0.0 J-0.75
G1 Y125.0
G3 X10.0 Y124.25 I0.75 J0.0
G1 X19.25
G1 F300.0 Z-5.0
G1 F800.0 Y119.75
G1 X10.0
G3 X9.25 Y119.0 I0.0 J-0.75
G1 Y29.25
G0 Z-4.0
G1 Y22.75
G1 F300.0 Z-5.0
G1 F800.0 Y16.0
G3 X10.0 Y15.25 I0.75 J0.0
G1 X23.25
G1 Y10.0
G3 X24.0 Y9.25 I0.75 J0.0
G1 X44.0
G3 X44.75 Y10.0 I0.0 J0.75
G1 Y15.25
G1 X59.0
G3 X59.75 Y16.0 I0.0 J0.75
G1 Y40.25
G1 X66.75
G0 Z-4.0
G1 X73.25
G1 F300.0 Z-5.0
G1 F800.0 X98.25
G1 Y28.0
G3 X99.0 Y27.25 I0.75 J0.0
G1 X118.25
G1 Y10.0
G3 X119.0 Y9.25 I0.75 J0.0
G1 X129.0
G3 X129.75 Y10.0 I0.0 J0.75
G1 Y15.75
G0 Z-4.0
G1 Y22.25
G1 F300.0 Z-5.0
G1 F800.0 Y212.75
G0 Z-4.0
G1 Y219.25
G1 F300.0 Z-5.0
G1 F800.0 Y254.0
G3 X129.0 Y254.75 I-0.75 J0.0
G1 X119.75
G1 Y260.0
G3 X119.0 Y260.75 I-0.75 J0.0
G1 X99.0
G3 X98.25 Y260.0 I0.0 J-0.75
G1 Y254.75
G1 X71.25
G0 Z-4.0
G1 X64.75
G1 F300.0 Z-5.0
G1 F800.0 X44.75
G1 Y260.0
G3 X44.0 Y260.75 I-0.75 J0.0
G1 X24.0
G3 X23.25 Y260.0 I0.0 J-0.75
G1 Y254.75
G1 X10.0
G3 X9.25 Y254.0 I0.0 J-0.75
G1 Y148.25
G0 Z-4.0
G1 Y141.75
G1 F300.0 Z-5.0
G1 F800.0 Y125.0
G3 X10.0 Y124.25 I0.75 J0.0
G1 X19.25
G1 F300.0 Z-6.0
G1 F800.0 Y119.75
G1 X10.0
G3 X9.25 Y119.0 I0.0 J-0.75
G1 Y29.25
G0 Z-4.0
G1 Y22.75
G1 F300.0 Z-6.0
G1 F800.0 Y16.0
G3 X10.0 Y15.25 I0.75 J0.0
G1 X23.25
G1 Y10.0
G3 X24.0 Y9.25 I0.75 J0.0
G1 X44.0
G3 X44.75 Y10.0 I0.0 J0.75
G1 Y15.25
G1 X59.0
G3 X59.75 Y16.0 I0.0 J0.75
G1 Y40.25
G1 X66.75
G0 Z-4.0
G1 X73.25
G1 F300.0 Z-6.0
G1 F800.0 X98.25
G1 Y28.0
G3 X99.0 Y27.25 I0.75 J0.0
G1 X118.25
G1 Y10.0
G3 X119.0 Y9.25 I0.75 J0.0
G1 X129.0
G3 X129.75 Y10.0 I0.0 J0.75
G1 Y15.75
G0 Z-4.0
G1 Y22.25
G1 F300.0 Z-6.0
G1 F800.0 Y212.75
G0 Z-4.0
G1 Y219.25
G1 F300.0 Z-6.0
G1 F800.0 Y254.0
G3 X129.0 Y254.75 I-0.75 J0.0
G1 X119.75
G1 Y260.0
G3 X119.0 Y260.75 I-0.75 J0.0
G1 X99.0
G3 X98.25 Y260.0 I0.0 J-0.75
G1 Y254.75
G1 X71.25
G0 Z-4.0
G1 X64.75
G1 F300.0 Z-6.0
G1 F800.0 X44.75
G1 Y260.0
G3 X44.0 Y260.75 I-0.75 J0.0
G1 X24.0
G3 X23.25 Y260.0 I0.0 J-0.75
G1 Y254.75
G1 X10.0
G3 X9.25 Y254.0 I0.0 J-0.75
G1 Y148.25
G0 Z-4.0
G1 Y141.75
G1 F300.0 Z-6.0
G1 F800.0 Y125.0
G3 X10.0 Y124.25 I0.75 J0.0
G1 X19.25
G0 Z3.0
M5
M30
