( Made using CamBam - http://www.cambam.co.uk )
( coté tour r2 5/20/2017 10:41:34 PM )
( T0 : 2.0 )
G21 G90 G64 G40
G0 Z3.0
( T0 : 2.0 )
T0 M6
( Contour1 )
G17
M3 S1000
G0 X16.75 Y77.0
G1 F200.0 Z-1.0
G2 F500.0 X16.0 Y76.567 I-0.5 J0.0
G2 Y77.433 I0.25 J0.433
G2 X16.75 Y77.0 I0.25 J-0.433
G1 F200.0 Z-2.0
G2 F500.0 X16.0 Y76.567 I-0.5 J0.0
G2 Y77.433 I0.25 J0.433
G2 X16.75 Y77.0 I0.25 J-0.433
G1 F200.0 Z-3.0
G2 F500.0 X16.0 Y76.567 I-0.5 J0.0
G2 Y77.433 I0.25 J0.433
G2 X16.75 Y77.0 I0.25 J-0.433
G1 F200.0 Z-4.0
G2 F500.0 X16.0 Y76.567 I-0.5 J0.0
G2 Y77.433 I0.25 J0.433
G2 X16.75 Y77.0 I0.25 J-0.433
G1 F200.0 Z-5.0
G2 F500.0 X16.0 Y76.567 I-0.5 J0.0
G2 Y77.433 I0.25 J0.433
G2 X16.75 Y77.0 I0.25 J-0.433
G1 F200.0 Z-6.0
G2 F500.0 X16.0 Y76.567 I-0.5 J0.0
G2 Y77.433 I0.25 J0.433
G2 X16.75 Y77.0 I0.25 J-0.433
G0 Z3.0
G0 X63.25
G1 F200.0 Z-1.0
G2 F500.0 X63.5 Y77.433 I0.5 J0.0
G2 X64.25 Y77.0 I0.25 J-0.433
G2 X63.5 Y76.567 I-0.5 J0.0
G2 X63.25 Y77.0 I0.25 J0.433
G1 F200.0 Z-2.0
G2 F500.0 X63.5 Y77.433 I0.5 J0.0
G2 X64.25 Y77.0 I0.25 J-0.433
G2 X63.5 Y76.567 I-0.5 J0.0
G2 X63.25 Y77.0 I0.25 J0.433
G1 F200.0 Z-3.0
G2 F500.0 X63.5 Y77.433 I0.5 J0.0
G2 X64.25 Y77.0 I0.25 J-0.433
G2 X63.5 Y76.567 I-0.5 J0.0
G2 X63.25 Y77.0 I0.25 J0.433
G1 F200.0 Z-4.0
G2 F500.0 X63.5 Y77.433 I0.5 J0.0
G2 X64.25 Y77.0 I0.25 J-0.433
G2 X63.5 Y76.567 I-0.5 J0.0
G2 X63.25 Y77.0 I0.25 J0.433
G1 F200.0 Z-5.0
G2 F500.0 X63.5 Y77.433 I0.5 J0.0
G2 X64.25 Y77.0 I0.25 J-0.433
G2 X63.5 Y76.567 I-0.5 J0.0
G2 X63.25 Y77.0 I0.25 J0.433
G1 F200.0 Z-6.0
G2 F500.0 X63.5 Y77.433 I0.5 J0.0
G2 X64.25 Y77.0 I0.25 J-0.433
G2 X63.5 Y76.567 I-0.5 J0.0
G2 X63.25 Y77.0 I0.25 J0.433
G0 Z3.0
G0 X122.5069 Y86.9175
G1 F200.0 Z-1.0
G2 F500.0 X122.75 Y87.433 I0.4931 J0.0825
G2 X123.5 Y87.0 I0.25 J-0.433
G2 X122.75 Y86.567 I-0.5 J0.0
G2 X122.5069 Y86.9175 I0.25 J0.433
G1 F200.0 Z-2.0
G2 F500.0 X122.75 Y87.433 I0.4931 J0.0825
G2 X123.5 Y87.0 I0.25 J-0.433
G2 X122.75 Y86.567 I-0.5 J0.0
G2 X122.5069 Y86.9175 I0.25 J0.433
G1 F200.0 Z-3.0
G2 F500.0 X122.75 Y87.433 I0.4931 J0.0825
G2 X123.5 Y87.0 I0.25 J-0.433
G2 X122.75 Y86.567 I-0.5 J0.0
G2 X122.5069 Y86.9175 I0.25 J0.433
G1 F200.0 Z-4.0
G2 F500.0 X122.75 Y87.433 I0.4931 J0.0825
G2 X123.5 Y87.0 I0.25 J-0.433
G2 X122.75 Y86.567 I-0.5 J0.0
G2 X122.5069 Y86.9175 I0.25 J0.433
G1 F200.0 Z-5.0
G2 F500.0 X122.75 Y87.433 I0.4931 J0.0825
G2 X123.5 Y87.0 I0.25 J-0.433
G2 X122.75 Y86.567 I-0.5 J0.0
G2 X122.5069 Y86.9175 I0.25 J0.433
G1 F200.0 Z-6.0
G2 F500.0 X122.75 Y87.433 I0.4931 J0.0825
G2 X123.5 Y87.0 I0.25 J-0.433
G2 X122.75 Y86.567 I-0.5 J0.0
G2 X122.5069 Y86.9175 I0.25 J0.433
G0 Z3.0
G0 X207.5 Y86.9995
G1 F200.0 Z-1.0
G2 F500.0 X207.75 Y87.433 I0.5 J0.0005
G2 X208.5 Y87.0 I0.25 J-0.433
G2 X207.75 Y86.567 I-0.5 J0.0
G2 X207.5 Y86.9995 I0.25 J0.433
G1 F200.0 Z-2.0
G2 F500.0 X207.75 Y87.433 I0.5 J0.0005
G2 X208.5 Y87.0 I0.25 J-0.433
G2 X207.75 Y86.567 I-0.5 J0.0
G2 X207.5 Y86.9995 I0.25 J0.433
G1 F200.0 Z-3.0
G2 F500.0 X207.75 Y87.433 I0.5 J0.0005
G2 X208.5 Y87.0 I0.25 J-0.433
G2 X207.75 Y86.567 I-0.5 J0.0
G2 X207.5 Y86.9995 I0.25 J0.433
G1 F200.0 Z-4.0
G2 F500.0 X207.75 Y87.433 I0.5 J0.0005
G2 X208.5 Y87.0 I0.25 J-0.433
G2 X207.75 Y86.567 I-0.5 J0.0
G2 X207.5 Y86.9995 I0.25 J0.433
G1 F200.0 Z-5.0
G2 F500.0 X207.75 Y87.433 I0.5 J0.0005
G2 X208.5 Y87.0 I0.25 J-0.433
G2 X207.75 Y86.567 I-0.5 J0.0
G2 X207.5 Y86.9995 I0.25 J0.433
G1 F200.0 Z-6.0
G2 F500.0 X207.75 Y87.433 I0.5 J0.0005
G2 X208.5 Y87.0 I0.25 J-0.433
G2 X207.75 Y86.567 I-0.5 J0.0
G2 X207.5 Y86.9995 I0.25 J0.433
G0 Z3.0
G0 X64.1817 Y3.2523
G1 F200.0 Z-1.0
G2 F500.0 X64.25 Y3.0 I-0.4317 J-0.2523
G2 X63.5 Y2.567 I-0.5 J0.0
G2 Y3.433 I0.25 J0.433
G2 X64.1817 Y3.2523 I0.25 J-0.433
G1 F200.0 Z-2.0
G2 F500.0 X64.25 Y3.0 I-0.4317 J-0.2523
G2 X63.5 Y2.567 I-0.5 J0.0
G2 Y3.433 I0.25 J0.433
G2 X64.1817 Y3.2523 I0.25 J-0.433
G1 F200.0 Z-3.0
G2 F500.0 X64.25 Y3.0 I-0.4317 J-0.2523
G2 X63.5 Y2.567 I-0.5 J0.0
G2 Y3.433 I0.25 J0.433
G2 X64.1817 Y3.2523 I0.25 J-0.433
G1 F200.0 Z-4.0
G2 F500.0 X64.25 Y3.0 I-0.4317 J-0.2523
G2 X63.5 Y2.567 I-0.5 J0.0
G2 Y3.433 I0.25 J0.433
G2 X64.1817 Y3.2523 I0.25 J-0.433
G1 F200.0 Z-5.0
G2 F500.0 X64.25 Y3.0 I-0.4317 J-0.2523
G2 X63.5 Y2.567 I-0.5 J0.0
G2 Y3.433 I0.25 J0.433
G2 X64.1817 Y3.2523 I0.25 J-0.433
G1 F200.0 Z-6.0
G2 F500.0 X64.25 Y3.0 I-0.4317 J-0.2523
G2 X63.5 Y2.567 I-0.5 J0.0
G2 Y3.433 I0.25 J0.433
G2 X64.1817 Y3.2523 I0.25 J-0.433
G0 Z3.0
G0 X16.75 Y3.0026
G1 F200.0 Z-1.0
G2 F500.0 Y3.0 I-0.5 J-0.0026
G2 X16.0 Y2.567 I-0.5 J0.0
G2 Y3.433 I0.25 J0.433
G2 X16.75 Y3.0026 I0.25 J-0.433
G1 F200.0 Z-2.0
G2 F500.0 Y3.0 I-0.5 J-0.0026
G2 X16.0 Y2.567 I-0.5 J0.0
G2 Y3.433 I0.25 J0.433
G2 X16.75 Y3.0026 I0.25 J-0.433
G1 F200.0 Z-3.0
G2 F500.0 Y3.0 I-0.5 J-0.0026
G2 X16.0 Y2.567 I-0.5 J0.0
G2 Y3.433 I0.25 J0.433
G2 X16.75 Y3.0026 I0.25 J-0.433
G1 F200.0 Z-4.0
G2 F500.0 Y3.0 I-0.5 J-0.0026
G2 X16.0 Y2.567 I-0.5 J0.0
G2 Y3.433 I0.25 J0.433
G2 X16.75 Y3.0026 I0.25 J-0.433
G1 F200.0 Z-5.0
G2 F500.0 Y3.0 I-0.5 J-0.0026
G2 X16.0 Y2.567 I-0.5 J0.0
G2 Y3.433 I0.25 J0.433
G2 X16.75 Y3.0026 I0.25 J-0.433
G1 F200.0 Z-6.0
G2 F500.0 Y3.0 I-0.5 J-0.0026
G2 X16.0 Y2.567 I-0.5 J0.0
G2 Y3.433 I0.25 J0.433
G2 X16.75 Y3.0026 I0.25 J-0.433
( Poche1 )
S1000
G0 Z3.0
G0 X16.645 Y77.0
G1 F200.0 Z-1.0
G2 F500.0 X16.0525 Y76.6579 I-0.395 J0.0
G2 Y77.3421 I0.1975 J0.3421
G2 X16.645 Y77.0 I0.1975 J-0.3421
G1 F200.0 X17.445
G2 F500.0 X15.6525 Y75.9651 I-1.195 J0.0
G2 Y78.0349 I0.5975 J1.0349
G2 X17.445 Y77.0 I0.5975 J-1.0349
G1 F200.0 X18.245
G2 F500.0 X15.2525 Y75.2723 I-1.995 J0.0
G2 Y78.7277 I0.9975 J1.7277
G2 X18.245 Y77.0 I0.9975 J-1.7277
G0 Z3.0
G0 X16.645
G1 F200.0 Z-2.0
G2 F500.0 X16.0525 Y76.6579 I-0.395 J0.0
G2 Y77.3421 I0.1975 J0.3421
G2 X16.645 Y77.0 I0.1975 J-0.3421
G1 F200.0 X17.445
G2 F500.0 X15.6525 Y75.9651 I-1.195 J0.0
G2 Y78.0349 I0.5975 J1.0349
G2 X17.445 Y77.0 I0.5975 J-1.0349
G1 F200.0 X18.245
G2 F500.0 X15.2525 Y75.2723 I-1.995 J0.0
G2 Y78.7277 I0.9975 J1.7277
G2 X18.245 Y77.0 I0.9975 J-1.7277
G0 Z3.0
G0 X16.645
G1 F200.0 Z-3.0
G2 F500.0 X16.0525 Y76.6579 I-0.395 J0.0
G2 Y77.3421 I0.1975 J0.3421
G2 X16.645 Y77.0 I0.1975 J-0.3421
G1 F200.0 X17.445
G2 F500.0 X15.6525 Y75.9651 I-1.195 J0.0
G2 Y78.0349 I0.5975 J1.0349
G2 X17.445 Y77.0 I0.5975 J-1.0349
G1 F200.0 X18.245
G2 F500.0 X15.2525 Y75.2723 I-1.995 J0.0
G2 Y78.7277 I0.9975 J1.7277
G2 X18.245 Y77.0 I0.9975 J-1.7277
G0 Z3.0
G0 X63.355
G1 F200.0 Z-1.0
G2 F500.0 X63.5525 Y77.3421 I0.395 J0.0
G2 X64.145 Y77.0 I0.1975 J-0.3421
G2 X63.5525 Y76.6579 I-0.395 J0.0
G2 X63.355 Y77.0 I0.1975 J0.3421
G1 F200.0 X62.555
G2 F500.0 X63.1525 Y78.0349 I1.195 J0.0
G2 X64.945 Y77.0 I0.5975 J-1.0349
G2 X63.1525 Y75.9651 I-1.195 J0.0
G2 X62.555 Y77.0 I0.5975 J1.0349
G1 F200.0 X61.755
G2 F500.0 X62.7525 Y78.7277 I1.995 J0.0
G2 X65.745 Y77.0 I0.9975 J-1.7277
G2 X62.7525 Y75.2723 I-1.995 J0.0
G2 X61.755 Y77.0 I0.9975 J1.7277
G0 Z3.0
G0 X63.355
G1 F200.0 Z-2.0
G2 F500.0 X63.5525 Y77.3421 I0.395 J0.0
G2 X64.145 Y77.0 I0.1975 J-0.3421
G2 X63.5525 Y76.6579 I-0.395 J0.0
G2 X63.355 Y77.0 I0.1975 J0.3421
G1 F200.0 X62.555
G2 F500.0 X63.1525 Y78.0349 I1.195 J0.0
G2 X64.945 Y77.0 I0.5975 J-1.0349
G2 X63.1525 Y75.9651 I-1.195 J0.0
G2 X62.555 Y77.0 I0.5975 J1.0349
G1 F200.0 X61.755
G2 F500.0 X62.7525 Y78.7277 I1.995 J0.0
G2 X65.745 Y77.0 I0.9975 J-1.7277
G2 X62.7525 Y75.2723 I-1.995 J0.0
G2 X61.755 Y77.0 I0.9975 J1.7277
G0 Z3.0
G0 X63.355
G1 F200.0 Z-3.0
G2 F500.0 X63.5525 Y77.3421 I0.395 J0.0
G2 X64.145 Y77.0 I0.1975 J-0.3421
G2 X63.5525 Y76.6579 I-0.395 J0.0
G2 X63.355 Y77.0 I0.1975 J0.3421
G1 F200.0 X62.555
G2 F500.0 X63.1525 Y78.0349 I1.195 J0.0
G2 X64.945 Y77.0 I0.5975 J-1.0349
G2 X63.1525 Y75.9651 I-1.195 J0.0
G2 X62.555 Y77.0 I0.5975 J1.0349
G1 F200.0 X61.755
G2 F500.0 X62.7525 Y78.7277 I1.995 J0.0
G2 X65.745 Y77.0 I0.9975 J-1.7277
G2 X62.7525 Y75.2723 I-1.995 J0.0
G2 X61.755 Y77.0 I0.9975 J1.7277
G0 Z3.0
G0 X122.6102 Y86.9363
G1 F200.0 Z-1.0
G2 F500.0 X122.8025 Y87.3421 I0.3898 J0.0637
G2 X123.395 Y87.0 I0.1975 J-0.3421
G2 X122.8025 Y86.6579 I-0.395 J0.0
G2 X122.6102 Y86.9363 I0.1975 J0.3421
G1 F200.0 X121.8206 Y86.8074
G2 F500.0 X122.4025 Y88.0349 I1.1794 J0.1926
G2 X124.195 Y87.0 I0.5975 J-1.0349
G2 X122.4025 Y85.9651 I-1.195 J0.0
G2 X121.8206 Y86.8074 I0.5975 J1.0349
G1 F200.0 X121.0311 Y86.6785
G2 F500.0 X122.0025 Y88.7277 I1.9689 J0.3215
G2 X124.995 Y87.0 I0.9975 J-1.7277
G2 X122.0025 Y85.2723 I-1.995 J0.0
G2 X121.0311 Y86.6785 I0.9975 J1.7277
G0 Z3.0
G0 X122.6102 Y86.9363
G1 F200.0 Z-2.0
G2 F500.0 X122.8025 Y87.3421 I0.3898 J0.0637
G2 X123.395 Y87.0 I0.1975 J-0.3421
G2 X122.8025 Y86.6579 I-0.395 J0.0
G2 X122.6102 Y86.9363 I0.1975 J0.3421
G1 F200.0 X121.8206 Y86.8074
G2 F500.0 X122.4025 Y88.0349 I1.1794 J0.1926
G2 X124.195 Y87.0 I0.5975 J-1.0349
G2 X122.4025 Y85.9651 I-1.195 J0.0
G2 X121.8206 Y86.8074 I0.5975 J1.0349
G1 F200.0 X121.0311 Y86.6785
G2 F500.0 X122.0025 Y88.7277 I1.9689 J0.3215
G2 X124.995 Y87.0 I0.9975 J-1.7277
G2 X122.0025 Y85.2723 I-1.995 J0.0
G2 X121.0311 Y86.6785 I0.9975 J1.7277
G0 Z3.0
G0 X122.6102 Y86.9363
G1 F200.0 Z-3.0
G2 F500.0 X122.8025 Y87.3421 I0.3898 J0.0637
G2 X123.395 Y87.0 I0.1975 J-0.3421
G2 X122.8025 Y86.6579 I-0.395 J0.0
G2 X122.6102 Y86.9363 I0.1975 J0.3421
G1 F200.0 X121.8206 Y86.8074
G2 F500.0 X122.4025 Y88.0349 I1.1794 J0.1926
G2 X124.195 Y87.0 I0.5975 J-1.0349
G2 X122.4025 Y85.9651 I-1.195 J0.0
G2 X121.8206 Y86.8074 I0.5975 J1.0349
G1 F200.0 X121.0311 Y86.6785
G2 F500.0 X122.0025 Y88.7277 I1.9689 J0.3215
G2 X124.995 Y87.0 I0.9975 J-1.7277
G2 X122.0025 Y85.2723 I-1.995 J0.0
G2 X121.0311 Y86.6785 I0.9975 J1.7277
G0 Z3.0
G0 X207.605 Y86.9985
G1 F200.0 Z-1.0
G2 F500.0 X207.8025 Y87.3421 I0.395 J0.0015
G2 X208.395 Y87.0 I0.1975 J-0.3421
G2 X207.8025 Y86.6579 I-0.395 J0.0
G2 X207.605 Y86.9985 I0.1975 J0.3421
G1 F200.0 X206.805 Y86.9956
G2 F500.0 X207.4025 Y88.0349 I1.195 J0.0044
G2 X209.195 Y87.0 I0.5975 J-1.0349
G2 X207.4025 Y85.9651 I-1.195 J0.0
G2 X206.805 Y86.9956 I0.5975 J1.0349
G1 F200.0 X206.005 Y86.9926
G2 F500.0 X207.0025 Y88.7277 I1.995 J0.0074
G2 X209.995 Y87.0 I0.9975 J-1.7277
G2 X207.0025 Y85.2723 I-1.995 J0.0
G2 X206.005 Y86.9926 I0.9975 J1.7277
G0 Z3.0
G0 X207.605 Y86.9985
G1 F200.0 Z-2.0
G2 F500.0 X207.8025 Y87.3421 I0.395 J0.0015
G2 X208.395 Y87.0 I0.1975 J-0.3421
G2 X207.8025 Y86.6579 I-0.395 J0.0
G2 X207.605 Y86.9985 I0.1975 J0.3421
G1 F200.0 X206.805 Y86.9956
G2 F500.0 X207.4025 Y88.0349 I1.195 J0.0044
G2 X209.195 Y87.0 I0.5975 J-1.0349
G2 X207.4025 Y85.9651 I-1.195 J0.0
G2 X206.805 Y86.9956 I0.5975 J1.0349
G1 F200.0 X206.005 Y86.9926
G2 F500.0 X207.0025 Y88.7277 I1.995 J0.0074
G2 X209.995 Y87.0 I0.9975 J-1.7277
G2 X207.0025 Y85.2723 I-1.995 J0.0
G2 X206.005 Y86.9926 I0.9975 J1.7277
G0 Z3.0
G0 X207.605 Y86.9985
G1 F200.0 Z-3.0
G2 F500.0 X207.8025 Y87.3421 I0.395 J0.0015
G2 X208.395 Y87.0 I0.1975 J-0.3421
G2 X207.8025 Y86.6579 I-0.395 J0.0
G2 X207.605 Y86.9985 I0.1975 J0.3421
G1 F200.0 X206.805 Y86.9956
G2 F500.0 X207.4025 Y88.0349 I1.195 J0.0044
G2 X209.195 Y87.0 I0.5975 J-1.0349
G2 X207.4025 Y85.9651 I-1.195 J0.0
G2 X206.805 Y86.9956 I0.5975 J1.0349
G1 F200.0 X206.005 Y86.9926
G2 F500.0 X207.0025 Y88.7277 I1.995 J0.0074
G2 X209.995 Y87.0 I0.9975 J-1.7277
G2 X207.0025 Y85.2723 I-1.995 J0.0
G2 X206.005 Y86.9926 I0.9975 J1.7277
G0 Z3.0
G0 X64.0901 Y3.2008
G1 F200.0 Z-1.0
G2 F500.0 X64.145 Y3.0 I-0.3401 J-0.2008
G2 X63.5525 Y2.6579 I-0.395 J0.0
G2 Y3.3421 I0.1975 J0.3421
G2 X64.0901 Y3.2008 I0.1975 J-0.3421
G1 F200.0 X64.779 Y3.6076
G2 F500.0 X64.945 Y3.0 I-1.029 J-0.6076
G2 X63.1525 Y1.9651 I-1.195 J0.0
G2 Y4.0349 I0.5975 J1.0349
G2 X64.779 Y3.6076 I0.5975 J-1.0349
G1 F200.0 X65.4679 Y4.0143
G2 F500.0 X65.745 Y3.0 I-1.7179 J-1.0143
G2 X62.7525 Y1.2723 I-1.995 J0.0
G2 Y4.7277 I0.9975 J1.7277
G2 X65.4679 Y4.0143 I0.9975 J-1.7277
G0 Z3.0
G0 X64.0901 Y3.2008
G1 F200.0 Z-2.0
G2 F500.0 X64.145 Y3.0 I-0.3401 J-0.2008
G2 X63.5525 Y2.6579 I-0.395 J0.0
G2 Y3.3421 I0.1975 J0.3421
G2 X64.0901 Y3.2008 I0.1975 J-0.3421
G1 F200.0 X64.779 Y3.6076
G2 F500.0 X64.945 Y3.0 I-1.029 J-0.6076
G2 X63.1525 Y1.9651 I-1.195 J0.0
G2 Y4.0349 I0.5975 J1.0349
G2 X64.779 Y3.6076 I0.5975 J-1.0349
G1 F200.0 X65.4679 Y4.0143
G2 F500.0 X65.745 Y3.0 I-1.7179 J-1.0143
G2 X62.7525 Y1.2723 I-1.995 J0.0
G2 Y4.7277 I0.9975 J1.7277
G2 X65.4679 Y4.0143 I0.9975 J-1.7277
G0 Z3.0
G0 X64.0901 Y3.2008
G1 F200.0 Z-3.0
G2 F500.0 X64.145 Y3.0 I-0.3401 J-0.2008
G2 X63.5525 Y2.6579 I-0.395 J0.0
G2 Y3.3421 I0.1975 J0.3421
G2 X64.0901 Y3.2008 I0.1975 J-0.3421
G1 F200.0 X64.779 Y3.6076
G2 F500.0 X64.945 Y3.0 I-1.029 J-0.6076
G2 X63.1525 Y1.9651 I-1.195 J0.0
G2 Y4.0349 I0.5975 J1.0349
G2 X64.779 Y3.6076 I0.5975 J-1.0349
G1 F200.0 X65.4679 Y4.0143
G2 F500.0 X65.745 Y3.0 I-1.7179 J-1.0143
G2 X62.7525 Y1.2723 I-1.995 J0.0
G2 Y4.7277 I0.9975 J1.7277
G2 X65.4679 Y4.0143 I0.9975 J-1.7277
G0 Z3.0
G0 X16.6449 Y3.0081
G1 F200.0 Z-1.0
G2 F500.0 X16.645 Y3.0 I-0.3949 J-0.0081
G2 X16.0525 Y2.6579 I-0.395 J0.0
G2 Y3.3421 I0.1975 J0.3421
G2 X16.6449 Y3.0081 I0.1975 J-0.3421
G1 F200.0 X17.4447 Y3.0246
G2 F500.0 X17.445 Y3.0 I-1.1947 J-0.0246
G2 X15.6525 Y1.9651 I-1.195 J0.0
G2 Y4.0349 I0.5975 J1.0349
G2 X17.4447 Y3.0246 I0.5975 J-1.0349
G1 F200.0 X18.2446 Y3.0411
G2 F500.0 X18.245 Y3.0 I-1.9946 J-0.0411
G2 X15.2525 Y1.2723 I-1.995 J0.0
G2 Y4.7277 I0.9975 J1.7277
G2 X18.2446 Y3.0411 I0.9975 J-1.7277
G0 Z3.0
G0 X16.6449 Y3.0081
G1 F200.0 Z-2.0
G2 F500.0 X16.645 Y3.0 I-0.3949 J-0.0081
G2 X16.0525 Y2.6579 I-0.395 J0.0
G2 Y3.3421 I0.1975 J0.3421
G2 X16.6449 Y3.0081 I0.1975 J-0.3421
G1 F200.0 X17.4447 Y3.0246
G2 F500.0 X17.445 Y3.0 I-1.1947 J-0.0246
G2 X15.6525 Y1.9651 I-1.195 J0.0
G2 Y4.0349 I0.5975 J1.0349
G2 X17.4447 Y3.0246 I0.5975 J-1.0349
G1 F200.0 X18.2446 Y3.0411
G2 F500.0 X18.245 Y3.0 I-1.9946 J-0.0411
G2 X15.2525 Y1.2723 I-1.995 J0.0
G2 Y4.7277 I0.9975 J1.7277
G2 X18.2446 Y3.0411 I0.9975 J-1.7277
G0 Z3.0
G0 X16.6449 Y3.0081
G1 F200.0 Z-3.0
G2 F500.0 X16.645 Y3.0 I-0.3949 J-0.0081
G2 X16.0525 Y2.6579 I-0.395 J0.0
G2 Y3.3421 I0.1975 J0.3421
G2 X16.6449 Y3.0081 I0.1975 J-0.3421
G1 F200.0 X17.4447 Y3.0246
G2 F500.0 X17.445 Y3.0 I-1.1947 J-0.0246
G2 X15.6525 Y1.9651 I-1.195 J0.0
G2 Y4.0349 I0.5975 J1.0349
G2 X17.4447 Y3.0246 I0.5975 J-1.0349
G1 F200.0 X18.2446 Y3.0411
G2 F500.0 X18.245 Y3.0 I-1.9946 J-0.0411
G2 X15.2525 Y1.2723 I-1.995 J0.0
G2 Y4.7277 I0.9975 J1.7277
G2 X18.2446 Y3.0411 I0.9975 J-1.7277
( Contour2 )
S1000
G0 Z3.0
G0 X33.5 Y75.0
G1 F200.0 Z-1.0
G1 F500.0 Y80.0
G3 X32.5 Y81.0 I-1.0 J0.0
G1 X0.0
G3 X-1.0 Y80.0 I0.0 J-1.0
G1 Y0.0
G3 X0.0 Y-1.0 I1.0 J0.0
G1 X32.5
G3 X33.5 Y0.0 I0.0 J1.0
G1 Y5.0
G1 X33.2071 Y5.2929
G1 X33.5 Y5.0
G1 X46.5
G1 X46.7929 Y5.2929
G1 X46.5 Y5.0
G1 Y0.0
G3 X47.5 Y-1.0 I1.0 J0.0
G1 X80.0
G3 X81.0 Y0.0 I0.0 J1.0
G1 Y80.0
G3 X80.0 Y81.0 I-1.0 J0.0
G1 X47.5
G3 X46.5 Y80.0 I0.0 J-1.0
G1 Y75.0
G1 X46.7929 Y74.7071
G1 X46.5 Y75.0
G1 X33.5
G1 X33.2071 Y74.7071
G1 X33.5 Y75.0
G0 Z3.0
G0 X82.0
G1 F200.0 Z-1.0
G1 F500.0 Y6.0
G3 X83.0 Y5.0 I1.0 J0.0
G1 X114.5
G1 X114.7929 Y5.2929
G1 X114.5 Y5.0
G1 Y0.0
G3 X115.5 Y-1.0 I1.0 J0.0
G1 X130.5
G3 X131.5 Y0.0 I0.0 J1.0
G1 Y5.0
G1 X131.2071 Y5.2929
G1 X131.5 Y5.0
G1 X163.0
G3 X164.0 Y6.0 I0.0 J1.0
G1 Y84.0
G3 X163.0 Y85.0 I-1.0 J0.0
G1 X131.5
G1 X131.2071 Y84.7071
G1 X131.5 Y85.0
G1 Y90.0
G3 X130.5 Y91.0 I-1.0 J0.0
G1 X115.5
G3 X114.5 Y90.0 I0.0 J-1.0
G1 Y85.0
G1 X114.7929 Y84.7071
G1 X114.5 Y85.0
G1 X83.0
G3 X82.0 Y84.0 I0.0 J-1.0
G1 Y75.0
G1 F200.0 Z-2.0
G1 F500.0 Y6.0
G3 X83.0 Y5.0 I1.0 J0.0
G1 X114.5
G1 X114.7929 Y5.2929
G1 X114.5 Y5.0
G1 Y0.0
G3 X115.5 Y-1.0 I1.0 J0.0
G1 X130.5
G3 X131.5 Y0.0 I0.0 J1.0
G1 Y5.0
G1 X131.2071 Y5.2929
G1 X131.5 Y5.0
G1 X163.0
G3 X164.0 Y6.0 I0.0 J1.0
G1 Y84.0
G3 X163.0 Y85.0 I-1.0 J0.0
G1 X131.5
G1 X131.2071 Y84.7071
G1 X131.5 Y85.0
G1 Y90.0
G3 X130.5 Y91.0 I-1.0 J0.0
G1 X115.5
G3 X114.5 Y90.0 I0.0 J-1.0
G1 Y85.0
G1 X114.7929 Y84.7071
G1 X114.5 Y85.0
G1 X83.0
G3 X82.0 Y84.0 I0.0 J-1.0
G1 Y75.0
G1 F200.0 X81.0
G1 F500.0 Y80.0
G3 X80.0 Y81.0 I-1.0 J0.0
G1 X47.5
G3 X46.5 Y80.0 I0.0 J-1.0
G1 Y75.0
G1 X46.7929 Y74.7071
G1 X46.5 Y75.0
G1 X33.5
G1 X33.2071 Y74.7071
G1 X33.5 Y75.0
G1 Y80.0
G3 X32.5 Y81.0 I-1.0 J0.0
G1 X0.0
G3 X-1.0 Y80.0 I0.0 J-1.0
G1 Y0.0
G3 X0.0 Y-1.0 I1.0 J0.0
G1 X32.5
G3 X33.5 Y0.0 I0.0 J1.0
G1 Y5.0
G1 X33.2071 Y5.2929
G1 X33.5 Y5.0
G1 X46.5
G1 X46.7929 Y5.2929
G1 X46.5 Y5.0
G1 Y0.0
G3 X47.5 Y-1.0 I1.0 J0.0
G1 X80.0
G3 X81.0 Y0.0 I0.0 J1.0
G1 Y75.0
G1 F200.0 Z-3.0
G1 F500.0 Y80.0
G3 X80.0 Y81.0 I-1.0 J0.0
G1 X47.5
G3 X46.5 Y80.0 I0.0 J-1.0
G1 Y75.0
G1 X46.7929 Y74.7071
G1 X46.5 Y75.0
G1 X33.5
G1 X33.2071 Y74.7071
G1 X33.5 Y75.0
G1 Y80.0
G3 X32.5 Y81.0 I-1.0 J0.0
G1 X0.0
G3 X-1.0 Y80.0 I0.0 J-1.0
G1 Y0.0
G3 X0.0 Y-1.0 I1.0 J0.0
G1 X32.5
G3 X33.5 Y0.0 I0.0 J1.0
G1 Y5.0
G1 X33.2071 Y5.2929
G1 X33.5 Y5.0
G1 X46.5
G1 X46.7929 Y5.2929
G1 X46.5 Y5.0
G1 Y0.0
G3 X47.5 Y-1.0 I1.0 J0.0
G1 X80.0
G3 X81.0 Y0.0 I0.0 J1.0
G1 Y75.0
G1 F200.0 X82.0
G1 F500.0 Y6.0
G3 X83.0 Y5.0 I1.0 J0.0
G1 X114.5
G1 X114.7929 Y5.2929
G1 X114.5 Y5.0
G1 Y0.0
G3 X115.5 Y-1.0 I1.0 J0.0
G1 X130.5
G3 X131.5 Y0.0 I0.0 J1.0
G1 Y5.0
G1 X131.2071 Y5.2929
G1 X131.5 Y5.0
G1 X163.0
G3 X164.0 Y6.0 I0.0 J1.0
G1 Y84.0
G3 X163.0 Y85.0 I-1.0 J0.0
G1 X131.5
G1 X131.2071 Y84.7071
G1 X131.5 Y85.0
G1 Y90.0
G3 X130.5 Y91.0 I-1.0 J0.0
G1 X115.5
G3 X114.5 Y90.0 I0.0 J-1.0
G1 Y85.0
G1 X114.7929 Y84.7071
G1 X114.5 Y85.0
G1 X83.0
G3 X82.0 Y84.0 I0.0 J-1.0
G1 Y75.0
G1 F200.0 Z-4.0
G1 F500.0 Y6.0
G3 X83.0 Y5.0 I1.0 J0.0
G1 X114.5
G1 X114.7929 Y5.2929
G1 X114.5 Y5.0
G1 Y0.0
G3 X115.5 Y-1.0 I1.0 J0.0
G1 X130.5
G3 X131.5 Y0.0 I0.0 J1.0
G1 Y5.0
G1 X131.2071 Y5.2929
G1 X131.5 Y5.0
G1 X163.0
G3 X164.0 Y6.0 I0.0 J1.0
G1 Y84.0
G3 X163.0 Y85.0 I-1.0 J0.0
G1 X131.5
G1 X131.2071 Y84.7071
G1 X131.5 Y85.0
G1 Y90.0
G3 X130.5 Y91.0 I-1.0 J0.0
G1 X115.5
G3 X114.5 Y90.0 I0.0 J-1.0
G1 Y85.0
G1 X114.7929 Y84.7071
G1 X114.5 Y85.0
G1 X83.0
G3 X82.0 Y84.0 I0.0 J-1.0
G1 Y75.0
G1 F200.0 X81.0
G1 F500.0 Y80.0
G3 X80.0 Y81.0 I-1.0 J0.0
G1 X47.5
G3 X46.5 Y80.0 I0.0 J-1.0
G1 Y75.0
G1 X46.7929 Y74.7071
G1 X46.5 Y75.0
G1 X33.5
G1 X33.2071 Y74.7071
G1 X33.5 Y75.0
G1 Y80.0
G3 X32.5 Y81.0 I-1.0 J0.0
G1 X0.0
G3 X-1.0 Y80.0 I0.0 J-1.0
G1 Y0.0
G3 X0.0 Y-1.0 I1.0 J0.0
G1 X32.5
G3 X33.5 Y0.0 I0.0 J1.0
G1 Y5.0
G1 X33.2071 Y5.2929
G1 X33.5 Y5.0
G1 X46.5
G1 X46.7929 Y5.2929
G1 X46.5 Y5.0
G1 Y0.0
G3 X47.5 Y-1.0 I1.0 J0.0
G1 X80.0
G3 X81.0 Y0.0 I0.0 J1.0
G1 Y75.0
G1 F200.0 Z-5.0
G1 F500.0 Y80.0
G3 X80.0 Y81.0 I-1.0 J0.0
G1 X47.5
G3 X46.5 Y80.0 I0.0 J-1.0
G1 Y75.0
G1 X46.7929 Y74.7071
G1 X46.5 Y75.0
G1 X33.5
G1 X33.2071 Y74.7071
G1 X33.5 Y75.0
G1 Y80.0
G3 X32.5 Y81.0 I-1.0 J0.0
G1 X0.0
G3 X-1.0 Y80.0 I0.0 J-1.0
G1 Y0.0
G3 X0.0 Y-1.0 I1.0 J0.0
G1 X32.5
G3 X33.5 Y0.0 I0.0 J1.0
G1 Y5.0
G1 X33.2071 Y5.2929
G1 X33.5 Y5.0
G1 X46.5
G1 X46.7929 Y5.2929
G1 X46.5 Y5.0
G1 Y0.0
G3 X47.5 Y-1.0 I1.0 J0.0
G1 X80.0
G3 X81.0 Y0.0 I0.0 J1.0
G1 Y75.0
G1 F200.0 X82.0
G1 F500.0 Y6.0
G3 X83.0 Y5.0 I1.0 J0.0
G1 X114.5
G1 X114.7929 Y5.2929
G1 X114.5 Y5.0
G1 Y0.0
G3 X115.5 Y-1.0 I1.0 J0.0
G1 X130.5
G3 X131.5 Y0.0 I0.0 J1.0
G1 Y5.0
G1 X131.2071 Y5.2929
G1 X131.5 Y5.0
G1 X163.0
G3 X164.0 Y6.0 I0.0 J1.0
G1 Y84.0
G3 X163.0 Y85.0 I-1.0 J0.0
G1 X131.5
G1 X131.2071 Y84.7071
G1 X131.5 Y85.0
G1 Y90.0
G3 X130.5 Y91.0 I-1.0 J0.0
G1 X115.5
G3 X114.5 Y90.0 I0.0 J-1.0
G1 Y85.0
G1 X114.7929 Y84.7071
G1 X114.5 Y85.0
G1 X83.0
G3 X82.0 Y84.0 I0.0 J-1.0
G1 Y75.0
G1 F200.0 Z-6.0
G1 F500.0 Y6.0
G3 X83.0 Y5.0 I1.0 J0.0
G1 X97.0
G0 Z-5.0
G1 X101.0
G1 F200.0 Z-6.0
G1 F500.0 X114.5
G1 X114.7929 Y5.2929
G1 X114.5 Y5.0
G1 Y0.0
G3 X115.5 Y-1.0 I1.0 J0.0
G1 X130.5
G3 X131.5 Y0.0 I0.0 J1.0
G1 Y5.0
G1 X131.2071 Y5.2929
G1 X131.5 Y5.0
G1 X150.0
G0 Z-5.0
G1 X154.0
G1 F200.0 Z-6.0
G1 F500.0 X163.0
G3 X164.0 Y6.0 I0.0 J1.0
G1 Y84.0
G3 X163.0 Y85.0 I-1.0 J0.0
G1 X149.0
G0 Z-5.0
G1 X145.0
G1 F200.0 Z-6.0
G1 F500.0 X131.5
G1 X131.2071 Y84.7071
G1 X131.5 Y85.0
G1 Y90.0
G3 X130.5 Y91.0 I-1.0 J0.0
G1 X115.5
G3 X114.5 Y90.0 I0.0 J-1.0
G1 Y85.0
G1 X114.7929 Y84.7071
G1 X114.5 Y85.0
G1 X96.0
G0 Z-5.0
G1 X92.0
G1 F200.0 Z-6.0
G1 F500.0 X83.0
G3 X82.0 Y84.0 I0.0 J-1.0
G1 Y75.0
G1 F200.0 X81.0
G1 F500.0 Y80.0
G3 X80.0 Y81.0 I-1.0 J0.0
G1 X56.0
G0 Z-5.0
G1 X52.0
G1 F200.0 Z-6.0
G1 F500.0 X47.5
G3 X46.5 Y80.0 I0.0 J-1.0
G1 Y75.0
G1 X46.7929 Y74.7071
G1 X46.5 Y75.0
G1 X33.5
G1 X33.2071 Y74.7071
G1 X33.5 Y75.0
G1 Y80.0
G3 X32.5 Y81.0 I-1.0 J0.0
G1 X0.0
G3 X-1.0 Y80.0 I0.0 J-1.0
G1 Y69.0
G0 Z-5.0
G1 Y65.0
G1 F200.0 Z-6.0
G1 F500.0 Y0.0
G3 X0.0 Y-1.0 I1.0 J0.0
G1 X4.0
G0 Z-5.0
G1 X8.0
G1 F200.0 Z-6.0
G1 F500.0 X32.5
G3 X33.5 Y0.0 I0.0 J1.0
G1 Y5.0
G1 X33.2071 Y5.2929
G1 X33.5 Y5.0
G1 X46.5
G1 X46.7929 Y5.2929
G1 X46.5 Y5.0
G1 Y0.0
G3 X47.5 Y-1.0 I1.0 J0.0
G1 X55.0
G0 Z-5.0
G1 X59.0
G1 F200.0 Z-6.0
G1 F500.0 X80.0
G3 X81.0 Y0.0 I0.0 J1.0
G1 Y75.0
G0 Z3.0
G0 X167.0
G1 F200.0 Z-1.0
G1 F500.0 Y6.0
G3 X168.0 Y5.0 I1.0 J0.0
G1 X199.5
G1 X199.7929 Y5.2929
G1 X199.5 Y5.0
G1 Y0.0
G3 X200.5 Y-1.0 I1.0 J0.0
G1 X215.5
G3 X216.5 Y0.0 I0.0 J1.0
G1 Y5.0
G1 X216.2071 Y5.2929
G1 X216.5 Y5.0
G1 X248.0
G3 X249.0 Y6.0 I0.0 J1.0
G1 Y84.0
G3 X248.0 Y85.0 I-1.0 J0.0
G1 X216.5
G1 X216.2071 Y84.7071
G1 X216.5 Y85.0
G1 Y90.0
G3 X215.5 Y91.0 I-1.0 J0.0
G1 X200.5
G3 X199.5 Y90.0 I0.0 J-1.0
G1 Y85.0
G1 X199.7929 Y84.7071
G1 X199.5 Y85.0
G1 X168.0
G3 X167.0 Y84.0 I0.0 J-1.0
G1 Y75.0
G1 F200.0 Z-2.0
G1 F500.0 Y6.0
G3 X168.0 Y5.0 I1.0 J0.0
G1 X199.5
G1 X199.7929 Y5.2929
G1 X199.5 Y5.0
G1 Y0.0
G3 X200.5 Y-1.0 I1.0 J0.0
G1 X215.5
G3 X216.5 Y0.0 I0.0 J1.0
G1 Y5.0
G1 X216.2071 Y5.2929
G1 X216.5 Y5.0
G1 X248.0
G3 X249.0 Y6.0 I0.0 J1.0
G1 Y84.0
G3 X248.0 Y85.0 I-1.0 J0.0
G1 X216.5
G1 X216.2071 Y84.7071
G1 X216.5 Y85.0
G1 Y90.0
G3 X215.5 Y91.0 I-1.0 J0.0
G1 X200.5
G3 X199.5 Y90.0 I0.0 J-1.0
G1 Y85.0
G1 X199.7929 Y84.7071
G1 X199.5 Y85.0
G1 X168.0
G3 X167.0 Y84.0 I0.0 J-1.0
G1 Y75.0
G1 F200.0 Z-3.0
G1 F500.0 Y6.0
G3 X168.0 Y5.0 I1.0 J0.0
G1 X199.5
G1 X199.7929 Y5.2929
G1 X199.5 Y5.0
G1 Y0.0
G3 X200.5 Y-1.0 I1.0 J0.0
G1 X215.5
G3 X216.5 Y0.0 I0.0 J1.0
G1 Y5.0
G1 X216.2071 Y5.2929
G1 X216.5 Y5.0
G1 X248.0
G3 X249.0 Y6.0 I0.0 J1.0
G1 Y84.0
G3 X248.0 Y85.0 I-1.0 J0.0
G1 X216.5
G1 X216.2071 Y84.7071
G1 X216.5 Y85.0
G1 Y90.0
G3 X215.5 Y91.0 I-1.0 J0.0
G1 X200.5
G3 X199.5 Y90.0 I0.0 J-1.0
G1 Y85.0
G1 X199.7929 Y84.7071
G1 X199.5 Y85.0
G1 X168.0
G3 X167.0 Y84.0 I0.0 J-1.0
G1 Y75.0
G1 F200.0 Z-4.0
G1 F500.0 Y6.0
G3 X168.0 Y5.0 I1.0 J0.0
G1 X199.5
G1 X199.7929 Y5.2929
G1 X199.5 Y5.0
G1 Y0.0
G3 X200.5 Y-1.0 I1.0 J0.0
G1 X215.5
G3 X216.5 Y0.0 I0.0 J1.0
G1 Y5.0
G1 X216.2071 Y5.2929
G1 X216.5 Y5.0
G1 X248.0
G3 X249.0 Y6.0 I0.0 J1.0
G1 Y84.0
G3 X248.0 Y85.0 I-1.0 J0.0
G1 X216.5
G1 X216.2071 Y84.7071
G1 X216.5 Y85.0
G1 Y90.0
G3 X215.5 Y91.0 I-1.0 J0.0
G1 X200.5
G3 X199.5 Y90.0 I0.0 J-1.0
G1 Y85.0
G1 X199.7929 Y84.7071
G1 X199.5 Y85.0
G1 X168.0
G3 X167.0 Y84.0 I0.0 J-1.0
G1 Y75.0
G1 F200.0 Z-5.0
G1 F500.0 Y6.0
G3 X168.0 Y5.0 I1.0 J0.0
G1 X199.5
G1 X199.7929 Y5.2929
G1 X199.5 Y5.0
G1 Y0.0
G3 X200.5 Y-1.0 I1.0 J0.0
G1 X215.5
G3 X216.5 Y0.0 I0.0 J1.0
G1 Y5.0
G1 X216.2071 Y5.2929
G1 X216.5 Y5.0
G1 X248.0
G3 X249.0 Y6.0 I0.0 J1.0
G1 Y84.0
G3 X248.0 Y85.0 I-1.0 J0.0
G1 X216.5
G1 X216.2071 Y84.7071
G1 X216.5 Y85.0
G1 Y90.0
G3 X215.5 Y91.0 I-1.0 J0.0
G1 X200.5
G3 X199.5 Y90.0 I0.0 J-1.0
G1 Y85.0
G1 X199.7929 Y84.7071
G1 X199.5 Y85.0
G1 X168.0
G3 X167.0 Y84.0 I0.0 J-1.0
G1 Y75.0
G1 F200.0 Z-6.0
G1 F500.0 Y6.0
G3 X168.0 Y5.0 I1.0 J0.0
G1 X176.0
G0 Z-5.0
G1 X180.0
G1 F200.0 Z-6.0
G1 F500.0 X199.5
G1 X199.7929 Y5.2929
G1 X199.5 Y5.0
G1 Y0.0
G3 X200.5 Y-1.0 I1.0 J0.0
G1 X215.5
G3 X216.5 Y0.0 I0.0 J1.0
G1 Y5.0
G1 X216.2071 Y5.2929
G1 X216.5 Y5.0
G1 X230.0
G0 Z-5.0
G1 X234.0
G1 F200.0 Z-6.0
G1 F500.0 X248.0
G3 X249.0 Y6.0 I0.0 J1.0
G1 Y84.0
G3 X248.0 Y85.0 I-1.0 J0.0
G1 X237.0
G0 Z-5.0
G1 X233.0
G1 F200.0 Z-6.0
G1 F500.0 X216.5
G1 X216.2071 Y84.7071
G1 X216.5 Y85.0
G1 Y90.0
G3 X215.5 Y91.0 I-1.0 J0.0
G1 X200.5
G3 X199.5 Y90.0 I0.0 J-1.0
G1 Y85.0
G1 X199.7929 Y84.7071
G1 X199.5 Y85.0
G1 X183.0
G0 Z-5.0
G1 X179.0
G1 F200.0 Z-6.0
G1 F500.0 X168.0
G3 X167.0 Y84.0 I0.0 J-1.0
G1 Y75.0
G0 Z3.0
M5
M30
