( Made using CamBam - http://www.cambam.co.uk )
( SupportPompe 3/14/2017 6:44:44 PM )
( T0 : 2.0 )
G21 G90 G64 G40
G0 Z3.0
( T0 : 2.0 )
T0 M6
( Contour1 )
G17
M3 S1000
G0 X15.7742 Y21.8065
G1 F300.0 Z-1.0
G2 F800.0 Y16.1935 I14.2258 J-2.8065
G3 X14.7931 Y17.0 I-0.9811 J-0.1935
G1 X4.2931
G1 X4.0002 Y16.7071
G1 X4.2931 Y17.0
G1 Y21.0
G1 X4.0002 Y21.2929
G1 X4.2931 Y21.0
G1 X14.7931
G3 X15.7742 Y21.8065 I0.0 J1.0
G1 F300.0 Z-2.0
G2 F800.0 Y16.1935 I14.2258 J-2.8065
G3 X14.7931 Y17.0 I-0.9811 J-0.1935
G1 X4.2931
G1 X4.0002 Y16.7071
G1 X4.2931 Y17.0
G1 Y21.0
G1 X4.0002 Y21.2929
G1 X4.2931 Y21.0
G1 X14.7931
G3 X15.7742 Y21.8065 I0.0 J1.0
G1 F300.0 Z-3.0
G2 F800.0 Y16.1935 I14.2258 J-2.8065
G3 X14.7931 Y17.0 I-0.9811 J-0.1935
G1 X4.2931
G1 X4.0002 Y16.7071
G1 X4.2931 Y17.0
G1 Y21.0
G1 X4.0002 Y21.2929
G1 X4.2931 Y21.0
G1 X14.7931
G3 X15.7742 Y21.8065 I0.0 J1.0
G1 F300.0 Z-4.0
G2 F800.0 Y16.1935 I14.2258 J-2.8065
G3 X14.7931 Y17.0 I-0.9811 J-0.1935
G1 X4.2931
G1 X4.0002 Y16.7071
G1 X4.2931 Y17.0
G1 Y21.0
G1 X4.0002 Y21.2929
G1 X4.2931 Y21.0
G1 X14.7931
G3 X15.7742 Y21.8065 I0.0 J1.0
G1 F300.0 Z-5.0
G2 F800.0 Y16.1935 I14.2258 J-2.8065
G3 X14.7931 Y17.0 I-0.9811 J-0.1935
G1 X4.2931
G1 X4.0002 Y16.7071
G1 X4.2931 Y17.0
G1 Y21.0
G1 X4.0002 Y21.2929
G1 X4.2931 Y21.0
G1 X14.7931
G3 X15.7742 Y21.8065 I0.0 J1.0
G1 F300.0 Z-6.0
G2 F800.0 Y16.1935 I14.2258 J-2.8065
G3 X14.7931 Y17.0 I-0.9811 J-0.1935
G1 X4.2931
G1 X4.0002 Y16.7071
G1 X4.2931 Y17.0
G1 Y21.0
G1 X4.0002 Y21.2929
G1 X4.2931 Y21.0
G1 X14.7931
G3 X15.7742 Y21.8065 I0.0 J1.0
( Contour2 )
S1000
G0 Z3.0
G0 X-0.7069 Y27.0
G1 F300.0 Z-1.0
G1 F800.0 Y11.0
G3 X0.2931 Y10.0 I1.0 J0.0
G1 X12.6746
G1 X12.7671 Y10.1495
G1 X12.6746 Y10.0
G3 Y28.0 I17.3254 J9.0
G1 X12.7671 Y27.8505
G1 X12.6746 Y28.0
G1 X0.2931
G3 X-0.7069 Y27.0 I0.0 J-1.0
G1 F300.0 Z-2.0
G1 F800.0 Y11.0
G3 X0.2931 Y10.0 I1.0 J0.0
G1 X12.6746
G1 X12.7671 Y10.1495
G1 X12.6746 Y10.0
G3 Y28.0 I17.3254 J9.0
G1 X12.7671 Y27.8505
G1 X12.6746 Y28.0
G1 X0.2931
G3 X-0.7069 Y27.0 I0.0 J-1.0
G1 F300.0 Z-3.0
G1 F800.0 Y11.0
G3 X0.2931 Y10.0 I1.0 J0.0
G1 X12.6746
G1 X12.7671 Y10.1495
G1 X12.6746 Y10.0
G3 Y28.0 I17.3254 J9.0
G1 X12.7671 Y27.8505
G1 X12.6746 Y28.0
G1 X0.2931
G3 X-0.7069 Y27.0 I0.0 J-1.0
G1 F300.0 Z-4.0
G1 F800.0 Y11.0
G3 X0.2931 Y10.0 I1.0 J0.0
G1 X12.6746
G1 X12.7671 Y10.1495
G1 X12.6746 Y10.0
G3 Y28.0 I17.3254 J9.0
G1 X12.7671 Y27.8505
G1 X12.6746 Y28.0
G1 X0.2931
G3 X-0.7069 Y27.0 I0.0 J-1.0
G1 F300.0 Z-5.0
G1 F800.0 Y11.0
G3 X0.2931 Y10.0 I1.0 J0.0
G1 X12.6746
G1 X12.7671 Y10.1495
G1 X12.6746 Y10.0
G3 X16.9024 Y4.5217 I17.3254 J9.0
G0 Z-4.0
G3 X20.1281 Y2.1562 I13.0976 J14.4783
G1 F300.0 Z-5.0
G3 F800.0 X19.3056 Y35.3339 I9.8719 J16.8438
G0 Z-4.0
G3 X16.2012 Y32.8116 I10.6944 J-16.3339
G1 F300.0 Z-5.0
G3 F800.0 X12.6746 Y28.0 I13.7988 J-13.8116
G1 X12.7671 Y27.8505
G1 X12.6746 Y28.0
G1 X0.2931
G3 X-0.7069 Y27.0 I0.0 J-1.0
G1 F300.0 Z-6.0
G1 F800.0 Y11.0
G3 X0.2931 Y10.0 I1.0 J0.0
G1 X12.6746
G1 X12.7671 Y10.1495
G1 X12.6746 Y10.0
G3 X16.9024 Y4.5217 I17.3254 J9.0
G0 Z-4.0
G3 X20.1281 Y2.1562 I13.0976 J14.4783
G1 F300.0 Z-6.0
G3 F800.0 X19.3056 Y35.3339 I9.8719 J16.8438
G0 Z-4.0
G3 X16.2012 Y32.8116 I10.6944 J-16.3339
G1 F300.0 Z-6.0
G3 F800.0 X12.6746 Y28.0 I13.7988 J-13.8116
G1 X12.7671 Y27.8505
G1 X12.6746 Y28.0
G1 X0.2931
G3 X-0.7069 Y27.0 I0.0 J-1.0
G0 Z3.0
M5
M30
