( Made using CamBam - http://www.cambam.co.uk )
( cote1 5/24/2017 11:33:26 AM )
( T0 : 2.0 )
G21 G90 G64 G40
G0 Z3.0
( T0 : 2.0 )
T0 M6
( Contour1 )
G17
M3 S1000
G0 X53.5 Y50.0
G1 F200.0 Z-1.0
G2 F500.0 X52.75 Y49.567 I-0.5 J0.0
G2 Y50.433 I0.25 J0.433
G2 X53.5 Y50.0 I0.25 J-0.433
G1 F200.0 Z-2.0
G2 F500.0 X52.75 Y49.567 I-0.5 J0.0
G2 Y50.433 I0.25 J0.433
G2 X53.5 Y50.0 I0.25 J-0.433
G1 F200.0 Z-3.0
G2 F500.0 X52.75 Y49.567 I-0.5 J0.0
G2 Y50.433 I0.25 J0.433
G2 X53.5 Y50.0 I0.25 J-0.433
G1 F200.0 Z-4.0
G2 F500.0 X52.75 Y49.567 I-0.5 J0.0
G2 Y50.433 I0.25 J0.433
G2 X53.5 Y50.0 I0.25 J-0.433
G1 F200.0 Z-5.0
G2 F500.0 X52.75 Y49.567 I-0.5 J0.0
G2 Y50.433 I0.25 J0.433
G2 X53.5 Y50.0 I0.25 J-0.433
G1 F200.0 Z-6.0
G2 F500.0 X52.75 Y49.567 I-0.5 J0.0
G2 Y50.433 I0.25 J0.433
G2 X53.5 Y50.0 I0.25 J-0.433
G0 Z3.0
G0 X30.5
G1 F200.0 Z-1.0
G2 F500.0 X29.75 Y49.567 I-0.5 J0.0
G2 Y50.433 I0.25 J0.433
G2 X30.5 Y50.0 I0.25 J-0.433
G1 F200.0 Z-2.0
G2 F500.0 X29.75 Y49.567 I-0.5 J0.0
G2 Y50.433 I0.25 J0.433
G2 X30.5 Y50.0 I0.25 J-0.433
G1 F200.0 Z-3.0
G2 F500.0 X29.75 Y49.567 I-0.5 J0.0
G2 Y50.433 I0.25 J0.433
G2 X30.5 Y50.0 I0.25 J-0.433
G1 F200.0 Z-4.0
G2 F500.0 X29.75 Y49.567 I-0.5 J0.0
G2 Y50.433 I0.25 J0.433
G2 X30.5 Y50.0 I0.25 J-0.433
G1 F200.0 Z-5.0
G2 F500.0 X29.75 Y49.567 I-0.5 J0.0
G2 Y50.433 I0.25 J0.433
G2 X30.5 Y50.0 I0.25 J-0.433
G1 F200.0 Z-6.0
G2 F500.0 X29.75 Y49.567 I-0.5 J0.0
G2 Y50.433 I0.25 J0.433
G2 X30.5 Y50.0 I0.25 J-0.433
G0 Z3.0
G0 X3.4971 Y47.0542
G1 F200.0 Z-1.0
G2 F500.0 X3.5 Y47.0 I-0.4971 J-0.0542
G2 X2.75 Y46.567 I-0.5 J0.0
G2 Y47.433 I0.25 J0.433
G2 X3.4971 Y47.0542 I0.25 J-0.433
G1 F200.0 Z-2.0
G2 F500.0 X3.5 Y47.0 I-0.4971 J-0.0542
G2 X2.75 Y46.567 I-0.5 J0.0
G2 Y47.433 I0.25 J0.433
G2 X3.4971 Y47.0542 I0.25 J-0.433
G1 F200.0 Z-3.0
G2 F500.0 X3.5 Y47.0 I-0.4971 J-0.0542
G2 X2.75 Y46.567 I-0.5 J0.0
G2 Y47.433 I0.25 J0.433
G2 X3.4971 Y47.0542 I0.25 J-0.433
G1 F200.0 Z-4.0
G2 F500.0 X3.5 Y47.0 I-0.4971 J-0.0542
G2 X2.75 Y46.567 I-0.5 J0.0
G2 Y47.433 I0.25 J0.433
G2 X3.4971 Y47.0542 I0.25 J-0.433
G1 F200.0 Z-5.0
G2 F500.0 X3.5 Y47.0 I-0.4971 J-0.0542
G2 X2.75 Y46.567 I-0.5 J0.0
G2 Y47.433 I0.25 J0.433
G2 X3.4971 Y47.0542 I0.25 J-0.433
G1 F200.0 Z-6.0
G2 F500.0 X3.5 Y47.0 I-0.4971 J-0.0542
G2 X2.75 Y46.567 I-0.5 J0.0
G2 Y47.433 I0.25 J0.433
G2 X3.4971 Y47.0542 I0.25 J-0.433
G0 Z3.0
G0 X36.6973 Y3.398
G1 F200.0 Z-1.0
G2 F500.0 X36.75 Y3.433 I0.3027 J-0.398
G2 X37.5 Y3.0 I0.25 J-0.433
G2 X36.75 Y2.567 I-0.5 J0.0
G2 X36.6973 Y3.398 I0.25 J0.433
G1 F200.0 Z-2.0
G2 F500.0 X36.75 Y3.433 I0.3027 J-0.398
G2 X37.5 Y3.0 I0.25 J-0.433
G2 X36.75 Y2.567 I-0.5 J0.0
G2 X36.6973 Y3.398 I0.25 J0.433
G1 F200.0 Z-3.0
G2 F500.0 X36.75 Y3.433 I0.3027 J-0.398
G2 X37.5 Y3.0 I0.25 J-0.433
G2 X36.75 Y2.567 I-0.5 J0.0
G2 X36.6973 Y3.398 I0.25 J0.433
G1 F200.0 Z-4.0
G2 F500.0 X36.75 Y3.433 I0.3027 J-0.398
G2 X37.5 Y3.0 I0.25 J-0.433
G2 X36.75 Y2.567 I-0.5 J0.0
G2 X36.6973 Y3.398 I0.25 J0.433
G1 F200.0 Z-5.0
G2 F500.0 X36.75 Y3.433 I0.3027 J-0.398
G2 X37.5 Y3.0 I0.25 J-0.433
G2 X36.75 Y2.567 I-0.5 J0.0
G2 X36.6973 Y3.398 I0.25 J0.433
G1 F200.0 Z-6.0
G2 F500.0 X36.75 Y3.433 I0.3027 J-0.398
G2 X37.5 Y3.0 I0.25 J-0.433
G2 X36.75 Y2.567 I-0.5 J0.0
G2 X36.6973 Y3.398 I0.25 J0.433
G0 Z3.0
G0 X45.5005 Y3.0214
G1 F200.0 Z-1.0
G2 F500.0 X45.75 Y3.433 I0.4995 J-0.0214
G2 X46.5 Y3.0 I0.25 J-0.433
G2 X45.75 Y2.567 I-0.5 J0.0
G2 X45.5005 Y3.0214 I0.25 J0.433
G1 F200.0 Z-2.0
G2 F500.0 X45.75 Y3.433 I0.4995 J-0.0214
G2 X46.5 Y3.0 I0.25 J-0.433
G2 X45.75 Y2.567 I-0.5 J0.0
G2 X45.5005 Y3.0214 I0.25 J0.433
G1 F200.0 Z-3.0
G2 F500.0 X45.75 Y3.433 I0.4995 J-0.0214
G2 X46.5 Y3.0 I0.25 J-0.433
G2 X45.75 Y2.567 I-0.5 J0.0
G2 X45.5005 Y3.0214 I0.25 J0.433
G1 F200.0 Z-4.0
G2 F500.0 X45.75 Y3.433 I0.4995 J-0.0214
G2 X46.5 Y3.0 I0.25 J-0.433
G2 X45.75 Y2.567 I-0.5 J0.0
G2 X45.5005 Y3.0214 I0.25 J0.433
G1 F200.0 Z-5.0
G2 F500.0 X45.75 Y3.433 I0.4995 J-0.0214
G2 X46.5 Y3.0 I0.25 J-0.433
G2 X45.75 Y2.567 I-0.5 J0.0
G2 X45.5005 Y3.0214 I0.25 J0.433
G1 F200.0 Z-6.0
G2 F500.0 X45.75 Y3.433 I0.4995 J-0.0214
G2 X46.5 Y3.0 I0.25 J-0.433
G2 X45.75 Y2.567 I-0.5 J0.0
G2 X45.5005 Y3.0214 I0.25 J0.433
G0 Z3.0
G0 X79.6914 Y46.6066
G1 F200.0 Z-1.0
G2 F500.0 X79.75 Y47.433 I0.3086 J0.3934
G2 X80.5 Y47.0 I0.25 J-0.433
G2 X79.75 Y46.567 I-0.5 J0.0
G2 X79.6914 Y46.6066 I0.25 J0.433
G1 F200.0 Z-2.0
G2 F500.0 X79.75 Y47.433 I0.3086 J0.3934
G2 X80.5 Y47.0 I0.25 J-0.433
G2 X79.75 Y46.567 I-0.5 J0.0
G2 X79.6914 Y46.6066 I0.25 J0.433
G1 F200.0 Z-3.0
G2 F500.0 X79.75 Y47.433 I0.3086 J0.3934
G2 X80.5 Y47.0 I0.25 J-0.433
G2 X79.75 Y46.567 I-0.5 J0.0
G2 X79.6914 Y46.6066 I0.25 J0.433
G1 F200.0 Z-4.0
G2 F500.0 X79.75 Y47.433 I0.3086 J0.3934
G2 X80.5 Y47.0 I0.25 J-0.433
G2 X79.75 Y46.567 I-0.5 J0.0
G2 X79.6914 Y46.6066 I0.25 J0.433
G1 F200.0 Z-5.0
G2 F500.0 X79.75 Y47.433 I0.3086 J0.3934
G2 X80.5 Y47.0 I0.25 J-0.433
G2 X79.75 Y46.567 I-0.5 J0.0
G2 X79.6914 Y46.6066 I0.25 J0.433
G1 F200.0 Z-6.0
G2 F500.0 X79.75 Y47.433 I0.3086 J0.3934
G2 X80.5 Y47.0 I0.25 J-0.433
G2 X79.75 Y46.567 I-0.5 J0.0
G2 X79.6914 Y46.6066 I0.25 J0.433
( Poche1 )
S1000
G0 Z3.0
G0 X30.4 Y50.0
G1 F200.0 Z-1.0
G2 F500.0 X29.8 Y49.6536 I-0.4 J0.0
G2 Y50.3464 I0.2 J0.3464
G2 X30.4 Y50.0 I0.2 J-0.3464
G1 F200.0 X31.2
G2 F500.0 X29.4 Y48.9608 I-1.2 J0.0
G2 Y51.0392 I0.6 J1.0392
G2 X31.2 Y50.0 I0.6 J-1.0392
G1 F200.0 X32.0
G2 F500.0 X29.0 Y48.2679 I-2.0 J0.0
G2 Y51.7321 I1.0 J1.7321
G2 X32.0 Y50.0 I1.0 J-1.7321
G0 Z3.0
G0 X30.4
G1 F200.0 Z-2.0
G2 F500.0 X29.8 Y49.6536 I-0.4 J0.0
G2 Y50.3464 I0.2 J0.3464
G2 X30.4 Y50.0 I0.2 J-0.3464
G1 F200.0 X31.2
G2 F500.0 X29.4 Y48.9608 I-1.2 J0.0
G2 Y51.0392 I0.6 J1.0392
G2 X31.2 Y50.0 I0.6 J-1.0392
G1 F200.0 X32.0
G2 F500.0 X29.0 Y48.2679 I-2.0 J0.0
G2 Y51.7321 I1.0 J1.7321
G2 X32.0 Y50.0 I1.0 J-1.7321
G0 Z3.0
G0 X30.4
G1 F200.0 Z-3.0
G2 F500.0 X29.8 Y49.6536 I-0.4 J0.0
G2 Y50.3464 I0.2 J0.3464
G2 X30.4 Y50.0 I0.2 J-0.3464
G1 F200.0 X31.2
G2 F500.0 X29.4 Y48.9608 I-1.2 J0.0
G2 Y51.0392 I0.6 J1.0392
G2 X31.2 Y50.0 I0.6 J-1.0392
G1 F200.0 X32.0
G2 F500.0 X29.0 Y48.2679 I-2.0 J0.0
G2 Y51.7321 I1.0 J1.7321
G2 X32.0 Y50.0 I1.0 J-1.7321
G0 Z3.0
G0 X79.6058 Y47.0246
G1 F200.0 Z-1.0
G2 F500.0 X79.8025 Y47.3421 I0.3942 J-0.0246
G2 X80.395 Y47.0 I0.1975 J-0.3421
G2 X79.8025 Y46.6579 I-0.395 J0.0
G2 X79.6058 Y47.0246 I0.1975 J0.3421
G1 F200.0 X78.8073 Y47.0745
G2 F500.0 X79.4025 Y48.0349 I1.1927 J-0.0745
G2 X81.195 Y47.0 I0.5975 J-1.0349
G2 X79.4025 Y45.9651 I-1.195 J0.0
G2 X78.8073 Y47.0745 I0.5975 J1.0349
G1 F200.0 X78.0089 Y47.1244
G2 F500.0 X79.0025 Y48.7277 I1.9911 J-0.1244
G2 X81.995 Y47.0 I0.9975 J-1.7277
G2 X79.0025 Y45.2723 I-1.995 J0.0
G2 X78.0089 Y47.1244 I0.9975 J1.7277
G0 Z3.0
G0 X79.6058 Y47.0246
G1 F200.0 Z-2.0
G2 F500.0 X79.8025 Y47.3421 I0.3942 J-0.0246
G2 X80.395 Y47.0 I0.1975 J-0.3421
G2 X79.8025 Y46.6579 I-0.395 J0.0
G2 X79.6058 Y47.0246 I0.1975 J0.3421
G1 F200.0 X78.8073 Y47.0745
G2 F500.0 X79.4025 Y48.0349 I1.1927 J-0.0745
G2 X81.195 Y47.0 I0.5975 J-1.0349
G2 X79.4025 Y45.9651 I-1.195 J0.0
G2 X78.8073 Y47.0745 I0.5975 J1.0349
G1 F200.0 X78.0089 Y47.1244
G2 F500.0 X79.0025 Y48.7277 I1.9911 J-0.1244
G2 X81.995 Y47.0 I0.9975 J-1.7277
G2 X79.0025 Y45.2723 I-1.995 J0.0
G2 X78.0089 Y47.1244 I0.9975 J1.7277
G0 Z3.0
G0 X79.6058 Y47.0246
G1 F200.0 Z-3.0
G2 F500.0 X79.8025 Y47.3421 I0.3942 J-0.0246
G2 X80.395 Y47.0 I0.1975 J-0.3421
G2 X79.8025 Y46.6579 I-0.395 J0.0
G2 X79.6058 Y47.0246 I0.1975 J0.3421
G1 F200.0 X78.8073 Y47.0745
G2 F500.0 X79.4025 Y48.0349 I1.1927 J-0.0745
G2 X81.195 Y47.0 I0.5975 J-1.0349
G2 X79.4025 Y45.9651 I-1.195 J0.0
G2 X78.8073 Y47.0745 I0.5975 J1.0349
G1 F200.0 X78.0089 Y47.1244
G2 F500.0 X79.0025 Y48.7277 I1.9911 J-0.1244
G2 X81.995 Y47.0 I0.9975 J-1.7277
G2 X79.0025 Y45.2723 I-1.995 J0.0
G2 X78.0089 Y47.1244 I0.9975 J1.7277
G0 Z3.0
G0 X46.2319 Y3.3197
G1 F200.0 Z-1.0
G2 F500.0 X46.395 Y3.0 I-0.2319 J-0.3197
G2 X45.8025 Y2.6579 I-0.395 J0.0
G2 Y3.3421 I0.1975 J0.3421
G2 X46.2319 Y3.3197 I0.1975 J-0.3421
G1 F200.0 X46.7017 Y3.9673
G2 F500.0 X47.195 Y3.0 I-0.7017 J-0.9673
G2 X45.4025 Y1.9651 I-1.195 J0.0
G2 Y4.0349 I0.5975 J1.0349
G2 X46.7017 Y3.9673 I0.5975 J-1.0349
G1 F200.0 X47.1714 Y4.6148
G2 F500.0 X47.995 Y3.0 I-1.1714 J-1.6148
G2 X45.0025 Y1.2723 I-1.995 J0.0
G2 Y4.7277 I0.9975 J1.7277
G2 X47.1714 Y4.6148 I0.9975 J-1.7277
G0 Z3.0
G0 X46.2319 Y3.3197
G1 F200.0 Z-2.0
G2 F500.0 X46.395 Y3.0 I-0.2319 J-0.3197
G2 X45.8025 Y2.6579 I-0.395 J0.0
G2 Y3.3421 I0.1975 J0.3421
G2 X46.2319 Y3.3197 I0.1975 J-0.3421
G1 F200.0 X46.7017 Y3.9673
G2 F500.0 X47.195 Y3.0 I-0.7017 J-0.9673
G2 X45.4025 Y1.9651 I-1.195 J0.0
G2 Y4.0349 I0.5975 J1.0349
G2 X46.7017 Y3.9673 I0.5975 J-1.0349
G1 F200.0 X47.1714 Y4.6148
G2 F500.0 X47.995 Y3.0 I-1.1714 J-1.6148
G2 X45.0025 Y1.2723 I-1.995 J0.0
G2 Y4.7277 I0.9975 J1.7277
G2 X47.1714 Y4.6148 I0.9975 J-1.7277
G0 Z3.0
G0 X46.2319 Y3.3197
G1 F200.0 Z-3.0
G2 F500.0 X46.395 Y3.0 I-0.2319 J-0.3197
G2 X45.8025 Y2.6579 I-0.395 J0.0
G2 Y3.3421 I0.1975 J0.3421
G2 X46.2319 Y3.3197 I0.1975 J-0.3421
G1 F200.0 X46.7017 Y3.9673
G2 F500.0 X47.195 Y3.0 I-0.7017 J-0.9673
G2 X45.4025 Y1.9651 I-1.195 J0.0
G2 Y4.0349 I0.5975 J1.0349
G2 X46.7017 Y3.9673 I0.5975 J-1.0349
G1 F200.0 X47.1714 Y4.6148
G2 F500.0 X47.995 Y3.0 I-1.1714 J-1.6148
G2 X45.0025 Y1.2723 I-1.995 J0.0
G2 Y4.7277 I0.9975 J1.7277
G2 X47.1714 Y4.6148 I0.9975 J-1.7277
( Contour2 )
S1000
G0 Z3.0
G0 X-1.0 Y50.0
G1 F200.0 Z-1.0
G1 F500.0 Y0.0
G3 X0.0 Y-1.0 I1.0 J0.0
G1 X40.0
G3 X41.0 Y0.0 I0.0 J1.0
G1 Y120.0
G3 X40.0 Y121.0 I-1.0 J0.0
G1 X20.0
G3 X19.0 Y120.0 I0.0 J-1.0
G1 Y51.0
G1 X19.2929 Y50.7071
G1 X19.0 Y51.0
G1 X0.0
G3 X-1.0 Y50.0 I0.0 J-1.0
G0 Z3.0
G0 X42.0
G1 F200.0 Z-1.0
G1 F500.0 Y0.0
G3 X43.0 Y-1.0 I1.0 J0.0
G1 X83.0
G3 X84.0 Y0.0 I0.0 J1.0
G1 Y50.0
G3 X83.0 Y51.0 I-1.0 J0.0
G1 X64.0
G1 X63.7071 Y50.7071
G1 X64.0 Y51.0
G1 Y120.0
G3 X63.0 Y121.0 I-1.0 J0.0
G1 X43.0
G3 X42.0 Y120.0 I0.0 J-1.0
G1 Y50.0
G1 F200.0 Z-2.0
G1 F500.0 Y0.0
G3 X43.0 Y-1.0 I1.0 J0.0
G1 X83.0
G3 X84.0 Y0.0 I0.0 J1.0
G1 Y50.0
G3 X83.0 Y51.0 I-1.0 J0.0
G1 X64.0
G1 X63.7071 Y50.7071
G1 X64.0 Y51.0
G1 Y120.0
G3 X63.0 Y121.0 I-1.0 J0.0
G1 X43.0
G3 X42.0 Y120.0 I0.0 J-1.0
G1 Y50.0
G1 F200.0 X41.0
G1 F500.0 Y120.0
G3 X40.0 Y121.0 I-1.0 J0.0
G1 X20.0
G3 X19.0 Y120.0 I0.0 J-1.0
G1 Y51.0
G1 X19.2929 Y50.7071
G1 X19.0 Y51.0
G1 X0.0
G3 X-1.0 Y50.0 I0.0 J-1.0
G1 Y0.0
G3 X0.0 Y-1.0 I1.0 J0.0
G1 X40.0
G3 X41.0 Y0.0 I0.0 J1.0
G1 Y50.0
G1 F200.0 Z-3.0
G1 F500.0 Y120.0
G3 X40.0 Y121.0 I-1.0 J0.0
G1 X20.0
G3 X19.0 Y120.0 I0.0 J-1.0
G1 Y51.0
G1 X19.2929 Y50.7071
G1 X19.0 Y51.0
G1 X0.0
G3 X-1.0 Y50.0 I0.0 J-1.0
G1 Y0.0
G3 X0.0 Y-1.0 I1.0 J0.0
G1 X40.0
G3 X41.0 Y0.0 I0.0 J1.0
G1 Y50.0
G1 F200.0 X42.0
G1 F500.0 Y0.0
G3 X43.0 Y-1.0 I1.0 J0.0
G1 X83.0
G3 X84.0 Y0.0 I0.0 J1.0
G1 Y50.0
G3 X83.0 Y51.0 I-1.0 J0.0
G1 X64.0
G1 X63.7071 Y50.7071
G1 X64.0 Y51.0
G1 Y120.0
G3 X63.0 Y121.0 I-1.0 J0.0
G1 X43.0
G3 X42.0 Y120.0 I0.0 J-1.0
G1 Y50.0
G1 F200.0 Z-4.0
G1 F500.0 Y0.0
G3 X43.0 Y-1.0 I1.0 J0.0
G1 X83.0
G3 X84.0 Y0.0 I0.0 J1.0
G1 Y50.0
G3 X83.0 Y51.0 I-1.0 J0.0
G1 X64.0
G1 X63.7071 Y50.7071
G1 X64.0 Y51.0
G1 Y120.0
G3 X63.0 Y121.0 I-1.0 J0.0
G1 X43.0
G3 X42.0 Y120.0 I0.0 J-1.0
G1 Y50.0
G1 F200.0 X41.0
G1 F500.0 Y120.0
G3 X40.0 Y121.0 I-1.0 J0.0
G1 X20.0
G3 X19.0 Y120.0 I0.0 J-1.0
G1 Y51.0
G1 X19.2929 Y50.7071
G1 X19.0 Y51.0
G1 X0.0
G3 X-1.0 Y50.0 I0.0 J-1.0
G1 Y0.0
G3 X0.0 Y-1.0 I1.0 J0.0
G1 X40.0
G3 X41.0 Y0.0 I0.0 J1.0
G1 Y50.0
G1 F200.0 Z-5.0
G1 F500.0 Y120.0
G3 X40.0 Y121.0 I-1.0 J0.0
G1 X31.0
G0 Z-4.0
G1 X27.0
G1 F200.0 Z-5.0
G1 F500.0 X20.0
G3 X19.0 Y120.0 I0.0 J-1.0
G1 Y85.3333
G0 Z-4.0
G1 Y81.3333
G1 F200.0 Z-5.0
G1 F500.0 Y51.0
G1 X19.2929 Y50.7071
G1 X19.0 Y51.0
G1 X0.0
G3 X-1.0 Y50.0 I0.0 J-1.0
G1 Y0.0
G3 X0.0 Y-1.0 I1.0 J0.0
G1 X26.0
G0 Z-4.0
G1 X30.0
G1 F200.0 Z-5.0
G1 F500.0 X40.0
G3 X41.0 Y0.0 I0.0 J1.0
G1 Y50.0
G1 F200.0 X42.0
G1 F500.0 Y0.0
G3 X43.0 Y-1.0 I1.0 J0.0
G1 X52.0
G0 Z-4.0
G1 X56.0
G1 F200.0 Z-5.0
G1 F500.0 X83.0
G3 X84.0 Y0.0 I0.0 J1.0
G1 Y50.0
G3 X83.0 Y51.0 I-1.0 J0.0
G1 X64.0
G1 X63.7071 Y50.7071
G1 X64.0 Y51.0
G1 Y64.6667
G0 Z-4.0
G1 Y68.6667
G1 F200.0 Z-5.0
G1 F500.0 Y120.0
G3 X63.0 Y121.0 I-1.0 J0.0
G1 X56.0
G0 Z-4.0
G1 X52.0
G1 F200.0 Z-5.0
G1 F500.0 X43.0
G3 X42.0 Y120.0 I0.0 J-1.0
G1 Y50.0
G1 F200.0 Z-6.0
G1 F500.0 Y0.0
G3 X43.0 Y-1.0 I1.0 J0.0
G1 X52.0
G0 Z-4.0
G1 X56.0
G1 F200.0 Z-6.0
G1 F500.0 X83.0
G3 X84.0 Y0.0 I0.0 J1.0
G1 Y50.0
G3 X83.0 Y51.0 I-1.0 J0.0
G1 X64.0
G1 X63.7071 Y50.7071
G1 X64.0 Y51.0
G1 Y64.6667
G0 Z-4.0
G1 Y68.6667
G1 F200.0 Z-6.0
G1 F500.0 Y120.0
G3 X63.0 Y121.0 I-1.0 J0.0
G1 X56.0
G0 Z-4.0
G1 X52.0
G1 F200.0 Z-6.0
G1 F500.0 X43.0
G3 X42.0 Y120.0 I0.0 J-1.0
G1 Y50.0
G1 F200.0 X41.0
G1 F500.0 Y120.0
G3 X40.0 Y121.0 I-1.0 J0.0
G1 X31.0
G0 Z-4.0
G1 X27.0
G1 F200.0 Z-6.0
G1 F500.0 X20.0
G3 X19.0 Y120.0 I0.0 J-1.0
G1 Y85.3333
G0 Z-4.0
G1 Y81.3333
G1 F200.0 Z-6.0
G1 F500.0 Y51.0
G1 X19.2929 Y50.7071
G1 X19.0 Y51.0
G1 X0.0
G3 X-1.0 Y50.0 I0.0 J-1.0
G1 Y0.0
G3 X0.0 Y-1.0 I1.0 J0.0
G1 X26.0
G0 Z-4.0
G1 X30.0
G1 F200.0 Z-6.0
G1 F500.0 X40.0
G3 X41.0 Y0.0 I0.0 J1.0
G1 Y50.0
G0 Z3.0
M5
M30
