( Made using CamBam - http://www.cambam.co.uk )
( Bati 1/21/2016 3:31:16 PM )
( T0 : 1.5 )
G21 G90 G64 G40
G0 Z3.0
( T0 : 1.5 )
T0 M6
( Poche1 )
G17
M3 S1000
G0 X190.98 Y29.0
G1 F300.0 Z-1.0
G2 F800.0 X190.605 Y28.7835 I-0.25 J0.0
G2 Y29.2165 I0.125 J0.2165
G2 X190.98 Y29.0 I0.125 J-0.2165
G1 F300.0 X191.58
G2 F800.0 X190.305 Y28.2639 I-0.85 J0.0
G2 Y29.7361 I0.425 J0.7361
G2 X191.58 Y29.0 I0.425 J-0.7361
G1 F300.0 X192.18
G2 F800.0 X190.005 Y27.7443 I-1.45 J0.0
G2 Y30.2557 I0.725 J1.2557
G2 X192.18 Y29.0 I0.725 J-1.2557
G1 F300.0 X192.78
G2 F800.0 X189.705 Y27.2246 I-2.05 J0.0
G2 Y30.7754 I1.025 J1.7754
G2 X192.78 Y29.0 I1.025 J-1.7754
G1 F300.0 X193.38
G2 F800.0 X189.405 Y26.705 I-2.65 J0.0
G2 Y31.295 I1.325 J2.295
G2 X193.38 Y29.0 I1.325 J-2.295
G1 F300.0 X193.98
G2 F800.0 X189.105 Y26.1854 I-3.25 J0.0
G2 Y31.8146 I1.625 J2.8146
G2 X193.98 Y29.0 I1.625 J-2.8146
G1 F300.0 X194.58
G2 F800.0 X188.805 Y25.6658 I-3.85 J0.0
G2 Y32.3342 I1.925 J3.3342
G2 X194.58 Y29.0 I1.925 J-3.3342
G1 F300.0 X195.18
G2 F800.0 X188.505 Y25.1462 I-4.45 J0.0
G2 Y32.8538 I2.225 J3.8538
G2 X195.18 Y29.0 I2.225 J-3.8538
G1 F300.0 X195.78
G2 F800.0 X188.205 Y24.6266 I-5.05 J0.0
G2 Y33.3734 I2.525 J4.3734
G2 X195.78 Y29.0 I2.525 J-4.3734
G1 F300.0 X196.38
G2 F800.0 X187.905 Y24.107 I-5.65 J0.0
G2 Y33.893 I2.825 J4.893
G2 X196.38 Y29.0 I2.825 J-4.893
G1 F300.0 X196.98
G2 F800.0 X187.605 Y23.5873 I-6.25 J0.0
G2 Y34.4127 I3.125 J5.4127
G2 X196.98 Y29.0 I3.125 J-5.4127
G1 F300.0 X197.58
G2 F800.0 X187.305 Y23.0677 I-6.85 J0.0
G2 Y34.9323 I3.425 J5.9323
G2 X197.58 Y29.0 I3.425 J-5.9323
G1 F300.0 X198.18
G2 F800.0 X187.005 Y22.5481 I-7.45 J0.0
G2 Y35.4519 I3.725 J6.4519
G2 X198.18 Y29.0 I3.725 J-6.4519
G1 F300.0 X198.78
G2 F800.0 X186.705 Y22.0285 I-8.05 J0.0
G2 Y35.9715 I4.025 J6.9715
G2 X198.78 Y29.0 I4.025 J-6.9715
G1 F300.0 X199.38
G2 F800.0 X186.405 Y21.5089 I-8.65 J0.0
G2 Y36.4911 I4.325 J7.4911
G2 X199.38 Y29.0 I4.325 J-7.4911
G1 F300.0 X199.98
G2 F800.0 X186.105 Y20.9893 I-9.25 J0.0
G2 Y37.0107 I4.625 J8.0107
G2 X199.98 Y29.0 I4.625 J-8.0107
G0 Z3.0
G0 X190.98
G1 F300.0 Z-2.0
G2 F800.0 X190.605 Y28.7835 I-0.25 J0.0
G2 Y29.2165 I0.125 J0.2165
G2 X190.98 Y29.0 I0.125 J-0.2165
G1 F300.0 X191.58
G2 F800.0 X190.305 Y28.2639 I-0.85 J0.0
G2 Y29.7361 I0.425 J0.7361
G2 X191.58 Y29.0 I0.425 J-0.7361
G1 F300.0 X192.18
G2 F800.0 X190.005 Y27.7443 I-1.45 J0.0
G2 Y30.2557 I0.725 J1.2557
G2 X192.18 Y29.0 I0.725 J-1.2557
G1 F300.0 X192.78
G2 F800.0 X189.705 Y27.2246 I-2.05 J0.0
G2 Y30.7754 I1.025 J1.7754
G2 X192.78 Y29.0 I1.025 J-1.7754
G1 F300.0 X193.38
G2 F800.0 X189.405 Y26.705 I-2.65 J0.0
G2 Y31.295 I1.325 J2.295
G2 X193.38 Y29.0 I1.325 J-2.295
G1 F300.0 X193.98
G2 F800.0 X189.105 Y26.1854 I-3.25 J0.0
G2 Y31.8146 I1.625 J2.8146
G2 X193.98 Y29.0 I1.625 J-2.8146
G1 F300.0 X194.58
G2 F800.0 X188.805 Y25.6658 I-3.85 J0.0
G2 Y32.3342 I1.925 J3.3342
G2 X194.58 Y29.0 I1.925 J-3.3342
G1 F300.0 X195.18
G2 F800.0 X188.505 Y25.1462 I-4.45 J0.0
G2 Y32.8538 I2.225 J3.8538
G2 X195.18 Y29.0 I2.225 J-3.8538
G1 F300.0 X195.78
G2 F800.0 X188.205 Y24.6266 I-5.05 J0.0
G2 Y33.3734 I2.525 J4.3734
G2 X195.78 Y29.0 I2.525 J-4.3734
G1 F300.0 X196.38
G2 F800.0 X187.905 Y24.107 I-5.65 J0.0
G2 Y33.893 I2.825 J4.893
G2 X196.38 Y29.0 I2.825 J-4.893
G1 F300.0 X196.98
G2 F800.0 X187.605 Y23.5873 I-6.25 J0.0
G2 Y34.4127 I3.125 J5.4127
G2 X196.98 Y29.0 I3.125 J-5.4127
G1 F300.0 X197.58
G2 F800.0 X187.305 Y23.0677 I-6.85 J0.0
G2 Y34.9323 I3.425 J5.9323
G2 X197.58 Y29.0 I3.425 J-5.9323
G1 F300.0 X198.18
G2 F800.0 X187.005 Y22.5481 I-7.45 J0.0
G2 Y35.4519 I3.725 J6.4519
G2 X198.18 Y29.0 I3.725 J-6.4519
G1 F300.0 X198.78
G2 F800.0 X186.705 Y22.0285 I-8.05 J0.0
G2 Y35.9715 I4.025 J6.9715
G2 X198.78 Y29.0 I4.025 J-6.9715
G1 F300.0 X199.38
G2 F800.0 X186.405 Y21.5089 I-8.65 J0.0
G2 Y36.4911 I4.325 J7.4911
G2 X199.38 Y29.0 I4.325 J-7.4911
G1 F300.0 X199.98
G2 F800.0 X186.105 Y20.9893 I-9.25 J0.0
G2 Y37.0107 I4.625 J8.0107
G2 X199.98 Y29.0 I4.625 J-8.0107
G0 Z3.0
G0 X190.98
G1 F300.0 Z-3.0
G2 F800.0 X190.605 Y28.7835 I-0.25 J0.0
G2 Y29.2165 I0.125 J0.2165
G2 X190.98 Y29.0 I0.125 J-0.2165
G1 F300.0 X191.58
G2 F800.0 X190.305 Y28.2639 I-0.85 J0.0
G2 Y29.7361 I0.425 J0.7361
G2 X191.58 Y29.0 I0.425 J-0.7361
G1 F300.0 X192.18
G2 F800.0 X190.005 Y27.7443 I-1.45 J0.0
G2 Y30.2557 I0.725 J1.2557
G2 X192.18 Y29.0 I0.725 J-1.2557
G1 F300.0 X192.78
G2 F800.0 X189.705 Y27.2246 I-2.05 J0.0
G2 Y30.7754 I1.025 J1.7754
G2 X192.78 Y29.0 I1.025 J-1.7754
G1 F300.0 X193.38
G2 F800.0 X189.405 Y26.705 I-2.65 J0.0
G2 Y31.295 I1.325 J2.295
G2 X193.38 Y29.0 I1.325 J-2.295
G1 F300.0 X193.98
G2 F800.0 X189.105 Y26.1854 I-3.25 J0.0
G2 Y31.8146 I1.625 J2.8146
G2 X193.98 Y29.0 I1.625 J-2.8146
G1 F300.0 X194.58
G2 F800.0 X188.805 Y25.6658 I-3.85 J0.0
G2 Y32.3342 I1.925 J3.3342
G2 X194.58 Y29.0 I1.925 J-3.3342
G1 F300.0 X195.18
G2 F800.0 X188.505 Y25.1462 I-4.45 J0.0
G2 Y32.8538 I2.225 J3.8538
G2 X195.18 Y29.0 I2.225 J-3.8538
G1 F300.0 X195.78
G2 F800.0 X188.205 Y24.6266 I-5.05 J0.0
G2 Y33.3734 I2.525 J4.3734
G2 X195.78 Y29.0 I2.525 J-4.3734
G1 F300.0 X196.38
G2 F800.0 X187.905 Y24.107 I-5.65 J0.0
G2 Y33.893 I2.825 J4.893
G2 X196.38 Y29.0 I2.825 J-4.893
G1 F300.0 X196.98
G2 F800.0 X187.605 Y23.5873 I-6.25 J0.0
G2 Y34.4127 I3.125 J5.4127
G2 X196.98 Y29.0 I3.125 J-5.4127
G1 F300.0 X197.58
G2 F800.0 X187.305 Y23.0677 I-6.85 J0.0
G2 Y34.9323 I3.425 J5.9323
G2 X197.58 Y29.0 I3.425 J-5.9323
G1 F300.0 X198.18
G2 F800.0 X187.005 Y22.5481 I-7.45 J0.0
G2 Y35.4519 I3.725 J6.4519
G2 X198.18 Y29.0 I3.725 J-6.4519
G1 F300.0 X198.78
G2 F800.0 X186.705 Y22.0285 I-8.05 J0.0
G2 Y35.9715 I4.025 J6.9715
G2 X198.78 Y29.0 I4.025 J-6.9715
G1 F300.0 X199.38
G2 F800.0 X186.405 Y21.5089 I-8.65 J0.0
G2 Y36.4911 I4.325 J7.4911
G2 X199.38 Y29.0 I4.325 J-7.4911
G1 F300.0 X199.98
G2 F800.0 X186.105 Y20.9893 I-9.25 J0.0
G2 Y37.0107 I4.625 J8.0107
G2 X199.98 Y29.0 I4.625 J-8.0107
G0 Z3.0
G0 X190.98
G1 F300.0 Z-4.0
G2 F800.0 X190.605 Y28.7835 I-0.25 J0.0
G2 Y29.2165 I0.125 J0.2165
G2 X190.98 Y29.0 I0.125 J-0.2165
G1 F300.0 X191.58
G2 F800.0 X190.305 Y28.2639 I-0.85 J0.0
G2 Y29.7361 I0.425 J0.7361
G2 X191.58 Y29.0 I0.425 J-0.7361
G1 F300.0 X192.18
G2 F800.0 X190.005 Y27.7443 I-1.45 J0.0
G2 Y30.2557 I0.725 J1.2557
G2 X192.18 Y29.0 I0.725 J-1.2557
G1 F300.0 X192.78
G2 F800.0 X189.705 Y27.2246 I-2.05 J0.0
G2 Y30.7754 I1.025 J1.7754
G2 X192.78 Y29.0 I1.025 J-1.7754
G1 F300.0 X193.38
G2 F800.0 X189.405 Y26.705 I-2.65 J0.0
G2 Y31.295 I1.325 J2.295
G2 X193.38 Y29.0 I1.325 J-2.295
G1 F300.0 X193.98
G2 F800.0 X189.105 Y26.1854 I-3.25 J0.0
G2 Y31.8146 I1.625 J2.8146
G2 X193.98 Y29.0 I1.625 J-2.8146
G1 F300.0 X194.58
G2 F800.0 X188.805 Y25.6658 I-3.85 J0.0
G2 Y32.3342 I1.925 J3.3342
G2 X194.58 Y29.0 I1.925 J-3.3342
G1 F300.0 X195.18
G2 F800.0 X188.505 Y25.1462 I-4.45 J0.0
G2 Y32.8538 I2.225 J3.8538
G2 X195.18 Y29.0 I2.225 J-3.8538
G1 F300.0 X195.78
G2 F800.0 X188.205 Y24.6266 I-5.05 J0.0
G2 Y33.3734 I2.525 J4.3734
G2 X195.78 Y29.0 I2.525 J-4.3734
G1 F300.0 X196.38
G2 F800.0 X187.905 Y24.107 I-5.65 J0.0
G2 Y33.893 I2.825 J4.893
G2 X196.38 Y29.0 I2.825 J-4.893
G1 F300.0 X196.98
G2 F800.0 X187.605 Y23.5873 I-6.25 J0.0
G2 Y34.4127 I3.125 J5.4127
G2 X196.98 Y29.0 I3.125 J-5.4127
G1 F300.0 X197.58
G2 F800.0 X187.305 Y23.0677 I-6.85 J0.0
G2 Y34.9323 I3.425 J5.9323
G2 X197.58 Y29.0 I3.425 J-5.9323
G1 F300.0 X198.18
G2 F800.0 X187.005 Y22.5481 I-7.45 J0.0
G2 Y35.4519 I3.725 J6.4519
G2 X198.18 Y29.0 I3.725 J-6.4519
G1 F300.0 X198.78
G2 F800.0 X186.705 Y22.0285 I-8.05 J0.0
G2 Y35.9715 I4.025 J6.9715
G2 X198.78 Y29.0 I4.025 J-6.9715
G1 F300.0 X199.38
G2 F800.0 X186.405 Y21.5089 I-8.65 J0.0
G2 Y36.4911 I4.325 J7.4911
G2 X199.38 Y29.0 I4.325 J-7.4911
G1 F300.0 X199.98
G2 F800.0 X186.105 Y20.9893 I-9.25 J0.0
G2 Y37.0107 I4.625 J8.0107
G2 X199.98 Y29.0 I4.625 J-8.0107
G0 Z3.0
G0 X190.98
G1 F300.0 Z-5.0
G2 F800.0 X190.605 Y28.7835 I-0.25 J0.0
G2 Y29.2165 I0.125 J0.2165
G2 X190.98 Y29.0 I0.125 J-0.2165
G1 F300.0 X191.58
G2 F800.0 X190.305 Y28.2639 I-0.85 J0.0
G2 Y29.7361 I0.425 J0.7361
G2 X191.58 Y29.0 I0.425 J-0.7361
G1 F300.0 X192.18
G2 F800.0 X190.005 Y27.7443 I-1.45 J0.0
G2 Y30.2557 I0.725 J1.2557
G2 X192.18 Y29.0 I0.725 J-1.2557
G1 F300.0 X192.78
G2 F800.0 X189.705 Y27.2246 I-2.05 J0.0
G2 Y30.7754 I1.025 J1.7754
G2 X192.78 Y29.0 I1.025 J-1.7754
G1 F300.0 X193.38
G2 F800.0 X189.405 Y26.705 I-2.65 J0.0
G2 Y31.295 I1.325 J2.295
G2 X193.38 Y29.0 I1.325 J-2.295
G1 F300.0 X193.98
G2 F800.0 X189.105 Y26.1854 I-3.25 J0.0
G2 Y31.8146 I1.625 J2.8146
G2 X193.98 Y29.0 I1.625 J-2.8146
G1 F300.0 X194.58
G2 F800.0 X188.805 Y25.6658 I-3.85 J0.0
G2 Y32.3342 I1.925 J3.3342
G2 X194.58 Y29.0 I1.925 J-3.3342
G1 F300.0 X195.18
G2 F800.0 X188.505 Y25.1462 I-4.45 J0.0
G2 Y32.8538 I2.225 J3.8538
G2 X195.18 Y29.0 I2.225 J-3.8538
G1 F300.0 X195.78
G2 F800.0 X188.205 Y24.6266 I-5.05 J0.0
G2 Y33.3734 I2.525 J4.3734
G2 X195.78 Y29.0 I2.525 J-4.3734
G1 F300.0 X196.38
G2 F800.0 X187.905 Y24.107 I-5.65 J0.0
G2 Y33.893 I2.825 J4.893
G2 X196.38 Y29.0 I2.825 J-4.893
G1 F300.0 X196.98
G2 F800.0 X187.605 Y23.5873 I-6.25 J0.0
G2 Y34.4127 I3.125 J5.4127
G2 X196.98 Y29.0 I3.125 J-5.4127
G1 F300.0 X197.58
G2 F800.0 X187.305 Y23.0677 I-6.85 J0.0
G2 Y34.9323 I3.425 J5.9323
G2 X197.58 Y29.0 I3.425 J-5.9323
G1 F300.0 X198.18
G2 F800.0 X187.005 Y22.5481 I-7.45 J0.0
G2 Y35.4519 I3.725 J6.4519
G2 X198.18 Y29.0 I3.725 J-6.4519
G1 F300.0 X198.78
G2 F800.0 X186.705 Y22.0285 I-8.05 J0.0
G2 Y35.9715 I4.025 J6.9715
G2 X198.78 Y29.0 I4.025 J-6.9715
G1 F300.0 X199.38
G2 F800.0 X186.405 Y21.5089 I-8.65 J0.0
G2 Y36.4911 I4.325 J7.4911
G2 X199.38 Y29.0 I4.325 J-7.4911
G1 F300.0 X199.98
G2 F800.0 X186.105 Y20.9893 I-9.25 J0.0
G2 Y37.0107 I4.625 J8.0107
G2 X199.98 Y29.0 I4.625 J-8.0107
G0 Z3.0
G0 X190.98
G1 F300.0 Z-6.0
G2 F800.0 X190.605 Y28.7835 I-0.25 J0.0
G2 Y29.2165 I0.125 J0.2165
G2 X190.98 Y29.0 I0.125 J-0.2165
G1 F300.0 X191.58
G2 F800.0 X190.305 Y28.2639 I-0.85 J0.0
G2 Y29.7361 I0.425 J0.7361
G2 X191.58 Y29.0 I0.425 J-0.7361
G1 F300.0 X192.18
G2 F800.0 X190.005 Y27.7443 I-1.45 J0.0
G2 Y30.2557 I0.725 J1.2557
G2 X192.18 Y29.0 I0.725 J-1.2557
G1 F300.0 X192.78
G2 F800.0 X189.705 Y27.2246 I-2.05 J0.0
G2 Y30.7754 I1.025 J1.7754
G2 X192.78 Y29.0 I1.025 J-1.7754
G1 F300.0 X193.38
G2 F800.0 X189.405 Y26.705 I-2.65 J0.0
G2 Y31.295 I1.325 J2.295
G2 X193.38 Y29.0 I1.325 J-2.295
G1 F300.0 X193.98
G2 F800.0 X189.105 Y26.1854 I-3.25 J0.0
G2 Y31.8146 I1.625 J2.8146
G2 X193.98 Y29.0 I1.625 J-2.8146
G1 F300.0 X194.58
G2 F800.0 X188.805 Y25.6658 I-3.85 J0.0
G2 Y32.3342 I1.925 J3.3342
G2 X194.58 Y29.0 I1.925 J-3.3342
G1 F300.0 X195.18
G2 F800.0 X188.505 Y25.1462 I-4.45 J0.0
G2 Y32.8538 I2.225 J3.8538
G2 X195.18 Y29.0 I2.225 J-3.8538
G1 F300.0 X195.78
G2 F800.0 X188.205 Y24.6266 I-5.05 J0.0
G2 Y33.3734 I2.525 J4.3734
G2 X195.78 Y29.0 I2.525 J-4.3734
G1 F300.0 X196.38
G2 F800.0 X187.905 Y24.107 I-5.65 J0.0
G2 Y33.893 I2.825 J4.893
G2 X196.38 Y29.0 I2.825 J-4.893
G1 F300.0 X196.98
G2 F800.0 X187.605 Y23.5873 I-6.25 J0.0
G2 Y34.4127 I3.125 J5.4127
G2 X196.98 Y29.0 I3.125 J-5.4127
G1 F300.0 X197.58
G2 F800.0 X187.305 Y23.0677 I-6.85 J0.0
G2 Y34.9323 I3.425 J5.9323
G2 X197.58 Y29.0 I3.425 J-5.9323
G1 F300.0 X198.18
G2 F800.0 X187.005 Y22.5481 I-7.45 J0.0
G2 Y35.4519 I3.725 J6.4519
G2 X198.18 Y29.0 I3.725 J-6.4519
G1 F300.0 X198.78
G2 F800.0 X186.705 Y22.0285 I-8.05 J0.0
G2 Y35.9715 I4.025 J6.9715
G2 X198.78 Y29.0 I4.025 J-6.9715
G1 F300.0 X199.38
G2 F800.0 X186.405 Y21.5089 I-8.65 J0.0
G2 Y36.4911 I4.325 J7.4911
G2 X199.38 Y29.0 I4.325 J-7.4911
G1 F300.0 X199.98
G2 F800.0 X186.105 Y20.9893 I-9.25 J0.0
G2 Y37.0107 I4.625 J8.0107
G2 X199.98 Y29.0 I4.625 J-8.0107
G0 Z3.0
G0 X25.2235 Y60.955
G1 F300.0 Z-1.0
G2 F800.0 X24.8526 Y60.7835 I-0.2459 J0.045
G2 Y61.2165 I0.125 J0.2165
G2 X25.2276 Y61.0 I0.125 J-0.2165
G2 X25.2235 Y60.955 I-0.25 J0.0
G1 F300.0 X25.8137 Y60.8471
G2 F800.0 X24.5526 Y60.2639 I-0.8361 J0.1529
G2 Y61.7361 I0.425 J0.7361
G2 X25.8276 Y61.0 I0.425 J-0.7361
G2 X25.8137 Y60.8471 I-0.85 J0.0
G1 F300.0 X26.4039 Y60.7392
G2 F800.0 X24.2526 Y59.7443 I-1.4264 J0.2608
G2 Y62.2557 I0.725 J1.2557
G2 X26.4276 Y61.0 I0.725 J-1.2557
G2 X26.4039 Y60.7392 I-1.45 J0.0
G1 F300.0 X26.9942 Y60.6313
G2 F800.0 X23.9526 Y59.2246 I-2.0166 J0.3687
G2 Y62.7754 I1.025 J1.7754
G2 X27.0276 Y61.0 I1.025 J-1.7754
G2 X26.9942 Y60.6313 I-2.05 J0.0
G1 F300.0 X27.5844 Y60.5233
G2 F800.0 X23.6526 Y58.705 I-2.6068 J0.4767
G2 Y63.295 I1.325 J2.295
G2 X27.6276 Y61.0 I1.325 J-2.295
G2 X27.5844 Y60.5233 I-2.65 J0.0
G1 F300.0 X28.1746 Y60.4154
G2 F800.0 X23.3526 Y58.1854 I-3.197 J0.5846
G2 Y63.8146 I1.625 J2.8146
G2 X28.2276 Y61.0 I1.625 J-2.8146
G2 X28.1746 Y60.4154 I-3.25 J0.0
G1 F300.0 X28.7648 Y60.3075
G2 F800.0 X23.0526 Y57.6658 I-3.7872 J0.6925
G2 Y64.3342 I1.925 J3.3342
G2 X28.8276 Y61.0 I1.925 J-3.3342
G2 X28.7648 Y60.3075 I-3.85 J0.0
G1 F300.0 X29.355 Y60.1996
G2 F800.0 X22.7526 Y57.1462 I-4.3774 J0.8004
G2 Y64.8538 I2.225 J3.8538
G2 X29.4276 Y61.0 I2.225 J-3.8538
G2 X29.355 Y60.1996 I-4.45 J0.0
G1 F300.0 X29.9452 Y60.0916
G2 F800.0 X22.4526 Y56.6266 I-4.9676 J0.9084
G2 Y65.3734 I2.525 J4.3734
G2 X30.0276 Y61.0 I2.525 J-4.3734
G2 X29.9452 Y60.0916 I-5.05 J0.0
G1 F300.0 X30.5354 Y59.9837
G2 F800.0 X22.1526 Y56.107 I-5.5578 J1.0163
G2 Y65.893 I2.825 J4.893
G2 X30.6276 Y61.0 I2.825 J-4.893
G2 X30.5354 Y59.9837 I-5.65 J0.0
G1 F300.0 X31.1257 Y59.8758
G2 F800.0 X21.8526 Y55.5873 I-6.1481 J1.1242
G2 Y66.4127 I3.125 J5.4127
G2 X31.2276 Y61.0 I3.125 J-5.4127
G2 X31.1257 Y59.8758 I-6.25 J0.0
G1 F300.0 X31.7159 Y59.7679
G2 F800.0 X21.5526 Y55.0677 I-6.7383 J1.2321
G2 Y66.9323 I3.425 J5.9323
G2 X31.8276 Y61.0 I3.425 J-5.9323
G2 X31.7159 Y59.7679 I-6.85 J0.0
G1 F300.0 X32.3061 Y59.66
G2 F800.0 X21.2526 Y54.5481 I-7.3285 J1.34
G2 Y67.4519 I3.725 J6.4519
G2 X32.4276 Y61.0 I3.725 J-6.4519
G2 X32.3061 Y59.66 I-7.45 J0.0
G1 F300.0 X32.8963 Y59.552
G2 F800.0 X20.9526 Y54.0285 I-7.9187 J1.448
G2 Y67.9715 I4.025 J6.9715
G2 X33.0276 Y61.0 I4.025 J-6.9715
G2 X32.8963 Y59.552 I-8.05 J0.0
G1 F300.0 X33.4865 Y59.4441
G2 F800.0 X20.6526 Y53.5089 I-8.5089 J1.5559
G2 Y68.4911 I4.325 J7.4911
G2 X33.6276 Y61.0 I4.325 J-7.4911
G2 X33.4865 Y59.4441 I-8.65 J0.0
G1 F300.0 X34.0767 Y59.3362
G2 F800.0 X20.3526 Y52.9893 I-9.0991 J1.6638
G2 Y69.0107 I4.625 J8.0107
G2 X34.2276 Y61.0 I4.625 J-8.0107
G2 X34.0767 Y59.3362 I-9.25 J0.0
G0 Z3.0
G0 X25.2235 Y60.955
G1 F300.0 Z-2.0
G2 F800.0 X24.8526 Y60.7835 I-0.2459 J0.045
G2 Y61.2165 I0.125 J0.2165
G2 X25.2276 Y61.0 I0.125 J-0.2165
G2 X25.2235 Y60.955 I-0.25 J0.0
G1 F300.0 X25.8137 Y60.8471
G2 F800.0 X24.5526 Y60.2639 I-0.8361 J0.1529
G2 Y61.7361 I0.425 J0.7361
G2 X25.8276 Y61.0 I0.425 J-0.7361
G2 X25.8137 Y60.8471 I-0.85 J0.0
G1 F300.0 X26.4039 Y60.7392
G2 F800.0 X24.2526 Y59.7443 I-1.4264 J0.2608
G2 Y62.2557 I0.725 J1.2557
G2 X26.4276 Y61.0 I0.725 J-1.2557
G2 X26.4039 Y60.7392 I-1.45 J0.0
G1 F300.0 X26.9942 Y60.6313
G2 F800.0 X23.9526 Y59.2246 I-2.0166 J0.3687
G2 Y62.7754 I1.025 J1.7754
G2 X27.0276 Y61.0 I1.025 J-1.7754
G2 X26.9942 Y60.6313 I-2.05 J0.0
G1 F300.0 X27.5844 Y60.5233
G2 F800.0 X23.6526 Y58.705 I-2.6068 J0.4767
G2 Y63.295 I1.325 J2.295
G2 X27.6276 Y61.0 I1.325 J-2.295
G2 X27.5844 Y60.5233 I-2.65 J0.0
G1 F300.0 X28.1746 Y60.4154
G2 F800.0 X23.3526 Y58.1854 I-3.197 J0.5846
G2 Y63.8146 I1.625 J2.8146
G2 X28.2276 Y61.0 I1.625 J-2.8146
G2 X28.1746 Y60.4154 I-3.25 J0.0
G1 F300.0 X28.7648 Y60.3075
G2 F800.0 X23.0526 Y57.6658 I-3.7872 J0.6925
G2 Y64.3342 I1.925 J3.3342
G2 X28.8276 Y61.0 I1.925 J-3.3342
G2 X28.7648 Y60.3075 I-3.85 J0.0
G1 F300.0 X29.355 Y60.1996
G2 F800.0 X22.7526 Y57.1462 I-4.3774 J0.8004
G2 Y64.8538 I2.225 J3.8538
G2 X29.4276 Y61.0 I2.225 J-3.8538
G2 X29.355 Y60.1996 I-4.45 J0.0
G1 F300.0 X29.9452 Y60.0916
G2 F800.0 X22.4526 Y56.6266 I-4.9676 J0.9084
G2 Y65.3734 I2.525 J4.3734
G2 X30.0276 Y61.0 I2.525 J-4.3734
G2 X29.9452 Y60.0916 I-5.05 J0.0
G1 F300.0 X30.5354 Y59.9837
G2 F800.0 X22.1526 Y56.107 I-5.5578 J1.0163
G2 Y65.893 I2.825 J4.893
G2 X30.6276 Y61.0 I2.825 J-4.893
G2 X30.5354 Y59.9837 I-5.65 J0.0
G1 F300.0 X31.1257 Y59.8758
G2 F800.0 X21.8526 Y55.5873 I-6.1481 J1.1242
G2 Y66.4127 I3.125 J5.4127
G2 X31.2276 Y61.0 I3.125 J-5.4127
G2 X31.1257 Y59.8758 I-6.25 J0.0
G1 F300.0 X31.7159 Y59.7679
G2 F800.0 X21.5526 Y55.0677 I-6.7383 J1.2321
G2 Y66.9323 I3.425 J5.9323
G2 X31.8276 Y61.0 I3.425 J-5.9323
G2 X31.7159 Y59.7679 I-6.85 J0.0
G1 F300.0 X32.3061 Y59.66
G2 F800.0 X21.2526 Y54.5481 I-7.3285 J1.34
G2 Y67.4519 I3.725 J6.4519
G2 X32.4276 Y61.0 I3.725 J-6.4519
G2 X32.3061 Y59.66 I-7.45 J0.0
G1 F300.0 X32.8963 Y59.552
G2 F800.0 X20.9526 Y54.0285 I-7.9187 J1.448
G2 Y67.9715 I4.025 J6.9715
G2 X33.0276 Y61.0 I4.025 J-6.9715
G2 X32.8963 Y59.552 I-8.05 J0.0
G1 F300.0 X33.4865 Y59.4441
G2 F800.0 X20.6526 Y53.5089 I-8.5089 J1.5559
G2 Y68.4911 I4.325 J7.4911
G2 X33.6276 Y61.0 I4.325 J-7.4911
G2 X33.4865 Y59.4441 I-8.65 J0.0
G1 F300.0 X34.0767 Y59.3362
G2 F800.0 X20.3526 Y52.9893 I-9.0991 J1.6638
G2 Y69.0107 I4.625 J8.0107
G2 X34.2276 Y61.0 I4.625 J-8.0107
G2 X34.0767 Y59.3362 I-9.25 J0.0
G0 Z3.0
G0 X25.2235 Y60.955
G1 F300.0 Z-3.0
G2 F800.0 X24.8526 Y60.7835 I-0.2459 J0.045
G2 Y61.2165 I0.125 J0.2165
G2 X25.2276 Y61.0 I0.125 J-0.2165
G2 X25.2235 Y60.955 I-0.25 J0.0
G1 F300.0 X25.8137 Y60.8471
G2 F800.0 X24.5526 Y60.2639 I-0.8361 J0.1529
G2 Y61.7361 I0.425 J0.7361
G2 X25.8276 Y61.0 I0.425 J-0.7361
G2 X25.8137 Y60.8471 I-0.85 J0.0
G1 F300.0 X26.4039 Y60.7392
G2 F800.0 X24.2526 Y59.7443 I-1.4264 J0.2608
G2 Y62.2557 I0.725 J1.2557
G2 X26.4276 Y61.0 I0.725 J-1.2557
G2 X26.4039 Y60.7392 I-1.45 J0.0
G1 F300.0 X26.9942 Y60.6313
G2 F800.0 X23.9526 Y59.2246 I-2.0166 J0.3687
G2 Y62.7754 I1.025 J1.7754
G2 X27.0276 Y61.0 I1.025 J-1.7754
G2 X26.9942 Y60.6313 I-2.05 J0.0
G1 F300.0 X27.5844 Y60.5233
G2 F800.0 X23.6526 Y58.705 I-2.6068 J0.4767
G2 Y63.295 I1.325 J2.295
G2 X27.6276 Y61.0 I1.325 J-2.295
G2 X27.5844 Y60.5233 I-2.65 J0.0
G1 F300.0 X28.1746 Y60.4154
G2 F800.0 X23.3526 Y58.1854 I-3.197 J0.5846
G2 Y63.8146 I1.625 J2.8146
G2 X28.2276 Y61.0 I1.625 J-2.8146
G2 X28.1746 Y60.4154 I-3.25 J0.0
G1 F300.0 X28.7648 Y60.3075
G2 F800.0 X23.0526 Y57.6658 I-3.7872 J0.6925
G2 Y64.3342 I1.925 J3.3342
G2 X28.8276 Y61.0 I1.925 J-3.3342
G2 X28.7648 Y60.3075 I-3.85 J0.0
G1 F300.0 X29.355 Y60.1996
G2 F800.0 X22.7526 Y57.1462 I-4.3774 J0.8004
G2 Y64.8538 I2.225 J3.8538
G2 X29.4276 Y61.0 I2.225 J-3.8538
G2 X29.355 Y60.1996 I-4.45 J0.0
G1 F300.0 X29.9452 Y60.0916
G2 F800.0 X22.4526 Y56.6266 I-4.9676 J0.9084
G2 Y65.3734 I2.525 J4.3734
G2 X30.0276 Y61.0 I2.525 J-4.3734
G2 X29.9452 Y60.0916 I-5.05 J0.0
G1 F300.0 X30.5354 Y59.9837
G2 F800.0 X22.1526 Y56.107 I-5.5578 J1.0163
G2 Y65.893 I2.825 J4.893
G2 X30.6276 Y61.0 I2.825 J-4.893
G2 X30.5354 Y59.9837 I-5.65 J0.0
G1 F300.0 X31.1257 Y59.8758
G2 F800.0 X21.8526 Y55.5873 I-6.1481 J1.1242
G2 Y66.4127 I3.125 J5.4127
G2 X31.2276 Y61.0 I3.125 J-5.4127
G2 X31.1257 Y59.8758 I-6.25 J0.0
G1 F300.0 X31.7159 Y59.7679
G2 F800.0 X21.5526 Y55.0677 I-6.7383 J1.2321
G2 Y66.9323 I3.425 J5.9323
G2 X31.8276 Y61.0 I3.425 J-5.9323
G2 X31.7159 Y59.7679 I-6.85 J0.0
G1 F300.0 X32.3061 Y59.66
G2 F800.0 X21.2526 Y54.5481 I-7.3285 J1.34
G2 Y67.4519 I3.725 J6.4519
G2 X32.4276 Y61.0 I3.725 J-6.4519
G2 X32.3061 Y59.66 I-7.45 J0.0
G1 F300.0 X32.8963 Y59.552
G2 F800.0 X20.9526 Y54.0285 I-7.9187 J1.448
G2 Y67.9715 I4.025 J6.9715
G2 X33.0276 Y61.0 I4.025 J-6.9715
G2 X32.8963 Y59.552 I-8.05 J0.0
G1 F300.0 X33.4865 Y59.4441
G2 F800.0 X20.6526 Y53.5089 I-8.5089 J1.5559
G2 Y68.4911 I4.325 J7.4911
G2 X33.6276 Y61.0 I4.325 J-7.4911
G2 X33.4865 Y59.4441 I-8.65 J0.0
G1 F300.0 X34.0767 Y59.3362
G2 F800.0 X20.3526 Y52.9893 I-9.0991 J1.6638
G2 Y69.0107 I4.625 J8.0107
G2 X34.2276 Y61.0 I4.625 J-8.0107
G2 X34.0767 Y59.3362 I-9.25 J0.0
G0 Z3.0
G0 X25.2235 Y60.955
G1 F300.0 Z-4.0
G2 F800.0 X24.8526 Y60.7835 I-0.2459 J0.045
G2 Y61.2165 I0.125 J0.2165
G2 X25.2276 Y61.0 I0.125 J-0.2165
G2 X25.2235 Y60.955 I-0.25 J0.0
G1 F300.0 X25.8137 Y60.8471
G2 F800.0 X24.5526 Y60.2639 I-0.8361 J0.1529
G2 Y61.7361 I0.425 J0.7361
G2 X25.8276 Y61.0 I0.425 J-0.7361
G2 X25.8137 Y60.8471 I-0.85 J0.0
G1 F300.0 X26.4039 Y60.7392
G2 F800.0 X24.2526 Y59.7443 I-1.4264 J0.2608
G2 Y62.2557 I0.725 J1.2557
G2 X26.4276 Y61.0 I0.725 J-1.2557
G2 X26.4039 Y60.7392 I-1.45 J0.0
G1 F300.0 X26.9942 Y60.6313
G2 F800.0 X23.9526 Y59.2246 I-2.0166 J0.3687
G2 Y62.7754 I1.025 J1.7754
G2 X27.0276 Y61.0 I1.025 J-1.7754
G2 X26.9942 Y60.6313 I-2.05 J0.0
G1 F300.0 X27.5844 Y60.5233
G2 F800.0 X23.6526 Y58.705 I-2.6068 J0.4767
G2 Y63.295 I1.325 J2.295
G2 X27.6276 Y61.0 I1.325 J-2.295
G2 X27.5844 Y60.5233 I-2.65 J0.0
G1 F300.0 X28.1746 Y60.4154
G2 F800.0 X23.3526 Y58.1854 I-3.197 J0.5846
G2 Y63.8146 I1.625 J2.8146
G2 X28.2276 Y61.0 I1.625 J-2.8146
G2 X28.1746 Y60.4154 I-3.25 J0.0
G1 F300.0 X28.7648 Y60.3075
G2 F800.0 X23.0526 Y57.6658 I-3.7872 J0.6925
G2 Y64.3342 I1.925 J3.3342
G2 X28.8276 Y61.0 I1.925 J-3.3342
G2 X28.7648 Y60.3075 I-3.85 J0.0
G1 F300.0 X29.355 Y60.1996
G2 F800.0 X22.7526 Y57.1462 I-4.3774 J0.8004
G2 Y64.8538 I2.225 J3.8538
G2 X29.4276 Y61.0 I2.225 J-3.8538
G2 X29.355 Y60.1996 I-4.45 J0.0
G1 F300.0 X29.9452 Y60.0916
G2 F800.0 X22.4526 Y56.6266 I-4.9676 J0.9084
G2 Y65.3734 I2.525 J4.3734
G2 X30.0276 Y61.0 I2.525 J-4.3734
G2 X29.9452 Y60.0916 I-5.05 J0.0
G1 F300.0 X30.5354 Y59.9837
G2 F800.0 X22.1526 Y56.107 I-5.5578 J1.0163
G2 Y65.893 I2.825 J4.893
G2 X30.6276 Y61.0 I2.825 J-4.893
G2 X30.5354 Y59.9837 I-5.65 J0.0
G1 F300.0 X31.1257 Y59.8758
G2 F800.0 X21.8526 Y55.5873 I-6.1481 J1.1242
G2 Y66.4127 I3.125 J5.4127
G2 X31.2276 Y61.0 I3.125 J-5.4127
G2 X31.1257 Y59.8758 I-6.25 J0.0
G1 F300.0 X31.7159 Y59.7679
G2 F800.0 X21.5526 Y55.0677 I-6.7383 J1.2321
G2 Y66.9323 I3.425 J5.9323
G2 X31.8276 Y61.0 I3.425 J-5.9323
G2 X31.7159 Y59.7679 I-6.85 J0.0
G1 F300.0 X32.3061 Y59.66
G2 F800.0 X21.2526 Y54.5481 I-7.3285 J1.34
G2 Y67.4519 I3.725 J6.4519
G2 X32.4276 Y61.0 I3.725 J-6.4519
G2 X32.3061 Y59.66 I-7.45 J0.0
G1 F300.0 X32.8963 Y59.552
G2 F800.0 X20.9526 Y54.0285 I-7.9187 J1.448
G2 Y67.9715 I4.025 J6.9715
G2 X33.0276 Y61.0 I4.025 J-6.9715
G2 X32.8963 Y59.552 I-8.05 J0.0
G1 F300.0 X33.4865 Y59.4441
G2 F800.0 X20.6526 Y53.5089 I-8.5089 J1.5559
G2 Y68.4911 I4.325 J7.4911
G2 X33.6276 Y61.0 I4.325 J-7.4911
G2 X33.4865 Y59.4441 I-8.65 J0.0
G1 F300.0 X34.0767 Y59.3362
G2 F800.0 X20.3526 Y52.9893 I-9.0991 J1.6638
G2 Y69.0107 I4.625 J8.0107
G2 X34.2276 Y61.0 I4.625 J-8.0107
G2 X34.0767 Y59.3362 I-9.25 J0.0
G0 Z3.0
G0 X25.2235 Y60.955
G1 F300.0 Z-5.0
G2 F800.0 X24.8526 Y60.7835 I-0.2459 J0.045
G2 Y61.2165 I0.125 J0.2165
G2 X25.2276 Y61.0 I0.125 J-0.2165
G2 X25.2235 Y60.955 I-0.25 J0.0
G1 F300.0 X25.8137 Y60.8471
G2 F800.0 X24.5526 Y60.2639 I-0.8361 J0.1529
G2 Y61.7361 I0.425 J0.7361
G2 X25.8276 Y61.0 I0.425 J-0.7361
G2 X25.8137 Y60.8471 I-0.85 J0.0
G1 F300.0 X26.4039 Y60.7392
G2 F800.0 X24.2526 Y59.7443 I-1.4264 J0.2608
G2 Y62.2557 I0.725 J1.2557
G2 X26.4276 Y61.0 I0.725 J-1.2557
G2 X26.4039 Y60.7392 I-1.45 J0.0
G1 F300.0 X26.9942 Y60.6313
G2 F800.0 X23.9526 Y59.2246 I-2.0166 J0.3687
G2 Y62.7754 I1.025 J1.7754
G2 X27.0276 Y61.0 I1.025 J-1.7754
G2 X26.9942 Y60.6313 I-2.05 J0.0
G1 F300.0 X27.5844 Y60.5233
G2 F800.0 X23.6526 Y58.705 I-2.6068 J0.4767
G2 Y63.295 I1.325 J2.295
G2 X27.6276 Y61.0 I1.325 J-2.295
G2 X27.5844 Y60.5233 I-2.65 J0.0
G1 F300.0 X28.1746 Y60.4154
G2 F800.0 X23.3526 Y58.1854 I-3.197 J0.5846
G2 Y63.8146 I1.625 J2.8146
G2 X28.2276 Y61.0 I1.625 J-2.8146
G2 X28.1746 Y60.4154 I-3.25 J0.0
G1 F300.0 X28.7648 Y60.3075
G2 F800.0 X23.0526 Y57.6658 I-3.7872 J0.6925
G2 Y64.3342 I1.925 J3.3342
G2 X28.8276 Y61.0 I1.925 J-3.3342
G2 X28.7648 Y60.3075 I-3.85 J0.0
G1 F300.0 X29.355 Y60.1996
G2 F800.0 X22.7526 Y57.1462 I-4.3774 J0.8004
G2 Y64.8538 I2.225 J3.8538
G2 X29.4276 Y61.0 I2.225 J-3.8538
G2 X29.355 Y60.1996 I-4.45 J0.0
G1 F300.0 X29.9452 Y60.0916
G2 F800.0 X22.4526 Y56.6266 I-4.9676 J0.9084
G2 Y65.3734 I2.525 J4.3734
G2 X30.0276 Y61.0 I2.525 J-4.3734
G2 X29.9452 Y60.0916 I-5.05 J0.0
G1 F300.0 X30.5354 Y59.9837
G2 F800.0 X22.1526 Y56.107 I-5.5578 J1.0163
G2 Y65.893 I2.825 J4.893
G2 X30.6276 Y61.0 I2.825 J-4.893
G2 X30.5354 Y59.9837 I-5.65 J0.0
G1 F300.0 X31.1257 Y59.8758
G2 F800.0 X21.8526 Y55.5873 I-6.1481 J1.1242
G2 Y66.4127 I3.125 J5.4127
G2 X31.2276 Y61.0 I3.125 J-5.4127
G2 X31.1257 Y59.8758 I-6.25 J0.0
G1 F300.0 X31.7159 Y59.7679
G2 F800.0 X21.5526 Y55.0677 I-6.7383 J1.2321
G2 Y66.9323 I3.425 J5.9323
G2 X31.8276 Y61.0 I3.425 J-5.9323
G2 X31.7159 Y59.7679 I-6.85 J0.0
G1 F300.0 X32.3061 Y59.66
G2 F800.0 X21.2526 Y54.5481 I-7.3285 J1.34
G2 Y67.4519 I3.725 J6.4519
G2 X32.4276 Y61.0 I3.725 J-6.4519
G2 X32.3061 Y59.66 I-7.45 J0.0
G1 F300.0 X32.8963 Y59.552
G2 F800.0 X20.9526 Y54.0285 I-7.9187 J1.448
G2 Y67.9715 I4.025 J6.9715
G2 X33.0276 Y61.0 I4.025 J-6.9715
G2 X32.8963 Y59.552 I-8.05 J0.0
G1 F300.0 X33.4865 Y59.4441
G2 F800.0 X20.6526 Y53.5089 I-8.5089 J1.5559
G2 Y68.4911 I4.325 J7.4911
G2 X33.6276 Y61.0 I4.325 J-7.4911
G2 X33.4865 Y59.4441 I-8.65 J0.0
G1 F300.0 X34.0767 Y59.3362
G2 F800.0 X20.3526 Y52.9893 I-9.0991 J1.6638
G2 Y69.0107 I4.625 J8.0107
G2 X34.2276 Y61.0 I4.625 J-8.0107
G2 X34.0767 Y59.3362 I-9.25 J0.0
G0 Z3.0
G0 X25.2235 Y60.955
G1 F300.0 Z-6.0
G2 F800.0 X24.8526 Y60.7835 I-0.2459 J0.045
G2 Y61.2165 I0.125 J0.2165
G2 X25.2276 Y61.0 I0.125 J-0.2165
G2 X25.2235 Y60.955 I-0.25 J0.0
G1 F300.0 X25.8137 Y60.8471
G2 F800.0 X24.5526 Y60.2639 I-0.8361 J0.1529
G2 Y61.7361 I0.425 J0.7361
G2 X25.8276 Y61.0 I0.425 J-0.7361
G2 X25.8137 Y60.8471 I-0.85 J0.0
G1 F300.0 X26.4039 Y60.7392
G2 F800.0 X24.2526 Y59.7443 I-1.4264 J0.2608
G2 Y62.2557 I0.725 J1.2557
G2 X26.4276 Y61.0 I0.725 J-1.2557
G2 X26.4039 Y60.7392 I-1.45 J0.0
G1 F300.0 X26.9942 Y60.6313
G2 F800.0 X23.9526 Y59.2246 I-2.0166 J0.3687
G2 Y62.7754 I1.025 J1.7754
G2 X27.0276 Y61.0 I1.025 J-1.7754
G2 X26.9942 Y60.6313 I-2.05 J0.0
G1 F300.0 X27.5844 Y60.5233
G2 F800.0 X23.6526 Y58.705 I-2.6068 J0.4767
G2 Y63.295 I1.325 J2.295
G2 X27.6276 Y61.0 I1.325 J-2.295
G2 X27.5844 Y60.5233 I-2.65 J0.0
G1 F300.0 X28.1746 Y60.4154
G2 F800.0 X23.3526 Y58.1854 I-3.197 J0.5846
G2 Y63.8146 I1.625 J2.8146
G2 X28.2276 Y61.0 I1.625 J-2.8146
G2 X28.1746 Y60.4154 I-3.25 J0.0
G1 F300.0 X28.7648 Y60.3075
G2 F800.0 X23.0526 Y57.6658 I-3.7872 J0.6925
G2 Y64.3342 I1.925 J3.3342
G2 X28.8276 Y61.0 I1.925 J-3.3342
G2 X28.7648 Y60.3075 I-3.85 J0.0
G1 F300.0 X29.355 Y60.1996
G2 F800.0 X22.7526 Y57.1462 I-4.3774 J0.8004
G2 Y64.8538 I2.225 J3.8538
G2 X29.4276 Y61.0 I2.225 J-3.8538
G2 X29.355 Y60.1996 I-4.45 J0.0
G1 F300.0 X29.9452 Y60.0916
G2 F800.0 X22.4526 Y56.6266 I-4.9676 J0.9084
G2 Y65.3734 I2.525 J4.3734
G2 X30.0276 Y61.0 I2.525 J-4.3734
G2 X29.9452 Y60.0916 I-5.05 J0.0
G1 F300.0 X30.5354 Y59.9837
G2 F800.0 X22.1526 Y56.107 I-5.5578 J1.0163
G2 Y65.893 I2.825 J4.893
G2 X30.6276 Y61.0 I2.825 J-4.893
G2 X30.5354 Y59.9837 I-5.65 J0.0
G1 F300.0 X31.1257 Y59.8758
G2 F800.0 X21.8526 Y55.5873 I-6.1481 J1.1242
G2 Y66.4127 I3.125 J5.4127
G2 X31.2276 Y61.0 I3.125 J-5.4127
G2 X31.1257 Y59.8758 I-6.25 J0.0
G1 F300.0 X31.7159 Y59.7679
G2 F800.0 X21.5526 Y55.0677 I-6.7383 J1.2321
G2 Y66.9323 I3.425 J5.9323
G2 X31.8276 Y61.0 I3.425 J-5.9323
G2 X31.7159 Y59.7679 I-6.85 J0.0
G1 F300.0 X32.3061 Y59.66
G2 F800.0 X21.2526 Y54.5481 I-7.3285 J1.34
G2 Y67.4519 I3.725 J6.4519
G2 X32.4276 Y61.0 I3.725 J-6.4519
G2 X32.3061 Y59.66 I-7.45 J0.0
G1 F300.0 X32.8963 Y59.552
G2 F800.0 X20.9526 Y54.0285 I-7.9187 J1.448
G2 Y67.9715 I4.025 J6.9715
G2 X33.0276 Y61.0 I4.025 J-6.9715
G2 X32.8963 Y59.552 I-8.05 J0.0
G1 F300.0 X33.4865 Y59.4441
G2 F800.0 X20.6526 Y53.5089 I-8.5089 J1.5559
G2 Y68.4911 I4.325 J7.4911
G2 X33.6276 Y61.0 I4.325 J-7.4911
G2 X33.4865 Y59.4441 I-8.65 J0.0
G1 F300.0 X34.0767 Y59.3362
G2 F800.0 X20.3526 Y52.9893 I-9.0991 J1.6638
G2 Y69.0107 I4.625 J8.0107
G2 X34.2276 Y61.0 I4.625 J-8.0107
G2 X34.0767 Y59.3362 I-9.25 J0.0
G0 Z3.0
G0 X24.988 Y276.7502
G1 F300.0 Z-1.0
G2 F800.0 X24.8526 Y276.7835 I-0.0104 J0.2498
G2 Y277.2165 I0.125 J0.2165
G2 X25.2276 Y277.0 I0.125 J-0.2165
G2 X24.988 Y276.7502 I-0.25 J0.0
G1 F300.0 X25.0131 Y276.1507
G2 F800.0 X24.5526 Y276.2639 I-0.0355 J0.8493
G2 Y277.7361 I0.425 J0.7361
G2 X25.8276 Y277.0 I0.425 J-0.7361
G2 X25.0131 Y276.1507 I-0.85 J0.0
G1 F300.0 X25.0382 Y275.5513
G2 F800.0 X24.2526 Y275.7443 I-0.0606 J1.4487
G2 Y278.2557 I0.725 J1.2557
G2 X26.4276 Y277.0 I0.725 J-1.2557
G2 X25.0382 Y275.5513 I-1.45 J0.0
G1 F300.0 X25.0632 Y274.9518
G2 F800.0 X23.9526 Y275.2246 I-0.0856 J2.0482
G2 Y278.7754 I1.025 J1.7754
G2 X27.0276 Y277.0 I1.025 J-1.7754
G2 X25.0632 Y274.9518 I-2.05 J0.0
G1 F300.0 X25.0883 Y274.3523
G2 F800.0 X23.6526 Y274.705 I-0.1107 J2.6477
G2 Y279.295 I1.325 J2.295
G2 X27.6276 Y277.0 I1.325 J-2.295
G2 X25.0883 Y274.3523 I-2.65 J0.0
G1 F300.0 X25.1133 Y273.7528
G2 F800.0 X23.3526 Y274.1854 I-0.1357 J3.2472
G2 Y279.8146 I1.625 J2.8146
G2 X28.2276 Y277.0 I1.625 J-2.8146
G2 X25.1133 Y273.7528 I-3.25 J0.0
G1 F300.0 X25.1384 Y273.1534
G2 F800.0 X23.0526 Y273.6658 I-0.1608 J3.8466
G2 Y280.3342 I1.925 J3.3342
G2 X28.8276 Y277.0 I1.925 J-3.3342
G2 X25.1384 Y273.1534 I-3.85 J0.0
G1 F300.0 X25.1635 Y272.5539
G2 F800.0 X22.7526 Y273.1462 I-0.1859 J4.4461
G2 Y280.8538 I2.225 J3.8538
G2 X29.4276 Y277.0 I2.225 J-3.8538
G2 X25.1635 Y272.5539 I-4.45 J0.0
G1 F300.0 X25.1885 Y271.9544
G2 F800.0 X22.4526 Y272.6266 I-0.2109 J5.0456
G2 Y281.3734 I2.525 J4.3734
G2 X30.0276 Y277.0 I2.525 J-4.3734
G2 X25.1885 Y271.9544 I-5.05 J0.0
G1 F300.0 X25.2136 Y271.3549
G2 F800.0 X22.1526 Y272.107 I-0.236 J5.6451
G2 Y281.893 I2.825 J4.893
G2 X30.6276 Y277.0 I2.825 J-4.893
G2 X25.2136 Y271.3549 I-5.65 J0.0
G1 F300.0 X25.2386 Y270.7555
G2 F800.0 X21.8526 Y271.5873 I-0.261 J6.2445
G2 Y282.4127 I3.125 J5.4127
G2 X31.2276 Y277.0 I3.125 J-5.4127
G2 X25.2386 Y270.7555 I-6.25 J0.0
G1 F300.0 X25.2637 Y270.156
G2 F800.0 X21.5526 Y271.0677 I-0.2861 J6.844
G2 Y282.9323 I3.425 J5.9323
G2 X31.8276 Y277.0 I3.425 J-5.9323
G2 X25.2637 Y270.156 I-6.85 J0.0
G1 F300.0 X25.2888 Y269.5565
G2 F800.0 X21.2526 Y270.5481 I-0.3112 J7.4435
G2 Y283.4519 I3.725 J6.4519
G2 X32.4276 Y277.0 I3.725 J-6.4519
G2 X25.2888 Y269.5565 I-7.45 J0.0
G1 F300.0 X25.3138 Y268.957
G2 F800.0 X20.9526 Y270.0285 I-0.3362 J8.043
G2 Y283.9715 I4.025 J6.9715
G2 X33.0276 Y277.0 I4.025 J-6.9715
G2 X25.3138 Y268.957 I-8.05 J0.0
G1 F300.0 X25.3389 Y268.3575
G2 F800.0 X20.6526 Y269.5089 I-0.3613 J8.6425
G2 Y284.4911 I4.325 J7.4911
G2 X33.6276 Y277.0 I4.325 J-7.4911
G2 X25.3389 Y268.3575 I-8.65 J0.0
G1 F300.0 X25.3639 Y267.7581
G2 F800.0 X20.3526 Y268.9893 I-0.3863 J9.2419
G2 Y285.0107 I4.625 J8.0107
G2 X34.2276 Y277.0 I4.625 J-8.0107
G2 X25.3639 Y267.7581 I-9.25 J0.0
G0 Z3.0
G0 X24.988 Y276.7502
G1 F300.0 Z-2.0
G2 F800.0 X24.8526 Y276.7835 I-0.0104 J0.2498
G2 Y277.2165 I0.125 J0.2165
G2 X25.2276 Y277.0 I0.125 J-0.2165
G2 X24.988 Y276.7502 I-0.25 J0.0
G1 F300.0 X25.0131 Y276.1507
G2 F800.0 X24.5526 Y276.2639 I-0.0355 J0.8493
G2 Y277.7361 I0.425 J0.7361
G2 X25.8276 Y277.0 I0.425 J-0.7361
G2 X25.0131 Y276.1507 I-0.85 J0.0
G1 F300.0 X25.0382 Y275.5513
G2 F800.0 X24.2526 Y275.7443 I-0.0606 J1.4487
G2 Y278.2557 I0.725 J1.2557
G2 X26.4276 Y277.0 I0.725 J-1.2557
G2 X25.0382 Y275.5513 I-1.45 J0.0
G1 F300.0 X25.0632 Y274.9518
G2 F800.0 X23.9526 Y275.2246 I-0.0856 J2.0482
G2 Y278.7754 I1.025 J1.7754
G2 X27.0276 Y277.0 I1.025 J-1.7754
G2 X25.0632 Y274.9518 I-2.05 J0.0
G1 F300.0 X25.0883 Y274.3523
G2 F800.0 X23.6526 Y274.705 I-0.1107 J2.6477
G2 Y279.295 I1.325 J2.295
G2 X27.6276 Y277.0 I1.325 J-2.295
G2 X25.0883 Y274.3523 I-2.65 J0.0
G1 F300.0 X25.1133 Y273.7528
G2 F800.0 X23.3526 Y274.1854 I-0.1357 J3.2472
G2 Y279.8146 I1.625 J2.8146
G2 X28.2276 Y277.0 I1.625 J-2.8146
G2 X25.1133 Y273.7528 I-3.25 J0.0
G1 F300.0 X25.1384 Y273.1534
G2 F800.0 X23.0526 Y273.6658 I-0.1608 J3.8466
G2 Y280.3342 I1.925 J3.3342
G2 X28.8276 Y277.0 I1.925 J-3.3342
G2 X25.1384 Y273.1534 I-3.85 J0.0
G1 F300.0 X25.1635 Y272.5539
G2 F800.0 X22.7526 Y273.1462 I-0.1859 J4.4461
G2 Y280.8538 I2.225 J3.8538
G2 X29.4276 Y277.0 I2.225 J-3.8538
G2 X25.1635 Y272.5539 I-4.45 J0.0
G1 F300.0 X25.1885 Y271.9544
G2 F800.0 X22.4526 Y272.6266 I-0.2109 J5.0456
G2 Y281.3734 I2.525 J4.3734
G2 X30.0276 Y277.0 I2.525 J-4.3734
G2 X25.1885 Y271.9544 I-5.05 J0.0
G1 F300.0 X25.2136 Y271.3549
G2 F800.0 X22.1526 Y272.107 I-0.236 J5.6451
G2 Y281.893 I2.825 J4.893
G2 X30.6276 Y277.0 I2.825 J-4.893
G2 X25.2136 Y271.3549 I-5.65 J0.0
G1 F300.0 X25.2386 Y270.7555
G2 F800.0 X21.8526 Y271.5873 I-0.261 J6.2445
G2 Y282.4127 I3.125 J5.4127
G2 X31.2276 Y277.0 I3.125 J-5.4127
G2 X25.2386 Y270.7555 I-6.25 J0.0
G1 F300.0 X25.2637 Y270.156
G2 F800.0 X21.5526 Y271.0677 I-0.2861 J6.844
G2 Y282.9323 I3.425 J5.9323
G2 X31.8276 Y277.0 I3.425 J-5.9323
G2 X25.2637 Y270.156 I-6.85 J0.0
G1 F300.0 X25.2888 Y269.5565
G2 F800.0 X21.2526 Y270.5481 I-0.3112 J7.4435
G2 Y283.4519 I3.725 J6.4519
G2 X32.4276 Y277.0 I3.725 J-6.4519
G2 X25.2888 Y269.5565 I-7.45 J0.0
G1 F300.0 X25.3138 Y268.957
G2 F800.0 X20.9526 Y270.0285 I-0.3362 J8.043
G2 Y283.9715 I4.025 J6.9715
G2 X33.0276 Y277.0 I4.025 J-6.9715
G2 X25.3138 Y268.957 I-8.05 J0.0
G1 F300.0 X25.3389 Y268.3575
G2 F800.0 X20.6526 Y269.5089 I-0.3613 J8.6425
G2 Y284.4911 I4.325 J7.4911
G2 X33.6276 Y277.0 I4.325 J-7.4911
G2 X25.3389 Y268.3575 I-8.65 J0.0
G1 F300.0 X25.3639 Y267.7581
G2 F800.0 X20.3526 Y268.9893 I-0.3863 J9.2419
G2 Y285.0107 I4.625 J8.0107
G2 X34.2276 Y277.0 I4.625 J-8.0107
G2 X25.3639 Y267.7581 I-9.25 J0.0
G0 Z3.0
G0 X24.988 Y276.7502
G1 F300.0 Z-3.0
G2 F800.0 X24.8526 Y276.7835 I-0.0104 J0.2498
G2 Y277.2165 I0.125 J0.2165
G2 X25.2276 Y277.0 I0.125 J-0.2165
G2 X24.988 Y276.7502 I-0.25 J0.0
G1 F300.0 X25.0131 Y276.1507
G2 F800.0 X24.5526 Y276.2639 I-0.0355 J0.8493
G2 Y277.7361 I0.425 J0.7361
G2 X25.8276 Y277.0 I0.425 J-0.7361
G2 X25.0131 Y276.1507 I-0.85 J0.0
G1 F300.0 X25.0382 Y275.5513
G2 F800.0 X24.2526 Y275.7443 I-0.0606 J1.4487
G2 Y278.2557 I0.725 J1.2557
G2 X26.4276 Y277.0 I0.725 J-1.2557
G2 X25.0382 Y275.5513 I-1.45 J0.0
G1 F300.0 X25.0632 Y274.9518
G2 F800.0 X23.9526 Y275.2246 I-0.0856 J2.0482
G2 Y278.7754 I1.025 J1.7754
G2 X27.0276 Y277.0 I1.025 J-1.7754
G2 X25.0632 Y274.9518 I-2.05 J0.0
G1 F300.0 X25.0883 Y274.3523
G2 F800.0 X23.6526 Y274.705 I-0.1107 J2.6477
G2 Y279.295 I1.325 J2.295
G2 X27.6276 Y277.0 I1.325 J-2.295
G2 X25.0883 Y274.3523 I-2.65 J0.0
G1 F300.0 X25.1133 Y273.7528
G2 F800.0 X23.3526 Y274.1854 I-0.1357 J3.2472
G2 Y279.8146 I1.625 J2.8146
G2 X28.2276 Y277.0 I1.625 J-2.8146
G2 X25.1133 Y273.7528 I-3.25 J0.0
G1 F300.0 X25.1384 Y273.1534
G2 F800.0 X23.0526 Y273.6658 I-0.1608 J3.8466
G2 Y280.3342 I1.925 J3.3342
G2 X28.8276 Y277.0 I1.925 J-3.3342
G2 X25.1384 Y273.1534 I-3.85 J0.0
G1 F300.0 X25.1635 Y272.5539
G2 F800.0 X22.7526 Y273.1462 I-0.1859 J4.4461
G2 Y280.8538 I2.225 J3.8538
G2 X29.4276 Y277.0 I2.225 J-3.8538
G2 X25.1635 Y272.5539 I-4.45 J0.0
G1 F300.0 X25.1885 Y271.9544
G2 F800.0 X22.4526 Y272.6266 I-0.2109 J5.0456
G2 Y281.3734 I2.525 J4.3734
G2 X30.0276 Y277.0 I2.525 J-4.3734
G2 X25.1885 Y271.9544 I-5.05 J0.0
G1 F300.0 X25.2136 Y271.3549
G2 F800.0 X22.1526 Y272.107 I-0.236 J5.6451
G2 Y281.893 I2.825 J4.893
G2 X30.6276 Y277.0 I2.825 J-4.893
G2 X25.2136 Y271.3549 I-5.65 J0.0
G1 F300.0 X25.2386 Y270.7555
G2 F800.0 X21.8526 Y271.5873 I-0.261 J6.2445
G2 Y282.4127 I3.125 J5.4127
G2 X31.2276 Y277.0 I3.125 J-5.4127
G2 X25.2386 Y270.7555 I-6.25 J0.0
G1 F300.0 X25.2637 Y270.156
G2 F800.0 X21.5526 Y271.0677 I-0.2861 J6.844
G2 Y282.9323 I3.425 J5.9323
G2 X31.8276 Y277.0 I3.425 J-5.9323
G2 X25.2637 Y270.156 I-6.85 J0.0
G1 F300.0 X25.2888 Y269.5565
G2 F800.0 X21.2526 Y270.5481 I-0.3112 J7.4435
G2 Y283.4519 I3.725 J6.4519
G2 X32.4276 Y277.0 I3.725 J-6.4519
G2 X25.2888 Y269.5565 I-7.45 J0.0
G1 F300.0 X25.3138 Y268.957
G2 F800.0 X20.9526 Y270.0285 I-0.3362 J8.043
G2 Y283.9715 I4.025 J6.9715
G2 X33.0276 Y277.0 I4.025 J-6.9715
G2 X25.3138 Y268.957 I-8.05 J0.0
G1 F300.0 X25.3389 Y268.3575
G2 F800.0 X20.6526 Y269.5089 I-0.3613 J8.6425
G2 Y284.4911 I4.325 J7.4911
G2 X33.6276 Y277.0 I4.325 J-7.4911
G2 X25.3389 Y268.3575 I-8.65 J0.0
G1 F300.0 X25.3639 Y267.7581
G2 F800.0 X20.3526 Y268.9893 I-0.3863 J9.2419
G2 Y285.0107 I4.625 J8.0107
G2 X34.2276 Y277.0 I4.625 J-8.0107
G2 X25.3639 Y267.7581 I-9.25 J0.0
G0 Z3.0
G0 X24.988 Y276.7502
G1 F300.0 Z-4.0
G2 F800.0 X24.8526 Y276.7835 I-0.0104 J0.2498
G2 Y277.2165 I0.125 J0.2165
G2 X25.2276 Y277.0 I0.125 J-0.2165
G2 X24.988 Y276.7502 I-0.25 J0.0
G1 F300.0 X25.0131 Y276.1507
G2 F800.0 X24.5526 Y276.2639 I-0.0355 J0.8493
G2 Y277.7361 I0.425 J0.7361
G2 X25.8276 Y277.0 I0.425 J-0.7361
G2 X25.0131 Y276.1507 I-0.85 J0.0
G1 F300.0 X25.0382 Y275.5513
G2 F800.0 X24.2526 Y275.7443 I-0.0606 J1.4487
G2 Y278.2557 I0.725 J1.2557
G2 X26.4276 Y277.0 I0.725 J-1.2557
G2 X25.0382 Y275.5513 I-1.45 J0.0
G1 F300.0 X25.0632 Y274.9518
G2 F800.0 X23.9526 Y275.2246 I-0.0856 J2.0482
G2 Y278.7754 I1.025 J1.7754
G2 X27.0276 Y277.0 I1.025 J-1.7754
G2 X25.0632 Y274.9518 I-2.05 J0.0
G1 F300.0 X25.0883 Y274.3523
G2 F800.0 X23.6526 Y274.705 I-0.1107 J2.6477
G2 Y279.295 I1.325 J2.295
G2 X27.6276 Y277.0 I1.325 J-2.295
G2 X25.0883 Y274.3523 I-2.65 J0.0
G1 F300.0 X25.1133 Y273.7528
G2 F800.0 X23.3526 Y274.1854 I-0.1357 J3.2472
G2 Y279.8146 I1.625 J2.8146
G2 X28.2276 Y277.0 I1.625 J-2.8146
G2 X25.1133 Y273.7528 I-3.25 J0.0
G1 F300.0 X25.1384 Y273.1534
G2 F800.0 X23.0526 Y273.6658 I-0.1608 J3.8466
G2 Y280.3342 I1.925 J3.3342
G2 X28.8276 Y277.0 I1.925 J-3.3342
G2 X25.1384 Y273.1534 I-3.85 J0.0
G1 F300.0 X25.1635 Y272.5539
G2 F800.0 X22.7526 Y273.1462 I-0.1859 J4.4461
G2 Y280.8538 I2.225 J3.8538
G2 X29.4276 Y277.0 I2.225 J-3.8538
G2 X25.1635 Y272.5539 I-4.45 J0.0
G1 F300.0 X25.1885 Y271.9544
G2 F800.0 X22.4526 Y272.6266 I-0.2109 J5.0456
G2 Y281.3734 I2.525 J4.3734
G2 X30.0276 Y277.0 I2.525 J-4.3734
G2 X25.1885 Y271.9544 I-5.05 J0.0
G1 F300.0 X25.2136 Y271.3549
G2 F800.0 X22.1526 Y272.107 I-0.236 J5.6451
G2 Y281.893 I2.825 J4.893
G2 X30.6276 Y277.0 I2.825 J-4.893
G2 X25.2136 Y271.3549 I-5.65 J0.0
G1 F300.0 X25.2386 Y270.7555
G2 F800.0 X21.8526 Y271.5873 I-0.261 J6.2445
G2 Y282.4127 I3.125 J5.4127
G2 X31.2276 Y277.0 I3.125 J-5.4127
G2 X25.2386 Y270.7555 I-6.25 J0.0
G1 F300.0 X25.2637 Y270.156
G2 F800.0 X21.5526 Y271.0677 I-0.2861 J6.844
G2 Y282.9323 I3.425 J5.9323
G2 X31.8276 Y277.0 I3.425 J-5.9323
G2 X25.2637 Y270.156 I-6.85 J0.0
G1 F300.0 X25.2888 Y269.5565
G2 F800.0 X21.2526 Y270.5481 I-0.3112 J7.4435
G2 Y283.4519 I3.725 J6.4519
G2 X32.4276 Y277.0 I3.725 J-6.4519
G2 X25.2888 Y269.5565 I-7.45 J0.0
G1 F300.0 X25.3138 Y268.957
G2 F800.0 X20.9526 Y270.0285 I-0.3362 J8.043
G2 Y283.9715 I4.025 J6.9715
G2 X33.0276 Y277.0 I4.025 J-6.9715
G2 X25.3138 Y268.957 I-8.05 J0.0
G1 F300.0 X25.3389 Y268.3575
G2 F800.0 X20.6526 Y269.5089 I-0.3613 J8.6425
G2 Y284.4911 I4.325 J7.4911
G2 X33.6276 Y277.0 I4.325 J-7.4911
G2 X25.3389 Y268.3575 I-8.65 J0.0
G1 F300.0 X25.3639 Y267.7581
G2 F800.0 X20.3526 Y268.9893 I-0.3863 J9.2419
G2 Y285.0107 I4.625 J8.0107
G2 X34.2276 Y277.0 I4.625 J-8.0107
G2 X25.3639 Y267.7581 I-9.25 J0.0
G0 Z3.0
G0 X24.988 Y276.7502
G1 F300.0 Z-5.0
G2 F800.0 X24.8526 Y276.7835 I-0.0104 J0.2498
G2 Y277.2165 I0.125 J0.2165
G2 X25.2276 Y277.0 I0.125 J-0.2165
G2 X24.988 Y276.7502 I-0.25 J0.0
G1 F300.0 X25.0131 Y276.1507
G2 F800.0 X24.5526 Y276.2639 I-0.0355 J0.8493
G2 Y277.7361 I0.425 J0.7361
G2 X25.8276 Y277.0 I0.425 J-0.7361
G2 X25.0131 Y276.1507 I-0.85 J0.0
G1 F300.0 X25.0382 Y275.5513
G2 F800.0 X24.2526 Y275.7443 I-0.0606 J1.4487
G2 Y278.2557 I0.725 J1.2557
G2 X26.4276 Y277.0 I0.725 J-1.2557
G2 X25.0382 Y275.5513 I-1.45 J0.0
G1 F300.0 X25.0632 Y274.9518
G2 F800.0 X23.9526 Y275.2246 I-0.0856 J2.0482
G2 Y278.7754 I1.025 J1.7754
G2 X27.0276 Y277.0 I1.025 J-1.7754
G2 X25.0632 Y274.9518 I-2.05 J0.0
G1 F300.0 X25.0883 Y274.3523
G2 F800.0 X23.6526 Y274.705 I-0.1107 J2.6477
G2 Y279.295 I1.325 J2.295
G2 X27.6276 Y277.0 I1.325 J-2.295
G2 X25.0883 Y274.3523 I-2.65 J0.0
G1 F300.0 X25.1133 Y273.7528
G2 F800.0 X23.3526 Y274.1854 I-0.1357 J3.2472
G2 Y279.8146 I1.625 J2.8146
G2 X28.2276 Y277.0 I1.625 J-2.8146
G2 X25.1133 Y273.7528 I-3.25 J0.0
G1 F300.0 X25.1384 Y273.1534
G2 F800.0 X23.0526 Y273.6658 I-0.1608 J3.8466
G2 Y280.3342 I1.925 J3.3342
G2 X28.8276 Y277.0 I1.925 J-3.3342
G2 X25.1384 Y273.1534 I-3.85 J0.0
G1 F300.0 X25.1635 Y272.5539
G2 F800.0 X22.7526 Y273.1462 I-0.1859 J4.4461
G2 Y280.8538 I2.225 J3.8538
G2 X29.4276 Y277.0 I2.225 J-3.8538
G2 X25.1635 Y272.5539 I-4.45 J0.0
G1 F300.0 X25.1885 Y271.9544
G2 F800.0 X22.4526 Y272.6266 I-0.2109 J5.0456
G2 Y281.3734 I2.525 J4.3734
G2 X30.0276 Y277.0 I2.525 J-4.3734
G2 X25.1885 Y271.9544 I-5.05 J0.0
G1 F300.0 X25.2136 Y271.3549
G2 F800.0 X22.1526 Y272.107 I-0.236 J5.6451
G2 Y281.893 I2.825 J4.893
G2 X30.6276 Y277.0 I2.825 J-4.893
G2 X25.2136 Y271.3549 I-5.65 J0.0
G1 F300.0 X25.2386 Y270.7555
G2 F800.0 X21.8526 Y271.5873 I-0.261 J6.2445
G2 Y282.4127 I3.125 J5.4127
G2 X31.2276 Y277.0 I3.125 J-5.4127
G2 X25.2386 Y270.7555 I-6.25 J0.0
G1 F300.0 X25.2637 Y270.156
G2 F800.0 X21.5526 Y271.0677 I-0.2861 J6.844
G2 Y282.9323 I3.425 J5.9323
G2 X31.8276 Y277.0 I3.425 J-5.9323
G2 X25.2637 Y270.156 I-6.85 J0.0
G1 F300.0 X25.2888 Y269.5565
G2 F800.0 X21.2526 Y270.5481 I-0.3112 J7.4435
G2 Y283.4519 I3.725 J6.4519
G2 X32.4276 Y277.0 I3.725 J-6.4519
G2 X25.2888 Y269.5565 I-7.45 J0.0
G1 F300.0 X25.3138 Y268.957
G2 F800.0 X20.9526 Y270.0285 I-0.3362 J8.043
G2 Y283.9715 I4.025 J6.9715
G2 X33.0276 Y277.0 I4.025 J-6.9715
G2 X25.3138 Y268.957 I-8.05 J0.0
G1 F300.0 X25.3389 Y268.3575
G2 F800.0 X20.6526 Y269.5089 I-0.3613 J8.6425
G2 Y284.4911 I4.325 J7.4911
G2 X33.6276 Y277.0 I4.325 J-7.4911
G2 X25.3389 Y268.3575 I-8.65 J0.0
G1 F300.0 X25.3639 Y267.7581
G2 F800.0 X20.3526 Y268.9893 I-0.3863 J9.2419
G2 Y285.0107 I4.625 J8.0107
G2 X34.2276 Y277.0 I4.625 J-8.0107
G2 X25.3639 Y267.7581 I-9.25 J0.0
G0 Z3.0
G0 X24.988 Y276.7502
G1 F300.0 Z-6.0
G2 F800.0 X24.8526 Y276.7835 I-0.0104 J0.2498
G2 Y277.2165 I0.125 J0.2165
G2 X25.2276 Y277.0 I0.125 J-0.2165
G2 X24.988 Y276.7502 I-0.25 J0.0
G1 F300.0 X25.0131 Y276.1507
G2 F800.0 X24.5526 Y276.2639 I-0.0355 J0.8493
G2 Y277.7361 I0.425 J0.7361
G2 X25.8276 Y277.0 I0.425 J-0.7361
G2 X25.0131 Y276.1507 I-0.85 J0.0
G1 F300.0 X25.0382 Y275.5513
G2 F800.0 X24.2526 Y275.7443 I-0.0606 J1.4487
G2 Y278.2557 I0.725 J1.2557
G2 X26.4276 Y277.0 I0.725 J-1.2557
G2 X25.0382 Y275.5513 I-1.45 J0.0
G1 F300.0 X25.0632 Y274.9518
G2 F800.0 X23.9526 Y275.2246 I-0.0856 J2.0482
G2 Y278.7754 I1.025 J1.7754
G2 X27.0276 Y277.0 I1.025 J-1.7754
G2 X25.0632 Y274.9518 I-2.05 J0.0
G1 F300.0 X25.0883 Y274.3523
G2 F800.0 X23.6526 Y274.705 I-0.1107 J2.6477
G2 Y279.295 I1.325 J2.295
G2 X27.6276 Y277.0 I1.325 J-2.295
G2 X25.0883 Y274.3523 I-2.65 J0.0
G1 F300.0 X25.1133 Y273.7528
G2 F800.0 X23.3526 Y274.1854 I-0.1357 J3.2472
G2 Y279.8146 I1.625 J2.8146
G2 X28.2276 Y277.0 I1.625 J-2.8146
G2 X25.1133 Y273.7528 I-3.25 J0.0
G1 F300.0 X25.1384 Y273.1534
G2 F800.0 X23.0526 Y273.6658 I-0.1608 J3.8466
G2 Y280.3342 I1.925 J3.3342
G2 X28.8276 Y277.0 I1.925 J-3.3342
G2 X25.1384 Y273.1534 I-3.85 J0.0
G1 F300.0 X25.1635 Y272.5539
G2 F800.0 X22.7526 Y273.1462 I-0.1859 J4.4461
G2 Y280.8538 I2.225 J3.8538
G2 X29.4276 Y277.0 I2.225 J-3.8538
G2 X25.1635 Y272.5539 I-4.45 J0.0
G1 F300.0 X25.1885 Y271.9544
G2 F800.0 X22.4526 Y272.6266 I-0.2109 J5.0456
G2 Y281.3734 I2.525 J4.3734
G2 X30.0276 Y277.0 I2.525 J-4.3734
G2 X25.1885 Y271.9544 I-5.05 J0.0
G1 F300.0 X25.2136 Y271.3549
G2 F800.0 X22.1526 Y272.107 I-0.236 J5.6451
G2 Y281.893 I2.825 J4.893
G2 X30.6276 Y277.0 I2.825 J-4.893
G2 X25.2136 Y271.3549 I-5.65 J0.0
G1 F300.0 X25.2386 Y270.7555
G2 F800.0 X21.8526 Y271.5873 I-0.261 J6.2445
G2 Y282.4127 I3.125 J5.4127
G2 X31.2276 Y277.0 I3.125 J-5.4127
G2 X25.2386 Y270.7555 I-6.25 J0.0
G1 F300.0 X25.2637 Y270.156
G2 F800.0 X21.5526 Y271.0677 I-0.2861 J6.844
G2 Y282.9323 I3.425 J5.9323
G2 X31.8276 Y277.0 I3.425 J-5.9323
G2 X25.2637 Y270.156 I-6.85 J0.0
G1 F300.0 X25.2888 Y269.5565
G2 F800.0 X21.2526 Y270.5481 I-0.3112 J7.4435
G2 Y283.4519 I3.725 J6.4519
G2 X32.4276 Y277.0 I3.725 J-6.4519
G2 X25.2888 Y269.5565 I-7.45 J0.0
G1 F300.0 X25.3138 Y268.957
G2 F800.0 X20.9526 Y270.0285 I-0.3362 J8.043
G2 Y283.9715 I4.025 J6.9715
G2 X33.0276 Y277.0 I4.025 J-6.9715
G2 X25.3138 Y268.957 I-8.05 J0.0
G1 F300.0 X25.3389 Y268.3575
G2 F800.0 X20.6526 Y269.5089 I-0.3613 J8.6425
G2 Y284.4911 I4.325 J7.4911
G2 X33.6276 Y277.0 I4.325 J-7.4911
G2 X25.3389 Y268.3575 I-8.65 J0.0
G1 F300.0 X25.3639 Y267.7581
G2 F800.0 X20.3526 Y268.9893 I-0.3863 J9.2419
G2 Y285.0107 I4.625 J8.0107
G2 X34.2276 Y277.0 I4.625 J-8.0107
G2 X25.3639 Y267.7581 I-9.25 J0.0
G0 Z3.0
G0 X190.4874 Y308.9395
G1 F300.0 Z-1.0
G2 F800.0 X190.605 Y309.2165 I0.2426 J0.0605
G2 X190.98 Y309.0 I0.125 J-0.2165
G2 X190.605 Y308.7835 I-0.25 J0.0
G2 X190.4874 Y308.9395 I0.125 J0.2165
G1 F300.0 X189.9053 Y308.7943
G2 F800.0 X190.305 Y309.7361 I0.8247 J0.2057
G2 X191.58 Y309.0 I0.425 J-0.7361
G2 X190.305 Y308.2639 I-0.85 J0.0
G2 X189.9053 Y308.7943 I0.425 J0.7361
G1 F300.0 X189.3231 Y308.6491
G2 F800.0 X190.005 Y310.2557 I1.4069 J0.3509
G2 X192.18 Y309.0 I0.725 J-1.2557
G2 X190.005 Y307.7443 I-1.45 J0.0
G2 X189.3231 Y308.6491 I0.725 J1.2557
G1 F300.0 X188.7409 Y308.5039
G2 F800.0 X189.705 Y310.7754 I1.9891 J0.4961
G2 X192.78 Y309.0 I1.025 J-1.7754
G2 X189.705 Y307.2246 I-2.05 J0.0
G2 X188.7409 Y308.5039 I1.025 J1.7754
G1 F300.0 X188.1588 Y308.3587
G2 F800.0 X189.405 Y311.295 I2.5712 J0.6413
G2 X193.38 Y309.0 I1.325 J-2.295
G2 X189.405 Y306.705 I-2.65 J0.0
G2 X188.1588 Y308.3587 I1.325 J2.295
G1 F300.0 X187.5766 Y308.2135
G2 F800.0 X189.105 Y311.8146 I3.1534 J0.7865
G2 X193.98 Y309.0 I1.625 J-2.8146
G2 X189.105 Y306.1854 I-3.25 J0.0
G2 X187.5766 Y308.2135 I1.625 J2.8146
G1 F300.0 X186.9944 Y308.0684
G2 F800.0 X188.805 Y312.3342 I3.7356 J0.9316
G2 X194.58 Y309.0 I1.925 J-3.3342
G2 X188.805 Y305.6658 I-3.85 J0.0
G2 X186.9944 Y308.0684 I1.925 J3.3342
G1 F300.0 X186.4123 Y307.9232
G2 F800.0 X188.505 Y312.8538 I4.3177 J1.0768
G2 X195.18 Y309.0 I2.225 J-3.8538
G2 X188.505 Y305.1462 I-4.45 J0.0
G2 X186.4123 Y307.9232 I2.225 J3.8538
G1 F300.0 X185.8301 Y307.778
G2 F800.0 X188.205 Y313.3734 I4.8999 J1.222
G2 X195.78 Y309.0 I2.525 J-4.3734
G2 X188.205 Y304.6266 I-5.05 J0.0
G2 X185.8301 Y307.778 I2.525 J4.3734
G1 F300.0 X185.2479 Y307.6328
G2 F800.0 X187.905 Y313.893 I5.4821 J1.3672
G2 X196.38 Y309.0 I2.825 J-4.893
G2 X187.905 Y304.107 I-5.65 J0.0
G2 X185.2479 Y307.6328 I2.825 J4.893
G1 F300.0 X184.6658 Y307.4876
G2 F800.0 X187.605 Y314.4127 I6.0642 J1.5124
G2 X196.98 Y309.0 I3.125 J-5.4127
G2 X187.605 Y303.5873 I-6.25 J0.0
G2 X184.6658 Y307.4876 I3.125 J5.4127
G1 F300.0 X184.0836 Y307.3424
G2 F800.0 X187.305 Y314.9323 I6.6464 J1.6576
G2 X197.58 Y309.0 I3.425 J-5.9323
G2 X187.305 Y303.0677 I-6.85 J0.0
G2 X184.0836 Y307.3424 I3.425 J5.9323
G1 F300.0 X183.5014 Y307.1972
G2 F800.0 X187.005 Y315.4519 I7.2286 J1.8028
G2 X198.18 Y309.0 I3.725 J-6.4519
G2 X187.005 Y302.5481 I-7.45 J0.0
G2 X183.5014 Y307.1972 I3.725 J6.4519
G1 F300.0 X182.9192 Y307.052
G2 F800.0 X186.705 Y315.9715 I7.8108 J1.948
G2 X198.78 Y309.0 I4.025 J-6.9715
G2 X186.705 Y302.0285 I-8.05 J0.0
G2 X182.9192 Y307.052 I4.025 J6.9715
G1 F300.0 X182.3371 Y306.9068
G2 F800.0 X186.405 Y316.4911 I8.3929 J2.0932
G2 X199.38 Y309.0 I4.325 J-7.4911
G2 X186.405 Y301.5089 I-8.65 J0.0
G2 X182.3371 Y306.9068 I4.325 J7.4911
G1 F300.0 X181.7549 Y306.7616
G2 F800.0 X186.105 Y317.0107 I8.9751 J2.2384
G2 X199.98 Y309.0 I4.625 J-8.0107
G2 X186.105 Y300.9893 I-9.25 J0.0
G2 X181.7549 Y306.7616 I4.625 J8.0107
G0 Z3.0
G0 X190.4874 Y308.9395
G1 F300.0 Z-2.0
G2 F800.0 X190.605 Y309.2165 I0.2426 J0.0605
G2 X190.98 Y309.0 I0.125 J-0.2165
G2 X190.605 Y308.7835 I-0.25 J0.0
G2 X190.4874 Y308.9395 I0.125 J0.2165
G1 F300.0 X189.9053 Y308.7943
G2 F800.0 X190.305 Y309.7361 I0.8247 J0.2057
G2 X191.58 Y309.0 I0.425 J-0.7361
G2 X190.305 Y308.2639 I-0.85 J0.0
G2 X189.9053 Y308.7943 I0.425 J0.7361
G1 F300.0 X189.3231 Y308.6491
G2 F800.0 X190.005 Y310.2557 I1.4069 J0.3509
G2 X192.18 Y309.0 I0.725 J-1.2557
G2 X190.005 Y307.7443 I-1.45 J0.0
G2 X189.3231 Y308.6491 I0.725 J1.2557
G1 F300.0 X188.7409 Y308.5039
G2 F800.0 X189.705 Y310.7754 I1.9891 J0.4961
G2 X192.78 Y309.0 I1.025 J-1.7754
G2 X189.705 Y307.2246 I-2.05 J0.0
G2 X188.7409 Y308.5039 I1.025 J1.7754
G1 F300.0 X188.1588 Y308.3587
G2 F800.0 X189.405 Y311.295 I2.5712 J0.6413
G2 X193.38 Y309.0 I1.325 J-2.295
G2 X189.405 Y306.705 I-2.65 J0.0
G2 X188.1588 Y308.3587 I1.325 J2.295
G1 F300.0 X187.5766 Y308.2135
G2 F800.0 X189.105 Y311.8146 I3.1534 J0.7865
G2 X193.98 Y309.0 I1.625 J-2.8146
G2 X189.105 Y306.1854 I-3.25 J0.0
G2 X187.5766 Y308.2135 I1.625 J2.8146
G1 F300.0 X186.9944 Y308.0684
G2 F800.0 X188.805 Y312.3342 I3.7356 J0.9316
G2 X194.58 Y309.0 I1.925 J-3.3342
G2 X188.805 Y305.6658 I-3.85 J0.0
G2 X186.9944 Y308.0684 I1.925 J3.3342
G1 F300.0 X186.4123 Y307.9232
G2 F800.0 X188.505 Y312.8538 I4.3177 J1.0768
G2 X195.18 Y309.0 I2.225 J-3.8538
G2 X188.505 Y305.1462 I-4.45 J0.0
G2 X186.4123 Y307.9232 I2.225 J3.8538
G1 F300.0 X185.8301 Y307.778
G2 F800.0 X188.205 Y313.3734 I4.8999 J1.222
G2 X195.78 Y309.0 I2.525 J-4.3734
G2 X188.205 Y304.6266 I-5.05 J0.0
G2 X185.8301 Y307.778 I2.525 J4.3734
G1 F300.0 X185.2479 Y307.6328
G2 F800.0 X187.905 Y313.893 I5.4821 J1.3672
G2 X196.38 Y309.0 I2.825 J-4.893
G2 X187.905 Y304.107 I-5.65 J0.0
G2 X185.2479 Y307.6328 I2.825 J4.893
G1 F300.0 X184.6658 Y307.4876
G2 F800.0 X187.605 Y314.4127 I6.0642 J1.5124
G2 X196.98 Y309.0 I3.125 J-5.4127
G2 X187.605 Y303.5873 I-6.25 J0.0
G2 X184.6658 Y307.4876 I3.125 J5.4127
G1 F300.0 X184.0836 Y307.3424
G2 F800.0 X187.305 Y314.9323 I6.6464 J1.6576
G2 X197.58 Y309.0 I3.425 J-5.9323
G2 X187.305 Y303.0677 I-6.85 J0.0
G2 X184.0836 Y307.3424 I3.425 J5.9323
G1 F300.0 X183.5014 Y307.1972
G2 F800.0 X187.005 Y315.4519 I7.2286 J1.8028
G2 X198.18 Y309.0 I3.725 J-6.4519
G2 X187.005 Y302.5481 I-7.45 J0.0
G2 X183.5014 Y307.1972 I3.725 J6.4519
G1 F300.0 X182.9192 Y307.052
G2 F800.0 X186.705 Y315.9715 I7.8108 J1.948
G2 X198.78 Y309.0 I4.025 J-6.9715
G2 X186.705 Y302.0285 I-8.05 J0.0
G2 X182.9192 Y307.052 I4.025 J6.9715
G1 F300.0 X182.3371 Y306.9068
G2 F800.0 X186.405 Y316.4911 I8.3929 J2.0932
G2 X199.38 Y309.0 I4.325 J-7.4911
G2 X186.405 Y301.5089 I-8.65 J0.0
G2 X182.3371 Y306.9068 I4.325 J7.4911
G1 F300.0 X181.7549 Y306.7616
G2 F800.0 X186.105 Y317.0107 I8.9751 J2.2384
G2 X199.98 Y309.0 I4.625 J-8.0107
G2 X186.105 Y300.9893 I-9.25 J0.0
G2 X181.7549 Y306.7616 I4.625 J8.0107
G0 Z3.0
G0 X190.4874 Y308.9395
G1 F300.0 Z-3.0
G2 F800.0 X190.605 Y309.2165 I0.2426 J0.0605
G2 X190.98 Y309.0 I0.125 J-0.2165
G2 X190.605 Y308.7835 I-0.25 J0.0
G2 X190.4874 Y308.9395 I0.125 J0.2165
G1 F300.0 X189.9053 Y308.7943
G2 F800.0 X190.305 Y309.7361 I0.8247 J0.2057
G2 X191.58 Y309.0 I0.425 J-0.7361
G2 X190.305 Y308.2639 I-0.85 J0.0
G2 X189.9053 Y308.7943 I0.425 J0.7361
G1 F300.0 X189.3231 Y308.6491
G2 F800.0 X190.005 Y310.2557 I1.4069 J0.3509
G2 X192.18 Y309.0 I0.725 J-1.2557
G2 X190.005 Y307.7443 I-1.45 J0.0
G2 X189.3231 Y308.6491 I0.725 J1.2557
G1 F300.0 X188.7409 Y308.5039
G2 F800.0 X189.705 Y310.7754 I1.9891 J0.4961
G2 X192.78 Y309.0 I1.025 J-1.7754
G2 X189.705 Y307.2246 I-2.05 J0.0
G2 X188.7409 Y308.5039 I1.025 J1.7754
G1 F300.0 X188.1588 Y308.3587
G2 F800.0 X189.405 Y311.295 I2.5712 J0.6413
G2 X193.38 Y309.0 I1.325 J-2.295
G2 X189.405 Y306.705 I-2.65 J0.0
G2 X188.1588 Y308.3587 I1.325 J2.295
G1 F300.0 X187.5766 Y308.2135
G2 F800.0 X189.105 Y311.8146 I3.1534 J0.7865
G2 X193.98 Y309.0 I1.625 J-2.8146
G2 X189.105 Y306.1854 I-3.25 J0.0
G2 X187.5766 Y308.2135 I1.625 J2.8146
G1 F300.0 X186.9944 Y308.0684
G2 F800.0 X188.805 Y312.3342 I3.7356 J0.9316
G2 X194.58 Y309.0 I1.925 J-3.3342
G2 X188.805 Y305.6658 I-3.85 J0.0
G2 X186.9944 Y308.0684 I1.925 J3.3342
G1 F300.0 X186.4123 Y307.9232
G2 F800.0 X188.505 Y312.8538 I4.3177 J1.0768
G2 X195.18 Y309.0 I2.225 J-3.8538
G2 X188.505 Y305.1462 I-4.45 J0.0
G2 X186.4123 Y307.9232 I2.225 J3.8538
G1 F300.0 X185.8301 Y307.778
G2 F800.0 X188.205 Y313.3734 I4.8999 J1.222
G2 X195.78 Y309.0 I2.525 J-4.3734
G2 X188.205 Y304.6266 I-5.05 J0.0
G2 X185.8301 Y307.778 I2.525 J4.3734
G1 F300.0 X185.2479 Y307.6328
G2 F800.0 X187.905 Y313.893 I5.4821 J1.3672
G2 X196.38 Y309.0 I2.825 J-4.893
G2 X187.905 Y304.107 I-5.65 J0.0
G2 X185.2479 Y307.6328 I2.825 J4.893
G1 F300.0 X184.6658 Y307.4876
G2 F800.0 X187.605 Y314.4127 I6.0642 J1.5124
G2 X196.98 Y309.0 I3.125 J-5.4127
G2 X187.605 Y303.5873 I-6.25 J0.0
G2 X184.6658 Y307.4876 I3.125 J5.4127
G1 F300.0 X184.0836 Y307.3424
G2 F800.0 X187.305 Y314.9323 I6.6464 J1.6576
G2 X197.58 Y309.0 I3.425 J-5.9323
G2 X187.305 Y303.0677 I-6.85 J0.0
G2 X184.0836 Y307.3424 I3.425 J5.9323
G1 F300.0 X183.5014 Y307.1972
G2 F800.0 X187.005 Y315.4519 I7.2286 J1.8028
G2 X198.18 Y309.0 I3.725 J-6.4519
G2 X187.005 Y302.5481 I-7.45 J0.0
G2 X183.5014 Y307.1972 I3.725 J6.4519
G1 F300.0 X182.9192 Y307.052
G2 F800.0 X186.705 Y315.9715 I7.8108 J1.948
G2 X198.78 Y309.0 I4.025 J-6.9715
G2 X186.705 Y302.0285 I-8.05 J0.0
G2 X182.9192 Y307.052 I4.025 J6.9715
G1 F300.0 X182.3371 Y306.9068
G2 F800.0 X186.405 Y316.4911 I8.3929 J2.0932
G2 X199.38 Y309.0 I4.325 J-7.4911
G2 X186.405 Y301.5089 I-8.65 J0.0
G2 X182.3371 Y306.9068 I4.325 J7.4911
G1 F300.0 X181.7549 Y306.7616
G2 F800.0 X186.105 Y317.0107 I8.9751 J2.2384
G2 X199.98 Y309.0 I4.625 J-8.0107
G2 X186.105 Y300.9893 I-9.25 J0.0
G2 X181.7549 Y306.7616 I4.625 J8.0107
G0 Z3.0
G0 X190.4874 Y308.9395
G1 F300.0 Z-4.0
G2 F800.0 X190.605 Y309.2165 I0.2426 J0.0605
G2 X190.98 Y309.0 I0.125 J-0.2165
G2 X190.605 Y308.7835 I-0.25 J0.0
G2 X190.4874 Y308.9395 I0.125 J0.2165
G1 F300.0 X189.9053 Y308.7943
G2 F800.0 X190.305 Y309.7361 I0.8247 J0.2057
G2 X191.58 Y309.0 I0.425 J-0.7361
G2 X190.305 Y308.2639 I-0.85 J0.0
G2 X189.9053 Y308.7943 I0.425 J0.7361
G1 F300.0 X189.3231 Y308.6491
G2 F800.0 X190.005 Y310.2557 I1.4069 J0.3509
G2 X192.18 Y309.0 I0.725 J-1.2557
G2 X190.005 Y307.7443 I-1.45 J0.0
G2 X189.3231 Y308.6491 I0.725 J1.2557
G1 F300.0 X188.7409 Y308.5039
G2 F800.0 X189.705 Y310.7754 I1.9891 J0.4961
G2 X192.78 Y309.0 I1.025 J-1.7754
G2 X189.705 Y307.2246 I-2.05 J0.0
G2 X188.7409 Y308.5039 I1.025 J1.7754
G1 F300.0 X188.1588 Y308.3587
G2 F800.0 X189.405 Y311.295 I2.5712 J0.6413
G2 X193.38 Y309.0 I1.325 J-2.295
G2 X189.405 Y306.705 I-2.65 J0.0
G2 X188.1588 Y308.3587 I1.325 J2.295
G1 F300.0 X187.5766 Y308.2135
G2 F800.0 X189.105 Y311.8146 I3.1534 J0.7865
G2 X193.98 Y309.0 I1.625 J-2.8146
G2 X189.105 Y306.1854 I-3.25 J0.0
G2 X187.5766 Y308.2135 I1.625 J2.8146
G1 F300.0 X186.9944 Y308.0684
G2 F800.0 X188.805 Y312.3342 I3.7356 J0.9316
G2 X194.58 Y309.0 I1.925 J-3.3342
G2 X188.805 Y305.6658 I-3.85 J0.0
G2 X186.9944 Y308.0684 I1.925 J3.3342
G1 F300.0 X186.4123 Y307.9232
G2 F800.0 X188.505 Y312.8538 I4.3177 J1.0768
G2 X195.18 Y309.0 I2.225 J-3.8538
G2 X188.505 Y305.1462 I-4.45 J0.0
G2 X186.4123 Y307.9232 I2.225 J3.8538
G1 F300.0 X185.8301 Y307.778
G2 F800.0 X188.205 Y313.3734 I4.8999 J1.222
G2 X195.78 Y309.0 I2.525 J-4.3734
G2 X188.205 Y304.6266 I-5.05 J0.0
G2 X185.8301 Y307.778 I2.525 J4.3734
G1 F300.0 X185.2479 Y307.6328
G2 F800.0 X187.905 Y313.893 I5.4821 J1.3672
G2 X196.38 Y309.0 I2.825 J-4.893
G2 X187.905 Y304.107 I-5.65 J0.0
G2 X185.2479 Y307.6328 I2.825 J4.893
G1 F300.0 X184.6658 Y307.4876
G2 F800.0 X187.605 Y314.4127 I6.0642 J1.5124
G2 X196.98 Y309.0 I3.125 J-5.4127
G2 X187.605 Y303.5873 I-6.25 J0.0
G2 X184.6658 Y307.4876 I3.125 J5.4127
G1 F300.0 X184.0836 Y307.3424
G2 F800.0 X187.305 Y314.9323 I6.6464 J1.6576
G2 X197.58 Y309.0 I3.425 J-5.9323
G2 X187.305 Y303.0677 I-6.85 J0.0
G2 X184.0836 Y307.3424 I3.425 J5.9323
G1 F300.0 X183.5014 Y307.1972
G2 F800.0 X187.005 Y315.4519 I7.2286 J1.8028
G2 X198.18 Y309.0 I3.725 J-6.4519
G2 X187.005 Y302.5481 I-7.45 J0.0
G2 X183.5014 Y307.1972 I3.725 J6.4519
G1 F300.0 X182.9192 Y307.052
G2 F800.0 X186.705 Y315.9715 I7.8108 J1.948
G2 X198.78 Y309.0 I4.025 J-6.9715
G2 X186.705 Y302.0285 I-8.05 J0.0
G2 X182.9192 Y307.052 I4.025 J6.9715
G1 F300.0 X182.3371 Y306.9068
G2 F800.0 X186.405 Y316.4911 I8.3929 J2.0932
G2 X199.38 Y309.0 I4.325 J-7.4911
G2 X186.405 Y301.5089 I-8.65 J0.0
G2 X182.3371 Y306.9068 I4.325 J7.4911
G1 F300.0 X181.7549 Y306.7616
G2 F800.0 X186.105 Y317.0107 I8.9751 J2.2384
G2 X199.98 Y309.0 I4.625 J-8.0107
G2 X186.105 Y300.9893 I-9.25 J0.0
G2 X181.7549 Y306.7616 I4.625 J8.0107
G0 Z3.0
G0 X190.4874 Y308.9395
G1 F300.0 Z-5.0
G2 F800.0 X190.605 Y309.2165 I0.2426 J0.0605
G2 X190.98 Y309.0 I0.125 J-0.2165
G2 X190.605 Y308.7835 I-0.25 J0.0
G2 X190.4874 Y308.9395 I0.125 J0.2165
G1 F300.0 X189.9053 Y308.7943
G2 F800.0 X190.305 Y309.7361 I0.8247 J0.2057
G2 X191.58 Y309.0 I0.425 J-0.7361
G2 X190.305 Y308.2639 I-0.85 J0.0
G2 X189.9053 Y308.7943 I0.425 J0.7361
G1 F300.0 X189.3231 Y308.6491
G2 F800.0 X190.005 Y310.2557 I1.4069 J0.3509
G2 X192.18 Y309.0 I0.725 J-1.2557
G2 X190.005 Y307.7443 I-1.45 J0.0
G2 X189.3231 Y308.6491 I0.725 J1.2557
G1 F300.0 X188.7409 Y308.5039
G2 F800.0 X189.705 Y310.7754 I1.9891 J0.4961
G2 X192.78 Y309.0 I1.025 J-1.7754
G2 X189.705 Y307.2246 I-2.05 J0.0
G2 X188.7409 Y308.5039 I1.025 J1.7754
G1 F300.0 X188.1588 Y308.3587
G2 F800.0 X189.405 Y311.295 I2.5712 J0.6413
G2 X193.38 Y309.0 I1.325 J-2.295
G2 X189.405 Y306.705 I-2.65 J0.0
G2 X188.1588 Y308.3587 I1.325 J2.295
G1 F300.0 X187.5766 Y308.2135
G2 F800.0 X189.105 Y311.8146 I3.1534 J0.7865
G2 X193.98 Y309.0 I1.625 J-2.8146
G2 X189.105 Y306.1854 I-3.25 J0.0
G2 X187.5766 Y308.2135 I1.625 J2.8146
G1 F300.0 X186.9944 Y308.0684
G2 F800.0 X188.805 Y312.3342 I3.7356 J0.9316
G2 X194.58 Y309.0 I1.925 J-3.3342
G2 X188.805 Y305.6658 I-3.85 J0.0
G2 X186.9944 Y308.0684 I1.925 J3.3342
G1 F300.0 X186.4123 Y307.9232
G2 F800.0 X188.505 Y312.8538 I4.3177 J1.0768
G2 X195.18 Y309.0 I2.225 J-3.8538
G2 X188.505 Y305.1462 I-4.45 J0.0
G2 X186.4123 Y307.9232 I2.225 J3.8538
G1 F300.0 X185.8301 Y307.778
G2 F800.0 X188.205 Y313.3734 I4.8999 J1.222
G2 X195.78 Y309.0 I2.525 J-4.3734
G2 X188.205 Y304.6266 I-5.05 J0.0
G2 X185.8301 Y307.778 I2.525 J4.3734
G1 F300.0 X185.2479 Y307.6328
G2 F800.0 X187.905 Y313.893 I5.4821 J1.3672
G2 X196.38 Y309.0 I2.825 J-4.893
G2 X187.905 Y304.107 I-5.65 J0.0
G2 X185.2479 Y307.6328 I2.825 J4.893
G1 F300.0 X184.6658 Y307.4876
G2 F800.0 X187.605 Y314.4127 I6.0642 J1.5124
G2 X196.98 Y309.0 I3.125 J-5.4127
G2 X187.605 Y303.5873 I-6.25 J0.0
G2 X184.6658 Y307.4876 I3.125 J5.4127
G1 F300.0 X184.0836 Y307.3424
G2 F800.0 X187.305 Y314.9323 I6.6464 J1.6576
G2 X197.58 Y309.0 I3.425 J-5.9323
G2 X187.305 Y303.0677 I-6.85 J0.0
G2 X184.0836 Y307.3424 I3.425 J5.9323
G1 F300.0 X183.5014 Y307.1972
G2 F800.0 X187.005 Y315.4519 I7.2286 J1.8028
G2 X198.18 Y309.0 I3.725 J-6.4519
G2 X187.005 Y302.5481 I-7.45 J0.0
G2 X183.5014 Y307.1972 I3.725 J6.4519
G1 F300.0 X182.9192 Y307.052
G2 F800.0 X186.705 Y315.9715 I7.8108 J1.948
G2 X198.78 Y309.0 I4.025 J-6.9715
G2 X186.705 Y302.0285 I-8.05 J0.0
G2 X182.9192 Y307.052 I4.025 J6.9715
G1 F300.0 X182.3371 Y306.9068
G2 F800.0 X186.405 Y316.4911 I8.3929 J2.0932
G2 X199.38 Y309.0 I4.325 J-7.4911
G2 X186.405 Y301.5089 I-8.65 J0.0
G2 X182.3371 Y306.9068 I4.325 J7.4911
G1 F300.0 X181.7549 Y306.7616
G2 F800.0 X186.105 Y317.0107 I8.9751 J2.2384
G2 X199.98 Y309.0 I4.625 J-8.0107
G2 X186.105 Y300.9893 I-9.25 J0.0
G2 X181.7549 Y306.7616 I4.625 J8.0107
G0 Z3.0
G0 X190.4874 Y308.9395
G1 F300.0 Z-6.0
G2 F800.0 X190.605 Y309.2165 I0.2426 J0.0605
G2 X190.98 Y309.0 I0.125 J-0.2165
G2 X190.605 Y308.7835 I-0.25 J0.0
G2 X190.4874 Y308.9395 I0.125 J0.2165
G1 F300.0 X189.9053 Y308.7943
G2 F800.0 X190.305 Y309.7361 I0.8247 J0.2057
G2 X191.58 Y309.0 I0.425 J-0.7361
G2 X190.305 Y308.2639 I-0.85 J0.0
G2 X189.9053 Y308.7943 I0.425 J0.7361
G1 F300.0 X189.3231 Y308.6491
G2 F800.0 X190.005 Y310.2557 I1.4069 J0.3509
G2 X192.18 Y309.0 I0.725 J-1.2557
G2 X190.005 Y307.7443 I-1.45 J0.0
G2 X189.3231 Y308.6491 I0.725 J1.2557
G1 F300.0 X188.7409 Y308.5039
G2 F800.0 X189.705 Y310.7754 I1.9891 J0.4961
G2 X192.78 Y309.0 I1.025 J-1.7754
G2 X189.705 Y307.2246 I-2.05 J0.0
G2 X188.7409 Y308.5039 I1.025 J1.7754
G1 F300.0 X188.1588 Y308.3587
G2 F800.0 X189.405 Y311.295 I2.5712 J0.6413
G2 X193.38 Y309.0 I1.325 J-2.295
G2 X189.405 Y306.705 I-2.65 J0.0
G2 X188.1588 Y308.3587 I1.325 J2.295
G1 F300.0 X187.5766 Y308.2135
G2 F800.0 X189.105 Y311.8146 I3.1534 J0.7865
G2 X193.98 Y309.0 I1.625 J-2.8146
G2 X189.105 Y306.1854 I-3.25 J0.0
G2 X187.5766 Y308.2135 I1.625 J2.8146
G1 F300.0 X186.9944 Y308.0684
G2 F800.0 X188.805 Y312.3342 I3.7356 J0.9316
G2 X194.58 Y309.0 I1.925 J-3.3342
G2 X188.805 Y305.6658 I-3.85 J0.0
G2 X186.9944 Y308.0684 I1.925 J3.3342
G1 F300.0 X186.4123 Y307.9232
G2 F800.0 X188.505 Y312.8538 I4.3177 J1.0768
G2 X195.18 Y309.0 I2.225 J-3.8538
G2 X188.505 Y305.1462 I-4.45 J0.0
G2 X186.4123 Y307.9232 I2.225 J3.8538
G1 F300.0 X185.8301 Y307.778
G2 F800.0 X188.205 Y313.3734 I4.8999 J1.222
G2 X195.78 Y309.0 I2.525 J-4.3734
G2 X188.205 Y304.6266 I-5.05 J0.0
G2 X185.8301 Y307.778 I2.525 J4.3734
G1 F300.0 X185.2479 Y307.6328
G2 F800.0 X187.905 Y313.893 I5.4821 J1.3672
G2 X196.38 Y309.0 I2.825 J-4.893
G2 X187.905 Y304.107 I-5.65 J0.0
G2 X185.2479 Y307.6328 I2.825 J4.893
G1 F300.0 X184.6658 Y307.4876
G2 F800.0 X187.605 Y314.4127 I6.0642 J1.5124
G2 X196.98 Y309.0 I3.125 J-5.4127
G2 X187.605 Y303.5873 I-6.25 J0.0
G2 X184.6658 Y307.4876 I3.125 J5.4127
G1 F300.0 X184.0836 Y307.3424
G2 F800.0 X187.305 Y314.9323 I6.6464 J1.6576
G2 X197.58 Y309.0 I3.425 J-5.9323
G2 X187.305 Y303.0677 I-6.85 J0.0
G2 X184.0836 Y307.3424 I3.425 J5.9323
G1 F300.0 X183.5014 Y307.1972
G2 F800.0 X187.005 Y315.4519 I7.2286 J1.8028
G2 X198.18 Y309.0 I3.725 J-6.4519
G2 X187.005 Y302.5481 I-7.45 J0.0
G2 X183.5014 Y307.1972 I3.725 J6.4519
G1 F300.0 X182.9192 Y307.052
G2 F800.0 X186.705 Y315.9715 I7.8108 J1.948
G2 X198.78 Y309.0 I4.025 J-6.9715
G2 X186.705 Y302.0285 I-8.05 J0.0
G2 X182.9192 Y307.052 I4.025 J6.9715
G1 F300.0 X182.3371 Y306.9068
G2 F800.0 X186.405 Y316.4911 I8.3929 J2.0932
G2 X199.38 Y309.0 I4.325 J-7.4911
G2 X186.405 Y301.5089 I-8.65 J0.0
G2 X182.3371 Y306.9068 I4.325 J7.4911
G1 F300.0 X181.7549 Y306.7616
G2 F800.0 X186.105 Y317.0107 I8.9751 J2.2384
G2 X199.98 Y309.0 I4.625 J-8.0107
G2 X186.105 Y300.9893 I-9.25 J0.0
G2 X181.7549 Y306.7616 I4.625 J8.0107
( Contour1 )
S1000
G0 Z3.0
G0 X42.2276 Y208.6
G1 F300.0 Z-1.0
G3 F800.0 X39.6026 Y210.1155 I-1.75 J0.0
G3 Y207.0845 I0.875 J-1.5155
G3 X42.2276 Y208.6 I0.875 J1.5155
G1 F300.0 Z-2.0
G3 F800.0 X39.6026 Y210.1155 I-1.75 J0.0
G3 Y207.0845 I0.875 J-1.5155
G3 X42.2276 Y208.6 I0.875 J1.5155
G0 Z3.0
G0 X40.6679 Y194.3396
G1 F300.0 Z-1.0
G3 F800.0 X39.6026 Y194.1155 I-0.1903 J-1.7396
G3 Y191.0845 I0.875 J-1.5155
G3 X42.2276 Y192.6 I0.875 J1.5155
G3 X40.6679 Y194.3396 I-1.75 J0.0
G1 F300.0 Z-2.0
G3 F800.0 X39.6026 Y194.1155 I-0.1903 J-1.7396
G3 Y191.0845 I0.875 J-1.5155
G3 X42.2276 Y192.6 I0.875 J1.5155
G3 X40.6679 Y194.3396 I-1.75 J0.0
G0 Z3.0
G0 X26.2176 Y192.787
G1 F300.0 Z-1.0
G3 F800.0 X23.6026 Y194.1155 I-1.74 J-0.187
G3 Y191.0845 I0.875 J-1.5155
G3 X26.2276 Y192.6 I0.875 J1.5155
G3 X26.2176 Y192.787 I-1.75 J0.0
G1 F300.0 Z-2.0
G3 F800.0 X23.6026 Y194.1155 I-1.74 J-0.187
G3 Y191.0845 I0.875 J-1.5155
G3 X26.2276 Y192.6 I0.875 J1.5155
G3 X26.2176 Y192.787 I-1.75 J0.0
G0 Z3.0
G0 X24.669 Y206.8605
G1 F300.0 Z-1.0
G3 F800.0 X26.2276 Y208.6 I-0.1914 J1.7395
G3 X23.6026 Y210.1155 I-1.75 J0.0
G3 Y207.0845 I0.875 J-1.5155
G3 X24.669 Y206.8605 I0.875 J1.5155
G1 F300.0 Z-2.0
G3 F800.0 X26.2276 Y208.6 I-0.1914 J1.7395
G3 X23.6026 Y210.1155 I-1.75 J0.0
G3 Y207.0845 I0.875 J-1.5155
G3 X24.669 Y206.8605 I0.875 J1.5155
( Contour2 )
S1000
G0 Z3.0
G0 X40.7276 Y208.6
G1 F300.0 Z-1.0
G2 F800.0 X40.3526 Y208.3835 I-0.25 J0.0
G2 Y208.8165 I0.125 J0.2165
G2 X40.7276 Y208.6 I0.125 J-0.2165
G1 F300.0 Z-2.0
G2 F800.0 X40.3526 Y208.3835 I-0.25 J0.0
G2 Y208.8165 I0.125 J0.2165
G2 X40.7276 Y208.6 I0.125 J-0.2165
G1 F300.0 Z-3.0
G2 F800.0 X40.3526 Y208.3835 I-0.25 J0.0
G2 Y208.8165 I0.125 J0.2165
G2 X40.7276 Y208.6 I0.125 J-0.2165
G1 F300.0 Z-4.0
G2 F800.0 X40.3526 Y208.3835 I-0.25 J0.0
G2 Y208.8165 I0.125 J0.2165
G2 X40.7276 Y208.6 I0.125 J-0.2165
G1 F300.0 Z-5.0
G2 F800.0 X40.3526 Y208.3835 I-0.25 J0.0
G2 Y208.8165 I0.125 J0.2165
G2 X40.7276 Y208.6 I0.125 J-0.2165
G1 F300.0 Z-6.0
G2 F800.0 X40.3526 Y208.3835 I-0.25 J0.0
G2 Y208.8165 I0.125 J0.2165
G2 X40.7276 Y208.6 I0.125 J-0.2165
G0 Z3.0
G0 X40.4815 Y192.85
G1 F300.0 Z-1.0
G2 F800.0 X40.7276 Y192.6 I-0.0039 J-0.25
G2 X40.3526 Y192.3835 I-0.25 J0.0
G2 Y192.8165 I0.125 J0.2165
G2 X40.4815 Y192.85 I0.125 J-0.2165
G1 F300.0 Z-2.0
G2 F800.0 X40.7276 Y192.6 I-0.0039 J-0.25
G2 X40.3526 Y192.3835 I-0.25 J0.0
G2 Y192.8165 I0.125 J0.2165
G2 X40.4815 Y192.85 I0.125 J-0.2165
G1 F300.0 Z-3.0
G2 F800.0 X40.7276 Y192.6 I-0.0039 J-0.25
G2 X40.3526 Y192.3835 I-0.25 J0.0
G2 Y192.8165 I0.125 J0.2165
G2 X40.4815 Y192.85 I0.125 J-0.2165
G1 F300.0 Z-4.0
G2 F800.0 X40.7276 Y192.6 I-0.0039 J-0.25
G2 X40.3526 Y192.3835 I-0.25 J0.0
G2 Y192.8165 I0.125 J0.2165
G2 X40.4815 Y192.85 I0.125 J-0.2165
G1 F300.0 Z-5.0
G2 F800.0 X40.7276 Y192.6 I-0.0039 J-0.25
G2 X40.3526 Y192.3835 I-0.25 J0.0
G2 Y192.8165 I0.125 J0.2165
G2 X40.4815 Y192.85 I0.125 J-0.2165
G1 F300.0 Z-6.0
G2 F800.0 X40.7276 Y192.6 I-0.0039 J-0.25
G2 X40.3526 Y192.3835 I-0.25 J0.0
G2 Y192.8165 I0.125 J0.2165
G2 X40.4815 Y192.85 I0.125 J-0.2165
G0 Z3.0
G0 X24.7276 Y192.6039
G1 F300.0 Z-1.0
G2 F800.0 Y192.6 I-0.25 J-0.0039
G2 X24.3526 Y192.3835 I-0.25 J0.0
G2 Y192.8165 I0.125 J0.2165
G2 X24.7276 Y192.6039 I0.125 J-0.2165
G1 F300.0 Z-2.0
G2 F800.0 Y192.6 I-0.25 J-0.0039
G2 X24.3526 Y192.3835 I-0.25 J0.0
G2 Y192.8165 I0.125 J0.2165
G2 X24.7276 Y192.6039 I0.125 J-0.2165
G1 F300.0 Z-3.0
G2 F800.0 Y192.6 I-0.25 J-0.0039
G2 X24.3526 Y192.3835 I-0.25 J0.0
G2 Y192.8165 I0.125 J0.2165
G2 X24.7276 Y192.6039 I0.125 J-0.2165
G1 F300.0 Z-4.0
G2 F800.0 Y192.6 I-0.25 J-0.0039
G2 X24.3526 Y192.3835 I-0.25 J0.0
G2 Y192.8165 I0.125 J0.2165
G2 X24.7276 Y192.6039 I0.125 J-0.2165
G1 F300.0 Z-5.0
G2 F800.0 Y192.6 I-0.25 J-0.0039
G2 X24.3526 Y192.3835 I-0.25 J0.0
G2 Y192.8165 I0.125 J0.2165
G2 X24.7276 Y192.6039 I0.125 J-0.2165
G1 F300.0 Z-6.0
G2 F800.0 Y192.6 I-0.25 J-0.0039
G2 X24.3526 Y192.3835 I-0.25 J0.0
G2 Y192.8165 I0.125 J0.2165
G2 X24.7276 Y192.6039 I0.125 J-0.2165
G0 Z3.0
G0 X24.4815 Y208.35
G1 F300.0 Z-1.0
G2 F800.0 X24.3526 Y208.3835 I-0.0039 J0.25
G2 Y208.8165 I0.125 J0.2165
G2 X24.7276 Y208.6 I0.125 J-0.2165
G2 X24.4815 Y208.35 I-0.25 J0.0
G1 F300.0 Z-2.0
G2 F800.0 X24.3526 Y208.3835 I-0.0039 J0.25
G2 Y208.8165 I0.125 J0.2165
G2 X24.7276 Y208.6 I0.125 J-0.2165
G2 X24.4815 Y208.35 I-0.25 J0.0
G1 F300.0 Z-3.0
G2 F800.0 X24.3526 Y208.3835 I-0.0039 J0.25
G2 Y208.8165 I0.125 J0.2165
G2 X24.7276 Y208.6 I0.125 J-0.2165
G2 X24.4815 Y208.35 I-0.25 J0.0
G1 F300.0 Z-4.0
G2 F800.0 X24.3526 Y208.3835 I-0.0039 J0.25
G2 Y208.8165 I0.125 J0.2165
G2 X24.7276 Y208.6 I0.125 J-0.2165
G2 X24.4815 Y208.35 I-0.25 J0.0
G1 F300.0 Z-5.0
G2 F800.0 X24.3526 Y208.3835 I-0.0039 J0.25
G2 Y208.8165 I0.125 J0.2165
G2 X24.7276 Y208.6 I0.125 J-0.2165
G2 X24.4815 Y208.35 I-0.25 J0.0
G1 F300.0 Z-6.0
G2 F800.0 X24.3526 Y208.3835 I-0.0039 J0.25
G2 Y208.8165 I0.125 J0.2165
G2 X24.7276 Y208.6 I0.125 J-0.2165
G2 X24.4815 Y208.35 I-0.25 J0.0
( Contour3 )
S1000
G0 Z3.0
G0 X89.0276 Y64.5
G1 F300.0 Z-1.0
G3 F800.0 X85.6526 Y66.4486 I-2.25 J0.0
G3 Y62.5514 I1.125 J-1.9486
G3 X89.0276 Y64.5 I1.125 J1.9486
G1 F300.0 Z-2.0
G3 F800.0 X85.6526 Y66.4486 I-2.25 J0.0
G3 Y62.5514 I1.125 J-1.9486
G3 X89.0276 Y64.5 I1.125 J1.9486
G1 F300.0 Z-3.0
G3 F800.0 X85.6526 Y66.4486 I-2.25 J0.0
G3 Y62.5514 I1.125 J-1.9486
G3 X89.0276 Y64.5 I1.125 J1.9486
G0 Z3.0
G0 X66.0276
G1 F300.0 Z-1.0
G3 F800.0 X62.6526 Y66.4486 I-2.25 J0.0
G3 Y62.5514 I1.125 J-1.9486
G3 X66.0276 Y64.5 I1.125 J1.9486
G1 F300.0 Z-2.0
G3 F800.0 X62.6526 Y66.4486 I-2.25 J0.0
G3 Y62.5514 I1.125 J-1.9486
G3 X66.0276 Y64.5 I1.125 J1.9486
G1 F300.0 Z-3.0
G3 F800.0 X62.6526 Y66.4486 I-2.25 J0.0
G3 Y62.5514 I1.125 J-1.9486
G3 X66.0276 Y64.5 I1.125 J1.9486
G0 Z3.0
G0 X52.821 Y49.0091
G1 F300.0 Z-1.0
G3 F800.0 X50.2362 Y49.2454 I-1.4597 J-1.7122
G3 Y45.3483 I1.125 J-1.9486
G3 X53.6112 Y47.2969 I1.125 J1.9486
G3 X52.821 Y49.0091 I-2.25 J0.0
G1 F300.0 Z-2.0
G3 F800.0 X50.2362 Y49.2454 I-1.4597 J-1.7122
G3 Y45.3483 I1.125 J-1.9486
G3 X53.6112 Y47.2969 I1.125 J1.9486
G3 X52.821 Y49.0091 I-2.25 J0.0
G1 F300.0 Z-3.0
G3 F800.0 X50.2362 Y49.2454 I-1.4597 J-1.7122
G3 Y45.3483 I1.125 J-1.9486
G3 X53.6112 Y47.2969 I1.125 J1.9486
G3 X52.821 Y49.0091 I-2.25 J0.0
G0 Z3.0
G0 X40.1719 Y53.4633
G1 F300.0 Z-1.0
G3 F800.0 X40.2996 Y54.2107 I-2.1223 J0.7473
G3 X36.9246 Y56.1592 I-2.25 J0.0
G3 Y52.2621 I1.125 J-1.9486
G3 X40.1719 Y53.4633 I1.125 J1.9486
G1 F300.0 Z-2.0
G3 F800.0 X40.2996 Y54.2107 I-2.1223 J0.7473
G3 X36.9246 Y56.1592 I-2.25 J0.0
G3 Y52.2621 I1.125 J-1.9486
G3 X40.1719 Y53.4633 I1.125 J1.9486
G1 F300.0 Z-3.0
G3 F800.0 X40.2996 Y54.2107 I-2.1223 J0.7473
G3 X36.9246 Y56.1592 I-2.25 J0.0
G3 Y52.2621 I1.125 J-1.9486
G3 X40.1719 Y53.4633 I1.125 J1.9486
G0 Z3.0
G0 X11.7108 Y50.3035
G1 F300.0 Z-1.0
G3 F800.0 X7.6026 Y52.3816 I-2.7332 J-0.3035
G3 Y47.6184 I1.375 J-2.3816
G3 X11.7276 Y50.0 I1.375 J2.3816
G3 X11.7108 Y50.3035 I-2.75 J0.0
G1 F300.0 Z-2.0
G3 F800.0 X7.6026 Y52.3816 I-2.7332 J-0.3035
G3 Y47.6184 I1.375 J-2.3816
G3 X11.7276 Y50.0 I1.375 J2.3816
G3 X11.7108 Y50.3035 I-2.75 J0.0
G1 F300.0 Z-3.0
G3 F800.0 X7.6026 Y52.3816 I-2.7332 J-0.3035
G3 Y47.6184 I1.375 J-2.3816
G3 X11.7276 Y50.0 I1.375 J2.3816
G3 X11.7108 Y50.3035 I-2.75 J0.0
G0 Z3.0
G0 X8.0832 Y127.5025
G1 F300.0 Z-1.0
G3 F800.0 X10.2276 Y129.75 I-0.1056 J2.2475
G3 X6.8526 Y131.6986 I-2.25 J0.0
G3 Y127.8014 I1.125 J-1.9486
G3 X8.0832 Y127.5025 I1.125 J1.9486
G1 F300.0 Z-2.0
G3 F800.0 X10.2276 Y129.75 I-0.1056 J2.2475
G3 X6.8526 Y131.6986 I-2.25 J0.0
G3 Y127.8014 I1.125 J-1.9486
G3 X8.0832 Y127.5025 I1.125 J1.9486
G1 F300.0 Z-3.0
G3 F800.0 X10.2276 Y129.75 I-0.1056 J2.2475
G3 X6.8526 Y131.6986 I-2.25 J0.0
G3 Y127.8014 I1.125 J-1.9486
G3 X8.0832 Y127.5025 I1.125 J1.9486
G0 Z3.0
G0 X7.9865 Y152.0
G1 F300.0 Z-1.0
G3 F800.0 X10.2276 Y154.25 I-0.0089 J2.25
G3 X6.8526 Y156.1986 I-2.25 J0.0
G3 Y152.3014 I1.125 J-1.9486
G3 X7.9865 Y152.0 I1.125 J1.9486
G1 F300.0 Z-2.0
G3 F800.0 X10.2276 Y154.25 I-0.0089 J2.25
G3 X6.8526 Y156.1986 I-2.25 J0.0
G3 Y152.3014 I1.125 J-1.9486
G3 X7.9865 Y152.0 I1.125 J1.9486
G1 F300.0 Z-3.0
G3 F800.0 X10.2276 Y154.25 I-0.0089 J2.25
G3 X6.8526 Y156.1986 I-2.25 J0.0
G3 Y152.3014 I1.125 J-1.9486
G3 X7.9865 Y152.0 I1.125 J1.9486
G0 Z3.0
G0 X7.9788 Y166.75
G1 F300.0 Z-1.0
G3 F800.0 X10.2276 Y169.0 I-0.0012 J2.25
G3 X6.8526 Y170.9486 I-2.25 J0.0
G3 Y167.0514 I1.125 J-1.9486
G3 X7.9788 Y166.75 I1.125 J1.9486
G1 F300.0 Z-2.0
G3 F800.0 X10.2276 Y169.0 I-0.0012 J2.25
G3 X6.8526 Y170.9486 I-2.25 J0.0
G3 Y167.0514 I1.125 J-1.9486
G3 X7.9788 Y166.75 I1.125 J1.9486
G1 F300.0 Z-3.0
G3 F800.0 X10.2276 Y169.0 I-0.0012 J2.25
G3 X6.8526 Y170.9486 I-2.25 J0.0
G3 Y167.0514 I1.125 J-1.9486
G3 X7.9788 Y166.75 I1.125 J1.9486
G0 Z3.0
G0 X7.9777 Y181.5
G1 F300.0 Z-1.0
G3 F800.0 X10.2276 Y183.75 I-0.0002 J2.25
G3 X6.8526 Y185.6986 I-2.25 J0.0
G3 Y181.8014 I1.125 J-1.9486
G3 X7.9777 Y181.5 I1.125 J1.9486
G1 F300.0 Z-2.0
G3 F800.0 X10.2276 Y183.75 I-0.0002 J2.25
G3 X6.8526 Y185.6986 I-2.25 J0.0
G3 Y181.8014 I1.125 J-1.9486
G3 X7.9777 Y181.5 I1.125 J1.9486
G1 F300.0 Z-3.0
G3 F800.0 X10.2276 Y183.75 I-0.0002 J2.25
G3 X6.8526 Y185.6986 I-2.25 J0.0
G3 Y181.8014 I1.125 J-1.9486
G3 X7.9777 Y181.5 I1.125 J1.9486
G0 Z3.0
G0 X7.9776 Y206.0
G1 F300.0 Z-1.0
G3 F800.0 X10.2276 Y208.25 I0.0 J2.25
G3 X6.8526 Y210.1986 I-2.25 J0.0
G3 Y206.3014 I1.125 J-1.9486
G3 X7.9776 Y206.0 I1.125 J1.9486
G1 F300.0 Z-2.0
G3 F800.0 X10.2276 Y208.25 I0.0 J2.25
G3 X6.8526 Y210.1986 I-2.25 J0.0
G3 Y206.3014 I1.125 J-1.9486
G3 X7.9776 Y206.0 I1.125 J1.9486
G1 F300.0 Z-3.0
G3 F800.0 X10.2276 Y208.25 I0.0 J2.25
G3 X6.8526 Y210.1986 I-2.25 J0.0
G3 Y206.3014 I1.125 J-1.9486
G3 X7.9776 Y206.0 I1.125 J1.9486
G0 Z3.0
G0 X76.7285 Y207.9366
G1 F300.0 Z-1.0
G3 F800.0 X77.8526 Y206.0514 I2.2491 J0.0634
G3 X81.2276 Y208.0 I1.125 J1.9486
G3 X77.8526 Y209.9486 I-2.25 J0.0
G3 X76.7285 Y207.9366 I1.125 J-1.9486
G1 F300.0 Z-2.0
G3 F800.0 X77.8526 Y206.0514 I2.2491 J0.0634
G3 X81.2276 Y208.0 I1.125 J1.9486
G3 X77.8526 Y209.9486 I-2.25 J0.0
G3 X76.7285 Y207.9366 I1.125 J-1.9486
G1 F300.0 Z-3.0
G3 F800.0 X77.8526 Y206.0514 I2.2491 J0.0634
G3 X81.2276 Y208.0 I1.125 J1.9486
G3 X77.8526 Y209.9486 I-2.25 J0.0
G3 X76.7285 Y207.9366 I1.125 J-1.9486
G0 Z3.0
G0 X78.809 Y180.2437
G1 F300.0 Z-1.0
G3 F800.0 X77.8526 Y179.9486 I0.1686 J-2.2437
G3 Y176.0514 I1.125 J-1.9486
G3 X81.2276 Y178.0 I1.125 J1.9486
G3 X78.809 Y180.2437 I-2.25 J0.0
G1 F300.0 Z-2.0
G3 F800.0 X77.8526 Y179.9486 I0.1686 J-2.2437
G3 Y176.0514 I1.125 J-1.9486
G3 X81.2276 Y178.0 I1.125 J1.9486
G3 X78.809 Y180.2437 I-2.25 J0.0
G1 F300.0 Z-3.0
G3 F800.0 X77.8526 Y179.9486 I0.1686 J-2.2437
G3 Y176.0514 I1.125 J-1.9486
G3 X81.2276 Y178.0 I1.125 J1.9486
G3 X78.809 Y180.2437 I-2.25 J0.0
G0 Z3.0
G0 X78.9589 Y162.2499
G1 F300.0 Z-1.0
G3 F800.0 X77.8526 Y161.9486 I0.0187 J-2.2499
G3 Y158.0514 I1.125 J-1.9486
G3 X81.2276 Y160.0 I1.125 J1.9486
G3 X78.9589 Y162.2499 I-2.25 J0.0
G1 F300.0 Z-2.0
G3 F800.0 X77.8526 Y161.9486 I0.0187 J-2.2499
G3 Y158.0514 I1.125 J-1.9486
G3 X81.2276 Y160.0 I1.125 J1.9486
G3 X78.9589 Y162.2499 I-2.25 J0.0
G1 F300.0 Z-3.0
G3 F800.0 X77.8526 Y161.9486 I0.0187 J-2.2499
G3 Y158.0514 I1.125 J-1.9486
G3 X81.2276 Y160.0 I1.125 J1.9486
G3 X78.9589 Y162.2499 I-2.25 J0.0
G0 Z3.0
G0 X78.9763 Y132.25
G1 F300.0 Z-1.0
G3 F800.0 X77.8526 Y131.9486 I0.0013 J-2.25
G3 Y128.0514 I1.125 J-1.9486
G3 X81.2276 Y130.0 I1.125 J1.9486
G3 X78.9763 Y132.25 I-2.25 J0.0
G1 F300.0 Z-2.0
G3 F800.0 X77.8526 Y131.9486 I0.0013 J-2.25
G3 Y128.0514 I1.125 J-1.9486
G3 X81.2276 Y130.0 I1.125 J1.9486
G3 X78.9763 Y132.25 I-2.25 J0.0
G1 F300.0 Z-3.0
G3 F800.0 X77.8526 Y131.9486 I0.0013 J-2.25
G3 Y128.0514 I1.125 J-1.9486
G3 X81.2276 Y130.0 I1.125 J1.9486
G3 X78.9763 Y132.25 I-2.25 J0.0
G0 Z3.0
G0 X122.335 Y119.7612
G1 F300.0 Z-1.0
G3 F800.0 X123.6026 Y116.6184 I2.6426 J-0.7612
G3 X127.7276 Y119.0 I1.375 J2.3816
G3 X123.6026 Y121.3816 I-2.75 J0.0
G3 X122.335 Y119.7612 I1.375 J-2.3816
G1 F300.0 Z-2.0
G3 F800.0 X123.6026 Y116.6184 I2.6426 J-0.7612
G3 X127.7276 Y119.0 I1.375 J2.3816
G3 X123.6026 Y121.3816 I-2.75 J0.0
G3 X122.335 Y119.7612 I1.375 J-2.3816
G1 F300.0 Z-3.0
G3 F800.0 X123.6026 Y116.6184 I2.6426 J-0.7612
G3 X127.7276 Y119.0 I1.375 J2.3816
G3 X123.6026 Y121.3816 I-2.75 J0.0
G3 X122.335 Y119.7612 I1.375 J-2.3816
G0 Z3.0
G0 X122.8139 Y111.7451
G1 F300.0 Z-1.0
G3 F800.0 X121.6029 Y111.3816 I0.164 J-2.7451
G3 Y106.6184 I1.375 J-2.3816
G3 X125.7279 Y109.0 I1.375 J2.3816
G3 X122.8139 Y111.7451 I-2.75 J0.0
G1 F300.0 Z-2.0
G3 F800.0 X121.6029 Y111.3816 I0.164 J-2.7451
G3 Y106.6184 I1.375 J-2.3816
G3 X125.7279 Y109.0 I1.375 J2.3816
G3 X122.8139 Y111.7451 I-2.75 J0.0
G1 F300.0 Z-3.0
G3 F800.0 X121.6029 Y111.3816 I0.164 J-2.7451
G3 Y106.6184 I1.375 J-2.3816
G3 X125.7279 Y109.0 I1.375 J2.3816
G3 X122.8139 Y111.7451 I-2.75 J0.0
G0 Z3.0
G0 X121.6502 Y93.2446
G1 F300.0 Z-1.0
G3 F800.0 X120.1026 Y92.8816 I-0.1726 J-2.7446
G3 Y88.1184 I1.375 J-2.3816
G3 X124.2276 Y90.5 I1.375 J2.3816
G3 X121.6502 Y93.2446 I-2.75 J0.0
G1 F300.0 Z-2.0
G3 F800.0 X120.1026 Y92.8816 I-0.1726 J-2.7446
G3 Y88.1184 I1.375 J-2.3816
G3 X124.2276 Y90.5 I1.375 J2.3816
G3 X121.6502 Y93.2446 I-2.75 J0.0
G1 F300.0 Z-3.0
G3 F800.0 X120.1026 Y92.8816 I-0.1726 J-2.7446
G3 Y88.1184 I1.375 J-2.3816
G3 X124.2276 Y90.5 I1.375 J2.3816
G3 X121.6502 Y93.2446 I-2.75 J0.0
G0 Z3.0
G0 X160.7335 Y90.6801
G1 F300.0 Z-1.0
G3 F800.0 X162.1026 Y88.1184 I2.7441 J-0.1801
G3 X166.2276 Y90.5 I1.375 J2.3816
G3 X162.1026 Y92.8816 I-2.75 J0.0
G3 X160.7335 Y90.6801 I1.375 J-2.3816
G1 F300.0 Z-2.0
G3 F800.0 X162.1026 Y88.1184 I2.7441 J-0.1801
G3 X166.2276 Y90.5 I1.375 J2.3816
G3 X162.1026 Y92.8816 I-2.75 J0.0
G3 X160.7335 Y90.6801 I1.375 J-2.3816
G1 F300.0 Z-3.0
G3 F800.0 X162.1026 Y88.1184 I2.7441 J-0.1801
G3 X166.2276 Y90.5 I1.375 J2.3816
G3 X162.1026 Y92.8816 I-2.75 J0.0
G3 X160.7335 Y90.6801 I1.375 J-2.3816
G0 Z3.0
G0 X161.7913 Y106.2563
G1 F300.0 Z-1.0
G3 F800.0 X164.7276 Y109.0 I0.1863 J2.7437
G3 X160.6026 Y111.3816 I-2.75 J0.0
G3 Y106.6184 I1.375 J-2.3816
G3 X161.7913 Y106.2563 I1.375 J2.3816
G1 F300.0 Z-2.0
G3 F800.0 X164.7276 Y109.0 I0.1863 J2.7437
G3 X160.6026 Y111.3816 I-2.75 J0.0
G3 Y106.6184 I1.375 J-2.3816
G3 X161.7913 Y106.2563 I1.375 J2.3816
G1 F300.0 Z-3.0
G3 F800.0 X164.7276 Y109.0 I0.1863 J2.7437
G3 X160.6026 Y111.3816 I-2.75 J0.0
G3 Y106.6184 I1.375 J-2.3816
G3 X161.7913 Y106.2563 I1.375 J2.3816
G0 Z3.0
G0 X160.3651 Y116.2774
G1 F300.0 Z-1.0
G3 F800.0 X162.7276 Y119.0 I-0.3875 J2.7226
G3 X158.6026 Y121.3816 I-2.75 J0.0
G3 Y116.6184 I1.375 J-2.3816
G3 X160.3651 Y116.2774 I1.375 J2.3816
G1 F300.0 Z-2.0
G3 F800.0 X162.7276 Y119.0 I-0.3875 J2.7226
G3 X158.6026 Y121.3816 I-2.75 J0.0
G3 Y116.6184 I1.375 J-2.3816
G3 X160.3651 Y116.2774 I1.375 J2.3816
G1 F300.0 Z-3.0
G3 F800.0 X162.7276 Y119.0 I-0.3875 J2.7226
G3 X158.6026 Y121.3816 I-2.75 J0.0
G3 Y116.6184 I1.375 J-2.3816
G3 X160.3651 Y116.2774 I1.375 J2.3816
G0 Z3.0
G0 X205.5061 Y109.3417
G1 F300.0 Z-1.0
G3 F800.0 X206.605 Y107.0514 I2.2239 J-0.3417
G3 X209.98 Y109.0 I1.125 J1.9486
G3 X206.605 Y110.9486 I-2.25 J0.0
G3 X205.5061 Y109.3417 I1.125 J-1.9486
G1 F300.0 Z-2.0
G3 F800.0 X206.605 Y107.0514 I2.2239 J-0.3417
G3 X209.98 Y109.0 I1.125 J1.9486
G3 X206.605 Y110.9486 I-2.25 J0.0
G3 X205.5061 Y109.3417 I1.125 J-1.9486
G1 F300.0 Z-3.0
G3 F800.0 X206.605 Y107.0514 I2.2239 J-0.3417
G3 X209.98 Y109.0 I1.125 J1.9486
G3 X206.605 Y110.9486 I-2.25 J0.0
G3 X205.5061 Y109.3417 I1.125 J-1.9486
G0 Z3.0
G0 X207.5655 Y81.244
G1 F300.0 Z-1.0
G3 F800.0 X206.605 Y80.9486 I0.1645 J-2.244
G3 Y77.0514 I1.125 J-1.9486
G3 X209.98 Y79.0 I1.125 J1.9486
G3 X207.5655 Y81.244 I-2.25 J0.0
G1 F300.0 Z-2.0
G3 F800.0 X206.605 Y80.9486 I0.1645 J-2.244
G3 Y77.0514 I1.125 J-1.9486
G3 X209.98 Y79.0 I1.125 J1.9486
G3 X207.5655 Y81.244 I-2.25 J0.0
G1 F300.0 Z-3.0
G3 F800.0 X206.605 Y80.9486 I0.1645 J-2.244
G3 Y77.0514 I1.125 J-1.9486
G3 X209.98 Y79.0 I1.125 J1.9486
G3 X207.5655 Y81.244 I-2.25 J0.0
G0 Z3.0
G0 X192.0176 Y60.4518
G1 F300.0 Z-1.0
G3 F800.0 X189.655 Y60.592 I-1.2876 J-1.7218
G3 Y56.868 I1.075 J-1.862
G3 X192.88 Y58.73 I1.075 J1.862
G3 X192.0176 Y60.4518 I-2.15 J0.0
G1 F300.0 Z-2.0
G3 F800.0 X189.655 Y60.592 I-1.2876 J-1.7218
G3 Y56.868 I1.075 J-1.862
G3 X192.88 Y58.73 I1.075 J1.862
G3 X192.0176 Y60.4518 I-2.15 J0.0
G1 F300.0 Z-3.0
G3 F800.0 X189.655 Y60.592 I-1.2876 J-1.7218
G3 Y56.868 I1.075 J-1.862
G3 X192.88 Y58.73 I1.075 J1.862
G3 X192.0176 Y60.4518 I-2.15 J0.0
G0 Z3.0
G0 X190.8951 Y45.8737
G1 F300.0 Z-1.0
G3 F800.0 X189.655 Y45.592 I-0.1651 J-2.1437
G3 Y41.868 I1.075 J-1.862
G3 X192.88 Y43.73 I1.075 J1.862
G3 X190.8951 Y45.8737 I-2.15 J0.0
G1 F300.0 Z-2.0
G3 F800.0 X189.655 Y45.592 I-0.1651 J-2.1437
G3 Y41.868 I1.075 J-1.862
G3 X192.88 Y43.73 I1.075 J1.862
G3 X190.8951 Y45.8737 I-2.15 J0.0
G1 F300.0 Z-3.0
G3 F800.0 X189.655 Y45.592 I-0.1651 J-2.1437
G3 Y41.868 I1.075 J-1.862
G3 X192.88 Y43.73 I1.075 J1.862
G3 X190.8951 Y45.8737 I-2.15 J0.0
G0 Z3.0
G0 X205.4938 Y44.2489
G1 F300.0 Z-1.0
G3 F800.0 X206.605 Y42.0514 I2.2362 J-0.2489
G3 X209.98 Y44.0 I1.125 J1.9486
G3 X206.605 Y45.9486 I-2.25 J0.0
G3 X205.4938 Y44.2489 I1.125 J-1.9486
G1 F300.0 Z-2.0
G3 F800.0 X206.605 Y42.0514 I2.2362 J-0.2489
G3 X209.98 Y44.0 I1.125 J1.9486
G3 X206.605 Y45.9486 I-2.25 J0.0
G3 X205.4938 Y44.2489 I1.125 J-1.9486
G1 F300.0 Z-3.0
G3 F800.0 X206.605 Y42.0514 I2.2362 J-0.2489
G3 X209.98 Y44.0 I1.125 J1.9486
G3 X206.605 Y45.9486 I-2.25 J0.0
G3 X205.4938 Y44.2489 I1.125 J-1.9486
G0 Z3.0
G0 X207.5315 Y21.2412
G1 F300.0 Z-1.0
G3 F800.0 X206.605 Y20.9486 I0.1985 J-2.2412
G3 Y17.0514 I1.125 J-1.9486
G3 X209.98 Y19.0 I1.125 J1.9486
G3 X207.5315 Y21.2412 I-2.25 J0.0
G1 F300.0 Z-2.0
G3 F800.0 X206.605 Y20.9486 I0.1985 J-2.2412
G3 Y17.0514 I1.125 J-1.9486
G3 X209.98 Y19.0 I1.125 J1.9486
G3 X207.5315 Y21.2412 I-2.25 J0.0
G1 F300.0 Z-3.0
G3 F800.0 X206.605 Y20.9486 I0.1985 J-2.2412
G3 Y17.0514 I1.125 J-1.9486
G3 X209.98 Y19.0 I1.125 J1.9486
G3 X207.5315 Y21.2412 I-2.25 J0.0
G0 Z3.0
G0 X206.8962 Y10.745
G1 F300.0 Z-1.0
G3 F800.0 X205.355 Y10.3816 I-0.1662 J-2.745
G3 Y5.6184 I1.375 J-2.3816
G3 X209.48 Y8.0 I1.375 J2.3816
G3 X206.8962 Y10.745 I-2.75 J0.0
G1 F300.0 Z-2.0
G3 F800.0 X205.355 Y10.3816 I-0.1662 J-2.745
G3 Y5.6184 I1.375 J-2.3816
G3 X209.48 Y8.0 I1.375 J2.3816
G3 X206.8962 Y10.745 I-2.75 J0.0
G1 F300.0 Z-3.0
G3 F800.0 X205.355 Y10.3816 I-0.1662 J-2.745
G3 Y5.6184 I1.375 J-2.3816
G3 X209.48 Y8.0 I1.375 J2.3816
G3 X206.8962 Y10.745 I-2.75 J0.0
G0 Z3.0
G0 X179.0853 Y7.2783
G1 F300.0 Z-1.0
G3 F800.0 X175.7276 Y8.9486 I-2.2327 J-0.2783
G3 Y5.0514 I1.125 J-1.9486
G3 X179.1026 Y7.0 I1.125 J1.9486
G3 X179.0853 Y7.2783 I-2.25 J0.0
G1 F300.0 Z-2.0
G3 F800.0 X175.7276 Y8.9486 I-2.2327 J-0.2783
G3 Y5.0514 I1.125 J-1.9486
G3 X179.1026 Y7.0 I1.125 J1.9486
G3 X179.0853 Y7.2783 I-2.25 J0.0
G1 F300.0 Z-3.0
G3 F800.0 X175.7276 Y8.9486 I-2.2327 J-0.2783
G3 Y5.0514 I1.125 J-1.9486
G3 X179.1026 Y7.0 I1.125 J1.9486
G3 X179.0853 Y7.2783 I-2.25 J0.0
G0 Z3.0
G0 X168.6087 Y26.8833
G1 F300.0 Z-1.0
G3 F800.0 X169.8776 Y29.0 I-1.1311 J2.1167
G3 X166.2776 Y31.0785 I-2.4 J0.0
G3 Y26.9215 I1.2 J-2.0785
G3 X168.6087 Y26.8833 I1.2 J2.0785
G1 F300.0 Z-2.0
G3 F800.0 X169.8776 Y29.0 I-1.1311 J2.1167
G3 X166.2776 Y31.0785 I-2.4 J0.0
G3 Y26.9215 I1.2 J-2.0785
G3 X168.6087 Y26.8833 I1.2 J2.0785
G1 F300.0 Z-3.0
G3 F800.0 X169.8776 Y29.0 I-1.1311 J2.1167
G3 X166.2776 Y31.0785 I-2.4 J0.0
G3 Y26.9215 I1.2 J-2.0785
G3 X168.6087 Y26.8833 I1.2 J2.0785
G0 Z3.0
G0 X119.8755 Y28.9007
G1 F300.0 Z-1.0
G3 F800.0 X119.8776 Y29.0 I-2.3979 J0.0993
G3 X116.2776 Y31.0785 I-2.4 J0.0
G3 Y26.9215 I1.2 J-2.0785
G3 X119.8755 Y28.9007 I1.2 J2.0785
G1 F300.0 Z-2.0
G3 F800.0 X119.8776 Y29.0 I-2.3979 J0.0993
G3 X116.2776 Y31.0785 I-2.4 J0.0
G3 Y26.9215 I1.2 J-2.0785
G3 X119.8755 Y28.9007 I1.2 J2.0785
G1 F300.0 Z-3.0
G3 F800.0 X119.8776 Y29.0 I-2.3979 J0.0993
G3 X116.2776 Y31.0785 I-2.4 J0.0
G3 Y26.9215 I1.2 J-2.0785
G3 X119.8755 Y28.9007 I1.2 J2.0785
G0 Z3.0
G0 X108.8212 Y8.9677
G1 F300.0 Z-1.0
G3 F800.0 X106.605 Y8.9486 I-1.0912 J-1.9677
G3 Y5.0514 I1.125 J-1.9486
G3 X109.98 Y7.0 I1.125 J1.9486
G3 X108.8212 Y8.9677 I-2.25 J0.0
G1 F300.0 Z-2.0
G3 F800.0 X106.605 Y8.9486 I-1.0912 J-1.9677
G3 Y5.0514 I1.125 J-1.9486
G3 X109.98 Y7.0 I1.125 J1.9486
G3 X108.8212 Y8.9677 I-2.25 J0.0
G1 F300.0 Z-3.0
G3 F800.0 X106.605 Y8.9486 I-1.0912 J-1.9677
G3 Y5.0514 I1.125 J-1.9486
G3 X109.98 Y7.0 I1.125 J1.9486
G3 X108.8212 Y8.9677 I-2.25 J0.0
G0 Z3.0
G0 X100.7167 Y8.2444
G1 F300.0 Z-1.0
G3 F800.0 X96.6026 Y10.3816 I-2.7391 J-0.2444
G3 Y5.6184 I1.375 J-2.3816
G3 X100.7276 Y8.0 I1.375 J2.3816
G3 X100.7167 Y8.2444 I-2.75 J0.0
G1 F300.0 Z-2.0
G3 F800.0 X96.6026 Y10.3816 I-2.7391 J-0.2444
G3 Y5.6184 I1.375 J-2.3816
G3 X100.7276 Y8.0 I1.375 J2.3816
G3 X100.7167 Y8.2444 I-2.75 J0.0
G1 F300.0 Z-3.0
G3 F800.0 X96.6026 Y10.3816 I-2.7391 J-0.2444
G3 Y5.6184 I1.375 J-2.3816
G3 X100.7276 Y8.0 I1.375 J2.3816
G3 X100.7167 Y8.2444 I-2.75 J0.0
G0 Z3.0
G0 X206.3371 Y142.233
G1 F300.0 Z-1.0
G3 F800.0 X206.605 Y142.0514 I1.3929 J1.767
G3 X209.98 Y144.0 I1.125 J1.9486
G3 X206.605 Y145.9486 I-2.25 J0.0
G3 X206.3371 Y142.233 I1.125 J-1.9486
G1 F300.0 Z-2.0
G3 F800.0 X206.605 Y142.0514 I1.3929 J1.767
G3 X209.98 Y144.0 I1.125 J1.9486
G3 X206.605 Y145.9486 I-2.25 J0.0
G3 X206.3371 Y142.233 I1.125 J-1.9486
G1 F300.0 Z-3.0
G3 F800.0 X206.605 Y142.0514 I1.3929 J1.767
G3 X209.98 Y144.0 I1.125 J1.9486
G3 X206.605 Y145.9486 I-2.25 J0.0
G3 X206.3371 Y142.233 I1.125 J-1.9486
G0 Z3.0
G0 X207.6131 Y166.753
G1 F300.0 Z-1.0
G3 F800.0 X209.98 Y169.0 I0.1169 J2.247
G3 X206.605 Y170.9486 I-2.25 J0.0
G3 Y167.0514 I1.125 J-1.9486
G3 X207.6131 Y166.753 I1.125 J1.9486
G1 F300.0 Z-2.0
G3 F800.0 X209.98 Y169.0 I0.1169 J2.247
G3 X206.605 Y170.9486 I-2.25 J0.0
G3 Y167.0514 I1.125 J-1.9486
G3 X207.6131 Y166.753 I1.125 J1.9486
G1 F300.0 Z-3.0
G3 F800.0 X209.98 Y169.0 I0.1169 J2.247
G3 X206.605 Y170.9486 I-2.25 J0.0
G3 Y167.0514 I1.125 J-1.9486
G3 X207.6131 Y166.753 I1.125 J1.9486
G0 Z3.0
G0 X207.7203 Y191.75
G1 F300.0 Z-1.0
G3 F800.0 X209.98 Y194.0 I0.0097 J2.25
G3 X206.605 Y195.9486 I-2.25 J0.0
G3 Y192.0514 I1.125 J-1.9486
G3 X207.7203 Y191.75 I1.125 J1.9486
G1 F300.0 Z-2.0
G3 F800.0 X209.98 Y194.0 I0.0097 J2.25
G3 X206.605 Y195.9486 I-2.25 J0.0
G3 Y192.0514 I1.125 J-1.9486
G3 X207.7203 Y191.75 I1.125 J1.9486
G1 F300.0 Z-3.0
G3 F800.0 X209.98 Y194.0 I0.0097 J2.25
G3 X206.605 Y195.9486 I-2.25 J0.0
G3 Y192.0514 I1.125 J-1.9486
G3 X207.7203 Y191.75 I1.125 J1.9486
G0 Z3.0
G0 X207.7294 Y226.75
G1 F300.0 Z-1.0
G3 F800.0 X209.98 Y229.0 I0.0006 J2.25
G3 X206.605 Y230.9486 I-2.25 J0.0
G3 Y227.0514 I1.125 J-1.9486
G3 X207.7294 Y226.75 I1.125 J1.9486
G1 F300.0 Z-2.0
G3 F800.0 X209.98 Y229.0 I0.0006 J2.25
G3 X206.605 Y230.9486 I-2.25 J0.0
G3 Y227.0514 I1.125 J-1.9486
G3 X207.7294 Y226.75 I1.125 J1.9486
G1 F300.0 Z-3.0
G3 F800.0 X209.98 Y229.0 I0.0006 J2.25
G3 X206.605 Y230.9486 I-2.25 J0.0
G3 Y227.0514 I1.125 J-1.9486
G3 X207.7294 Y226.75 I1.125 J1.9486
G0 Z3.0
G0 X207.73 Y256.75
G1 F300.0 Z-1.0
G3 F800.0 X209.98 Y259.0 I0.0 J2.25
G3 X206.605 Y260.9486 I-2.25 J0.0
G3 Y257.0514 I1.125 J-1.9486
G3 X207.73 Y256.75 I1.125 J1.9486
G1 F300.0 Z-2.0
G3 F800.0 X209.98 Y259.0 I0.0 J2.25
G3 X206.605 Y260.9486 I-2.25 J0.0
G3 Y257.0514 I1.125 J-1.9486
G3 X207.73 Y256.75 I1.125 J1.9486
G1 F300.0 Z-3.0
G3 F800.0 X209.98 Y259.0 I0.0 J2.25
G3 X206.605 Y260.9486 I-2.25 J0.0
G3 Y257.0514 I1.125 J-1.9486
G3 X207.73 Y256.75 I1.125 J1.9486
G0 Z3.0
G0 X192.0254 Y277.554
G1 F300.0 Z-1.0
G3 F800.0 X192.88 Y279.27 I-1.2954 J1.716
G3 X189.655 Y281.132 I-2.15 J0.0
G3 Y277.408 I1.075 J-1.862
G3 X192.0254 Y277.554 I1.075 J1.862
G1 F300.0 Z-2.0
G3 F800.0 X192.88 Y279.27 I-1.2954 J1.716
G3 X189.655 Y281.132 I-2.15 J0.0
G3 Y277.408 I1.075 J-1.862
G3 X192.0254 Y277.554 I1.075 J1.862
G1 F300.0 Z-3.0
G3 F800.0 X192.88 Y279.27 I-1.2954 J1.716
G3 X189.655 Y281.132 I-2.15 J0.0
G3 Y277.408 I1.075 J-1.862
G3 X192.0254 Y277.554 I1.075 J1.862
G0 Z3.0
G0 X190.8961 Y292.1264
G1 F300.0 Z-1.0
G3 F800.0 X192.88 Y294.27 I-0.1661 J2.1436
G3 X189.655 Y296.132 I-2.15 J0.0
G3 Y292.408 I1.075 J-1.862
G3 X190.8961 Y292.1264 I1.075 J1.862
G1 F300.0 Z-2.0
G3 F800.0 X192.88 Y294.27 I-0.1661 J2.1436
G3 X189.655 Y296.132 I-2.15 J0.0
G3 Y292.408 I1.075 J-1.862
G3 X190.8961 Y292.1264 I1.075 J1.862
G1 F300.0 Z-3.0
G3 F800.0 X192.88 Y294.27 I-0.1661 J2.1436
G3 X189.655 Y296.132 I-2.15 J0.0
G3 Y292.408 I1.075 J-1.862
G3 X190.8961 Y292.1264 I1.075 J1.862
G0 Z3.0
G0 X205.4938 Y293.7511
G1 F300.0 Z-1.0
G3 F800.0 X206.605 Y292.0514 I2.2362 J0.2489
G3 X209.98 Y294.0 I1.125 J1.9486
G3 X206.605 Y295.9486 I-2.25 J0.0
G3 X205.4938 Y293.7511 I1.125 J-1.9486
G1 F300.0 Z-2.0
G3 F800.0 X206.605 Y292.0514 I2.2362 J0.2489
G3 X209.98 Y294.0 I1.125 J1.9486
G3 X206.605 Y295.9486 I-2.25 J0.0
G3 X205.4938 Y293.7511 I1.125 J-1.9486
G1 F300.0 Z-3.0
G3 F800.0 X206.605 Y292.0514 I2.2362 J0.2489
G3 X209.98 Y294.0 I1.125 J1.9486
G3 X206.605 Y295.9486 I-2.25 J0.0
G3 X205.4938 Y293.7511 I1.125 J-1.9486
G0 Z3.0
G0 X207.5315 Y316.7588
G1 F300.0 Z-1.0
G3 F800.0 X209.98 Y319.0 I0.1985 J2.2412
G3 X206.605 Y320.9486 I-2.25 J0.0
G3 Y317.0514 I1.125 J-1.9486
G3 X207.5315 Y316.7588 I1.125 J1.9486
G1 F300.0 Z-2.0
G3 F800.0 X209.98 Y319.0 I0.1985 J2.2412
G3 X206.605 Y320.9486 I-2.25 J0.0
G3 Y317.0514 I1.125 J-1.9486
G3 X207.5315 Y316.7588 I1.125 J1.9486
G1 F300.0 Z-3.0
G3 F800.0 X209.98 Y319.0 I0.1985 J2.2412
G3 X206.605 Y320.9486 I-2.25 J0.0
G3 Y317.0514 I1.125 J-1.9486
G3 X207.5315 Y316.7588 I1.125 J1.9486
G0 Z3.0
G0 X206.8962 Y327.255
G1 F300.0 Z-1.0
G3 F800.0 X209.48 Y330.0 I-0.1662 J2.745
G3 X205.355 Y332.3816 I-2.75 J0.0
G3 Y327.6184 I1.375 J-2.3816
G3 X206.8962 Y327.255 I1.375 J2.3816
G1 F300.0 Z-2.0
G3 F800.0 X209.48 Y330.0 I-0.1662 J2.745
G3 X205.355 Y332.3816 I-2.75 J0.0
G3 Y327.6184 I1.375 J-2.3816
G3 X206.8962 Y327.255 I1.375 J2.3816
G1 F300.0 Z-3.0
G3 F800.0 X209.48 Y330.0 I-0.1662 J2.745
G3 X205.355 Y332.3816 I-2.75 J0.0
G3 Y327.6184 I1.375 J-2.3816
G3 X206.8962 Y327.255 I1.375 J2.3816
G0 Z3.0
G0 X179.0853 Y330.7217
G1 F300.0 Z-1.0
G3 F800.0 X179.1026 Y331.0 I-2.2327 J0.2783
G3 X175.7276 Y332.9486 I-2.25 J0.0
G3 Y329.0514 I1.125 J-1.9486
G3 X179.0853 Y330.7217 I1.125 J1.9486
G1 F300.0 Z-2.0
G3 F800.0 X179.1026 Y331.0 I-2.2327 J0.2783
G3 X175.7276 Y332.9486 I-2.25 J0.0
G3 Y329.0514 I1.125 J-1.9486
G3 X179.0853 Y330.7217 I1.125 J1.9486
G1 F300.0 Z-3.0
G3 F800.0 X179.1026 Y331.0 I-2.2327 J0.2783
G3 X175.7276 Y332.9486 I-2.25 J0.0
G3 Y329.0514 I1.125 J-1.9486
G3 X179.0853 Y330.7217 I1.125 J1.9486
G0 Z3.0
G0 X168.6087 Y311.1167
G1 F300.0 Z-1.0
G3 F800.0 X166.2776 Y311.0785 I-1.1311 J-2.1167
G3 Y306.9215 I1.2 J-2.0785
G3 X169.8776 Y309.0 I1.2 J2.0785
G3 X168.6087 Y311.1167 I-2.4 J0.0
G1 F300.0 Z-2.0
G3 F800.0 X166.2776 Y311.0785 I-1.1311 J-2.1167
G3 Y306.9215 I1.2 J-2.0785
G3 X169.8776 Y309.0 I1.2 J2.0785
G3 X168.6087 Y311.1167 I-2.4 J0.0
G1 F300.0 Z-3.0
G3 F800.0 X166.2776 Y311.0785 I-1.1311 J-2.1167
G3 Y306.9215 I1.2 J-2.0785
G3 X169.8776 Y309.0 I1.2 J2.0785
G3 X168.6087 Y311.1167 I-2.4 J0.0
G0 Z3.0
G0 X119.8755 Y309.0993
G1 F300.0 Z-1.0
G3 F800.0 X116.2776 Y311.0785 I-2.3979 J-0.0993
G3 Y306.9215 I1.2 J-2.0785
G3 X119.8776 Y309.0 I1.2 J2.0785
G3 X119.8755 Y309.0993 I-2.4 J0.0
G1 F300.0 Z-2.0
G3 F800.0 X116.2776 Y311.0785 I-2.3979 J-0.0993
G3 Y306.9215 I1.2 J-2.0785
G3 X119.8776 Y309.0 I1.2 J2.0785
G3 X119.8755 Y309.0993 I-2.4 J0.0
G1 F300.0 Z-3.0
G3 F800.0 X116.2776 Y311.0785 I-2.3979 J-0.0993
G3 Y306.9215 I1.2 J-2.0785
G3 X119.8776 Y309.0 I1.2 J2.0785
G3 X119.8755 Y309.0993 I-2.4 J0.0
G0 Z3.0
G0 X108.8212 Y329.0323
G1 F300.0 Z-1.0
G3 F800.0 X109.98 Y331.0 I-1.0912 J1.9677
G3 X106.605 Y332.9486 I-2.25 J0.0
G3 Y329.0514 I1.125 J-1.9486
G3 X108.8212 Y329.0323 I1.125 J1.9486
G1 F300.0 Z-2.0
G3 F800.0 X109.98 Y331.0 I-1.0912 J1.9677
G3 X106.605 Y332.9486 I-2.25 J0.0
G3 Y329.0514 I1.125 J-1.9486
G3 X108.8212 Y329.0323 I1.125 J1.9486
G1 F300.0 Z-3.0
G3 F800.0 X109.98 Y331.0 I-1.0912 J1.9677
G3 X106.605 Y332.9486 I-2.25 J0.0
G3 Y329.0514 I1.125 J-1.9486
G3 X108.8212 Y329.0323 I1.125 J1.9486
G0 Z3.0
G0 X100.7167 Y329.7556
G1 F300.0 Z-1.0
G3 F800.0 X100.7276 Y330.0 I-2.7391 J0.2444
G3 X96.6026 Y332.3816 I-2.75 J0.0
G3 Y327.6184 I1.375 J-2.3816
G3 X100.7167 Y329.7556 I1.375 J2.3816
G1 F300.0 Z-2.0
G3 F800.0 X100.7276 Y330.0 I-2.7391 J0.2444
G3 X96.6026 Y332.3816 I-2.75 J0.0
G3 Y327.6184 I1.375 J-2.3816
G3 X100.7167 Y329.7556 I1.375 J2.3816
G1 F300.0 Z-3.0
G3 F800.0 X100.7276 Y330.0 I-2.7391 J0.2444
G3 X96.6026 Y332.3816 I-2.75 J0.0
G3 Y327.6184 I1.375 J-2.3816
G3 X100.7167 Y329.7556 I1.375 J2.3816
G0 Z3.0
G0 X87.3187 Y275.684
G1 F300.0 Z-1.0
G3 F800.0 X85.6526 Y275.4486 I-0.5411 J-2.184
G3 Y271.5514 I1.125 J-1.9486
G3 X89.0276 Y273.5 I1.125 J1.9486
G3 X87.3187 Y275.684 I-2.25 J0.0
G1 F300.0 Z-2.0
G3 F800.0 X85.6526 Y275.4486 I-0.5411 J-2.184
G3 Y271.5514 I1.125 J-1.9486
G3 X89.0276 Y273.5 I1.125 J1.9486
G3 X87.3187 Y275.684 I-2.25 J0.0
G1 F300.0 Z-3.0
G3 F800.0 X85.6526 Y275.4486 I-0.5411 J-2.184
G3 Y271.5514 I1.125 J-1.9486
G3 X89.0276 Y273.5 I1.125 J1.9486
G3 X87.3187 Y275.684 I-2.25 J0.0
G0 Z3.0
G0 X66.018 Y273.7078
G1 F300.0 Z-1.0
G3 F800.0 X62.6526 Y275.4486 I-2.2404 J-0.2078
G3 Y271.5514 I1.125 J-1.9486
G3 X66.0276 Y273.5 I1.125 J1.9486
G3 X66.018 Y273.7078 I-2.25 J0.0
G1 F300.0 Z-2.0
G3 F800.0 X62.6526 Y275.4486 I-2.2404 J-0.2078
G3 Y271.5514 I1.125 J-1.9486
G3 X66.0276 Y273.5 I1.125 J1.9486
G3 X66.018 Y273.7078 I-2.25 J0.0
G1 F300.0 Z-3.0
G3 F800.0 X62.6526 Y275.4486 I-2.2404 J-0.2078
G3 Y271.5514 I1.125 J-1.9486
G3 X66.0276 Y273.5 I1.125 J1.9486
G3 X66.018 Y273.7078 I-2.25 J0.0
G0 Z3.0
G0 X52.8307 Y288.9992
G1 F300.0 Z-1.0
G3 F800.0 X53.6112 Y290.7031 I-1.4694 J1.7039
G3 X50.2362 Y292.6517 I-2.25 J0.0
G3 Y288.7546 I1.125 J-1.9486
G3 X52.8307 Y288.9992 I1.125 J1.9486
G1 F300.0 Z-2.0
G3 F800.0 X53.6112 Y290.7031 I-1.4694 J1.7039
G3 X50.2362 Y292.6517 I-2.25 J0.0
G3 Y288.7546 I1.125 J-1.9486
G3 X52.8307 Y288.9992 I1.125 J1.9486
G1 F300.0 Z-3.0
G3 F800.0 X53.6112 Y290.7031 I-1.4694 J1.7039
G3 X50.2362 Y292.6517 I-2.25 J0.0
G3 Y288.7546 I1.125 J-1.9486
G3 X52.8307 Y288.9992 I1.125 J1.9486
G0 Z3.0
G0 X40.1716 Y284.5373
G1 F300.0 Z-1.0
G3 F800.0 X36.9246 Y285.7379 I-2.122 J-0.748
G3 Y281.8408 I1.125 J-1.9486
G3 X40.2996 Y283.7893 I1.125 J1.9486
G3 X40.1716 Y284.5373 I-2.25 J0.0
G1 F300.0 Z-2.0
G3 F800.0 X36.9246 Y285.7379 I-2.122 J-0.748
G3 Y281.8408 I1.125 J-1.9486
G3 X40.2996 Y283.7893 I1.125 J1.9486
G3 X40.1716 Y284.5373 I-2.25 J0.0
G1 F300.0 Z-3.0
G3 F800.0 X36.9246 Y285.7379 I-2.122 J-0.748
G3 Y281.8408 I1.125 J-1.9486
G3 X40.2996 Y283.7893 I1.125 J1.9486
G3 X40.1716 Y284.5373 I-2.25 J0.0
G0 Z3.0
G0 X11.7108 Y287.6966
G1 F300.0 Z-1.0
G3 F800.0 X11.7276 Y288.0 I-2.7332 J0.3034
G3 X7.6026 Y290.3816 I-2.75 J0.0
G3 Y285.6184 I1.375 J-2.3816
G3 X11.7108 Y287.6966 I1.375 J2.3816
G1 F300.0 Z-2.0
G3 F800.0 X11.7276 Y288.0 I-2.7332 J0.3034
G3 X7.6026 Y290.3816 I-2.75 J0.0
G3 Y285.6184 I1.375 J-2.3816
G3 X11.7108 Y287.6966 I1.375 J2.3816
G1 F300.0 Z-3.0
G3 F800.0 X11.7276 Y288.0 I-2.7332 J0.3034
G3 X7.6026 Y290.3816 I-2.75 J0.0
G3 Y285.6184 I1.375 J-2.3816
G3 X11.7108 Y287.6966 I1.375 J2.3816
G0 Z3.0
G0 X118.8953 Y248.4456
G1 F300.0 Z-1.0
G3 F800.0 X120.1026 Y245.1184 I2.5823 J-0.9456
G3 X124.2276 Y247.5 I1.375 J2.3816
G3 X120.1026 Y249.8816 I-2.75 J0.0
G3 X118.8953 Y248.4456 I1.375 J-2.3816
G1 F300.0 Z-2.0
G3 F800.0 X120.1026 Y245.1184 I2.5823 J-0.9456
G3 X124.2276 Y247.5 I1.375 J2.3816
G3 X120.1026 Y249.8816 I-2.75 J0.0
G3 X118.8953 Y248.4456 I1.375 J-2.3816
G1 F300.0 Z-3.0
G3 F800.0 X120.1026 Y245.1184 I2.5823 J-0.9456
G3 X124.2276 Y247.5 I1.375 J2.3816
G3 X120.1026 Y249.8816 I-2.75 J0.0
G3 X118.8953 Y248.4456 I1.375 J-2.3816
G0 Z3.0
G0 X122.4129 Y231.6913
G1 F300.0 Z-1.0
G3 F800.0 X121.6029 Y231.3816 I0.565 J-2.6913
G3 Y226.6184 I1.375 J-2.3816
G3 X125.7279 Y229.0 I1.375 J2.3816
G3 X122.4129 Y231.6913 I-2.75 J0.0
G1 F300.0 Z-2.0
G3 F800.0 X121.6029 Y231.3816 I0.565 J-2.6913
G3 Y226.6184 I1.375 J-2.3816
G3 X125.7279 Y229.0 I1.375 J2.3816
G3 X122.4129 Y231.6913 I-2.75 J0.0
G1 F300.0 Z-3.0
G3 F800.0 X121.6029 Y231.3816 I0.565 J-2.6913
G3 Y226.6184 I1.375 J-2.3816
G3 X125.7279 Y229.0 I1.375 J2.3816
G3 X122.4129 Y231.6913 I-2.75 J0.0
G0 Z3.0
G0 X124.4329 Y221.6955
G1 F300.0 Z-1.0
G3 F800.0 X123.6026 Y221.3816 I0.5447 J-2.6955
G3 Y216.6184 I1.375 J-2.3816
G3 X127.7276 Y219.0 I1.375 J2.3816
G3 X124.4329 Y221.6955 I-2.75 J0.0
G1 F300.0 Z-2.0
G3 F800.0 X123.6026 Y221.3816 I0.5447 J-2.6955
G3 Y216.6184 I1.375 J-2.3816
G3 X127.7276 Y219.0 I1.375 J2.3816
G3 X124.4329 Y221.6955 I-2.75 J0.0
G1 F300.0 Z-3.0
G3 F800.0 X123.6026 Y221.3816 I0.5447 J-2.6955
G3 Y216.6184 I1.375 J-2.3816
G3 X127.7276 Y219.0 I1.375 J2.3816
G3 X124.4329 Y221.6955 I-2.75 J0.0
G0 Z3.0
G0 X157.2355 Y219.2079
G1 F300.0 Z-1.0
G3 F800.0 X158.6026 Y216.6184 I2.7421 J-0.2079
G3 X162.7276 Y219.0 I1.375 J2.3816
G3 X158.6026 Y221.3816 I-2.75 J0.0
G3 X157.2355 Y219.2079 I1.375 J-2.3816
G1 F300.0 Z-2.0
G3 F800.0 X158.6026 Y216.6184 I2.7421 J-0.2079
G3 X162.7276 Y219.0 I1.375 J2.3816
G3 X158.6026 Y221.3816 I-2.75 J0.0
G3 X157.2355 Y219.2079 I1.375 J-2.3816
G1 F300.0 Z-3.0
G3 F800.0 X158.6026 Y216.6184 I2.7421 J-0.2079
G3 X162.7276 Y219.0 I1.375 J2.3816
G3 X158.6026 Y221.3816 I-2.75 J0.0
G3 X157.2355 Y219.2079 I1.375 J-2.3816
G0 Z3.0
G0 X160.779 Y226.525
G1 F300.0 Z-1.0
G3 F800.0 X164.7276 Y229.0 I1.1986 J2.475
G3 X160.6026 Y231.3816 I-2.75 J0.0
G3 Y226.6184 I1.375 J-2.3816
G3 X160.779 Y226.525 I1.375 J2.3816
G1 F300.0 Z-2.0
G3 F800.0 X164.7276 Y229.0 I1.1986 J2.475
G3 X160.6026 Y231.3816 I-2.75 J0.0
G3 Y226.6184 I1.375 J-2.3816
G3 X160.779 Y226.525 I1.375 J2.3816
G1 F300.0 Z-3.0
G3 F800.0 X164.7276 Y229.0 I1.1986 J2.475
G3 X160.6026 Y231.3816 I-2.75 J0.0
G3 Y226.6184 I1.375 J-2.3816
G3 X160.779 Y226.525 I1.375 J2.3816
G0 Z3.0
G0 X163.1267 Y244.7725
G1 F300.0 Z-1.0
G3 F800.0 X166.2276 Y247.5 I0.3509 J2.7275
G3 X162.1026 Y249.8816 I-2.75 J0.0
G3 Y245.1184 I1.375 J-2.3816
G3 X163.1267 Y244.7725 I1.375 J2.3816
G1 F300.0 Z-2.0
G3 F800.0 X166.2276 Y247.5 I0.3509 J2.7275
G3 X162.1026 Y249.8816 I-2.75 J0.0
G3 Y245.1184 I1.375 J-2.3816
G3 X163.1267 Y244.7725 I1.375 J2.3816
G1 F300.0 Z-3.0
G3 F800.0 X166.2276 Y247.5 I0.3509 J2.7275
G3 X162.1026 Y249.8816 I-2.75 J0.0
G3 Y245.1184 I1.375 J-2.3816
G3 X163.1267 Y244.7725 I1.375 J2.3816
( Contour4 )
S1000
G0 Z3.0
G0 X87.5276 Y64.5
G1 F300.0 Z-1.0
G2 F800.0 X86.4026 Y63.8505 I-0.75 J0.0
G2 Y65.1495 I0.375 J0.6495
G2 X87.5276 Y64.5 I0.375 J-0.6495
G1 F300.0 Z-2.0
G2 F800.0 X86.4026 Y63.8505 I-0.75 J0.0
G2 Y65.1495 I0.375 J0.6495
G2 X87.5276 Y64.5 I0.375 J-0.6495
G1 F300.0 Z-3.0
G2 F800.0 X86.4026 Y63.8505 I-0.75 J0.0
G2 Y65.1495 I0.375 J0.6495
G2 X87.5276 Y64.5 I0.375 J-0.6495
G1 F300.0 Z-4.0
G2 F800.0 X86.4026 Y63.8505 I-0.75 J0.0
G2 Y65.1495 I0.375 J0.6495
G2 X87.5276 Y64.5 I0.375 J-0.6495
G1 F300.0 Z-5.0
G2 F800.0 X86.4026 Y63.8505 I-0.75 J0.0
G2 Y65.1495 I0.375 J0.6495
G2 X87.5276 Y64.5 I0.375 J-0.6495
G1 F300.0 Z-6.0
G2 F800.0 X86.4026 Y63.8505 I-0.75 J0.0
G2 Y65.1495 I0.375 J0.6495
G2 X87.5276 Y64.5 I0.375 J-0.6495
G0 Z3.0
G0 X64.5276
G1 F300.0 Z-1.0
G2 F800.0 X63.4026 Y63.8505 I-0.75 J0.0
G2 Y65.1495 I0.375 J0.6495
G2 X64.5276 Y64.5 I0.375 J-0.6495
G1 F300.0 Z-2.0
G2 F800.0 X63.4026 Y63.8505 I-0.75 J0.0
G2 Y65.1495 I0.375 J0.6495
G2 X64.5276 Y64.5 I0.375 J-0.6495
G1 F300.0 Z-3.0
G2 F800.0 X63.4026 Y63.8505 I-0.75 J0.0
G2 Y65.1495 I0.375 J0.6495
G2 X64.5276 Y64.5 I0.375 J-0.6495
G1 F300.0 Z-4.0
G2 F800.0 X63.4026 Y63.8505 I-0.75 J0.0
G2 Y65.1495 I0.375 J0.6495
G2 X64.5276 Y64.5 I0.375 J-0.6495
G1 F300.0 Z-5.0
G2 F800.0 X63.4026 Y63.8505 I-0.75 J0.0
G2 Y65.1495 I0.375 J0.6495
G2 X64.5276 Y64.5 I0.375 J-0.6495
G1 F300.0 Z-6.0
G2 F800.0 X63.4026 Y63.8505 I-0.75 J0.0
G2 Y65.1495 I0.375 J0.6495
G2 X64.5276 Y64.5 I0.375 J-0.6495
G0 Z3.0
G0 X51.8171 Y47.8924
G1 F300.0 Z-1.0
G2 F800.0 X52.1112 Y47.2969 I-0.4558 J-0.5956
G2 X50.9862 Y46.6473 I-0.75 J0.0
G2 Y47.9464 I0.375 J0.6495
G2 X51.8171 Y47.8924 I0.375 J-0.6495
G1 F300.0 Z-2.0
G2 F800.0 X52.1112 Y47.2969 I-0.4558 J-0.5956
G2 X50.9862 Y46.6473 I-0.75 J0.0
G2 Y47.9464 I0.375 J0.6495
G2 X51.8171 Y47.8924 I0.375 J-0.6495
G1 F300.0 Z-3.0
G2 F800.0 X52.1112 Y47.2969 I-0.4558 J-0.5956
G2 X50.9862 Y46.6473 I-0.75 J0.0
G2 Y47.9464 I0.375 J0.6495
G2 X51.8171 Y47.8924 I0.375 J-0.6495
G1 F300.0 Z-4.0
G2 F800.0 X52.1112 Y47.2969 I-0.4558 J-0.5956
G2 X50.9862 Y46.6473 I-0.75 J0.0
G2 Y47.9464 I0.375 J0.6495
G2 X51.8171 Y47.8924 I0.375 J-0.6495
G1 F300.0 Z-5.0
G2 F800.0 X52.1112 Y47.2969 I-0.4558 J-0.5956
G2 X50.9862 Y46.6473 I-0.75 J0.0
G2 Y47.9464 I0.375 J0.6495
G2 X51.8171 Y47.8924 I0.375 J-0.6495
G1 F300.0 Z-6.0
G2 F800.0 X52.1112 Y47.2969 I-0.4558 J-0.5956
G2 X50.9862 Y46.6473 I-0.75 J0.0
G2 Y47.9464 I0.375 J0.6495
G2 X51.8171 Y47.8924 I0.375 J-0.6495
G0 Z3.0
G0 X38.7313 Y53.8978
G1 F300.0 Z-1.0
G2 F800.0 X37.6746 Y53.5611 I-0.6816 J0.3128
G2 Y54.8602 I0.375 J0.6495
G2 X38.7996 Y54.2107 I0.375 J-0.6495
G2 X38.7313 Y53.8978 I-0.75 J0.0
G1 F300.0 Z-2.0
G2 F800.0 X37.6746 Y53.5611 I-0.6816 J0.3128
G2 Y54.8602 I0.375 J0.6495
G2 X38.7996 Y54.2107 I0.375 J-0.6495
G2 X38.7313 Y53.8978 I-0.75 J0.0
G1 F300.0 Z-3.0
G2 F800.0 X37.6746 Y53.5611 I-0.6816 J0.3128
G2 Y54.8602 I0.375 J0.6495
G2 X38.7996 Y54.2107 I0.375 J-0.6495
G2 X38.7313 Y53.8978 I-0.75 J0.0
G1 F300.0 Z-4.0
G2 F800.0 X37.6746 Y53.5611 I-0.6816 J0.3128
G2 Y54.8602 I0.375 J0.6495
G2 X38.7996 Y54.2107 I0.375 J-0.6495
G2 X38.7313 Y53.8978 I-0.75 J0.0
G1 F300.0 Z-5.0
G2 F800.0 X37.6746 Y53.5611 I-0.6816 J0.3128
G2 Y54.8602 I0.375 J0.6495
G2 X38.7996 Y54.2107 I0.375 J-0.6495
G2 X38.7313 Y53.8978 I-0.75 J0.0
G1 F300.0 Z-6.0
G2 F800.0 X37.6746 Y53.5611 I-0.6816 J0.3128
G2 Y54.8602 I0.375 J0.6495
G2 X38.7996 Y54.2107 I0.375 J-0.6495
G2 X38.7313 Y53.8978 I-0.75 J0.0
G0 Z3.0
G0 X10.217 Y50.1624
G1 F300.0 Z-1.0
G2 F800.0 X10.2276 Y50.0 I-1.2394 J-0.1624
G2 X8.3526 Y48.9175 I-1.25 J0.0
G2 Y51.0825 I0.625 J1.0825
G2 X10.217 Y50.1624 I0.625 J-1.0825
G1 F300.0 Z-2.0
G2 F800.0 X10.2276 Y50.0 I-1.2394 J-0.1624
G2 X8.3526 Y48.9175 I-1.25 J0.0
G2 Y51.0825 I0.625 J1.0825
G2 X10.217 Y50.1624 I0.625 J-1.0825
G1 F300.0 Z-3.0
G2 F800.0 X10.2276 Y50.0 I-1.2394 J-0.1624
G2 X8.3526 Y48.9175 I-1.25 J0.0
G2 Y51.0825 I0.625 J1.0825
G2 X10.217 Y50.1624 I0.625 J-1.0825
G1 F300.0 Z-4.0
G2 F800.0 X10.2276 Y50.0 I-1.2394 J-0.1624
G2 X8.3526 Y48.9175 I-1.25 J0.0
G2 Y51.0825 I0.625 J1.0825
G2 X10.217 Y50.1624 I0.625 J-1.0825
G1 F300.0 Z-5.0
G2 F800.0 X10.2276 Y50.0 I-1.2394 J-0.1624
G2 X8.3526 Y48.9175 I-1.25 J0.0
G2 Y51.0825 I0.625 J1.0825
G2 X10.217 Y50.1624 I0.625 J-1.0825
G1 F300.0 Z-6.0
G2 F800.0 X10.2276 Y50.0 I-1.2394 J-0.1624
G2 X8.3526 Y48.9175 I-1.25 J0.0
G2 Y51.0825 I0.625 J1.0825
G2 X10.217 Y50.1624 I0.625 J-1.0825
G0 Z3.0
G0 X7.9987 Y129.0003
G1 F300.0 Z-1.0
G2 F800.0 X7.6026 Y129.1005 I-0.0211 J0.7497
G2 Y130.3995 I0.375 J0.6495
G2 X8.7276 Y129.75 I0.375 J-0.6495
G2 X7.9987 Y129.0003 I-0.75 J0.0
