( Made using CamBam - http://www.cambam.co.uk )
( PlaqueBase 5/3/2017 11:04:02 PM )
( T0 : 2.0 )
G21 G90 G64 G40
G0 Z3.0
( T0 : 2.0 )
T0 M6
( Contour1 )
G17
M3 S1000
G0 X39.5 Y70.0
G1 F200.0 Z-1.0
G1 F500.0 Y128.0
G1 X39.2071 Y128.2929
G1 X39.5 Y128.0
G1 X68.5
G1 X68.7929 Y128.2929
G1 X68.5 Y128.0
G1 Y70.0
G1 X68.7929 Y69.7071
G1 X68.5 Y70.0
G1 X39.5
G1 X39.2071 Y69.7071
G1 X39.5 Y70.0
G1 F200.0 Z-2.0
G1 F500.0 Y128.0
G1 X39.2071 Y128.2929
G1 X39.5 Y128.0
G1 X68.5
G1 X68.7929 Y128.2929
G1 X68.5 Y128.0
G1 Y70.0
G1 X68.7929 Y69.7071
G1 X68.5 Y70.0
G1 X39.5
G1 X39.2071 Y69.7071
G1 X39.5 Y70.0
G1 F200.0 Z-3.0
G1 F500.0 Y128.0
G1 X39.2071 Y128.2929
G1 X39.5 Y128.0
G1 X68.5
G1 X68.7929 Y128.2929
G1 X68.5 Y128.0
G1 Y70.0
G1 X68.7929 Y69.7071
G1 X68.5 Y70.0
G1 X39.5
G1 X39.2071 Y69.7071
G1 X39.5 Y70.0
G1 F200.0 Z-4.0
G1 F500.0 Y128.0
G1 X39.2071 Y128.2929
G1 X39.5 Y128.0
G1 X68.5
G1 X68.7929 Y128.2929
G1 X68.5 Y128.0
G1 Y70.0
G1 X68.7929 Y69.7071
G1 X68.5 Y70.0
G1 X39.5
G1 X39.2071 Y69.7071
G1 X39.5 Y70.0
G1 F200.0 Z-5.0
G1 F500.0 Y112.5
G0 Z-4.0
G1 Y116.5
G1 F200.0 Z-5.0
G1 F500.0 Y128.0
G1 X39.2071 Y128.2929
G1 X39.5 Y128.0
G1 X68.5
G1 X68.7929 Y128.2929
G1 X68.5 Y128.0
G1 Y85.5
G0 Z-4.0
G1 Y81.5
G1 F200.0 Z-5.0
G1 F500.0 Y70.0
G1 X68.7929 Y69.7071
G1 X68.5 Y70.0
G1 X39.5
G1 X39.2071 Y69.7071
G1 X39.5 Y70.0
G1 F200.0 Z-6.0
G1 F500.0 Y112.5
G0 Z-4.0
G1 Y116.5
G1 F200.0 Z-6.0
G1 F500.0 Y128.0
G1 X39.2071 Y128.2929
G1 X39.5 Y128.0
G1 X68.5
G1 X68.7929 Y128.2929
G1 X68.5 Y128.0
G1 Y85.5
G0 Z-4.0
G1 Y81.5
G1 F200.0 Z-6.0
G1 F500.0 Y70.0
G1 X68.7929 Y69.7071
G1 X68.5 Y70.0
G1 X39.5
G1 X39.2071 Y69.7071
G1 X39.5 Y70.0
G0 Z3.0
G0 X18.2929 Y69.7071
G1 F200.0 Z-1.0
G1 F500.0 X18.0 Y70.0
G1 X10.0
G1 X9.7071 Y69.7071
G1 X10.0 Y70.0
G1 Y128.0
G1 X9.7071 Y128.2929
G1 X10.0 Y128.0
G1 X18.0
G1 X18.2929 Y128.2929
G1 X18.0 Y128.0
G1 Y70.0
G1 X18.2929 Y69.7071
G1 F200.0 Z-2.0
G1 F500.0 X18.0 Y70.0
G1 X10.0
G1 X9.7071 Y69.7071
G1 X10.0 Y70.0
G1 Y128.0
G1 X9.7071 Y128.2929
G1 X10.0 Y128.0
G1 X18.0
G1 X18.2929 Y128.2929
G1 X18.0 Y128.0
G1 Y70.0
G1 X18.2929 Y69.7071
G1 F200.0 Z-3.0
G1 F500.0 X18.0 Y70.0
G1 X10.0
G1 X9.7071 Y69.7071
G1 X10.0 Y70.0
G1 Y128.0
G1 X9.7071 Y128.2929
G1 X10.0 Y128.0
G1 X18.0
G1 X18.2929 Y128.2929
G1 X18.0 Y128.0
G1 Y70.0
G1 X18.2929 Y69.7071
G1 F200.0 Z-4.0
G1 F500.0 X18.0 Y70.0
G1 X10.0
G1 X9.7071 Y69.7071
G1 X10.0 Y70.0
G1 Y128.0
G1 X9.7071 Y128.2929
G1 X10.0 Y128.0
G1 X18.0
G1 X18.2929 Y128.2929
G1 X18.0 Y128.0
G1 Y70.0
G1 X18.2929 Y69.7071
G1 F200.0 Z-5.0
G1 F500.0 X18.0 Y70.0
G1 X10.0
G1 X9.7071 Y69.7071
G1 X10.0 Y70.0
G1 Y102.0
G0 Z-4.0
G1 Y106.0
G1 F200.0 Z-5.0
G1 F500.0 Y128.0
G1 X9.7071 Y128.2929
G1 X10.0 Y128.0
G1 X18.0
G1 X18.2929 Y128.2929
G1 X18.0 Y128.0
G1 Y96.0
G0 Z-4.0
G1 Y92.0
G1 F200.0 Z-5.0
G1 F500.0 Y70.0
G1 X18.2929 Y69.7071
G1 F200.0 Z-6.0
G1 F500.0 X18.0 Y70.0
G1 X10.0
G1 X9.7071 Y69.7071
G1 X10.0 Y70.0
G1 Y102.0
G0 Z-4.0
G1 Y106.0
G1 F200.0 Z-6.0
G1 F500.0 Y128.0
G1 X9.7071 Y128.2929
G1 X10.0 Y128.0
G1 X18.0
G1 X18.2929 Y128.2929
G1 X18.0 Y128.0
G1 Y96.0
G0 Z-4.0
G1 Y92.0
G1 F200.0 Z-6.0
G1 F500.0 Y70.0
G1 X18.2929 Y69.7071
G0 Z3.0
G0 X90.7071 Y67.7071
G1 F200.0 Z-1.0
G1 F500.0 X91.0 Y68.0
G1 Y72.0
G1 X90.7071 Y72.2929
G1 X91.0 Y72.0
G1 X109.0
G1 X109.2929 Y72.2929
G1 X109.0 Y72.0
G1 Y68.0
G1 X109.2929 Y67.7071
G1 X109.0 Y68.0
G1 X91.0
G1 X90.7071 Y67.7071
G1 F200.0 Z-2.0
G1 F500.0 X91.0 Y68.0
G1 Y72.0
G1 X90.7071 Y72.2929
G1 X91.0 Y72.0
G1 X109.0
G1 X109.2929 Y72.2929
G1 X109.0 Y72.0
G1 Y68.0
G1 X109.2929 Y67.7071
G1 X109.0 Y68.0
G1 X91.0
G1 X90.7071 Y67.7071
G1 F200.0 Z-3.0
G1 F500.0 X91.0 Y68.0
G1 Y72.0
G1 X90.7071 Y72.2929
G1 X91.0 Y72.0
G1 X109.0
G1 X109.2929 Y72.2929
G1 X109.0 Y72.0
G1 Y68.0
G1 X109.2929 Y67.7071
G1 X109.0 Y68.0
G1 X91.0
G1 X90.7071 Y67.7071
G1 F200.0 Z-4.0
G1 F500.0 X91.0 Y68.0
G1 Y72.0
G1 X90.7071 Y72.2929
G1 X91.0 Y72.0
G1 X109.0
G1 X109.2929 Y72.2929
G1 X109.0 Y72.0
G1 Y68.0
G1 X109.2929 Y67.7071
G1 X109.0 Y68.0
G1 X91.0
G1 X90.7071 Y67.7071
G1 F200.0 Z-5.0
G1 F500.0 X91.0 Y68.0
G1 Y72.0
G1 X90.7071 Y72.2929
G1 X91.0 Y72.0
G1 X101.0
G0 Z-4.0
G1 X105.0
G1 F200.0 Z-5.0
G1 F500.0 X109.0
G1 X109.2929 Y72.2929
G1 X109.0 Y72.0
G1 Y68.0
G1 X109.2929 Y67.7071
G1 X109.0 Y68.0
G1 X99.0
G0 Z-4.0
G1 X95.0
G1 F200.0 Z-5.0
G1 F500.0 X91.0
G1 X90.7071 Y67.7071
G1 F200.0 Z-6.0
G1 F500.0 X91.0 Y68.0
G1 Y72.0
G1 X90.7071 Y72.2929
G1 X91.0 Y72.0
G1 X101.0
G0 Z-4.0
G1 X105.0
G1 F200.0 Z-6.0
G1 F500.0 X109.0
G1 X109.2929 Y72.2929
G1 X109.0 Y72.0
G1 Y68.0
G1 X109.2929 Y67.7071
G1 X109.0 Y68.0
G1 X99.0
G0 Z-4.0
G1 X95.0
G1 F200.0 Z-6.0
G1 F500.0 X91.0
G1 X90.7071 Y67.7071
G0 Z3.0
G0 X131.2071 Y69.7071
G1 F200.0 Z-1.0
G1 F500.0 X131.5 Y70.0
G1 Y128.0
G1 X131.2071 Y128.2929
G1 X131.5 Y128.0
G1 X160.5
G1 X160.7929 Y128.2929
G1 X160.5 Y128.0
G1 Y70.0
G1 X160.7929 Y69.7071
G1 X160.5 Y70.0
G1 X131.5
G1 X131.2071 Y69.7071
G1 F200.0 Z-2.0
G1 F500.0 X131.5 Y70.0
G1 Y128.0
G1 X131.2071 Y128.2929
G1 X131.5 Y128.0
G1 X160.5
G1 X160.7929 Y128.2929
G1 X160.5 Y128.0
G1 Y70.0
G1 X160.7929 Y69.7071
G1 X160.5 Y70.0
G1 X131.5
G1 X131.2071 Y69.7071
G1 F200.0 Z-3.0
G1 F500.0 X131.5 Y70.0
G1 Y128.0
G1 X131.2071 Y128.2929
G1 X131.5 Y128.0
G1 X160.5
G1 X160.7929 Y128.2929
G1 X160.5 Y128.0
G1 Y70.0
G1 X160.7929 Y69.7071
G1 X160.5 Y70.0
G1 X131.5
G1 X131.2071 Y69.7071
G1 F200.0 Z-4.0
G1 F500.0 X131.5 Y70.0
G1 Y128.0
G1 X131.2071 Y128.2929
G1 X131.5 Y128.0
G1 X160.5
G1 X160.7929 Y128.2929
G1 X160.5 Y128.0
G1 Y70.0
G1 X160.7929 Y69.7071
G1 X160.5 Y70.0
G1 X131.5
G1 X131.2071 Y69.7071
G1 F200.0 Z-5.0
G1 F500.0 X131.5 Y70.0
G1 Y112.5
G0 Z-4.0
G1 Y116.5
G1 F200.0 Z-5.0
G1 F500.0 Y128.0
G1 X131.2071 Y128.2929
G1 X131.5 Y128.0
G1 X160.5
G1 X160.7929 Y128.2929
G1 X160.5 Y128.0
G1 Y85.5
G0 Z-4.0
G1 Y81.5
G1 F200.0 Z-5.0
G1 F500.0 Y70.0
G1 X160.7929 Y69.7071
G1 X160.5 Y70.0
G1 X131.5
G1 X131.2071 Y69.7071
G1 F200.0 Z-6.0
G1 F500.0 X131.5 Y70.0
G1 Y112.5
G0 Z-4.0
G1 Y116.5
G1 F200.0 Z-6.0
G1 F500.0 Y128.0
G1 X131.2071 Y128.2929
G1 X131.5 Y128.0
G1 X160.5
G1 X160.7929 Y128.2929
G1 X160.5 Y128.0
G1 Y85.5
G0 Z-4.0
G1 Y81.5
G1 F200.0 Z-6.0
G1 F500.0 Y70.0
G1 X160.7929 Y69.7071
G1 X160.5 Y70.0
G1 X131.5
G1 X131.2071 Y69.7071
G0 Z3.0
G0 X114.2929 Y113.7071
G1 F200.0 Z-1.0
G1 F500.0 X114.0 Y114.0
G1 X86.0
G1 X85.7071 Y113.7071
G1 X86.0 Y114.0
G1 Y118.0
G1 X85.7071 Y118.2929
G1 X86.0 Y118.0
G1 X114.0
G1 X114.2929 Y118.2929
G1 X114.0 Y118.0
G1 Y114.0
G1 X114.2929 Y113.7071
G1 F200.0 Z-2.0
G1 F500.0 X114.0 Y114.0
G1 X86.0
G1 X85.7071 Y113.7071
G1 X86.0 Y114.0
G1 Y118.0
G1 X85.7071 Y118.2929
G1 X86.0 Y118.0
G1 X114.0
G1 X114.2929 Y118.2929
G1 X114.0 Y118.0
G1 Y114.0
G1 X114.2929 Y113.7071
G1 F200.0 Z-3.0
G1 F500.0 X114.0 Y114.0
G1 X86.0
G1 X85.7071 Y113.7071
G1 X86.0 Y114.0
G1 Y118.0
G1 X85.7071 Y118.2929
G1 X86.0 Y118.0
G1 X114.0
G1 X114.2929 Y118.2929
G1 X114.0 Y118.0
G1 Y114.0
G1 X114.2929 Y113.7071
G1 F200.0 Z-4.0
G1 F500.0 X114.0 Y114.0
G1 X86.0
G1 X85.7071 Y113.7071
G1 X86.0 Y114.0
G1 Y118.0
G1 X85.7071 Y118.2929
G1 X86.0 Y118.0
G1 X114.0
G1 X114.2929 Y118.2929
G1 X114.0 Y118.0
G1 Y114.0
G1 X114.2929 Y113.7071
G1 F200.0 Z-5.0
G1 F500.0 X114.0 Y114.0
G1 X105.0
G0 Z-4.0
G1 X101.0
G1 F200.0 Z-5.0
G1 F500.0 X86.0
G1 X85.7071 Y113.7071
G1 X86.0 Y114.0
G1 Y118.0
G1 X85.7071 Y118.2929
G1 X86.0 Y118.0
G1 X95.0
G0 Z-4.0
G1 X99.0
G1 F200.0 Z-5.0
G1 F500.0 X114.0
G1 X114.2929 Y118.2929
G1 X114.0 Y118.0
G1 Y114.0
G1 X114.2929 Y113.7071
G1 F200.0 Z-6.0
G1 F500.0 X114.0 Y114.0
G1 X105.0
G0 Z-4.0
G1 X101.0
G1 F200.0 Z-6.0
G1 F500.0 X86.0
G1 X85.7071 Y113.7071
G1 X86.0 Y114.0
G1 Y118.0
G1 X85.7071 Y118.2929
G1 X86.0 Y118.0
G1 X95.0
G0 Z-4.0
G1 X99.0
G1 F200.0 Z-6.0
G1 F500.0 X114.0
G1 X114.2929 Y118.2929
G1 X114.0 Y118.0
G1 Y114.0
G1 X114.2929 Y113.7071
G0 Z3.0
G0 X182.0
G1 F200.0 Z-1.0
G1 F500.0 Y128.0
G1 X181.7071 Y128.2929
G1 X182.0 Y128.0
G1 X190.0
G1 X190.2929 Y128.2929
G1 X190.0 Y128.0
G1 Y70.0
G1 X190.2929 Y69.7071
G1 X190.0 Y70.0
G1 X182.0
G1 X181.7071 Y69.7071
G1 X182.0 Y70.0
G1 Y113.7071
G1 F200.0 Z-2.0
G1 F500.0 Y128.0
G1 X181.7071 Y128.2929
G1 X182.0 Y128.0
G1 X190.0
G1 X190.2929 Y128.2929
G1 X190.0 Y128.0
G1 Y70.0
G1 X190.2929 Y69.7071
G1 X190.0 Y70.0
G1 X182.0
G1 X181.7071 Y69.7071
G1 X182.0 Y70.0
G1 Y113.7071
G1 F200.0 Z-3.0
G1 F500.0 Y128.0
G1 X181.7071 Y128.2929
G1 X182.0 Y128.0
G1 X190.0
G1 X190.2929 Y128.2929
G1 X190.0 Y128.0
G1 Y70.0
G1 X190.2929 Y69.7071
G1 X190.0 Y70.0
G1 X182.0
G1 X181.7071 Y69.7071
G1 X182.0 Y70.0
G1 Y113.7071
G1 F200.0 Z-4.0
G1 F500.0 Y128.0
G1 X181.7071 Y128.2929
G1 X182.0 Y128.0
G1 X190.0
G1 X190.2929 Y128.2929
G1 X190.0 Y128.0
G1 Y70.0
G1 X190.2929 Y69.7071
G1 X190.0 Y70.0
G1 X182.0
G1 X181.7071 Y69.7071
G1 X182.0 Y70.0
G1 Y113.7071
G1 F200.0 Z-5.0
G1 F500.0 Y128.0
G1 X181.7071 Y128.2929
G1 X182.0 Y128.0
G1 X190.0
G1 X190.2929 Y128.2929
G1 X190.0 Y128.0
G1 Y106.0
G0 Z-4.0
G1 Y102.0
G1 F200.0 Z-5.0
G1 F500.0 Y70.0
G1 X190.2929 Y69.7071
G1 X190.0 Y70.0
G1 X182.0
G1 X181.7071 Y69.7071
G1 X182.0 Y70.0
G1 Y92.0
G0 Z-4.0
G1 Y96.0
G1 F200.0 Z-5.0
G1 F500.0 Y113.7071
G1 F200.0 Z-6.0
G1 F500.0 Y128.0
G1 X181.7071 Y128.2929
G1 X182.0 Y128.0
G1 X190.0
G1 X190.2929 Y128.2929
G1 X190.0 Y128.0
G1 Y106.0
G0 Z-4.0
G1 Y102.0
G1 F200.0 Z-6.0
G1 F500.0 Y70.0
G1 X190.2929 Y69.7071
G1 X190.0 Y70.0
G1 X182.0
G1 X181.7071 Y69.7071
G1 X182.0 Y70.0
G1 Y92.0
G0 Z-4.0
G1 Y96.0
G1 F200.0 Z-6.0
G1 F500.0 Y113.7071
( Contour2 )
S1000
G0 Z3.0
G0 X3.5 Y116.0
G1 F200.0 Z-1.0
G2 F500.0 X2.75 Y115.567 I-0.5 J0.0
G2 Y116.433 I0.25 J0.433
G2 X3.5 Y116.0 I0.25 J-0.433
G1 F200.0 Z-2.0
G2 F500.0 X2.75 Y115.567 I-0.5 J0.0
G2 Y116.433 I0.25 J0.433
G2 X3.5 Y116.0 I0.25 J-0.433
G1 F200.0 Z-3.0
G2 F500.0 X2.75 Y115.567 I-0.5 J0.0
G2 Y116.433 I0.25 J0.433
G2 X3.5 Y116.0 I0.25 J-0.433
G1 F200.0 Z-4.0
G2 F500.0 X2.75 Y115.567 I-0.5 J0.0
G2 Y116.433 I0.25 J0.433
G2 X3.5 Y116.0 I0.25 J-0.433
G1 F200.0 Z-5.0
G2 F500.0 X2.75 Y115.567 I-0.5 J0.0
G2 Y116.433 I0.25 J0.433
G2 X3.5 Y116.0 I0.25 J-0.433
G1 F200.0 Z-6.0
G2 F500.0 X2.75 Y115.567 I-0.5 J0.0
G2 Y116.433 I0.25 J0.433
G2 X3.5 Y116.0 I0.25 J-0.433
G0 Z3.0
G0 X4.1837 Y137.0003
G1 F200.0 Z-1.0
G2 F500.0 X3.95 Y137.067 I0.0163 J0.4997
G2 Y137.933 I0.25 J0.433
G2 X4.7 Y137.5 I0.25 J-0.433
G2 X4.1837 Y137.0003 I-0.5 J0.0
G1 F200.0 Z-2.0
G2 F500.0 X3.95 Y137.067 I0.0163 J0.4997
G2 Y137.933 I0.25 J0.433
G2 X4.7 Y137.5 I0.25 J-0.433
G2 X4.1837 Y137.0003 I-0.5 J0.0
G1 F200.0 Z-3.0
G2 F500.0 X3.95 Y137.067 I0.0163 J0.4997
G2 Y137.933 I0.25 J0.433
G2 X4.7 Y137.5 I0.25 J-0.433
G2 X4.1837 Y137.0003 I-0.5 J0.0
G1 F200.0 Z-4.0
G2 F500.0 X3.95 Y137.067 I0.0163 J0.4997
G2 Y137.933 I0.25 J0.433
G2 X4.7 Y137.5 I0.25 J-0.433
G2 X4.1837 Y137.0003 I-0.5 J0.0
G1 F200.0 Z-5.0
G2 F500.0 X3.95 Y137.067 I0.0163 J0.4997
G2 Y137.933 I0.25 J0.433
G2 X4.7 Y137.5 I0.25 J-0.433
G2 X4.1837 Y137.0003 I-0.5 J0.0
G1 F200.0 Z-6.0
G2 F500.0 X3.95 Y137.067 I0.0163 J0.4997
G2 Y137.933 I0.25 J0.433
G2 X4.7 Y137.5 I0.25 J-0.433
G2 X4.1837 Y137.0003 I-0.5 J0.0
G0 Z3.0
G0 X27.8661 Y124.4677
G1 F200.0 Z-1.0
G2 F500.0 X28.25 Y124.866 I0.8839 J-0.4677
G2 X29.75 Y124.0 I0.5 J-0.866
G2 X28.25 Y123.134 I-1.0 J0.0
G2 X27.8661 Y124.4677 I0.5 J0.866
G1 F200.0 Z-2.0
G2 F500.0 X28.25 Y124.866 I0.8839 J-0.4677
G2 X29.75 Y124.0 I0.5 J-0.866
G2 X28.25 Y123.134 I-1.0 J0.0
G2 X27.8661 Y124.4677 I0.5 J0.866
G1 F200.0 Z-3.0
G2 F500.0 X28.25 Y124.866 I0.8839 J-0.4677
G2 X29.75 Y124.0 I0.5 J-0.866
G2 X28.25 Y123.134 I-1.0 J0.0
G2 X27.8661 Y124.4677 I0.5 J0.866
G1 F200.0 Z-4.0
G2 F500.0 X28.25 Y124.866 I0.8839 J-0.4677
G2 X29.75 Y124.0 I0.5 J-0.866
G2 X28.25 Y123.134 I-1.0 J0.0
G2 X27.8661 Y124.4677 I0.5 J0.866
G1 F200.0 Z-5.0
G2 F500.0 X28.25 Y124.866 I0.8839 J-0.4677
G2 X29.75 Y124.0 I0.5 J-0.866
G2 X28.25 Y123.134 I-1.0 J0.0
G2 X27.8661 Y124.4677 I0.5 J0.866
G1 F200.0 Z-6.0
G2 F500.0 X28.25 Y124.866 I0.8839 J-0.4677
G2 X29.75 Y124.0 I0.5 J-0.866
G2 X28.25 Y123.134 I-1.0 J0.0
G2 X27.8661 Y124.4677 I0.5 J0.866
G0 Z3.0
G0 X32.8226 Y137.5325
G1 F200.0 Z-1.0
G2 F500.0 X32.75 Y137.567 I0.1774 J0.4675
G2 Y138.433 I0.25 J0.433
G2 X33.5 Y138.0 I0.25 J-0.433
G2 X32.8226 Y137.5325 I-0.5 J0.0
G1 F200.0 Z-2.0
G2 F500.0 X32.75 Y137.567 I0.1774 J0.4675
G2 Y138.433 I0.25 J0.433
G2 X33.5 Y138.0 I0.25 J-0.433
G2 X32.8226 Y137.5325 I-0.5 J0.0
G1 F200.0 Z-3.0
G2 F500.0 X32.75 Y137.567 I0.1774 J0.4675
G2 Y138.433 I0.25 J0.433
G2 X33.5 Y138.0 I0.25 J-0.433
G2 X32.8226 Y137.5325 I-0.5 J0.0
G1 F200.0 Z-4.0
G2 F500.0 X32.75 Y137.567 I0.1774 J0.4675
G2 Y138.433 I0.25 J0.433
G2 X33.5 Y138.0 I0.25 J-0.433
G2 X32.8226 Y137.5325 I-0.5 J0.0
G1 F200.0 Z-5.0
G2 F500.0 X32.75 Y137.567 I0.1774 J0.4675
G2 Y138.433 I0.25 J0.433
G2 X33.5 Y138.0 I0.25 J-0.433
G2 X32.8226 Y137.5325 I-0.5 J0.0
G1 F200.0 Z-6.0
G2 F500.0 X32.75 Y137.567 I0.1774 J0.4675
G2 Y138.433 I0.25 J0.433
G2 X33.5 Y138.0 I0.25 J-0.433
G2 X32.8226 Y137.5325 I-0.5 J0.0
G0 Z3.0
G0 X66.5 Y137.9932
G1 F200.0 Z-1.0
G2 F500.0 X66.75 Y138.433 I0.5 J0.0068
G2 X67.5 Y138.0 I0.25 J-0.433
G2 X66.75 Y137.567 I-0.5 J0.0
G2 X66.5 Y137.9932 I0.25 J0.433
G1 F200.0 Z-2.0
G2 F500.0 X66.75 Y138.433 I0.5 J0.0068
G2 X67.5 Y138.0 I0.25 J-0.433
G2 X66.75 Y137.567 I-0.5 J0.0
G2 X66.5 Y137.9932 I0.25 J0.433
G1 F200.0 Z-3.0
G2 F500.0 X66.75 Y138.433 I0.5 J0.0068
G2 X67.5 Y138.0 I0.25 J-0.433
G2 X66.75 Y137.567 I-0.5 J0.0
G2 X66.5 Y137.9932 I0.25 J0.433
G1 F200.0 Z-4.0
G2 F500.0 X66.75 Y138.433 I0.5 J0.0068
G2 X67.5 Y138.0 I0.25 J-0.433
G2 X66.75 Y137.567 I-0.5 J0.0
G2 X66.5 Y137.9932 I0.25 J0.433
G1 F200.0 Z-5.0
G2 F500.0 X66.75 Y138.433 I0.5 J0.0068
G2 X67.5 Y138.0 I0.25 J-0.433
G2 X66.75 Y137.567 I-0.5 J0.0
G2 X66.5 Y137.9932 I0.25 J0.433
G1 F200.0 Z-6.0
G2 F500.0 X66.75 Y138.433 I0.5 J0.0068
G2 X67.5 Y138.0 I0.25 J-0.433
G2 X66.75 Y137.567 I-0.5 J0.0
G2 X66.5 Y137.9932 I0.25 J0.433
G0 Z3.0
G0 X76.293 Y116.4552
G1 F200.0 Z-1.0
G2 F500.0 X77.0 Y116.0 I0.207 J-0.4552
G2 X76.25 Y115.567 I-0.5 J0.0
G2 Y116.433 I0.25 J0.433
G2 X76.293 Y116.4552 I0.25 J-0.433
G1 F200.0 Z-2.0
G2 F500.0 X77.0 Y116.0 I0.207 J-0.4552
G2 X76.25 Y115.567 I-0.5 J0.0
G2 Y116.433 I0.25 J0.433
G2 X76.293 Y116.4552 I0.25 J-0.433
G1 F200.0 Z-3.0
G2 F500.0 X77.0 Y116.0 I0.207 J-0.4552
G2 X76.25 Y115.567 I-0.5 J0.0
G2 Y116.433 I0.25 J0.433
G2 X76.293 Y116.4552 I0.25 J-0.433
G1 F200.0 Z-4.0
G2 F500.0 X77.0 Y116.0 I0.207 J-0.4552
G2 X76.25 Y115.567 I-0.5 J0.0
G2 Y116.433 I0.25 J0.433
G2 X76.293 Y116.4552 I0.25 J-0.433
G1 F200.0 Z-5.0
G2 F500.0 X77.0 Y116.0 I0.207 J-0.4552
G2 X76.25 Y115.567 I-0.5 J0.0
G2 Y116.433 I0.25 J0.433
G2 X76.293 Y116.4552 I0.25 J-0.433
G1 F200.0 Z-6.0
G2 F500.0 X77.0 Y116.0 I0.207 J-0.4552
G2 X76.25 Y115.567 I-0.5 J0.0
G2 Y116.433 I0.25 J0.433
G2 X76.293 Y116.4552 I0.25 J-0.433
G0 Z3.0
G0 X99.63 Y137.6637
G1 F200.0 Z-1.0
G2 F500.0 X99.75 Y138.433 I0.37 J0.3363
G2 X100.5 Y138.0 I0.25 J-0.433
G2 X99.75 Y137.567 I-0.5 J0.0
G2 X99.63 Y137.6637 I0.25 J0.433
G1 F200.0 Z-2.0
G2 F500.0 X99.75 Y138.433 I0.37 J0.3363
G2 X100.5 Y138.0 I0.25 J-0.433
G2 X99.75 Y137.567 I-0.5 J0.0
G2 X99.63 Y137.6637 I0.25 J0.433
G1 F200.0 Z-3.0
G2 F500.0 X99.75 Y138.433 I0.37 J0.3363
G2 X100.5 Y138.0 I0.25 J-0.433
G2 X99.75 Y137.567 I-0.5 J0.0
G2 X99.63 Y137.6637 I0.25 J0.433
G1 F200.0 Z-4.0
G2 F500.0 X99.75 Y138.433 I0.37 J0.3363
G2 X100.5 Y138.0 I0.25 J-0.433
G2 X99.75 Y137.567 I-0.5 J0.0
G2 X99.63 Y137.6637 I0.25 J0.433
G1 F200.0 Z-5.0
G2 F500.0 X99.75 Y138.433 I0.37 J0.3363
G2 X100.5 Y138.0 I0.25 J-0.433
G2 X99.75 Y137.567 I-0.5 J0.0
G2 X99.63 Y137.6637 I0.25 J0.433
G1 F200.0 Z-6.0
G2 F500.0 X99.75 Y138.433 I0.37 J0.3363
G2 X100.5 Y138.0 I0.25 J-0.433
G2 X99.75 Y137.567 I-0.5 J0.0
G2 X99.63 Y137.6637 I0.25 J0.433
G0 Z3.0
G0 X130.7604 Y137.9947
G1 F200.0 Z-1.0
G2 F500.0 X131.0104 Y138.433 I0.5 J0.0053
G2 X131.7604 Y138.0 I0.25 J-0.433
G2 X131.0104 Y137.567 I-0.5 J0.0
G2 X130.7604 Y137.9947 I0.25 J0.433
G1 F200.0 Z-2.0
G2 F500.0 X131.0104 Y138.433 I0.5 J0.0053
G2 X131.7604 Y138.0 I0.25 J-0.433
G2 X131.0104 Y137.567 I-0.5 J0.0
G2 X130.7604 Y137.9947 I0.25 J0.433
G1 F200.0 Z-3.0
G2 F500.0 X131.0104 Y138.433 I0.5 J0.0053
G2 X131.7604 Y138.0 I0.25 J-0.433
G2 X131.0104 Y137.567 I-0.5 J0.0
G2 X130.7604 Y137.9947 I0.25 J0.433
G1 F200.0 Z-4.0
G2 F500.0 X131.0104 Y138.433 I0.5 J0.0053
G2 X131.7604 Y138.0 I0.25 J-0.433
G2 X131.0104 Y137.567 I-0.5 J0.0
G2 X130.7604 Y137.9947 I0.25 J0.433
G1 F200.0 Z-5.0
G2 F500.0 X131.0104 Y138.433 I0.5 J0.0053
G2 X131.7604 Y138.0 I0.25 J-0.433
G2 X131.0104 Y137.567 I-0.5 J0.0
G2 X130.7604 Y137.9947 I0.25 J0.433
G1 F200.0 Z-6.0
G2 F500.0 X131.0104 Y138.433 I0.5 J0.0053
G2 X131.7604 Y138.0 I0.25 J-0.433
G2 X131.0104 Y137.567 I-0.5 J0.0
G2 X130.7604 Y137.9947 I0.25 J0.433
G0 Z3.0
G0 X123.6567 Y116.4748
G1 F200.0 Z-1.0
G2 F500.0 X124.0 Y116.0 I-0.1567 J-0.4748
G2 X123.25 Y115.567 I-0.5 J0.0
G2 Y116.433 I0.25 J0.433
G2 X123.6567 Y116.4748 I0.25 J-0.433
G1 F200.0 Z-2.0
G2 F500.0 X124.0 Y116.0 I-0.1567 J-0.4748
G2 X123.25 Y115.567 I-0.5 J0.0
G2 Y116.433 I0.25 J0.433
G2 X123.6567 Y116.4748 I0.25 J-0.433
G1 F200.0 Z-3.0
G2 F500.0 X124.0 Y116.0 I-0.1567 J-0.4748
G2 X123.25 Y115.567 I-0.5 J0.0
G2 Y116.433 I0.25 J0.433
G2 X123.6567 Y116.4748 I0.25 J-0.433
G1 F200.0 Z-4.0
G2 F500.0 X124.0 Y116.0 I-0.1567 J-0.4748
G2 X123.25 Y115.567 I-0.5 J0.0
G2 Y116.433 I0.25 J0.433
G2 X123.6567 Y116.4748 I0.25 J-0.433
G1 F200.0 Z-5.0
G2 F500.0 X124.0 Y116.0 I-0.1567 J-0.4748
G2 X123.25 Y115.567 I-0.5 J0.0
G2 Y116.433 I0.25 J0.433
G2 X123.6567 Y116.4748 I0.25 J-0.433
G1 F200.0 Z-6.0
G2 F500.0 X124.0 Y116.0 I-0.1567 J-0.4748
G2 X123.25 Y115.567 I-0.5 J0.0
G2 Y116.433 I0.25 J0.433
G2 X123.6567 Y116.4748 I0.25 J-0.433
G0 Z3.0
G0 X115.0916 Y70.4915
G1 F200.0 Z-1.0
G2 F500.0 X115.5 Y70.0 I-0.0916 J-0.4915
G2 X114.75 Y69.567 I-0.5 J0.0
G2 Y70.433 I0.25 J0.433
G2 X115.0916 Y70.4915 I0.25 J-0.433
G1 F200.0 Z-2.0
G2 F500.0 X115.5 Y70.0 I-0.0916 J-0.4915
G2 X114.75 Y69.567 I-0.5 J0.0
G2 Y70.433 I0.25 J0.433
G2 X115.0916 Y70.4915 I0.25 J-0.433
G1 F200.0 Z-3.0
G2 F500.0 X115.5 Y70.0 I-0.0916 J-0.4915
G2 X114.75 Y69.567 I-0.5 J0.0
G2 Y70.433 I0.25 J0.433
G2 X115.0916 Y70.4915 I0.25 J-0.433
G1 F200.0 Z-4.0
G2 F500.0 X115.5 Y70.0 I-0.0916 J-0.4915
G2 X114.75 Y69.567 I-0.5 J0.0
G2 Y70.433 I0.25 J0.433
G2 X115.0916 Y70.4915 I0.25 J-0.433
G1 F200.0 Z-5.0
G2 F500.0 X115.5 Y70.0 I-0.0916 J-0.4915
G2 X114.75 Y69.567 I-0.5 J0.0
G2 Y70.433 I0.25 J0.433
G2 X115.0916 Y70.4915 I0.25 J-0.433
G1 F200.0 Z-6.0
G2 F500.0 X115.5 Y70.0 I-0.0916 J-0.4915
G2 X114.75 Y69.567 I-0.5 J0.0
G2 Y70.433 I0.25 J0.433
G2 X115.0916 Y70.4915 I0.25 J-0.433
G0 Z3.0
G0 X85.4999 Y70.0082
G1 F200.0 Z-1.0
G2 F500.0 X85.5 Y70.0 I-0.4999 J-0.0082
G2 X84.75 Y69.567 I-0.5 J0.0
G2 Y70.433 I0.25 J0.433
G2 X85.4999 Y70.0082 I0.25 J-0.433
G1 F200.0 Z-2.0
G2 F500.0 X85.5 Y70.0 I-0.4999 J-0.0082
G2 X84.75 Y69.567 I-0.5 J0.0
G2 Y70.433 I0.25 J0.433
G2 X85.4999 Y70.0082 I0.25 J-0.433
G1 F200.0 Z-3.0
G2 F500.0 X85.5 Y70.0 I-0.4999 J-0.0082
G2 X84.75 Y69.567 I-0.5 J0.0
G2 Y70.433 I0.25 J0.433
G2 X85.4999 Y70.0082 I0.25 J-0.433
G1 F200.0 Z-4.0
G2 F500.0 X85.5 Y70.0 I-0.4999 J-0.0082
G2 X84.75 Y69.567 I-0.5 J0.0
G2 Y70.433 I0.25 J0.433
G2 X85.4999 Y70.0082 I0.25 J-0.433
G1 F200.0 Z-5.0
G2 F500.0 X85.5 Y70.0 I-0.4999 J-0.0082
G2 X84.75 Y69.567 I-0.5 J0.0
G2 Y70.433 I0.25 J0.433
G2 X85.4999 Y70.0082 I0.25 J-0.433
G1 F200.0 Z-6.0
G2 F500.0 X85.5 Y70.0 I-0.4999 J-0.0082
G2 X84.75 Y69.567 I-0.5 J0.0
G2 Y70.433 I0.25 J0.433
G2 X85.4999 Y70.0082 I0.25 J-0.433
G0 Z3.0
G0 X29.7475 Y73.9298
G1 F200.0 Z-1.0
G2 F500.0 X28.25 Y73.134 I-0.9975 J0.0702
G2 Y74.866 I0.5 J0.866
G2 X29.75 Y74.0 I0.5 J-0.866
G2 X29.7475 Y73.9298 I-1.0 J0.0
G1 F200.0 Z-2.0
G2 F500.0 X28.25 Y73.134 I-0.9975 J0.0702
G2 Y74.866 I0.5 J0.866
G2 X29.75 Y74.0 I0.5 J-0.866
G2 X29.7475 Y73.9298 I-1.0 J0.0
G1 F200.0 Z-3.0
G2 F500.0 X28.25 Y73.134 I-0.9975 J0.0702
G2 Y74.866 I0.5 J0.866
G2 X29.75 Y74.0 I0.5 J-0.866
G2 X29.7475 Y73.9298 I-1.0 J0.0
G1 F200.0 Z-4.0
G2 F500.0 X28.25 Y73.134 I-0.9975 J0.0702
G2 Y74.866 I0.5 J0.866
G2 X29.75 Y74.0 I0.5 J-0.866
G2 X29.7475 Y73.9298 I-1.0 J0.0
G1 F200.0 Z-5.0
G2 F500.0 X28.25 Y73.134 I-0.9975 J0.0702
G2 Y74.866 I0.5 J0.866
G2 X29.75 Y74.0 I0.5 J-0.866
G2 X29.7475 Y73.9298 I-1.0 J0.0
G1 F200.0 Z-6.0
G2 F500.0 X28.25 Y73.134 I-0.9975 J0.0702
G2 Y74.866 I0.5 J0.866
G2 X29.75 Y74.0 I0.5 J-0.866
G2 X29.7475 Y73.9298 I-1.0 J0.0
G0 Z3.0
G0 X29.995 Y49.0
G1 F200.0 Z-1.0
G2 F500.0 X30.5 Y48.5 I0.005 J-0.5
G2 X29.75 Y48.067 I-0.5 J0.0
G2 Y48.933 I0.25 J0.433
G2 X29.995 Y49.0 I0.25 J-0.433
G1 F200.0 Z-2.0
G2 F500.0 X30.5 Y48.5 I0.005 J-0.5
G2 X29.75 Y48.067 I-0.5 J0.0
G2 Y48.933 I0.25 J0.433
G2 X29.995 Y49.0 I0.25 J-0.433
G1 F200.0 Z-3.0
G2 F500.0 X30.5 Y48.5 I0.005 J-0.5
G2 X29.75 Y48.067 I-0.5 J0.0
G2 Y48.933 I0.25 J0.433
G2 X29.995 Y49.0 I0.25 J-0.433
G1 F200.0 Z-4.0
G2 F500.0 X30.5 Y48.5 I0.005 J-0.5
G2 X29.75 Y48.067 I-0.5 J0.0
G2 Y48.933 I0.25 J0.433
G2 X29.995 Y49.0 I0.25 J-0.433
G1 F200.0 Z-5.0
G2 F500.0 X30.5 Y48.5 I0.005 J-0.5
G2 X29.75 Y48.067 I-0.5 J0.0
G2 Y48.933 I0.25 J0.433
G2 X29.995 Y49.0 I0.25 J-0.433
G1 F200.0 Z-6.0
G2 F500.0 X30.5 Y48.5 I0.005 J-0.5
G2 X29.75 Y48.067 I-0.5 J0.0
G2 Y48.933 I0.25 J0.433
G2 X29.995 Y49.0 I0.25 J-0.433
G0 Z3.0
G0 X19.5248 Y35.8838
G1 F200.0 Z-1.0
G2 F500.0 X19.7128 Y35.493 I-0.3119 J-0.3908
G2 X18.9628 Y35.06 I-0.5 J0.0
G2 Y35.926 I0.25 J0.433
G2 X19.5248 Y35.8838 I0.25 J-0.433
G1 F200.0 Z-2.0
G2 F500.0 X19.7128 Y35.493 I-0.3119 J-0.3908
G2 X18.9628 Y35.06 I-0.5 J0.0
G2 Y35.926 I0.25 J0.433
G2 X19.5248 Y35.8838 I0.25 J-0.433
G1 F200.0 Z-3.0
G2 F500.0 X19.7128 Y35.493 I-0.3119 J-0.3908
G2 X18.9628 Y35.06 I-0.5 J0.0
G2 Y35.926 I0.25 J0.433
G2 X19.5248 Y35.8838 I0.25 J-0.433
G1 F200.0 Z-4.0
G2 F500.0 X19.7128 Y35.493 I-0.3119 J-0.3908
G2 X18.9628 Y35.06 I-0.5 J0.0
G2 Y35.926 I0.25 J0.433
G2 X19.5248 Y35.8838 I0.25 J-0.433
G1 F200.0 Z-5.0
G2 F500.0 X19.7128 Y35.493 I-0.3119 J-0.3908
G2 X18.9628 Y35.06 I-0.5 J0.0
G2 Y35.926 I0.25 J0.433
G2 X19.5248 Y35.8838 I0.25 J-0.433
G1 F200.0 Z-6.0
G2 F500.0 X19.7128 Y35.493 I-0.3119 J-0.3908
G2 X18.9628 Y35.06 I-0.5 J0.0
G2 Y35.926 I0.25 J0.433
G2 X19.5248 Y35.8838 I0.25 J-0.433
G0 Z3.0
G0 X19.4966 Y20.9957
G1 F200.0 Z-1.0
G2 F500.0 X19.9957 Y20.4957 I-0.0009 J-0.5
G2 X19.2457 Y20.0627 I-0.5 J0.0
G2 Y20.9287 I0.25 J0.433
G2 X19.4966 Y20.9957 I0.25 J-0.433
G1 F200.0 Z-2.0
G2 F500.0 X19.9957 Y20.4957 I-0.0009 J-0.5
G2 X19.2457 Y20.0627 I-0.5 J0.0
G2 Y20.9287 I0.25 J0.433
G2 X19.4966 Y20.9957 I0.25 J-0.433
G1 F200.0 Z-3.0
G2 F500.0 X19.9957 Y20.4957 I-0.0009 J-0.5
G2 X19.2457 Y20.0627 I-0.5 J0.0
G2 Y20.9287 I0.25 J0.433
G2 X19.4966 Y20.9957 I0.25 J-0.433
G1 F200.0 Z-4.0
G2 F500.0 X19.9957 Y20.4957 I-0.0009 J-0.5
G2 X19.2457 Y20.0627 I-0.5 J0.0
G2 Y20.9287 I0.25 J0.433
G2 X19.4966 Y20.9957 I0.25 J-0.433
G1 F200.0 Z-5.0
G2 F500.0 X19.9957 Y20.4957 I-0.0009 J-0.5
G2 X19.2457 Y20.0627 I-0.5 J0.0
G2 Y20.9287 I0.25 J0.433
G2 X19.4966 Y20.9957 I0.25 J-0.433
G1 F200.0 Z-6.0
G2 F500.0 X19.9957 Y20.4957 I-0.0009 J-0.5
G2 X19.2457 Y20.0627 I-0.5 J0.0
G2 Y20.9287 I0.25 J0.433
G2 X19.4966 Y20.9957 I0.25 J-0.433
G0 Z3.0
G0 X29.5136 Y23.384
G1 F200.0 Z-1.0
G2 F500.0 X29.75 Y23.933 I0.4864 J0.116
G2 X30.5 Y23.5 I0.25 J-0.433
G2 X29.75 Y23.067 I-0.5 J0.0
G2 X29.5136 Y23.384 I0.25 J0.433
G1 F200.0 Z-2.0
G2 F500.0 X29.75 Y23.933 I0.4864 J0.116
G2 X30.5 Y23.5 I0.25 J-0.433
G2 X29.75 Y23.067 I-0.5 J0.0
G2 X29.5136 Y23.384 I0.25 J0.433
G1 F200.0 Z-3.0
G2 F500.0 X29.75 Y23.933 I0.4864 J0.116
G2 X30.5 Y23.5 I0.25 J-0.433
G2 X29.75 Y23.067 I-0.5 J0.0
G2 X29.5136 Y23.384 I0.25 J0.433
G1 F200.0 Z-4.0
G2 F500.0 X29.75 Y23.933 I0.4864 J0.116
G2 X30.5 Y23.5 I0.25 J-0.433
G2 X29.75 Y23.067 I-0.5 J0.0
G2 X29.5136 Y23.384 I0.25 J0.433
G1 F200.0 Z-5.0
G2 F500.0 X29.75 Y23.933 I0.4864 J0.116
G2 X30.5 Y23.5 I0.25 J-0.433
G2 X29.75 Y23.067 I-0.5 J0.0
G2 X29.5136 Y23.384 I0.25 J0.433
G1 F200.0 Z-6.0
G2 F500.0 X29.75 Y23.933 I0.4864 J0.116
G2 X30.5 Y23.5 I0.25 J-0.433
G2 X29.75 Y23.067 I-0.5 J0.0
G2 X29.5136 Y23.384 I0.25 J0.433
G0 Z3.0
G0 X3.4999 Y23.9884
G1 F200.0 Z-1.0
G2 F500.0 X2.75 Y23.567 I-0.4999 J0.0116
G2 Y24.433 I0.25 J0.433
G2 X3.5 Y24.0 I0.25 J-0.433
G2 X3.4999 Y23.9884 I-0.5 J0.0
G1 F200.0 Z-2.0
G2 F500.0 X2.75 Y23.567 I-0.4999 J0.0116
G2 Y24.433 I0.25 J0.433
G2 X3.5 Y24.0 I0.25 J-0.433
G2 X3.4999 Y23.9884 I-0.5 J0.0
G1 F200.0 Z-3.0
G2 F500.0 X2.75 Y23.567 I-0.4999 J0.0116
G2 Y24.433 I0.25 J0.433
G2 X3.5 Y24.0 I0.25 J-0.433
G2 X3.4999 Y23.9884 I-0.5 J0.0
G1 F200.0 Z-4.0
G2 F500.0 X2.75 Y23.567 I-0.4999 J0.0116
G2 Y24.433 I0.25 J0.433
G2 X3.5 Y24.0 I0.25 J-0.433
G2 X3.4999 Y23.9884 I-0.5 J0.0
G1 F200.0 Z-5.0
G2 F500.0 X2.75 Y23.567 I-0.4999 J0.0116
G2 Y24.433 I0.25 J0.433
G2 X3.5 Y24.0 I0.25 J-0.433
G2 X3.4999 Y23.9884 I-0.5 J0.0
G1 F200.0 Z-6.0
G2 F500.0 X2.75 Y23.567 I-0.4999 J0.0116
G2 Y24.433 I0.25 J0.433
G2 X3.5 Y24.0 I0.25 J-0.433
G2 X3.4999 Y23.9884 I-0.5 J0.0
G0 Z3.0
G0 X3.0073 Y57.5001
G1 F200.0 Z-1.0
G2 F500.0 X2.75 Y57.567 I-0.0073 J0.4999
G2 Y58.433 I0.25 J0.433
G2 X3.5 Y58.0 I0.25 J-0.433
G2 X3.0073 Y57.5001 I-0.5 J0.0
G1 F200.0 Z-2.0
G2 F500.0 X2.75 Y57.567 I-0.0073 J0.4999
G2 Y58.433 I0.25 J0.433
G2 X3.5 Y58.0 I0.25 J-0.433
G2 X3.0073 Y57.5001 I-0.5 J0.0
G1 F200.0 Z-3.0
G2 F500.0 X2.75 Y57.567 I-0.0073 J0.4999
G2 Y58.433 I0.25 J0.433
G2 X3.5 Y58.0 I0.25 J-0.433
G2 X3.0073 Y57.5001 I-0.5 J0.0
G1 F200.0 Z-4.0
G2 F500.0 X2.75 Y57.567 I-0.0073 J0.4999
G2 Y58.433 I0.25 J0.433
G2 X3.5 Y58.0 I0.25 J-0.433
G2 X3.0073 Y57.5001 I-0.5 J0.0
G1 F200.0 Z-5.0
G2 F500.0 X2.75 Y57.567 I-0.0073 J0.4999
G2 Y58.433 I0.25 J0.433
G2 X3.5 Y58.0 I0.25 J-0.433
G2 X3.0073 Y57.5001 I-0.5 J0.0
G1 F200.0 Z-6.0
G2 F500.0 X2.75 Y57.567 I-0.0073 J0.4999
G2 Y58.433 I0.25 J0.433
G2 X3.5 Y58.0 I0.25 J-0.433
G2 X3.0073 Y57.5001 I-0.5 J0.0
G0 Z3.0
G0 X3.0001 Y81.5
G1 F200.0 Z-1.0
G2 F500.0 X2.75 Y81.567 I-0.0001 J0.5
G2 Y82.433 I0.25 J0.433
G2 X3.5 Y82.0 I0.25 J-0.433
G2 X3.0001 Y81.5 I-0.5 J0.0
G1 F200.0 Z-2.0
G2 F500.0 X2.75 Y81.567 I-0.0001 J0.5
G2 Y82.433 I0.25 J0.433
G2 X3.5 Y82.0 I0.25 J-0.433
G2 X3.0001 Y81.5 I-0.5 J0.0
G1 F200.0 Z-3.0
G2 F500.0 X2.75 Y81.567 I-0.0001 J0.5
G2 Y82.433 I0.25 J0.433
G2 X3.5 Y82.0 I0.25 J-0.433
G2 X3.0001 Y81.5 I-0.5 J0.0
G1 F200.0 Z-4.0
G2 F500.0 X2.75 Y81.567 I-0.0001 J0.5
G2 Y82.433 I0.25 J0.433
G2 X3.5 Y82.0 I0.25 J-0.433
G2 X3.0001 Y81.5 I-0.5 J0.0
G1 F200.0 Z-5.0
G2 F500.0 X2.75 Y81.567 I-0.0001 J0.5
G2 Y82.433 I0.25 J0.433
G2 X3.5 Y82.0 I0.25 J-0.433
G2 X3.0001 Y81.5 I-0.5 J0.0
G1 F200.0 Z-6.0
G2 F500.0 X2.75 Y81.567 I-0.0001 J0.5
G2 Y82.433 I0.25 J0.433
G2 X3.5 Y82.0 I0.25 J-0.433
G2 X3.0001 Y81.5 I-0.5 J0.0
G0 Z3.0
G0 X170.251 Y74.0445
G1 F200.0 Z-1.0
G2 F500.0 X170.75 Y74.866 I0.999 J-0.0445
G2 X172.25 Y74.0 I0.5 J-0.866
G2 X170.75 Y73.134 I-1.0 J0.0
G2 X170.251 Y74.0445 I0.5 J0.866
G1 F200.0 Z-2.0
G2 F500.0 X170.75 Y74.866 I0.999 J-0.0445
G2 X172.25 Y74.0 I0.5 J-0.866
G2 X170.75 Y73.134 I-1.0 J0.0
G2 X170.251 Y74.0445 I0.5 J0.866
G1 F200.0 Z-3.0
G2 F500.0 X170.75 Y74.866 I0.999 J-0.0445
G2 X172.25 Y74.0 I0.5 J-0.866
G2 X170.75 Y73.134 I-1.0 J0.0
G2 X170.251 Y74.0445 I0.5 J0.866
G1 F200.0 Z-4.0
G2 F500.0 X170.75 Y74.866 I0.999 J-0.0445
G2 X172.25 Y74.0 I0.5 J-0.866
G2 X170.75 Y73.134 I-1.0 J0.0
G2 X170.251 Y74.0445 I0.5 J0.866
G1 F200.0 Z-5.0
G2 F500.0 X170.75 Y74.866 I0.999 J-0.0445
G2 X172.25 Y74.0 I0.5 J-0.866
G2 X170.75 Y73.134 I-1.0 J0.0
G2 X170.251 Y74.0445 I0.5 J0.866
G1 F200.0 Z-6.0
G2 F500.0 X170.75 Y74.866 I0.999 J-0.0445
G2 X172.25 Y74.0 I0.5 J-0.866
G2 X170.75 Y73.134 I-1.0 J0.0
G2 X170.251 Y74.0445 I0.5 J0.866
G0 Z3.0
G0 X170.0049 Y49.0
G1 F200.0 Z-1.0
G2 F500.0 X170.5 Y48.5 I-0.0049 J-0.5
G2 X169.75 Y48.067 I-0.5 J0.0
G2 Y48.933 I0.25 J0.433
G2 X170.0049 Y49.0 I0.25 J-0.433
G1 F200.0 Z-2.0
G2 F500.0 X170.5 Y48.5 I-0.0049 J-0.5
G2 X169.75 Y48.067 I-0.5 J0.0
G2 Y48.933 I0.25 J0.433
G2 X170.0049 Y49.0 I0.25 J-0.433
G1 F200.0 Z-3.0
G2 F500.0 X170.5 Y48.5 I-0.0049 J-0.5
G2 X169.75 Y48.067 I-0.5 J0.0
G2 Y48.933 I0.25 J0.433
G2 X170.0049 Y49.0 I0.25 J-0.433
G1 F200.0 Z-4.0
G2 F500.0 X170.5 Y48.5 I-0.0049 J-0.5
G2 X169.75 Y48.067 I-0.5 J0.0
G2 Y48.933 I0.25 J0.433
G2 X170.0049 Y49.0 I0.25 J-0.433
G1 F200.0 Z-5.0
G2 F500.0 X170.5 Y48.5 I-0.0049 J-0.5
G2 X169.75 Y48.067 I-0.5 J0.0
G2 Y48.933 I0.25 J0.433
G2 X170.0049 Y49.0 I0.25 J-0.433
G1 F200.0 Z-6.0
G2 F500.0 X170.5 Y48.5 I-0.0049 J-0.5
G2 X169.75 Y48.067 I-0.5 J0.0
G2 Y48.933 I0.25 J0.433
G2 X170.0049 Y49.0 I0.25 J-0.433
G0 Z3.0
G0 X180.4752 Y35.8838
G1 F200.0 Z-1.0
G2 F500.0 X180.5372 Y35.926 I0.3119 J-0.3908
G2 X181.2872 Y35.493 I0.25 J-0.433
G2 X180.5372 Y35.06 I-0.5 J0.0
G2 X180.4752 Y35.8838 I0.25 J0.433
G1 F200.0 Z-2.0
G2 F500.0 X180.5372 Y35.926 I0.3119 J-0.3908
G2 X181.2872 Y35.493 I0.25 J-0.433
G2 X180.5372 Y35.06 I-0.5 J0.0
G2 X180.4752 Y35.8838 I0.25 J0.433
G1 F200.0 Z-3.0
G2 F500.0 X180.5372 Y35.926 I0.3119 J-0.3908
G2 X181.2872 Y35.493 I0.25 J-0.433
G2 X180.5372 Y35.06 I-0.5 J0.0
G2 X180.4752 Y35.8838 I0.25 J0.433
G1 F200.0 Z-4.0
G2 F500.0 X180.5372 Y35.926 I0.3119 J-0.3908
G2 X181.2872 Y35.493 I0.25 J-0.433
G2 X180.5372 Y35.06 I-0.5 J0.0
G2 X180.4752 Y35.8838 I0.25 J0.433
G1 F200.0 Z-5.0
G2 F500.0 X180.5372 Y35.926 I0.3119 J-0.3908
G2 X181.2872 Y35.493 I0.25 J-0.433
G2 X180.5372 Y35.06 I-0.5 J0.0
G2 X180.4752 Y35.8838 I0.25 J0.433
G1 F200.0 Z-6.0
G2 F500.0 X180.5372 Y35.926 I0.3119 J-0.3908
G2 X181.2872 Y35.493 I0.25 J-0.433
G2 X180.5372 Y35.06 I-0.5 J0.0
G2 X180.4752 Y35.8838 I0.25 J0.433
G0 Z3.0
G0 X180.5034 Y20.9957
G1 F200.0 Z-1.0
G2 F500.0 X181.0043 Y20.4957 I0.0009 J-0.5
G2 X180.2543 Y20.0627 I-0.5 J0.0
G2 Y20.9287 I0.25 J0.433
G2 X180.5034 Y20.9957 I0.25 J-0.433
G1 F200.0 Z-2.0
G2 F500.0 X181.0043 Y20.4957 I0.0009 J-0.5
G2 X180.2543 Y20.0627 I-0.5 J0.0
G2 Y20.9287 I0.25 J0.433
G2 X180.5034 Y20.9957 I0.25 J-0.433
G1 F200.0 Z-3.0
G2 F500.0 X181.0043 Y20.4957 I0.0009 J-0.5
G2 X180.2543 Y20.0627 I-0.5 J0.0
G2 Y20.9287 I0.25 J0.433
G2 X180.5034 Y20.9957 I0.25 J-0.433
G1 F200.0 Z-4.0
G2 F500.0 X181.0043 Y20.4957 I0.0009 J-0.5
G2 X180.2543 Y20.0627 I-0.5 J0.0
G2 Y20.9287 I0.25 J0.433
G2 X180.5034 Y20.9957 I0.25 J-0.433
G1 F200.0 Z-5.0
G2 F500.0 X181.0043 Y20.4957 I0.0009 J-0.5
G2 X180.2543 Y20.0627 I-0.5 J0.0
G2 Y20.9287 I0.25 J0.433
G2 X180.5034 Y20.9957 I0.25 J-0.433
G1 F200.0 Z-6.0
G2 F500.0 X181.0043 Y20.4957 I0.0009 J-0.5
G2 X180.2543 Y20.0627 I-0.5 J0.0
G2 Y20.9287 I0.25 J0.433
G2 X180.5034 Y20.9957 I0.25 J-0.433
G0 Z3.0
G0 X170.4864 Y23.384
G1 F200.0 Z-1.0
G2 F500.0 X169.75 Y23.067 I-0.4864 J0.116
G2 Y23.933 I0.25 J0.433
G2 X170.5 Y23.5 I0.25 J-0.433
G2 X170.4864 Y23.384 I-0.5 J0.0
G1 F200.0 Z-2.0
G2 F500.0 X169.75 Y23.067 I-0.4864 J0.116
G2 Y23.933 I0.25 J0.433
G2 X170.5 Y23.5 I0.25 J-0.433
G2 X170.4864 Y23.384 I-0.5 J0.0
G1 F200.0 Z-3.0
G2 F500.0 X169.75 Y23.067 I-0.4864 J0.116
G2 Y23.933 I0.25 J0.433
G2 X170.5 Y23.5 I0.25 J-0.433
G2 X170.4864 Y23.384 I-0.5 J0.0
G1 F200.0 Z-4.0
G2 F500.0 X169.75 Y23.067 I-0.4864 J0.116
G2 Y23.933 I0.25 J0.433
G2 X170.5 Y23.5 I0.25 J-0.433
G2 X170.4864 Y23.384 I-0.5 J0.0
G1 F200.0 Z-5.0
G2 F500.0 X169.75 Y23.067 I-0.4864 J0.116
G2 Y23.933 I0.25 J0.433
G2 X170.5 Y23.5 I0.25 J-0.433
G2 X170.4864 Y23.384 I-0.5 J0.0
G1 F200.0 Z-6.0
G2 F500.0 X169.75 Y23.067 I-0.4864 J0.116
G2 Y23.933 I0.25 J0.433
G2 X170.5 Y23.5 I0.25 J-0.433
G2 X170.4864 Y23.384 I-0.5 J0.0
G0 Z3.0
G0 X196.5001 Y23.9884
G1 F200.0 Z-1.0
G2 F500.0 X196.75 Y24.433 I0.4999 J0.0116
G2 X197.5 Y24.0 I0.25 J-0.433
G2 X196.75 Y23.567 I-0.5 J0.0
G2 X196.5001 Y23.9884 I0.25 J0.433
G1 F200.0 Z-2.0
G2 F500.0 X196.75 Y24.433 I0.4999 J0.0116
G2 X197.5 Y24.0 I0.25 J-0.433
G2 X196.75 Y23.567 I-0.5 J0.0
G2 X196.5001 Y23.9884 I0.25 J0.433
G1 F200.0 Z-3.0
G2 F500.0 X196.75 Y24.433 I0.4999 J0.0116
G2 X197.5 Y24.0 I0.25 J-0.433
G2 X196.75 Y23.567 I-0.5 J0.0
G2 X196.5001 Y23.9884 I0.25 J0.433
G1 F200.0 Z-4.0
G2 F500.0 X196.75 Y24.433 I0.4999 J0.0116
G2 X197.5 Y24.0 I0.25 J-0.433
G2 X196.75 Y23.567 I-0.5 J0.0
G2 X196.5001 Y23.9884 I0.25 J0.433
G1 F200.0 Z-5.0
G2 F500.0 X196.75 Y24.433 I0.4999 J0.0116
G2 X197.5 Y24.0 I0.25 J-0.433
G2 X196.75 Y23.567 I-0.5 J0.0
G2 X196.5001 Y23.9884 I0.25 J0.433
G1 F200.0 Z-6.0
G2 F500.0 X196.75 Y24.433 I0.4999 J0.0116
G2 X197.5 Y24.0 I0.25 J-0.433
G2 X196.75 Y23.567 I-0.5 J0.0
G2 X196.5001 Y23.9884 I0.25 J0.433
G0 Z3.0
G0 X196.9927 Y57.5001
G1 F200.0 Z-1.0
G2 F500.0 X196.75 Y57.567 I0.0073 J0.4999
G2 Y58.433 I0.25 J0.433
G2 X197.5 Y58.0 I0.25 J-0.433
G2 X196.9927 Y57.5001 I-0.5 J0.0
G1 F200.0 Z-2.0
G2 F500.0 X196.75 Y57.567 I0.0073 J0.4999
G2 Y58.433 I0.25 J0.433
G2 X197.5 Y58.0 I0.25 J-0.433
G2 X196.9927 Y57.5001 I-0.5 J0.0
G1 F200.0 Z-3.0
G2 F500.0 X196.75 Y57.567 I0.0073 J0.4999
G2 Y58.433 I0.25 J0.433
G2 X197.5 Y58.0 I0.25 J-0.433
G2 X196.9927 Y57.5001 I-0.5 J0.0
G1 F200.0 Z-4.0
G2 F500.0 X196.75 Y57.567 I0.0073 J0.4999
G2 Y58.433 I0.25 J0.433
G2 X197.5 Y58.0 I0.25 J-0.433
G2 X196.9927 Y57.5001 I-0.5 J0.0
G1 F200.0 Z-5.0
G2 F500.0 X196.75 Y57.567 I0.0073 J0.4999
G2 Y58.433 I0.25 J0.433
G2 X197.5 Y58.0 I0.25 J-0.433
G2 X196.9927 Y57.5001 I-0.5 J0.0
G1 F200.0 Z-6.0
G2 F500.0 X196.75 Y57.567 I0.0073 J0.4999
G2 Y58.433 I0.25 J0.433
G2 X197.5 Y58.0 I0.25 J-0.433
G2 X196.9927 Y57.5001 I-0.5 J0.0
G0 Z3.0
G0 X196.9999 Y81.5
G1 F200.0 Z-1.0
G2 F500.0 X196.75 Y81.567 I0.0001 J0.5
G2 Y82.433 I0.25 J0.433
G2 X197.5 Y82.0 I0.25 J-0.433
G2 X196.9999 Y81.5 I-0.5 J0.0
G1 F200.0 Z-2.0
G2 F500.0 X196.75 Y81.567 I0.0001 J0.5
G2 Y82.433 I0.25 J0.433
G2 X197.5 Y82.0 I0.25 J-0.433
G2 X196.9999 Y81.5 I-0.5 J0.0
G1 F200.0 Z-3.0
G2 F500.0 X196.75 Y81.567 I0.0001 J0.5
G2 Y82.433 I0.25 J0.433
G2 X197.5 Y82.0 I0.25 J-0.433
G2 X196.9999 Y81.5 I-0.5 J0.0
G1 F200.0 Z-4.0
G2 F500.0 X196.75 Y81.567 I0.0001 J0.5
G2 Y82.433 I0.25 J0.433
G2 X197.5 Y82.0 I0.25 J-0.433
G2 X196.9999 Y81.5 I-0.5 J0.0
G1 F200.0 Z-5.0
G2 F500.0 X196.75 Y81.567 I0.0001 J0.5
G2 Y82.433 I0.25 J0.433
G2 X197.5 Y82.0 I0.25 J-0.433
G2 X196.9999 Y81.5 I-0.5 J0.0
G1 F200.0 Z-6.0
G2 F500.0 X196.75 Y81.567 I0.0001 J0.5
G2 Y82.433 I0.25 J0.433
G2 X197.5 Y82.0 I0.25 J-0.433
G2 X196.9999 Y81.5 I-0.5 J0.0
G0 Z3.0
G0 X197.0 Y115.5
G1 F200.0 Z-1.0
G2 F500.0 X196.75 Y115.567 I0.0 J0.5
G2 Y116.433 I0.25 J0.433
G2 X197.5 Y116.0 I0.25 J-0.433
G2 X197.0 Y115.5 I-0.5 J0.0
G1 F200.0 Z-2.0
G2 F500.0 X196.75 Y115.567 I0.0 J0.5
G2 Y116.433 I0.25 J0.433
G2 X197.5 Y116.0 I0.25 J-0.433
G2 X197.0 Y115.5 I-0.5 J0.0
G1 F200.0 Z-3.0
G2 F500.0 X196.75 Y115.567 I0.0 J0.5
G2 Y116.433 I0.25 J0.433
G2 X197.5 Y116.0 I0.25 J-0.433
G2 X197.0 Y115.5 I-0.5 J0.0
G1 F200.0 Z-4.0
G2 F500.0 X196.75 Y115.567 I0.0 J0.5
G2 Y116.433 I0.25 J0.433
G2 X197.5 Y116.0 I0.25 J-0.433
G2 X197.0 Y115.5 I-0.5 J0.0
G1 F200.0 Z-5.0
G2 F500.0 X196.75 Y115.567 I0.0 J0.5
G2 Y116.433 I0.25 J0.433
G2 X197.5 Y116.0 I0.25 J-0.433
G2 X197.0 Y115.5 I-0.5 J0.0
G1 F200.0 Z-6.0
G2 F500.0 X196.75 Y115.567 I0.0 J0.5
G2 Y116.433 I0.25 J0.433
G2 X197.5 Y116.0 I0.25 J-0.433
G2 X197.0 Y115.5 I-0.5 J0.0
G0 Z3.0
G0 X195.8272 Y137.0007
G1 F200.0 Z-1.0
G2 F500.0 X195.55 Y137.067 I-0.0272 J0.4993
G2 Y137.933 I0.25 J0.433
G2 X196.3 Y137.5 I0.25 J-0.433
G2 X195.8272 Y137.0007 I-0.5 J0.0
G1 F200.0 Z-2.0
G2 F500.0 X195.55 Y137.067 I-0.0272 J0.4993
G2 Y137.933 I0.25 J0.433
G2 X196.3 Y137.5 I0.25 J-0.433
G2 X195.8272 Y137.0007 I-0.5 J0.0
G1 F200.0 Z-3.0
G2 F500.0 X195.55 Y137.067 I-0.0272 J0.4993
G2 Y137.933 I0.25 J0.433
G2 X196.3 Y137.5 I0.25 J-0.433
G2 X195.8272 Y137.0007 I-0.5 J0.0
G1 F200.0 Z-4.0
G2 F500.0 X195.55 Y137.067 I-0.0272 J0.4993
G2 Y137.933 I0.25 J0.433
G2 X196.3 Y137.5 I0.25 J-0.433
G2 X195.8272 Y137.0007 I-0.5 J0.0
G1 F200.0 Z-5.0
G2 F500.0 X195.55 Y137.067 I-0.0272 J0.4993
G2 Y137.933 I0.25 J0.433
G2 X196.3 Y137.5 I0.25 J-0.433
G2 X195.8272 Y137.0007 I-0.5 J0.0
G1 F200.0 Z-6.0
G2 F500.0 X195.55 Y137.067 I-0.0272 J0.4993
G2 Y137.933 I0.25 J0.433
G2 X196.3 Y137.5 I0.25 J-0.433
G2 X195.8272 Y137.0007 I-0.5 J0.0
G0 Z3.0
G0 X172.1339 Y124.4676
G1 F200.0 Z-1.0
G2 F500.0 X172.25 Y124.0 I-0.8839 J-0.4676
G2 X170.75 Y123.134 I-1.0 J0.0
G2 Y124.866 I0.5 J0.866
G2 X172.1339 Y124.4676 I0.5 J-0.866
G1 F200.0 Z-2.0
G2 F500.0 X172.25 Y124.0 I-0.8839 J-0.4676
G2 X170.75 Y123.134 I-1.0 J0.0
G2 Y124.866 I0.5 J0.866
G2 X172.1339 Y124.4676 I0.5 J-0.866
G1 F200.0 Z-3.0
G2 F500.0 X172.25 Y124.0 I-0.8839 J-0.4676
G2 X170.75 Y123.134 I-1.0 J0.0
G2 Y124.866 I0.5 J0.866
G2 X172.1339 Y124.4676 I0.5 J-0.866
G1 F200.0 Z-4.0
G2 F500.0 X172.25 Y124.0 I-0.8839 J-0.4676
G2 X170.75 Y123.134 I-1.0 J0.0
G2 Y124.866 I0.5 J0.866
G2 X172.1339 Y124.4676 I0.5 J-0.866
G1 F200.0 Z-5.0
G2 F500.0 X172.25 Y124.0 I-0.8839 J-0.4676
G2 X170.75 Y123.134 I-1.0 J0.0
G2 Y124.866 I0.5 J0.866
G2 X172.1339 Y124.4676 I0.5 J-0.866
G1 F200.0 Z-6.0
G2 F500.0 X172.25 Y124.0 I-0.8839 J-0.4676
G2 X170.75 Y123.134 I-1.0 J0.0
G2 Y124.866 I0.5 J0.866
G2 X172.1339 Y124.4676 I0.5 J-0.866
G0 Z3.0
G0 X167.1774 Y137.5325
G1 F200.0 Z-1.0
G2 F500.0 X166.75 Y137.567 I-0.1774 J0.4675
G2 Y138.433 I0.25 J0.433
G2 X167.5 Y138.0 I0.25 J-0.433
G2 X167.1774 Y137.5325 I-0.5 J0.0
G1 F200.0 Z-2.0
G2 F500.0 X166.75 Y137.567 I-0.1774 J0.4675
G2 Y138.433 I0.25 J0.433
G2 X167.5 Y138.0 I0.25 J-0.433
G2 X167.1774 Y137.5325 I-0.5 J0.0
G1 F200.0 Z-3.0
G2 F500.0 X166.75 Y137.567 I-0.1774 J0.4675
G2 Y138.433 I0.25 J0.433
G2 X167.5 Y138.0 I0.25 J-0.433
G2 X167.1774 Y137.5325 I-0.5 J0.0
G1 F200.0 Z-4.0
G2 F500.0 X166.75 Y137.567 I-0.1774 J0.4675
G2 Y138.433 I0.25 J0.433
G2 X167.5 Y138.0 I0.25 J-0.433
G2 X167.1774 Y137.5325 I-0.5 J0.0
G1 F200.0 Z-5.0
G2 F500.0 X166.75 Y137.567 I-0.1774 J0.4675
G2 Y138.433 I0.25 J0.433
G2 X167.5 Y138.0 I0.25 J-0.433
G2 X167.1774 Y137.5325 I-0.5 J0.0
G1 F200.0 Z-6.0
G2 F500.0 X166.75 Y137.567 I-0.1774 J0.4675
G2 Y138.433 I0.25 J0.433
G2 X167.5 Y138.0 I0.25 J-0.433
G2 X167.1774 Y137.5325 I-0.5 J0.0
( Contour3 )
S1000
G0 Z3.0
G0 X199.0 Y32.0
G1 F200.0 Z-1.0
G1 F500.0 X195.0
G1 X194.7071 Y31.7071
G1 X195.0 Y32.0
G1 Y50.0
G1 X194.7071 Y50.2929
G1 X195.0 Y50.0
G1 X199.0
G3 X201.0 Y52.0 I0.0 J2.0
G1 Y88.0
G3 X199.0 Y90.0 I-2.0 J0.0
G1 X195.0
G1 X194.7071 Y89.7071
G1 X195.0 Y90.0
G1 Y108.0
G1 X194.7071 Y108.2929
G1 X195.0 Y108.0
G1 X199.0
G3 X201.0 Y110.0 I0.0 J2.0
G1 Y140.0
G3 X199.0 Y142.0 I-2.0 J0.0
G1 X161.0
G3 X159.0 Y140.0 I0.0 J-2.0
G1 Y136.0
G1 X159.2929 Y135.7071
G1 X159.0 Y136.0
G1 X141.0
G1 X140.7071 Y135.7071
G1 X141.0 Y136.0
G1 Y140.0
G3 X139.0 Y142.0 I-2.0 J0.0
G1 X61.0
G3 X59.0 Y140.0 I0.0 J-2.0
G1 Y136.0
G1 X59.2929 Y135.7071
G1 X59.0 Y136.0
G1 X41.0
G1 X40.7071 Y135.7071
G1 X41.0 Y136.0
G1 Y140.0
G3 X39.0 Y142.0 I-2.0 J0.0
G1 X1.0
G3 X-1.0 Y140.0 I0.0 J-2.0
G1 Y110.0
G3 X1.0 Y108.0 I2.0 J0.0
G1 X5.0
G1 X5.2929 Y108.2929
G1 X5.0 Y108.0
G1 Y90.0
G1 X5.2929 Y89.7071
G1 X5.0 Y90.0
G1 X1.0
G3 X-1.0 Y88.0 I0.0 J-2.0
G1 Y52.0
G3 X1.0 Y50.0 I2.0 J0.0
G1 X5.0
G1 X5.2929 Y50.2929
G1 X5.0 Y50.0
G1 Y32.0
G1 X5.2929 Y31.7071
G1 X5.0 Y32.0
G1 X1.0
G3 X-1.0 Y30.0 I0.0 J-2.0
G1 Y16.7819
G3 X1.6957 Y14.9068 I2.0 J0.0
G2 X13.9068 Y2.6957 I3.3043 J-8.9068
G3 X15.7819 Y0.0 I1.8751 J-0.6957
G1 X184.2181
G3 X186.0932 Y2.6957 I0.0 J2.0
G2 X198.3043 Y14.9068 I8.9068 J3.3043
G3 X201.0 Y16.7819 I0.6957 J1.8751
G1 Y30.0
G3 X199.0 Y32.0 I-2.0 J0.0
G1 F200.0 Z-2.0
G1 F500.0 X195.0
G1 X194.7071 Y31.7071
G1 X195.0 Y32.0
G1 Y50.0
G1 X194.7071 Y50.2929
G1 X195.0 Y50.0
G1 X199.0
G3 X201.0 Y52.0 I0.0 J2.0
G1 Y88.0
G3 X199.0 Y90.0 I-2.0 J0.0
G1 X195.0
G1 X194.7071 Y89.7071
G1 X195.0 Y90.0
G1 Y108.0
G1 X194.7071 Y108.2929
G1 X195.0 Y108.0
G1 X199.0
G3 X201.0 Y110.0 I0.0 J2.0
G1 Y140.0
G3 X199.0 Y142.0 I-2.0 J0.0
G1 X161.0
G3 X159.0 Y140.0 I0.0 J-2.0
G1 Y136.0
G1 X159.2929 Y135.7071
G1 X159.0 Y136.0
G1 X141.0
G1 X140.7071 Y135.7071
G1 X141.0 Y136.0
G1 Y140.0
G3 X139.0 Y142.0 I-2.0 J0.0
G1 X61.0
G3 X59.0 Y140.0 I0.0 J-2.0
G1 Y136.0
G1 X59.2929 Y135.7071
G1 X59.0 Y136.0
G1 X41.0
G1 X40.7071 Y135.7071
G1 X41.0 Y136.0
G1 Y140.0
G3 X39.0 Y142.0 I-2.0 J0.0
G1 X1.0
G3 X-1.0 Y140.0 I0.0 J-2.0
G1 Y110.0
G3 X1.0 Y108.0 I2.0 J0.0
G1 X5.0
G1 X5.2929 Y108.2929
G1 X5.0 Y108.0
G1 Y90.0
G1 X5.2929 Y89.7071
G1 X5.0 Y90.0
G1 X1.0
G3 X-1.0 Y88.0 I0.0 J-2.0
G1 Y52.0
G3 X1.0 Y50.0 I2.0 J0.0
G1 X5.0
G1 X5.2929 Y50.2929
G1 X5.0 Y50.0
G1 Y32.0
G1 X5.2929 Y31.7071
G1 X5.0 Y32.0
G1 X1.0
G3 X-1.0 Y30.0 I0.0 J-2.0
G1 Y16.7819
G3 X1.6957 Y14.9068 I2.0 J0.0
G2 X13.9068 Y2.6957 I3.3043 J-8.9068
G3 X15.7819 Y0.0 I1.8751 J-0.6957
G1 X184.2181
G3 X186.0932 Y2.6957 I0.0 J2.0
G2 X198.3043 Y14.9068 I8.9068 J3.3043
G3 X201.0 Y16.7819 I0.6957 J1.8751
G1 Y30.0
G3 X199.0 Y32.0 I-2.0 J0.0
G1 F200.0 Z-3.0
G1 F500.0 X195.0
G1 X194.7071 Y31.7071
G1 X195.0 Y32.0
G1 Y50.0
G1 X194.7071 Y50.2929
G1 X195.0 Y50.0
G1 X199.0
G3 X201.0 Y52.0 I0.0 J2.0
G1 Y88.0
G3 X199.0 Y90.0 I-2.0 J0.0
G1 X195.0
G1 X194.7071 Y89.7071
G1 X195.0 Y90.0
G1 Y108.0
G1 X194.7071 Y108.2929
G1 X195.0 Y108.0
G1 X199.0
G3 X201.0 Y110.0 I0.0 J2.0
G1 Y140.0
G3 X199.0 Y142.0 I-2.0 J0.0
G1 X161.0
G3 X159.0 Y140.0 I0.0 J-2.0
G1 Y136.0
G1 X159.2929 Y135.7071
G1 X159.0 Y136.0
G1 X141.0
G1 X140.7071 Y135.7071
G1 X141.0 Y136.0
G1 Y140.0
G3 X139.0 Y142.0 I-2.0 J0.0
G1 X61.0
G3 X59.0 Y140.0 I0.0 J-2.0
G1 Y136.0
G1 X59.2929 Y135.7071
G1 X59.0 Y136.0
G1 X41.0
G1 X40.7071 Y135.7071
G1 X41.0 Y136.0
G1 Y140.0
G3 X39.0 Y142.0 I-2.0 J0.0
G1 X1.0
G3 X-1.0 Y140.0 I0.0 J-2.0
G1 Y110.0
G3 X1.0 Y108.0 I2.0 J0.0
G1 X5.0
G1 X5.2929 Y108.2929
G1 X5.0 Y108.0
G1 Y90.0
G1 X5.2929 Y89.7071
G1 X5.0 Y90.0
G1 X1.0
G3 X-1.0 Y88.0 I0.0 J-2.0
G1 Y52.0
G3 X1.0 Y50.0 I2.0 J0.0
G1 X5.0
G1 X5.2929 Y50.2929
G1 X5.0 Y50.0
G1 Y32.0
G1 X5.2929 Y31.7071
G1 X5.0 Y32.0
G1 X1.0
G3 X-1.0 Y30.0 I0.0 J-2.0
G1 Y16.7819
G3 X1.6957 Y14.9068 I2.0 J0.0
G2 X13.9068 Y2.6957 I3.3043 J-8.9068
G3 X15.7819 Y0.0 I1.8751 J-0.6957
G1 X184.2181
G3 X186.0932 Y2.6957 I0.0 J2.0
G2 X198.3043 Y14.9068 I8.9068 J3.3043
G3 X201.0 Y16.7819 I0.6957 J1.8751
G1 Y30.0
G3 X199.0 Y32.0 I-2.0 J0.0
G1 F200.0 Z-4.0
G1 F500.0 X195.0
G1 X194.7071 Y31.7071
G1 X195.0 Y32.0
G1 Y50.0
G1 X194.7071 Y50.2929
G1 X195.0 Y50.0
G1 X199.0
G3 X201.0 Y52.0 I0.0 J2.0
G1 Y88.0
G3 X199.0 Y90.0 I-2.0 J0.0
G1 X195.0
G1 X194.7071 Y89.7071
G1 X195.0 Y90.0
G1 Y108.0
G1 X194.7071 Y108.2929
G1 X195.0 Y108.0
G1 X199.0
G3 X201.0 Y110.0 I0.0 J2.0
G1 Y140.0
G3 X199.0 Y142.0 I-2.0 J0.0
G1 X161.0
G3 X159.0 Y140.0 I0.0 J-2.0
G1 Y136.0
G1 X159.2929 Y135.7071
G1 X159.0 Y136.0
G1 X141.0
G1 X140.7071 Y135.7071
G1 X141.0 Y136.0
G1 Y140.0
G3 X139.0 Y142.0 I-2.0 J0.0
G1 X61.0
G3 X59.0 Y140.0 I0.0 J-2.0
G1 Y136.0
G1 X59.2929 Y135.7071
G1 X59.0 Y136.0
G1 X41.0
G1 X40.7071 Y135.7071
G1 X41.0 Y136.0
G1 Y140.0
G3 X39.0 Y142.0 I-2.0 J0.0
G1 X1.0
G3 X-1.0 Y140.0 I0.0 J-2.0
G1 Y110.0
G3 X1.0 Y108.0 I2.0 J0.0
G1 X5.0
G1 X5.2929 Y108.2929
G1 X5.0 Y108.0
G1 Y90.0
G1 X5.2929 Y89.7071
G1 X5.0 Y90.0
G1 X1.0
G3 X-1.0 Y88.0 I0.0 J-2.0
G1 Y52.0
G3 X1.0 Y50.0 I2.0 J0.0
G1 X5.0
G1 X5.2929 Y50.2929
G1 X5.0 Y50.0
G1 Y32.0
G1 X5.2929 Y31.7071
G1 X5.0 Y32.0
G1 X1.0
G3 X-1.0 Y30.0 I0.0 J-2.0
G1 Y16.7819
G3 X1.6957 Y14.9068 I2.0 J0.0
G2 X13.9068 Y2.6957 I3.3043 J-8.9068
G3 X15.7819 Y0.0 I1.8751 J-0.6957
G1 X184.2181
G3 X186.0932 Y2.6957 I0.0 J2.0
G2 X198.3043 Y14.9068 I8.9068 J3.3043
G3 X201.0 Y16.7819 I0.6957 J1.8751
G1 Y30.0
G3 X199.0 Y32.0 I-2.0 J0.0
G1 F200.0 Z-5.0
G1 F500.0 X195.0
G1 X194.7071 Y31.7071
G1 X195.0 Y32.0
G1 Y50.0
G1 X194.7071 Y50.2929
G1 X195.0 Y50.0
G1 X199.0
G3 X201.0 Y52.0 I0.0 J2.0
G1 Y67.0
G0 Z-4.0
G1 Y71.0
G1 F200.0 Z-5.0
G1 F500.0 Y88.0
G3 X199.0 Y90.0 I-2.0 J0.0
G1 X195.0
G1 X194.7071 Y89.7071
G1 X195.0 Y90.0
G1 Y108.0
G1 X194.7071 Y108.2929
G1 X195.0 Y108.0
G1 X199.0
G3 X201.0 Y110.0 I0.0 J2.0
G1 Y140.0
G3 X199.0 Y142.0 I-2.0 J0.0
G1 X185.0
G0 Z-4.0
G1 X181.0
G1 F200.0 Z-5.0
G1 F500.0 X161.0
G3 X159.0 Y140.0 I0.0 J-2.0
G1 Y136.0
G1 X159.2929 Y135.7071
G1 X159.0 Y136.0
G1 X141.0
G1 X140.7071 Y135.7071
G1 X141.0 Y136.0
G1 Y140.0
G3 X139.0 Y142.0 I-2.0 J0.0
G1 X101.0
G0 Z-4.0
G1 X97.0
G1 F200.0 Z-5.0
G1 F500.0 X61.0
G3 X59.0 Y140.0 I0.0 J-2.0
G1 Y136.0
G1 X59.2929 Y135.7071
G1 X59.0 Y136.0
G1 X41.0
G1 X40.7071 Y135.7071
G1 X41.0 Y136.0
G1 Y140.0
G3 X39.0 Y142.0 I-2.0 J0.0
G1 X23.0
G0 Z-4.0
G1 X19.0
G1 F200.0 Z-5.0
G1 F500.0 X1.0
G3 X-1.0 Y140.0 I0.0 J-2.0
G1 Y110.0
G3 X1.0 Y108.0 I2.0 J0.0
G1 X5.0
G1 X5.2929 Y108.2929
G1 X5.0 Y108.0
G1 Y90.0
G1 X5.2929 Y89.7071
G1 X5.0 Y90.0
G1 X1.0
G3 X-1.0 Y88.0 I0.0 J-2.0
G1 Y71.0
G0 Z-4.0
G1 Y67.0
G1 F200.0 Z-5.0
G1 F500.0 Y52.0
G3 X1.0 Y50.0 I2.0 J0.0
G1 X5.0
G1 X5.2929 Y50.2929
G1 X5.0 Y50.0
G1 Y32.0
G1 X5.2929 Y31.7071
G1 X5.0 Y32.0
G1 X1.0
G3 X-1.0 Y30.0 I0.0 J-2.0
G1 Y16.7819
G3 X1.6957 Y14.9068 I2.0 J0.0
G2 X13.9068 Y2.6957 I3.3043 J-8.9068
G3 X15.7819 Y0.0 I1.8751 J-0.6957
G1 X24.0
G0 Z-4.0
G1 X28.0
G1 F200.0 Z-5.0
G1 F500.0 X88.0
G0 Z-4.0
G1 X92.0
G1 F200.0 Z-5.0
G1 F500.0 X176.0
G0 Z-4.0
G1 X180.0
G1 F200.0 Z-5.0
G1 F500.0 X184.2181
G3 X186.0932 Y2.6957 I0.0 J2.0
G2 X198.3043 Y14.9068 I8.9068 J3.3043
G3 X201.0 Y16.7819 I0.6957 J1.8751
G1 Y30.0
G3 X199.0 Y32.0 I-2.0 J0.0
G1 F200.0 Z-6.0
G1 F500.0 X195.0
G1 X194.7071 Y31.7071
G1 X195.0 Y32.0
G1 Y50.0
G1 X194.7071 Y50.2929
G1 X195.0 Y50.0
G1 X199.0
G3 X201.0 Y52.0 I0.0 J2.0
G1 Y67.0
G0 Z-4.0
G1 Y71.0
G1 F200.0 Z-6.0
G1 F500.0 Y88.0
G3 X199.0 Y90.0 I-2.0 J0.0
G1 X195.0
G1 X194.7071 Y89.7071
G1 X195.0 Y90.0
G1 Y108.0
G1 X194.7071 Y108.2929
G1 X195.0 Y108.0
G1 X199.0
G3 X201.0 Y110.0 I0.0 J2.0
G1 Y140.0
G3 X199.0 Y142.0 I-2.0 J0.0
G1 X185.0
G0 Z-4.0
G1 X181.0
G1 F200.0 Z-6.0
G1 F500.0 X161.0
G3 X159.0 Y140.0 I0.0 J-2.0
G1 Y136.0
G1 X159.2929 Y135.7071
G1 X159.0 Y136.0
G1 X141.0
G1 X140.7071 Y135.7071
G1 X141.0 Y136.0
G1 Y140.0
G3 X139.0 Y142.0 I-2.0 J0.0
G1 X101.0
G0 Z-4.0
G1 X97.0
G1 F200.0 Z-6.0
G1 F500.0 X61.0
G3 X59.0 Y140.0 I0.0 J-2.0
G1 Y136.0
G1 X59.2929 Y135.7071
G1 X59.0 Y136.0
G1 X41.0
G1 X40.7071 Y135.7071
G1 X41.0 Y136.0
G1 Y140.0
G3 X39.0 Y142.0 I-2.0 J0.0
G1 X23.0
G0 Z-4.0
G1 X19.0
G1 F200.0 Z-6.0
G1 F500.0 X1.0
G3 X-1.0 Y140.0 I0.0 J-2.0
G1 Y110.0
G3 X1.0 Y108.0 I2.0 J0.0
G1 X5.0
G1 X5.2929 Y108.2929
G1 X5.0 Y108.0
G1 Y90.0
G1 X5.2929 Y89.7071
G1 X5.0 Y90.0
G1 X1.0
G3 X-1.0 Y88.0 I0.0 J-2.0
G1 Y71.0
G0 Z-4.0
G1 Y67.0
G1 F200.0 Z-6.0
G1 F500.0 Y52.0
G3 X1.0 Y50.0 I2.0 J0.0
G1 X5.0
G1 X5.2929 Y50.2929
G1 X5.0 Y50.0
G1 Y32.0
G1 X5.2929 Y31.7071
G1 X5.0 Y32.0
G1 X1.0
G3 X-1.0 Y30.0 I0.0 J-2.0
G1 Y16.7819
G3 X1.6957 Y14.9068 I2.0 J0.0
G2 X13.9068 Y2.6957 I3.3043 J-8.9068
G3 X15.7819 Y0.0 I1.8751 J-0.6957
G1 X24.0
G0 Z-4.0
G1 X28.0
G1 F200.0 Z-6.0
G1 F500.0 X88.0
G0 Z-4.0
G1 X92.0
G1 F200.0 Z-6.0
G1 F500.0 X176.0
G0 Z-4.0
G1 X180.0
G1 F200.0 Z-6.0
G1 F500.0 X184.2181
G3 X186.0932 Y2.6957 I0.0 J2.0
G2 X198.3043 Y14.9068 I8.9068 J3.3043
G3 X201.0 Y16.7819 I0.6957 J1.8751
G1 Y30.0
G3 X199.0 Y32.0 I-2.0 J0.0
G0 Z3.0
M5
M30
