( Made using CamBam - http://www.cambam.co.uk )
( BaseBras 2/23/2017 8:55:22 PM )
( T0 : 1.5 )
G21 G90 G64 G40
G0 Z3.0
( T0 : 1.5 )
T0 M6
( Contour1 )
G17
M3 S1000
G0 X3.9657 Y9.5847
G1 F300.0 Z-1.0
G2 F800.0 X2.8407 Y8.9352 I-0.75 J0.0
G2 Y10.2342 I0.375 J0.6495
G2 X3.9657 Y9.5847 I0.375 J-0.6495
G1 F300.0 Z-2.0
G2 F800.0 X2.8407 Y8.9352 I-0.75 J0.0
G2 Y10.2342 I0.375 J0.6495
G2 X3.9657 Y9.5847 I0.375 J-0.6495
G1 F300.0 Z-3.0
G2 F800.0 X2.8407 Y8.9352 I-0.75 J0.0
G2 Y10.2342 I0.375 J0.6495
G2 X3.9657 Y9.5847 I0.375 J-0.6495
G1 F300.0 Z-4.0
G2 F800.0 X2.8407 Y8.9352 I-0.75 J0.0
G2 Y10.2342 I0.375 J0.6495
G2 X3.9657 Y9.5847 I0.375 J-0.6495
G1 F300.0 Z-5.0
G2 F800.0 X2.8407 Y8.9352 I-0.75 J0.0
G2 Y10.2342 I0.375 J0.6495
G2 X3.9657 Y9.5847 I0.375 J-0.6495
G1 F300.0 Z-6.0
G2 F800.0 X2.8407 Y8.9352 I-0.75 J0.0
G2 Y10.2342 I0.375 J0.6495
G2 X3.9657 Y9.5847 I0.375 J-0.6495
G0 Z3.0
G0 X10.9657
G1 F300.0 Z-1.0
G1 F800.0 Y11.8347
G1 X10.7461 Y12.0543
G1 X10.9657 Y11.8347
G1 X19.4657
G1 X19.6854 Y12.0543
G1 X19.4657 Y11.8347
G1 Y7.3347
G1 X19.6854 Y7.115
G1 X19.4657 Y7.3347
G1 X10.9657
G1 X10.7461 Y7.115
G1 X10.9657 Y7.3347
G1 Y9.5847
G1 F300.0 Z-2.0
G1 F800.0 Y11.8347
G1 X10.7461 Y12.0543
G1 X10.9657 Y11.8347
G1 X19.4657
G1 X19.6854 Y12.0543
G1 X19.4657 Y11.8347
G1 Y7.3347
G1 X19.6854 Y7.115
G1 X19.4657 Y7.3347
G1 X10.9657
G1 X10.7461 Y7.115
G1 X10.9657 Y7.3347
G1 Y9.5847
G1 F300.0 Z-3.0
G1 F800.0 Y11.8347
G1 X10.7461 Y12.0543
G1 X10.9657 Y11.8347
G1 X19.4657
G1 X19.6854 Y12.0543
G1 X19.4657 Y11.8347
G1 Y7.3347
G1 X19.6854 Y7.115
G1 X19.4657 Y7.3347
G1 X10.9657
G1 X10.7461 Y7.115
G1 X10.9657 Y7.3347
G1 Y9.5847
G1 F300.0 Z-4.0
G1 F800.0 Y11.8347
G1 X10.7461 Y12.0543
G1 X10.9657 Y11.8347
G1 X19.4657
G1 X19.6854 Y12.0543
G1 X19.4657 Y11.8347
G1 Y7.3347
G1 X19.6854 Y7.115
G1 X19.4657 Y7.3347
G1 X10.9657
G1 X10.7461 Y7.115
G1 X10.9657 Y7.3347
G1 Y9.5847
G1 F300.0 Z-5.0
G1 F800.0 Y11.8347
G1 X10.7461 Y12.0543
G1 X10.9657 Y11.8347
G1 X19.4657
G1 X19.6854 Y12.0543
G1 X19.4657 Y11.8347
G1 Y7.3347
G1 X19.6854 Y7.115
G1 X19.4657 Y7.3347
G1 X10.9657
G1 X10.7461 Y7.115
G1 X10.9657 Y7.3347
G1 Y9.5847
G1 F300.0 Z-6.0
G1 F800.0 Y11.8347
G1 X10.7461 Y12.0543
G1 X10.9657 Y11.8347
G1 X19.4657
G1 X19.6854 Y12.0543
G1 X19.4657 Y11.8347
G1 Y7.3347
G1 X19.6854 Y7.115
G1 X19.4657 Y7.3347
G1 X10.9657
G1 X10.7461 Y7.115
G1 X10.9657 Y7.3347
G1 Y9.5847
G0 Z3.0
G0 X26.4657
G1 F300.0 Z-1.0
G2 F800.0 X26.8407 Y10.2342 I0.75 J0.0
G2 X27.9657 Y9.5847 I0.375 J-0.6495
G2 X26.8407 Y8.9352 I-0.75 J0.0
G2 X26.4657 Y9.5847 I0.375 J0.6495
G1 F300.0 Z-2.0
G2 F800.0 X26.8407 Y10.2342 I0.75 J0.0
G2 X27.9657 Y9.5847 I0.375 J-0.6495
G2 X26.8407 Y8.9352 I-0.75 J0.0
G2 X26.4657 Y9.5847 I0.375 J0.6495
G1 F300.0 Z-3.0
G2 F800.0 X26.8407 Y10.2342 I0.75 J0.0
G2 X27.9657 Y9.5847 I0.375 J-0.6495
G2 X26.8407 Y8.9352 I-0.75 J0.0
G2 X26.4657 Y9.5847 I0.375 J0.6495
G1 F300.0 Z-4.0
G2 F800.0 X26.8407 Y10.2342 I0.75 J0.0
G2 X27.9657 Y9.5847 I0.375 J-0.6495
G2 X26.8407 Y8.9352 I-0.75 J0.0
G2 X26.4657 Y9.5847 I0.375 J0.6495
G1 F300.0 Z-5.0
G2 F800.0 X26.8407 Y10.2342 I0.75 J0.0
G2 X27.9657 Y9.5847 I0.375 J-0.6495
G2 X26.8407 Y8.9352 I-0.75 J0.0
G2 X26.4657 Y9.5847 I0.375 J0.6495
G1 F300.0 Z-6.0
G2 F800.0 X26.8407 Y10.2342 I0.75 J0.0
G2 X27.9657 Y9.5847 I0.375 J-0.6495
G2 X26.8407 Y8.9352 I-0.75 J0.0
G2 X26.4657 Y9.5847 I0.375 J0.6495
( Poche1 )
S1000
G0 Z3.0
G0 X3.6607
G1 F300.0 Z-1.0
G2 F800.0 X2.9932 Y9.1993 I-0.445 J0.0
G2 Y9.9701 I0.2225 J0.3854
G2 X3.6607 Y9.5847 I0.2225 J-0.3854
G1 F300.0 X4.2607
G2 F800.0 X2.6932 Y8.6797 I-1.045 J0.0
G2 Y10.4897 I0.5225 J0.905
G2 X4.2607 Y9.5847 I0.5225 J-0.905
G1 F300.0 X4.8607
G2 F800.0 X2.3932 Y8.1601 I-1.645 J0.0
G2 Y11.0093 I0.8225 J1.4246
G2 X4.8607 Y9.5847 I0.8225 J-1.4246
G1 F300.0 X5.4607
G2 F800.0 X2.0932 Y7.6405 I-2.245 J0.0
G2 Y11.5289 I1.1225 J1.9442
G2 X5.4607 Y9.5847 I1.1225 J-1.9442
G0 Z3.0
G0 X3.6607
G1 F300.0 Z-2.0
G2 F800.0 X2.9932 Y9.1993 I-0.445 J0.0
G2 Y9.9701 I0.2225 J0.3854
G2 X3.6607 Y9.5847 I0.2225 J-0.3854
G1 F300.0 X4.2607
G2 F800.0 X2.6932 Y8.6797 I-1.045 J0.0
G2 Y10.4897 I0.5225 J0.905
G2 X4.2607 Y9.5847 I0.5225 J-0.905
G1 F300.0 X4.8607
G2 F800.0 X2.3932 Y8.1601 I-1.645 J0.0
G2 Y11.0093 I0.8225 J1.4246
G2 X4.8607 Y9.5847 I0.8225 J-1.4246
G1 F300.0 X5.4607
G2 F800.0 X2.0932 Y7.6405 I-2.245 J0.0
G2 Y11.5289 I1.1225 J1.9442
G2 X5.4607 Y9.5847 I1.1225 J-1.9442
G0 Z3.0
G0 X3.6607
G1 F300.0 Z-3.0
G2 F800.0 X2.9932 Y9.1993 I-0.445 J0.0
G2 Y9.9701 I0.2225 J0.3854
G2 X3.6607 Y9.5847 I0.2225 J-0.3854
G1 F300.0 X4.2607
G2 F800.0 X2.6932 Y8.6797 I-1.045 J0.0
G2 Y10.4897 I0.5225 J0.905
G2 X4.2607 Y9.5847 I0.5225 J-0.905
G1 F300.0 X4.8607
G2 F800.0 X2.3932 Y8.1601 I-1.645 J0.0
G2 Y11.0093 I0.8225 J1.4246
G2 X4.8607 Y9.5847 I0.8225 J-1.4246
G1 F300.0 X5.4607
G2 F800.0 X2.0932 Y7.6405 I-2.245 J0.0
G2 Y11.5289 I1.1225 J1.9442
G2 X5.4607 Y9.5847 I1.1225 J-1.9442
G0 Z3.0
G0 X26.7707
G1 F300.0 Z-1.0
G2 F800.0 X26.9932 Y9.9701 I0.445 J0.0
G2 X27.6607 Y9.5847 I0.2225 J-0.3854
G2 X26.9932 Y9.1993 I-0.445 J0.0
G2 X26.7707 Y9.5847 I0.2225 J0.3854
G1 F300.0 X26.1707
G2 F800.0 X26.6932 Y10.4897 I1.045 J0.0
G2 X28.2607 Y9.5847 I0.5225 J-0.905
G2 X26.6932 Y8.6797 I-1.045 J0.0
G2 X26.1707 Y9.5847 I0.5225 J0.905
G1 F300.0 X25.5707
G2 F800.0 X26.3932 Y11.0093 I1.645 J0.0
G2 X28.8607 Y9.5847 I0.8225 J-1.4246
G2 X26.3932 Y8.1601 I-1.645 J0.0
G2 X25.5707 Y9.5847 I0.8225 J1.4246
G1 F300.0 X24.9707
G2 F800.0 X26.0932 Y11.5289 I2.245 J0.0
G2 X29.4607 Y9.5847 I1.1225 J-1.9442
G2 X26.0932 Y7.6405 I-2.245 J0.0
G2 X24.9707 Y9.5847 I1.1225 J1.9442
G0 Z3.0
G0 X26.7707
G1 F300.0 Z-2.0
G2 F800.0 X26.9932 Y9.9701 I0.445 J0.0
G2 X27.6607 Y9.5847 I0.2225 J-0.3854
G2 X26.9932 Y9.1993 I-0.445 J0.0
G2 X26.7707 Y9.5847 I0.2225 J0.3854
G1 F300.0 X26.1707
G2 F800.0 X26.6932 Y10.4897 I1.045 J0.0
G2 X28.2607 Y9.5847 I0.5225 J-0.905
G2 X26.6932 Y8.6797 I-1.045 J0.0
G2 X26.1707 Y9.5847 I0.5225 J0.905
G1 F300.0 X25.5707
G2 F800.0 X26.3932 Y11.0093 I1.645 J0.0
G2 X28.8607 Y9.5847 I0.8225 J-1.4246
G2 X26.3932 Y8.1601 I-1.645 J0.0
G2 X25.5707 Y9.5847 I0.8225 J1.4246
G1 F300.0 X24.9707
G2 F800.0 X26.0932 Y11.5289 I2.245 J0.0
G2 X29.4607 Y9.5847 I1.1225 J-1.9442
G2 X26.0932 Y7.6405 I-2.245 J0.0
G2 X24.9707 Y9.5847 I1.1225 J1.9442
G0 Z3.0
G0 X26.7707
G1 F300.0 Z-3.0
G2 F800.0 X26.9932 Y9.9701 I0.445 J0.0
G2 X27.6607 Y9.5847 I0.2225 J-0.3854
G2 X26.9932 Y9.1993 I-0.445 J0.0
G2 X26.7707 Y9.5847 I0.2225 J0.3854
G1 F300.0 X26.1707
G2 F800.0 X26.6932 Y10.4897 I1.045 J0.0
G2 X28.2607 Y9.5847 I0.5225 J-0.905
G2 X26.6932 Y8.6797 I-1.045 J0.0
G2 X26.1707 Y9.5847 I0.5225 J0.905
G1 F300.0 X25.5707
G2 F800.0 X26.3932 Y11.0093 I1.645 J0.0
G2 X28.8607 Y9.5847 I0.8225 J-1.4246
G2 X26.3932 Y8.1601 I-1.645 J0.0
G2 X25.5707 Y9.5847 I0.8225 J1.4246
G1 F300.0 X24.9707
G2 F800.0 X26.0932 Y11.5289 I2.245 J0.0
G2 X29.4607 Y9.5847 I1.1225 J-1.9442
G2 X26.0932 Y7.6405 I-2.245 J0.0
G2 X24.9707 Y9.5847 I1.1225 J1.9442
( Contour2 )
S1000
G0 Z3.0
G0 X0.2157 Y-0.1653
G1 F300.0 Z-1.0
G1 F800.0 X30.2157
G3 X30.9657 Y0.5847 I0.0 J0.75
G1 Y18.5847
G3 X30.2157 Y19.3347 I-0.75 J0.0
G1 X0.2157
G3 X-0.5343 Y18.5847 I0.0 J-0.75
G1 Y0.5847
G3 X0.2157 Y-0.1653 I0.75 J0.0
G1 F300.0 Z-2.0
G1 F800.0 X30.2157
G3 X30.9657 Y0.5847 I0.0 J0.75
G1 Y18.5847
G3 X30.2157 Y19.3347 I-0.75 J0.0
G1 X0.2157
G3 X-0.5343 Y18.5847 I0.0 J-0.75
G1 Y0.5847
G3 X0.2157 Y-0.1653 I0.75 J0.0
G1 F300.0 Z-3.0
G1 F800.0 X30.2157
G3 X30.9657 Y0.5847 I0.0 J0.75
G1 Y18.5847
G3 X30.2157 Y19.3347 I-0.75 J0.0
G1 X0.2157
G3 X-0.5343 Y18.5847 I0.0 J-0.75
G1 Y0.5847
G3 X0.2157 Y-0.1653 I0.75 J0.0
G1 F300.0 Z-4.0
G1 F800.0 X30.2157
G3 X30.9657 Y0.5847 I0.0 J0.75
G1 Y18.5847
G3 X30.2157 Y19.3347 I-0.75 J0.0
G1 X0.2157
G3 X-0.5343 Y18.5847 I0.0 J-0.75
G1 Y0.5847
G3 X0.2157 Y-0.1653 I0.75 J0.0
G1 F300.0 Z-5.0
G1 F800.0 X13.25
G0 Z-4.0
G1 X16.75
G1 F300.0 Z-5.0
G1 F800.0 X30.2157
G3 X30.9657 Y0.5847 I0.0 J0.75
G1 Y18.5847
G3 X30.2157 Y19.3347 I-0.75 J0.0
G1 X16.75
G0 Z-4.0
G1 X13.25
G1 F300.0 Z-5.0
G1 F800.0 X0.2157
G3 X-0.5343 Y18.5847 I0.0 J-0.75
G1 Y0.5847
G3 X0.2157 Y-0.1653 I0.75 J0.0
G1 F300.0 Z-6.0
G1 F800.0 X13.25
G0 Z-4.0
G1 X16.75
G1 F300.0 Z-6.0
G1 F800.0 X30.2157
G3 X30.9657 Y0.5847 I0.0 J0.75
G1 Y18.5847
G3 X30.2157 Y19.3347 I-0.75 J0.0
G1 X16.75
G0 Z-4.0
G1 X13.25
G1 F300.0 Z-6.0
G1 F800.0 X0.2157
G3 X-0.5343 Y18.5847 I0.0 J-0.75
G1 Y0.5847
G3 X0.2157 Y-0.1653 I0.75 J0.0
G0 Z3.0
M5
M30
