( Made using CamBam - http://www.cambam.co.uk )
( CorpsBras 2/23/2017 8:19:09 PM )
( T0 : 1.5 )
G21 G90 G64 G40
G0 Z3.0
( T0 : 1.5 )
T0 M6
( Contour1 )
G17
M3 S1000
G0 X42.1829 Y35.5667
G1 F300.0 Z-1.0
G2 F800.0 X40.9079 Y34.8306 I-0.85 J0.0
G2 Y36.3028 I0.425 J0.7361
G2 X42.1829 Y35.5667 I0.425 J-0.7361
G1 F300.0 Z-2.0
G2 F800.0 X40.9079 Y34.8306 I-0.85 J0.0
G2 Y36.3028 I0.425 J0.7361
G2 X42.1829 Y35.5667 I0.425 J-0.7361
G1 F300.0 Z-3.0
G2 F800.0 X40.9079 Y34.8306 I-0.85 J0.0
G2 Y36.3028 I0.425 J0.7361
G2 X42.1829 Y35.5667 I0.425 J-0.7361
G1 F300.0 Z-4.0
G2 F800.0 X40.9079 Y34.8306 I-0.85 J0.0
G2 Y36.3028 I0.425 J0.7361
G2 X42.1829 Y35.5667 I0.425 J-0.7361
G1 F300.0 Z-5.0
G2 F800.0 X40.9079 Y34.8306 I-0.85 J0.0
G2 Y36.3028 I0.425 J0.7361
G2 X42.1829 Y35.5667 I0.425 J-0.7361
G1 F300.0 Z-6.0
G2 F800.0 X40.9079 Y34.8306 I-0.85 J0.0
G2 Y36.3028 I0.425 J0.7361
G2 X42.1829 Y35.5667 I0.425 J-0.7361
G0 Z3.0
G0 X41.3643 Y13.4161
G1 F300.0 Z-1.0
G2 F800.0 X42.1829 Y12.5667 I-0.0314 J-0.8494
G2 X40.9079 Y11.8306 I-0.85 J0.0
G2 Y13.3028 I0.425 J0.7361
G2 X41.3643 Y13.4161 I0.425 J-0.7361
G1 F300.0 Z-2.0
G2 F800.0 X42.1829 Y12.5667 I-0.0314 J-0.8494
G2 X40.9079 Y11.8306 I-0.85 J0.0
G2 Y13.3028 I0.425 J0.7361
G2 X41.3643 Y13.4161 I0.425 J-0.7361
G1 F300.0 Z-3.0
G2 F800.0 X42.1829 Y12.5667 I-0.0314 J-0.8494
G2 X40.9079 Y11.8306 I-0.85 J0.0
G2 Y13.3028 I0.425 J0.7361
G2 X41.3643 Y13.4161 I0.425 J-0.7361
G1 F300.0 Z-4.0
G2 F800.0 X42.1829 Y12.5667 I-0.0314 J-0.8494
G2 X40.9079 Y11.8306 I-0.85 J0.0
G2 Y13.3028 I0.425 J0.7361
G2 X41.3643 Y13.4161 I0.425 J-0.7361
G1 F300.0 Z-5.0
G2 F800.0 X42.1829 Y12.5667 I-0.0314 J-0.8494
G2 X40.9079 Y11.8306 I-0.85 J0.0
G2 Y13.3028 I0.425 J0.7361
G2 X41.3643 Y13.4161 I0.425 J-0.7361
G1 F300.0 Z-6.0
G2 F800.0 X42.1829 Y12.5667 I-0.0314 J-0.8494
G2 X40.9079 Y11.8306 I-0.85 J0.0
G2 Y13.3028 I0.425 J0.7361
G2 X41.3643 Y13.4161 I0.425 J-0.7361
( Contour2 )
S1000
G0 Z3.0
G0 X0.7329 Y18.3167
G1 F300.0 Z-1.0
G1 F800.0 X5.9829
G1 X6.2026 Y18.5364
G1 X5.9829 Y18.3167
G1 Y9.0667
G3 X6.7329 Y8.3167 I0.75 J0.0
G1 X20.5309
G2 X27.9309 Y4.6167 I0.0 J-9.25
G3 X36.5309 Y0.3167 I8.6 J6.45
G1 X56.7329
G3 X57.4829 Y1.0667 I0.0 J0.75
G1 Y19.3167
G1 X57.2633 Y19.5364
G1 X57.4829 Y19.3167
G1 X62.7329
G3 X63.4829 Y20.0667 I0.0 J0.75
G1 Y28.0667
G3 X62.7329 Y28.8167 I-0.75 J0.0
G1 X57.4829
G1 X57.2633 Y28.597
G1 X57.4829 Y28.8167
G1 Y47.0667
G3 X56.7329 Y47.8167 I-0.75 J0.0
G1 X36.5309
G3 X27.9309 Y43.5167 I0.0 J-10.75
G2 X20.5309 Y39.8167 I-7.4 J5.55
G1 X6.7329
G3 X5.9829 Y39.0667 I0.0 J-0.75
G1 Y29.8167
G1 X6.2026 Y29.597
G1 X5.9829 Y29.8167
G1 X0.7329
G3 X-0.0171 Y29.0667 I0.0 J-0.75
G1 Y19.0667
G3 X0.7329 Y18.3167 I0.75 J0.0
G1 F300.0 Z-2.0
G1 F800.0 X5.9829
G1 X6.2026 Y18.5364
G1 X5.9829 Y18.3167
G1 Y9.0667
G3 X6.7329 Y8.3167 I0.75 J0.0
G1 X20.5309
G2 X27.9309 Y4.6167 I0.0 J-9.25
G3 X36.5309 Y0.3167 I8.6 J6.45
G1 X56.7329
G3 X57.4829 Y1.0667 I0.0 J0.75
G1 Y19.3167
G1 X57.2633 Y19.5364
G1 X57.4829 Y19.3167
G1 X62.7329
G3 X63.4829 Y20.0667 I0.0 J0.75
G1 Y28.0667
G3 X62.7329 Y28.8167 I-0.75 J0.0
G1 X57.4829
G1 X57.2633 Y28.597
G1 X57.4829 Y28.8167
G1 Y47.0667
G3 X56.7329 Y47.8167 I-0.75 J0.0
G1 X36.5309
G3 X27.9309 Y43.5167 I0.0 J-10.75
G2 X20.5309 Y39.8167 I-7.4 J5.55
G1 X6.7329
G3 X5.9829 Y39.0667 I0.0 J-0.75
G1 Y29.8167
G1 X6.2026 Y29.597
G1 X5.9829 Y29.8167
G1 X0.7329
G3 X-0.0171 Y29.0667 I0.0 J-0.75
G1 Y19.0667
G3 X0.7329 Y18.3167 I0.75 J0.0
G1 F300.0 Z-3.0
G1 F800.0 X5.9829
G1 X6.2026 Y18.5364
G1 X5.9829 Y18.3167
G1 Y9.0667
G3 X6.7329 Y8.3167 I0.75 J0.0
G1 X20.5309
G2 X27.9309 Y4.6167 I0.0 J-9.25
G3 X36.5309 Y0.3167 I8.6 J6.45
G1 X56.7329
G3 X57.4829 Y1.0667 I0.0 J0.75
G1 Y19.3167
G1 X57.2633 Y19.5364
G1 X57.4829 Y19.3167
G1 X62.7329
G3 X63.4829 Y20.0667 I0.0 J0.75
G1 Y28.0667
G3 X62.7329 Y28.8167 I-0.75 J0.0
G1 X57.4829
G1 X57.2633 Y28.597
G1 X57.4829 Y28.8167
G1 Y47.0667
G3 X56.7329 Y47.8167 I-0.75 J0.0
G1 X36.5309
G3 X27.9309 Y43.5167 I0.0 J-10.75
G2 X20.5309 Y39.8167 I-7.4 J5.55
G1 X6.7329
G3 X5.9829 Y39.0667 I0.0 J-0.75
G1 Y29.8167
G1 X6.2026 Y29.597
G1 X5.9829 Y29.8167
G1 X0.7329
G3 X-0.0171 Y29.0667 I0.0 J-0.75
G1 Y19.0667
G3 X0.7329 Y18.3167 I0.75 J0.0
G1 F300.0 Z-4.0
G1 F800.0 X5.9829
G1 X6.2026 Y18.5364
G1 X5.9829 Y18.3167
G1 Y9.0667
G3 X6.7329 Y8.3167 I0.75 J0.0
G1 X20.5309
G2 X27.9309 Y4.6167 I0.0 J-9.25
G3 X36.5309 Y0.3167 I8.6 J6.45
G1 X56.7329
G3 X57.4829 Y1.0667 I0.0 J0.75
G1 Y19.3167
G1 X57.2633 Y19.5364
G1 X57.4829 Y19.3167
G1 X62.7329
G3 X63.4829 Y20.0667 I0.0 J0.75
G1 Y28.0667
G3 X62.7329 Y28.8167 I-0.75 J0.0
G1 X57.4829
G1 X57.2633 Y28.597
G1 X57.4829 Y28.8167
G1 Y47.0667
G3 X56.7329 Y47.8167 I-0.75 J0.0
G1 X36.5309
G3 X27.9309 Y43.5167 I0.0 J-10.75
G2 X20.5309 Y39.8167 I-7.4 J5.55
G1 X6.7329
G3 X5.9829 Y39.0667 I0.0 J-0.75
G1 Y29.8167
G1 X6.2026 Y29.597
G1 X5.9829 Y29.8167
G1 X0.7329
G3 X-0.0171 Y29.0667 I0.0 J-0.75
G1 Y19.0667
G3 X0.7329 Y18.3167 I0.75 J0.0
G1 F300.0 Z-5.0
G1 F800.0 X5.9829
G1 X6.2026 Y18.5364
G1 X5.9829 Y18.3167
G1 Y9.0667
G3 X6.7329 Y8.3167 I0.75 J0.0
G1 X11.25
G0 Z-4.0
G1 X14.75
G1 F300.0 Z-5.0
G1 F800.0 X20.5309
G2 X27.9309 Y4.6167 I0.0 J-9.25
G3 X36.5309 Y0.3167 I8.6 J6.45
G1 X56.7329
G3 X57.4829 Y1.0667 I0.0 J0.75
G1 Y5.25
G0 Z-4.0
G1 Y8.75
G1 F300.0 Z-5.0
G1 F800.0 Y19.3167
G1 X57.2633 Y19.5364
G1 X57.4829 Y19.3167
G1 X62.7329
G3 X63.4829 Y20.0667 I0.0 J0.75
G1 Y28.0667
G3 X62.7329 Y28.8167 I-0.75 J0.0
G1 X57.4829
G1 X57.2633 Y28.597
G1 X57.4829 Y28.8167
G1 Y40.25
G0 Z-4.0
G1 Y43.75
G1 F300.0 Z-5.0
G1 F800.0 Y47.0667
G3 X56.7329 Y47.8167 I-0.75 J0.0
G1 X36.5309
G3 X27.9309 Y43.5167 I0.0 J-10.75
G2 X20.5309 Y39.8167 I-7.4 J5.55
G1 X14.75
G0 Z-4.0
G1 X11.25
G1 F300.0 Z-5.0
G1 F800.0 X6.7329
G3 X5.9829 Y39.0667 I0.0 J-0.75
G1 Y29.8167
G1 X6.2026 Y29.597
G1 X5.9829 Y29.8167
G1 X0.7329
G3 X-0.0171 Y29.0667 I0.0 J-0.75
G1 Y19.0667
G3 X0.7329 Y18.3167 I0.75 J0.0
G1 F300.0 Z-6.0
G1 F800.0 X5.9829
G1 X6.2026 Y18.5364
G1 X5.9829 Y18.3167
G1 Y9.0667
G3 X6.7329 Y8.3167 I0.75 J0.0
G1 X11.25
G0 Z-4.0
G1 X14.75
G1 F300.0 Z-6.0
G1 F800.0 X20.5309
G2 X27.9309 Y4.6167 I0.0 J-9.25
G3 X36.5309 Y0.3167 I8.6 J6.45
G1 X56.7329
G3 X57.4829 Y1.0667 I0.0 J0.75
G1 Y5.25
G0 Z-4.0
G1 Y8.75
G1 F300.0 Z-6.0
G1 F800.0 Y19.3167
G1 X57.2633 Y19.5364
G1 X57.4829 Y19.3167
G1 X62.7329
G3 X63.4829 Y20.0667 I0.0 J0.75
G1 Y28.0667
G3 X62.7329 Y28.8167 I-0.75 J0.0
G1 X57.4829
G1 X57.2633 Y28.597
G1 X57.4829 Y28.8167
G1 Y40.25
G0 Z-4.0
G1 Y43.75
G1 F300.0 Z-6.0
G1 F800.0 Y47.0667
G3 X56.7329 Y47.8167 I-0.75 J0.0
G1 X36.5309
G3 X27.9309 Y43.5167 I0.0 J-10.75
G2 X20.5309 Y39.8167 I-7.4 J5.55
G1 X14.75
G0 Z-4.0
G1 X11.25
G1 F300.0 Z-6.0
G1 F800.0 X6.7329
G3 X5.9829 Y39.0667 I0.0 J-0.75
G1 Y29.8167
G1 X6.2026 Y29.597
G1 X5.9829 Y29.8167
G1 X0.7329
G3 X-0.0171 Y29.0667 I0.0 J-0.75
G1 Y19.0667
G3 X0.7329 Y18.3167 I0.75 J0.0
G0 Z3.0
M5
M30
