( Made using CamBam - http://www.cambam.co.uk )
( Etage1 3/9/2017 7:12:47 PM )
( T0 : 2.0 )
G21 G90 G64 G40
G0 Z3.0
( T0 : 2.0 )
T0 M6
( Contour1 )
G17
M3 S1000
G0 X83.0 Y39.0
G1 F300.0 Z-1.0
G1 F800.0 X75.0
G1 X74.7071 Y38.7071
G1 X75.0 Y39.0
G1 Y43.0
G1 X74.7071 Y43.2929
G1 X75.0 Y43.0
G1 X83.0
G1 X83.2929 Y43.2929
G1 X83.0 Y43.0
G1 Y39.0
G1 X83.2929 Y38.7071
G1 X83.0 Y39.0
G1 F300.0 Z-2.0
G1 F800.0 X75.0
G1 X74.7071 Y38.7071
G1 X75.0 Y39.0
G1 Y43.0
G1 X74.7071 Y43.2929
G1 X75.0 Y43.0
G1 X83.0
G1 X83.2929 Y43.2929
G1 X83.0 Y43.0
G1 Y39.0
G1 X83.2929 Y38.7071
G1 X83.0 Y39.0
G1 F300.0 Z-3.0
G1 F800.0 X75.0
G1 X74.7071 Y38.7071
G1 X75.0 Y39.0
G1 Y43.0
G1 X74.7071 Y43.2929
G1 X75.0 Y43.0
G1 X83.0
G1 X83.2929 Y43.2929
G1 X83.0 Y43.0
G1 Y39.0
G1 X83.2929 Y38.7071
G1 X83.0 Y39.0
G1 F300.0 Z-4.0
G1 F800.0 X75.0
G1 X74.7071 Y38.7071
G1 X75.0 Y39.0
G1 Y43.0
G1 X74.7071 Y43.2929
G1 X75.0 Y43.0
G1 X83.0
G1 X83.2929 Y43.2929
G1 X83.0 Y43.0
G1 Y39.0
G1 X83.2929 Y38.7071
G1 X83.0 Y39.0
G1 F300.0 Z-5.0
G1 F800.0 X75.0
G1 X74.7071 Y38.7071
G1 X75.0 Y39.0
G1 Y43.0
G1 X74.7071 Y43.2929
G1 X75.0 Y43.0
G1 X83.0
G1 X83.2929 Y43.2929
G1 X83.0 Y43.0
G1 Y39.0
G1 X83.2929 Y38.7071
G1 X83.0 Y39.0
G1 F300.0 Z-6.0
G1 F800.0 X75.0
G1 X74.7071 Y38.7071
G1 X75.0 Y39.0
G1 Y43.0
G1 X74.7071 Y43.2929
G1 X75.0 Y43.0
G1 X83.0
G1 X83.2929 Y43.2929
G1 X83.0 Y43.0
G1 Y39.0
G1 X83.2929 Y38.7071
G1 X83.0 Y39.0
G0 Z3.0
G0 X63.2929 Y27.2929
G1 F300.0 Z-1.0
G1 F800.0 X63.0 Y27.0
G1 Y19.0
G1 X63.2929 Y18.7071
G1 X63.0 Y19.0
G1 X62.0
G1 X61.7071 Y18.7071
G1 X62.0 Y19.0
G1 Y27.0
G1 X61.7071 Y27.2929
G1 X62.0 Y27.0
G1 X63.0
G1 X63.2929 Y27.2929
G1 F300.0 Z-2.0
G1 F800.0 X63.0 Y27.0
G1 Y19.0
G1 X63.2929 Y18.7071
G1 X63.0 Y19.0
G1 X62.0
G1 X61.7071 Y18.7071
G1 X62.0 Y19.0
G1 Y27.0
G1 X61.7071 Y27.2929
G1 X62.0 Y27.0
G1 X63.0
G1 X63.2929 Y27.2929
G1 F300.0 Z-3.0
G1 F800.0 X63.0 Y27.0
G1 Y19.0
G1 X63.2929 Y18.7071
G1 X63.0 Y19.0
G1 X62.0
G1 X61.7071 Y18.7071
G1 X62.0 Y19.0
G1 Y27.0
G1 X61.7071 Y27.2929
G1 X62.0 Y27.0
G1 X63.0
G1 X63.2929 Y27.2929
G1 F300.0 Z-4.0
G1 F800.0 X63.0 Y27.0
G1 Y19.0
G1 X63.2929 Y18.7071
G1 X63.0 Y19.0
G1 X62.0
G1 X61.7071 Y18.7071
G1 X62.0 Y19.0
G1 Y27.0
G1 X61.7071 Y27.2929
G1 X62.0 Y27.0
G1 X63.0
G1 X63.2929 Y27.2929
G1 F300.0 Z-5.0
G1 F800.0 X63.0 Y27.0
G1 Y19.0
G1 X63.2929 Y18.7071
G1 X63.0 Y19.0
G1 X62.0
G1 X61.7071 Y18.7071
G1 X62.0 Y19.0
G1 Y27.0
G1 X61.7071 Y27.2929
G1 X62.0 Y27.0
G1 X63.0
G1 X63.2929 Y27.2929
G1 F300.0 Z-6.0
G1 F800.0 X63.0 Y27.0
G1 Y19.0
G1 X63.2929 Y18.7071
G1 X63.0 Y19.0
G1 X62.0
G1 X61.7071 Y18.7071
G1 X62.0 Y19.0
G1 Y27.0
G1 X61.7071 Y27.2929
G1 X62.0 Y27.0
G1 X63.0
G1 X63.2929 Y27.2929
G0 Z3.0
G0 Y-18.7071
G1 F300.0 Z-1.0
G1 F800.0 X63.0 Y-19.0
G1 Y-27.0
G1 X63.2929 Y-27.2929
G1 X63.0 Y-27.0
G1 X62.0
G1 X61.7071 Y-27.2929
G1 X62.0 Y-27.0
G1 Y-19.0
G1 X61.7071 Y-18.7071
G1 X62.0 Y-19.0
G1 X63.0
G1 X63.2929 Y-18.7071
G1 F300.0 Z-2.0
G1 F800.0 X63.0 Y-19.0
G1 Y-27.0
G1 X63.2929 Y-27.2929
G1 X63.0 Y-27.0
G1 X62.0
G1 X61.7071 Y-27.2929
G1 X62.0 Y-27.0
G1 Y-19.0
G1 X61.7071 Y-18.7071
G1 X62.0 Y-19.0
G1 X63.0
G1 X63.2929 Y-18.7071
G1 F300.0 Z-3.0
G1 F800.0 X63.0 Y-19.0
G1 Y-27.0
G1 X63.2929 Y-27.2929
G1 X63.0 Y-27.0
G1 X62.0
G1 X61.7071 Y-27.2929
G1 X62.0 Y-27.0
G1 Y-19.0
G1 X61.7071 Y-18.7071
G1 X62.0 Y-19.0
G1 X63.0
G1 X63.2929 Y-18.7071
G1 F300.0 Z-4.0
G1 F800.0 X63.0 Y-19.0
G1 Y-27.0
G1 X63.2929 Y-27.2929
G1 X63.0 Y-27.0
G1 X62.0
G1 X61.7071 Y-27.2929
G1 X62.0 Y-27.0
G1 Y-19.0
G1 X61.7071 Y-18.7071
G1 X62.0 Y-19.0
G1 X63.0
G1 X63.2929 Y-18.7071
G1 F300.0 Z-5.0
G1 F800.0 X63.0 Y-19.0
G1 Y-27.0
G1 X63.2929 Y-27.2929
G1 X63.0 Y-27.0
G1 X62.0
G1 X61.7071 Y-27.2929
G1 X62.0 Y-27.0
G1 Y-19.0
G1 X61.7071 Y-18.7071
G1 X62.0 Y-19.0
G1 X63.0
G1 X63.2929 Y-18.7071
G1 F300.0 Z-6.0
G1 F800.0 X63.0 Y-19.0
G1 Y-27.0
G1 X63.2929 Y-27.2929
G1 X63.0 Y-27.0
G1 X62.0
G1 X61.7071 Y-27.2929
G1 X62.0 Y-27.0
G1 Y-19.0
G1 X61.7071 Y-18.7071
G1 X62.0 Y-19.0
G1 X63.0
G1 X63.2929 Y-18.7071
G0 Z3.0
G0 X74.7071 Y-38.7071
G1 F300.0 Z-1.0
G1 F800.0 X75.0 Y-39.0
G1 X83.0
G1 X83.2929 Y-38.7071
G1 X83.0 Y-39.0
G1 Y-43.0
G1 X83.2929 Y-43.2929
G1 X83.0 Y-43.0
G1 X75.0
G1 X74.7071 Y-43.2929
G1 X75.0 Y-43.0
G1 Y-39.0
G1 X74.7071 Y-38.7071
G1 F300.0 Z-2.0
G1 F800.0 X75.0 Y-39.0
G1 X83.0
G1 X83.2929 Y-38.7071
G1 X83.0 Y-39.0
G1 Y-43.0
G1 X83.2929 Y-43.2929
G1 X83.0 Y-43.0
G1 X75.0
G1 X74.7071 Y-43.2929
G1 X75.0 Y-43.0
G1 Y-39.0
G1 X74.7071 Y-38.7071
G1 F300.0 Z-3.0
G1 F800.0 X75.0 Y-39.0
G1 X83.0
G1 X83.2929 Y-38.7071
G1 X83.0 Y-39.0
G1 Y-43.0
G1 X83.2929 Y-43.2929
G1 X83.0 Y-43.0
G1 X75.0
G1 X74.7071 Y-43.2929
G1 X75.0 Y-43.0
G1 Y-39.0
G1 X74.7071 Y-38.7071
G1 F300.0 Z-4.0
G1 F800.0 X75.0 Y-39.0
G1 X83.0
G1 X83.2929 Y-38.7071
G1 X83.0 Y-39.0
G1 Y-43.0
G1 X83.2929 Y-43.2929
G1 X83.0 Y-43.0
G1 X75.0
G1 X74.7071 Y-43.2929
G1 X75.0 Y-43.0
G1 Y-39.0
G1 X74.7071 Y-38.7071
G1 F300.0 Z-5.0
G1 F800.0 X75.0 Y-39.0
G1 X83.0
G1 X83.2929 Y-38.7071
G1 X83.0 Y-39.0
G1 Y-43.0
G1 X83.2929 Y-43.2929
G1 X83.0 Y-43.0
G1 X75.0
G1 X74.7071 Y-43.2929
G1 X75.0 Y-43.0
G1 Y-39.0
G1 X74.7071 Y-38.7071
G1 F300.0 Z-6.0
G1 F800.0 X75.0 Y-39.0
G1 X83.0
G1 X83.2929 Y-38.7071
G1 X83.0 Y-39.0
G1 Y-43.0
G1 X83.2929 Y-43.2929
G1 X83.0 Y-43.0
G1 X75.0
G1 X74.7071 Y-43.2929
G1 X75.0 Y-43.0
G1 Y-39.0
G1 X74.7071 Y-38.7071
G0 Z3.0
G0 X15.2929 Y-27.2929
G1 F300.0 Z-1.0
G1 F800.0 X15.0 Y-27.0
G1 X14.0
G1 X13.7071 Y-27.2929
G1 X14.0 Y-27.0
G1 Y-19.0
G1 X13.7071 Y-18.7071
G1 X14.0 Y-19.0
G1 X15.0
G1 X15.2929 Y-18.7071
G1 X15.0 Y-19.0
G1 Y-27.0
G1 X15.2929 Y-27.2929
G1 F300.0 Z-2.0
G1 F800.0 X15.0 Y-27.0
G1 X14.0
G1 X13.7071 Y-27.2929
G1 X14.0 Y-27.0
G1 Y-19.0
G1 X13.7071 Y-18.7071
G1 X14.0 Y-19.0
G1 X15.0
G1 X15.2929 Y-18.7071
G1 X15.0 Y-19.0
G1 Y-27.0
G1 X15.2929 Y-27.2929
G1 F300.0 Z-3.0
G1 F800.0 X15.0 Y-27.0
G1 X14.0
G1 X13.7071 Y-27.2929
G1 X14.0 Y-27.0
G1 Y-19.0
G1 X13.7071 Y-18.7071
G1 X14.0 Y-19.0
G1 X15.0
G1 X15.2929 Y-18.7071
G1 X15.0 Y-19.0
G1 Y-27.0
G1 X15.2929 Y-27.2929
G1 F300.0 Z-4.0
G1 F800.0 X15.0 Y-27.0
G1 X14.0
G1 X13.7071 Y-27.2929
G1 X14.0 Y-27.0
G1 Y-19.0
G1 X13.7071 Y-18.7071
G1 X14.0 Y-19.0
G1 X15.0
G1 X15.2929 Y-18.7071
G1 X15.0 Y-19.0
G1 Y-27.0
G1 X15.2929 Y-27.2929
G1 F300.0 Z-5.0
G1 F800.0 X15.0 Y-27.0
G1 X14.0
G1 X13.7071 Y-27.2929
G1 X14.0 Y-27.0
G1 Y-19.0
G1 X13.7071 Y-18.7071
G1 X14.0 Y-19.0
G1 X15.0
G1 X15.2929 Y-18.7071
G1 X15.0 Y-19.0
G1 Y-27.0
G1 X15.2929 Y-27.2929
G1 F300.0 Z-6.0
G1 F800.0 X15.0 Y-27.0
G1 X14.0
G1 X13.7071 Y-27.2929
G1 X14.0 Y-27.0
G1 Y-19.0
G1 X13.7071 Y-18.7071
G1 X14.0 Y-19.0
G1 X15.0
G1 X15.2929 Y-18.7071
G1 X15.0 Y-19.0
G1 Y-27.0
G1 X15.2929 Y-27.2929
G0 Z3.0
G0 X11.6052 Y-48.0093
G1 F300.0 Z-1.0
G2 F800.0 X12.1 Y-48.6 I-0.1052 J-0.5907
G2 X11.2 Y-49.1196 I-0.6 J0.0
G2 Y-48.0804 I0.3 J0.5196
G2 X11.6052 Y-48.0093 I0.3 J-0.5196
G1 F300.0 Z-2.0
G2 F800.0 X12.1 Y-48.6 I-0.1052 J-0.5907
G2 X11.2 Y-49.1196 I-0.6 J0.0
G2 Y-48.0804 I0.3 J0.5196
G2 X11.6052 Y-48.0093 I0.3 J-0.5196
G1 F300.0 Z-3.0
G2 F800.0 X12.1 Y-48.6 I-0.1052 J-0.5907
G2 X11.2 Y-49.1196 I-0.6 J0.0
G2 Y-48.0804 I0.3 J0.5196
G2 X11.6052 Y-48.0093 I0.3 J-0.5196
G1 F300.0 Z-4.0
G2 F800.0 X12.1 Y-48.6 I-0.1052 J-0.5907
G2 X11.2 Y-49.1196 I-0.6 J0.0
G2 Y-48.0804 I0.3 J0.5196
G2 X11.6052 Y-48.0093 I0.3 J-0.5196
G1 F300.0 Z-5.0
G2 F800.0 X12.1 Y-48.6 I-0.1052 J-0.5907
G2 X11.2 Y-49.1196 I-0.6 J0.0
G2 Y-48.0804 I0.3 J0.5196
G2 X11.6052 Y-48.0093 I0.3 J-0.5196
G1 F300.0 Z-6.0
G2 F800.0 X12.1 Y-48.6 I-0.1052 J-0.5907
G2 X11.2 Y-49.1196 I-0.6 J0.0
G2 Y-48.0804 I0.3 J0.5196
G2 X11.6052 Y-48.0093 I0.3 J-0.5196
G0 Z3.0
G0 X-10.9002 Y-48.5847
G1 F300.0 Z-1.0
G2 F800.0 X-10.9 Y-48.6 I-0.5998 J-0.0153
G2 X-11.8 Y-49.1196 I-0.6 J0.0
G2 Y-48.0804 I0.3 J0.5196
G2 X-10.9002 Y-48.5847 I0.3 J-0.5196
G1 F300.0 Z-2.0
G2 F800.0 X-10.9 Y-48.6 I-0.5998 J-0.0153
G2 X-11.8 Y-49.1196 I-0.6 J0.0
G2 Y-48.0804 I0.3 J0.5196
G2 X-10.9002 Y-48.5847 I0.3 J-0.5196
G1 F300.0 Z-3.0
G2 F800.0 X-10.9 Y-48.6 I-0.5998 J-0.0153
G2 X-11.8 Y-49.1196 I-0.6 J0.0
G2 Y-48.0804 I0.3 J0.5196
G2 X-10.9002 Y-48.5847 I0.3 J-0.5196
G1 F300.0 Z-4.0
G2 F800.0 X-10.9 Y-48.6 I-0.5998 J-0.0153
G2 X-11.8 Y-49.1196 I-0.6 J0.0
G2 Y-48.0804 I0.3 J0.5196
G2 X-10.9002 Y-48.5847 I0.3 J-0.5196
G1 F300.0 Z-5.0
G2 F800.0 X-10.9 Y-48.6 I-0.5998 J-0.0153
G2 X-11.8 Y-49.1196 I-0.6 J0.0
G2 Y-48.0804 I0.3 J0.5196
G2 X-10.9002 Y-48.5847 I0.3 J-0.5196
G1 F300.0 Z-6.0
G2 F800.0 X-10.9 Y-48.6 I-0.5998 J-0.0153
G2 X-11.8 Y-49.1196 I-0.6 J0.0
G2 Y-48.0804 I0.3 J0.5196
G2 X-10.9002 Y-48.5847 I0.3 J-0.5196
G0 Z3.0
G0 X-13.7071 Y-27.2929
G1 F300.0 Z-1.0
G1 F800.0 X-14.0 Y-27.0
G1 X-15.0
G1 X-15.2929 Y-27.2929
G1 X-15.0 Y-27.0
G1 Y-19.0
G1 X-15.2929 Y-18.7071
G1 X-15.0 Y-19.0
G1 X-14.0
G1 X-13.7071 Y-18.7071
G1 X-14.0 Y-19.0
G1 Y-27.0
G1 X-13.7071 Y-27.2929
G1 F300.0 Z-2.0
G1 F800.0 X-14.0 Y-27.0
G1 X-15.0
G1 X-15.2929 Y-27.2929
G1 X-15.0 Y-27.0
G1 Y-19.0
G1 X-15.2929 Y-18.7071
G1 X-15.0 Y-19.0
G1 X-14.0
G1 X-13.7071 Y-18.7071
G1 X-14.0 Y-19.0
G1 Y-27.0
G1 X-13.7071 Y-27.2929
G1 F300.0 Z-3.0
G1 F800.0 X-14.0 Y-27.0
G1 X-15.0
G1 X-15.2929 Y-27.2929
G1 X-15.0 Y-27.0
G1 Y-19.0
G1 X-15.2929 Y-18.7071
G1 X-15.0 Y-19.0
G1 X-14.0
G1 X-13.7071 Y-18.7071
G1 X-14.0 Y-19.0
G1 Y-27.0
G1 X-13.7071 Y-27.2929
G1 F300.0 Z-4.0
G1 F800.0 X-14.0 Y-27.0
G1 X-15.0
G1 X-15.2929 Y-27.2929
G1 X-15.0 Y-27.0
G1 Y-19.0
G1 X-15.2929 Y-18.7071
G1 X-15.0 Y-19.0
G1 X-14.0
G1 X-13.7071 Y-18.7071
G1 X-14.0 Y-19.0
G1 Y-27.0
G1 X-13.7071 Y-27.2929
G1 F300.0 Z-5.0
G1 F800.0 X-14.0 Y-27.0
G1 X-15.0
G1 X-15.2929 Y-27.2929
G1 X-15.0 Y-27.0
G1 Y-19.0
G1 X-15.2929 Y-18.7071
G1 X-15.0 Y-19.0
G1 X-14.0
G1 X-13.7071 Y-18.7071
G1 X-14.0 Y-19.0
G1 Y-27.0
G1 X-13.7071 Y-27.2929
G1 F300.0 Z-6.0
G1 F800.0 X-14.0 Y-27.0
G1 X-15.0
G1 X-15.2929 Y-27.2929
G1 X-15.0 Y-27.0
G1 Y-19.0
G1 X-15.2929 Y-18.7071
G1 X-15.0 Y-19.0
G1 X-14.0
G1 X-13.7071 Y-18.7071
G1 X-14.0 Y-19.0
G1 Y-27.0
G1 X-13.7071 Y-27.2929
G0 Z3.0
G0 Y18.7071
G1 F300.0 Z-1.0
G1 F800.0 X-14.0 Y19.0
G1 X-15.0
G1 X-15.2929 Y18.7071
G1 X-15.0 Y19.0
G1 Y27.0
G1 X-15.2929 Y27.2929
G1 X-15.0 Y27.0
G1 X-14.0
G1 X-13.7071 Y27.2929
G1 X-14.0 Y27.0
G1 Y19.0
G1 X-13.7071 Y18.7071
G1 F300.0 Z-2.0
G1 F800.0 X-14.0 Y19.0
G1 X-15.0
G1 X-15.2929 Y18.7071
G1 X-15.0 Y19.0
G1 Y27.0
G1 X-15.2929 Y27.2929
G1 X-15.0 Y27.0
G1 X-14.0
G1 X-13.7071 Y27.2929
G1 X-14.0 Y27.0
G1 Y19.0
G1 X-13.7071 Y18.7071
G1 F300.0 Z-3.0
G1 F800.0 X-14.0 Y19.0
G1 X-15.0
G1 X-15.2929 Y18.7071
G1 X-15.0 Y19.0
G1 Y27.0
G1 X-15.2929 Y27.2929
G1 X-15.0 Y27.0
G1 X-14.0
G1 X-13.7071 Y27.2929
G1 X-14.0 Y27.0
G1 Y19.0
G1 X-13.7071 Y18.7071
G1 F300.0 Z-4.0
G1 F800.0 X-14.0 Y19.0
G1 X-15.0
G1 X-15.2929 Y18.7071
G1 X-15.0 Y19.0
G1 Y27.0
G1 X-15.2929 Y27.2929
G1 X-15.0 Y27.0
G1 X-14.0
G1 X-13.7071 Y27.2929
G1 X-14.0 Y27.0
G1 Y19.0
G1 X-13.7071 Y18.7071
G1 F300.0 Z-5.0
G1 F800.0 X-14.0 Y19.0
G1 X-15.0
G1 X-15.2929 Y18.7071
G1 X-15.0 Y19.0
G1 Y27.0
G1 X-15.2929 Y27.2929
G1 X-15.0 Y27.0
G1 X-14.0
G1 X-13.7071 Y27.2929
G1 X-14.0 Y27.0
G1 Y19.0
G1 X-13.7071 Y18.7071
G1 F300.0 Z-6.0
G1 F800.0 X-14.0 Y19.0
G1 X-15.0
G1 X-15.2929 Y18.7071
G1 X-15.0 Y19.0
G1 Y27.0
G1 X-15.2929 Y27.2929
G1 X-15.0 Y27.0
G1 X-14.0
G1 X-13.7071 Y27.2929
G1 X-14.0 Y27.0
G1 Y19.0
G1 X-13.7071 Y18.7071
G0 Z3.0
G0 X-4.2929 Y34.7071
G1 F300.0 Z-1.0
G1 F800.0 X-4.0 Y35.0
G1 Y53.0
G1 X-4.2929 Y53.2929
G1 X-4.0 Y53.0
G1 X4.0
G1 X4.2929 Y53.2929
G1 X4.0 Y53.0
G1 Y35.0
G1 X4.2929 Y34.7071
G1 X4.0 Y35.0
G1 X-4.0
G1 X-4.2929 Y34.7071
G1 F300.0 Z-2.0
G1 F800.0 X-4.0 Y35.0
G1 Y53.0
G1 X-4.2929 Y53.2929
G1 X-4.0 Y53.0
G1 X4.0
G1 X4.2929 Y53.2929
G1 X4.0 Y53.0
G1 Y35.0
G1 X4.2929 Y34.7071
G1 X4.0 Y35.0
G1 X-4.0
G1 X-4.2929 Y34.7071
G1 F300.0 Z-3.0
G1 F800.0 X-4.0 Y35.0
G1 Y53.0
G1 X-4.2929 Y53.2929
G1 X-4.0 Y53.0
G1 X4.0
G1 X4.2929 Y53.2929
G1 X4.0 Y53.0
G1 Y35.0
G1 X4.2929 Y34.7071
G1 X4.0 Y35.0
G1 X-4.0
G1 X-4.2929 Y34.7071
G1 F300.0 Z-4.0
G1 F800.0 X-4.0 Y35.0
G1 Y53.0
G1 X-4.2929 Y53.2929
G1 X-4.0 Y53.0
G1 X4.0
G1 X4.2929 Y53.2929
G1 X4.0 Y53.0
G1 Y35.0
G1 X4.2929 Y34.7071
G1 X4.0 Y35.0
G1 X-4.0
G1 X-4.2929 Y34.7071
G1 F300.0 Z-5.0
G1 F800.0 X-4.0 Y35.0
G1 Y53.0
G1 X-4.2929 Y53.2929
G1 X-4.0 Y53.0
G1 X4.0
G1 X4.2929 Y53.2929
G1 X4.0 Y53.0
G1 Y35.0
G1 X4.2929 Y34.7071
G1 X4.0 Y35.0
G1 X-4.0
G1 X-4.2929 Y34.7071
G1 F300.0 Z-6.0
G1 F800.0 X-4.0 Y35.0
G1 Y53.0
G1 X-4.2929 Y53.2929
G1 X-4.0 Y53.0
G1 X4.0
G1 X4.2929 Y53.2929
G1 X4.0 Y53.0
G1 Y35.0
G1 X4.2929 Y34.7071
G1 X4.0 Y35.0
G1 X-4.0
G1 X-4.2929 Y34.7071
G0 Z3.0
G0 X13.7071 Y27.2929
G1 F300.0 Z-1.0
G1 F800.0 X14.0 Y27.0
G1 X15.0
G1 X15.2929 Y27.2929
G1 X15.0 Y27.0
G1 Y19.0
G1 X15.2929 Y18.7071
G1 X15.0 Y19.0
G1 X14.0
G1 X13.7071 Y18.7071
G1 X14.0 Y19.0
G1 Y27.0
G1 X13.7071 Y27.2929
G1 F300.0 Z-2.0
G1 F800.0 X14.0 Y27.0
G1 X15.0
G1 X15.2929 Y27.2929
G1 X15.0 Y27.0
G1 Y19.0
G1 X15.2929 Y18.7071
G1 X15.0 Y19.0
G1 X14.0
G1 X13.7071 Y18.7071
G1 X14.0 Y19.0
G1 Y27.0
G1 X13.7071 Y27.2929
G1 F300.0 Z-3.0
G1 F800.0 X14.0 Y27.0
G1 X15.0
G1 X15.2929 Y27.2929
G1 X15.0 Y27.0
G1 Y19.0
G1 X15.2929 Y18.7071
G1 X15.0 Y19.0
G1 X14.0
G1 X13.7071 Y18.7071
G1 X14.0 Y19.0
G1 Y27.0
G1 X13.7071 Y27.2929
G1 F300.0 Z-4.0
G1 F800.0 X14.0 Y27.0
G1 X15.0
G1 X15.2929 Y27.2929
G1 X15.0 Y27.0
G1 Y19.0
G1 X15.2929 Y18.7071
G1 X15.0 Y19.0
G1 X14.0
G1 X13.7071 Y18.7071
G1 X14.0 Y19.0
G1 Y27.0
G1 X13.7071 Y27.2929
G1 F300.0 Z-5.0
G1 F800.0 X14.0 Y27.0
G1 X15.0
G1 X15.2929 Y27.2929
G1 X15.0 Y27.0
G1 Y19.0
G1 X15.2929 Y18.7071
G1 X15.0 Y19.0
G1 X14.0
G1 X13.7071 Y18.7071
G1 X14.0 Y19.0
G1 Y27.0
G1 X13.7071 Y27.2929
G1 F300.0 Z-6.0
G1 F800.0 X14.0 Y27.0
G1 X15.0
G1 X15.2929 Y27.2929
G1 X15.0 Y27.0
G1 Y19.0
G1 X15.2929 Y18.7071
G1 X15.0 Y19.0
G1 X14.0
G1 X13.7071 Y18.7071
G1 X14.0 Y19.0
G1 Y27.0
G1 X13.7071 Y27.2929
G0 Z3.0
G0 X-61.7071
G1 F300.0 Z-1.0
G1 F800.0 X-62.0 Y27.0
G1 Y19.0
G1 X-61.7071 Y18.7071
G1 X-62.0 Y19.0
G1 X-63.0
G1 X-63.2929 Y18.7071
G1 X-63.0 Y19.0
G1 Y27.0
G1 X-63.2929 Y27.2929
G1 X-63.0 Y27.0
G1 X-62.0
G1 X-61.7071 Y27.2929
G1 F300.0 Z-2.0
G1 F800.0 X-62.0 Y27.0
G1 Y19.0
G1 X-61.7071 Y18.7071
G1 X-62.0 Y19.0
G1 X-63.0
G1 X-63.2929 Y18.7071
G1 X-63.0 Y19.0
G1 Y27.0
G1 X-63.2929 Y27.2929
G1 X-63.0 Y27.0
G1 X-62.0
G1 X-61.7071 Y27.2929
G1 F300.0 Z-3.0
G1 F800.0 X-62.0 Y27.0
G1 Y19.0
G1 X-61.7071 Y18.7071
G1 X-62.0 Y19.0
G1 X-63.0
G1 X-63.2929 Y18.7071
G1 X-63.0 Y19.0
G1 Y27.0
G1 X-63.2929 Y27.2929
G1 X-63.0 Y27.0
G1 X-62.0
G1 X-61.7071 Y27.2929
G1 F300.0 Z-4.0
G1 F800.0 X-62.0 Y27.0
G1 Y19.0
G1 X-61.7071 Y18.7071
G1 X-62.0 Y19.0
G1 X-63.0
G1 X-63.2929 Y18.7071
G1 X-63.0 Y19.0
G1 Y27.0
G1 X-63.2929 Y27.2929
G1 X-63.0 Y27.0
G1 X-62.0
G1 X-61.7071 Y27.2929
G1 F300.0 Z-5.0
G1 F800.0 X-62.0 Y27.0
G1 Y19.0
G1 X-61.7071 Y18.7071
G1 X-62.0 Y19.0
G1 X-63.0
G1 X-63.2929 Y18.7071
G1 X-63.0 Y19.0
G1 Y27.0
G1 X-63.2929 Y27.2929
G1 X-63.0 Y27.0
G1 X-62.0
G1 X-61.7071 Y27.2929
G1 F300.0 Z-6.0
G1 F800.0 X-62.0 Y27.0
G1 Y19.0
G1 X-61.7071 Y18.7071
G1 X-62.0 Y19.0
G1 X-63.0
G1 X-63.2929 Y18.7071
G1 X-63.0 Y19.0
G1 Y27.0
G1 X-63.2929 Y27.2929
G1 X-63.0 Y27.0
G1 X-62.0
G1 X-61.7071 Y27.2929
G0 Z3.0
G0 X-74.7071 Y38.7071
G1 F300.0 Z-1.0
G1 F800.0 X-75.0 Y39.0
G1 X-83.0
G1 X-83.2929 Y38.7071
G1 X-83.0 Y39.0
G1 Y43.0
G1 X-83.2929 Y43.2929
G1 X-83.0 Y43.0
G1 X-75.0
G1 X-74.7071 Y43.2929
G1 X-75.0 Y43.0
G1 Y39.0
G1 X-74.7071 Y38.7071
G1 F300.0 Z-2.0
G1 F800.0 X-75.0 Y39.0
G1 X-83.0
G1 X-83.2929 Y38.7071
G1 X-83.0 Y39.0
G1 Y43.0
G1 X-83.2929 Y43.2929
G1 X-83.0 Y43.0
G1 X-75.0
G1 X-74.7071 Y43.2929
G1 X-75.0 Y43.0
G1 Y39.0
G1 X-74.7071 Y38.7071
G1 F300.0 Z-3.0
G1 F800.0 X-75.0 Y39.0
G1 X-83.0
G1 X-83.2929 Y38.7071
G1 X-83.0 Y39.0
G1 Y43.0
G1 X-83.2929 Y43.2929
G1 X-83.0 Y43.0
G1 X-75.0
G1 X-74.7071 Y43.2929
G1 X-75.0 Y43.0
G1 Y39.0
G1 X-74.7071 Y38.7071
G1 F300.0 Z-4.0
G1 F800.0 X-75.0 Y39.0
G1 X-83.0
G1 X-83.2929 Y38.7071
G1 X-83.0 Y39.0
G1 Y43.0
G1 X-83.2929 Y43.2929
G1 X-83.0 Y43.0
G1 X-75.0
G1 X-74.7071 Y43.2929
G1 X-75.0 Y43.0
G1 Y39.0
G1 X-74.7071 Y38.7071
G1 F300.0 Z-5.0
G1 F800.0 X-75.0 Y39.0
G1 X-83.0
G1 X-83.2929 Y38.7071
G1 X-83.0 Y39.0
G1 Y43.0
G1 X-83.2929 Y43.2929
G1 X-83.0 Y43.0
G1 X-75.0
G1 X-74.7071 Y43.2929
G1 X-75.0 Y43.0
G1 Y39.0
G1 X-74.7071 Y38.7071
G1 F300.0 Z-6.0
G1 F800.0 X-75.0 Y39.0
G1 X-83.0
G1 X-83.2929 Y38.7071
G1 X-83.0 Y39.0
G1 Y43.0
G1 X-83.2929 Y43.2929
G1 X-83.0 Y43.0
G1 X-75.0
G1 X-74.7071 Y43.2929
G1 X-75.0 Y43.0
G1 Y39.0
G1 X-74.7071 Y38.7071
G0 Z3.0
G0 X-63.2929 Y-18.7071
G1 F300.0 Z-1.0
G1 F800.0 X-63.0 Y-19.0
G1 X-62.0
G1 X-61.7071 Y-18.7071
G1 X-62.0 Y-19.0
G1 Y-27.0
G1 X-61.7071 Y-27.2929
G1 X-62.0 Y-27.0
G1 X-63.0
G1 X-63.2929 Y-27.2929
G1 X-63.0 Y-27.0
G1 Y-19.0
G1 X-63.2929 Y-18.7071
G1 F300.0 Z-2.0
G1 F800.0 X-63.0 Y-19.0
G1 X-62.0
G1 X-61.7071 Y-18.7071
G1 X-62.0 Y-19.0
G1 Y-27.0
G1 X-61.7071 Y-27.2929
G1 X-62.0 Y-27.0
G1 X-63.0
G1 X-63.2929 Y-27.2929
G1 X-63.0 Y-27.0
G1 Y-19.0
G1 X-63.2929 Y-18.7071
G1 F300.0 Z-3.0
G1 F800.0 X-63.0 Y-19.0
G1 X-62.0
G1 X-61.7071 Y-18.7071
G1 X-62.0 Y-19.0
G1 Y-27.0
G1 X-61.7071 Y-27.2929
G1 X-62.0 Y-27.0
G1 X-63.0
G1 X-63.2929 Y-27.2929
G1 X-63.0 Y-27.0
G1 Y-19.0
G1 X-63.2929 Y-18.7071
G1 F300.0 Z-4.0
G1 F800.0 X-63.0 Y-19.0
G1 X-62.0
G1 X-61.7071 Y-18.7071
G1 X-62.0 Y-19.0
G1 Y-27.0
G1 X-61.7071 Y-27.2929
G1 X-62.0 Y-27.0
G1 X-63.0
G1 X-63.2929 Y-27.2929
G1 X-63.0 Y-27.0
G1 Y-19.0
G1 X-63.2929 Y-18.7071
G1 F300.0 Z-5.0
G1 F800.0 X-63.0 Y-19.0
G1 X-62.0
G1 X-61.7071 Y-18.7071
G1 X-62.0 Y-19.0
G1 Y-27.0
G1 X-61.7071 Y-27.2929
G1 X-62.0 Y-27.0
G1 X-63.0
G1 X-63.2929 Y-27.2929
G1 X-63.0 Y-27.0
G1 Y-19.0
G1 X-63.2929 Y-18.7071
G1 F300.0 Z-6.0
G1 F800.0 X-63.0 Y-19.0
G1 X-62.0
G1 X-61.7071 Y-18.7071
G1 X-62.0 Y-19.0
G1 Y-27.0
G1 X-61.7071 Y-27.2929
G1 X-62.0 Y-27.0
G1 X-63.0
G1 X-63.2929 Y-27.2929
G1 X-63.0 Y-27.0
G1 Y-19.0
G1 X-63.2929 Y-18.7071
G0 Z3.0
G0 X-74.7071 Y-38.7071
G1 F300.0 Z-1.0
G1 F800.0 X-75.0 Y-39.0
G1 Y-43.0
G1 X-74.7071 Y-43.2929
G1 X-75.0 Y-43.0
G1 X-83.0
G1 X-83.2929 Y-43.2929
G1 X-83.0 Y-43.0
G1 Y-39.0
G1 X-83.2929 Y-38.7071
G1 X-83.0 Y-39.0
G1 X-75.0
G1 X-74.7071 Y-38.7071
G1 F300.0 Z-2.0
G1 F800.0 X-75.0 Y-39.0
G1 Y-43.0
G1 X-74.7071 Y-43.2929
G1 X-75.0 Y-43.0
G1 X-83.0
G1 X-83.2929 Y-43.2929
G1 X-83.0 Y-43.0
G1 Y-39.0
G1 X-83.2929 Y-38.7071
G1 X-83.0 Y-39.0
G1 X-75.0
G1 X-74.7071 Y-38.7071
G1 F300.0 Z-3.0
G1 F800.0 X-75.0 Y-39.0
G1 Y-43.0
G1 X-74.7071 Y-43.2929
G1 X-75.0 Y-43.0
G1 X-83.0
G1 X-83.2929 Y-43.2929
G1 X-83.0 Y-43.0
G1 Y-39.0
G1 X-83.2929 Y-38.7071
G1 X-83.0 Y-39.0
G1 X-75.0
G1 X-74.7071 Y-38.7071
G1 F300.0 Z-4.0
G1 F800.0 X-75.0 Y-39.0
G1 Y-43.0
G1 X-74.7071 Y-43.2929
G1 X-75.0 Y-43.0
G1 X-83.0
G1 X-83.2929 Y-43.2929
G1 X-83.0 Y-43.0
G1 Y-39.0
G1 X-83.2929 Y-38.7071
G1 X-83.0 Y-39.0
G1 X-75.0
G1 X-74.7071 Y-38.7071
G1 F300.0 Z-5.0
G1 F800.0 X-75.0 Y-39.0
G1 Y-43.0
G1 X-74.7071 Y-43.2929
G1 X-75.0 Y-43.0
G1 X-83.0
G1 X-83.2929 Y-43.2929
G1 X-83.0 Y-43.0
G1 Y-39.0
G1 X-83.2929 Y-38.7071
G1 X-83.0 Y-39.0
G1 X-75.0
G1 X-74.7071 Y-38.7071
G1 F300.0 Z-6.0
G1 F800.0 X-75.0 Y-39.0
G1 Y-43.0
G1 X-74.7071 Y-43.2929
G1 X-75.0 Y-43.0
G1 X-83.0
G1 X-83.2929 Y-43.2929
G1 X-83.0 Y-43.0
G1 Y-39.0
G1 X-83.2929 Y-38.7071
G1 X-83.0 Y-39.0
G1 X-75.0
G1 X-74.7071 Y-38.7071
( Contour2 )
S1000
G0 Z3.0
G0 X-75.0 Y-27.0
G1 F300.0 Z-1.0
G1 F800.0 X-83.0
G1 X-83.2929 Y-27.2929
G1 X-83.0 Y-27.0
G1 Y11.0
G1 X-83.2929 Y11.2929
G1 X-83.0 Y11.0
G1 X-75.0
G1 X-74.7071 Y11.2929
G1 X-75.0 Y11.0
G1 Y-27.0
G1 X-74.7071 Y-27.2929
G1 X-75.0 Y-27.0
G1 F300.0 Z-2.0
G1 F800.0 X-83.0
G1 X-83.2929 Y-27.2929
G1 X-83.0 Y-27.0
G1 Y11.0
G1 X-83.2929 Y11.2929
G1 X-83.0 Y11.0
G1 X-75.0
G1 X-74.7071 Y11.2929
G1 X-75.0 Y11.0
G1 Y-27.0
G1 X-74.7071 Y-27.2929
G1 X-75.0 Y-27.0
G1 F300.0 Z-3.0
G1 F800.0 X-83.0
G1 X-83.2929 Y-27.2929
G1 X-83.0 Y-27.0
G1 Y11.0
G1 X-83.2929 Y11.2929
G1 X-83.0 Y11.0
G1 X-75.0
G1 X-74.7071 Y11.2929
G1 X-75.0 Y11.0
G1 Y-27.0
G1 X-74.7071 Y-27.2929
G1 X-75.0 Y-27.0
G1 F300.0 Z-4.0
G1 F800.0 X-83.0
G1 X-83.2929 Y-27.2929
G1 X-83.0 Y-27.0
G1 Y11.0
G1 X-83.2929 Y11.2929
G1 X-83.0 Y11.0
G1 X-75.0
G1 X-74.7071 Y11.2929
G1 X-75.0 Y11.0
G1 Y-27.0
G1 X-74.7071 Y-27.2929
G1 X-75.0 Y-27.0
G1 F300.0 Z-5.0
G1 F800.0 X-83.0
G1 X-83.2929 Y-27.2929
G1 X-83.0 Y-27.0
G1 Y-3.0
G0 Z-4.0
G1 Y1.0
G1 F300.0 Z-5.0
G1 F800.0 Y11.0
G1 X-83.2929 Y11.2929
G1 X-83.0 Y11.0
G1 X-75.0
G1 X-74.7071 Y11.2929
G1 X-75.0 Y11.0
G1 Y-13.0
G0 Z-4.0
G1 Y-17.0
G1 F300.0 Z-5.0
G1 F800.0 Y-27.0
G1 X-74.7071 Y-27.2929
G1 X-75.0 Y-27.0
G1 F300.0 Z-6.0
G1 F800.0 X-83.0
G1 X-83.2929 Y-27.2929
G1 X-83.0 Y-27.0
G1 Y-3.0
G0 Z-4.0
G1 Y1.0
G1 F300.0 Z-6.0
G1 F800.0 Y11.0
G1 X-83.2929 Y11.2929
G1 X-83.0 Y11.0
G1 X-75.0
G1 X-74.7071 Y11.2929
G1 X-75.0 Y11.0
G1 Y-13.0
G0 Z-4.0
G1 Y-17.0
G1 F300.0 Z-6.0
G1 F800.0 Y-27.0
G1 X-74.7071 Y-27.2929
G1 X-75.0 Y-27.0
G0 Z3.0
G0 X74.7071 Y-27.2929
G1 F300.0 Z-1.0
G1 F800.0 X75.0 Y-27.0
G1 Y11.0
G1 X74.7071 Y11.2929
G1 X75.0 Y11.0
G1 X83.0
G1 X83.2929 Y11.2929
G1 X83.0 Y11.0
G1 Y-27.0
G1 X83.2929 Y-27.2929
G1 X83.0 Y-27.0
G1 X75.0
G1 X74.7071 Y-27.2929
G1 F300.0 Z-2.0
G1 F800.0 X75.0 Y-27.0
G1 Y11.0
G1 X74.7071 Y11.2929
G1 X75.0 Y11.0
G1 X83.0
G1 X83.2929 Y11.2929
G1 X83.0 Y11.0
G1 Y-27.0
G1 X83.2929 Y-27.2929
G1 X83.0 Y-27.0
G1 X75.0
G1 X74.7071 Y-27.2929
G1 F300.0 Z-3.0
G1 F800.0 X75.0 Y-27.0
G1 Y11.0
G1 X74.7071 Y11.2929
G1 X75.0 Y11.0
G1 X83.0
G1 X83.2929 Y11.2929
G1 X83.0 Y11.0
G1 Y-27.0
G1 X83.2929 Y-27.2929
G1 X83.0 Y-27.0
G1 X75.0
G1 X74.7071 Y-27.2929
G1 F300.0 Z-4.0
G1 F800.0 X75.0 Y-27.0
G1 Y11.0
G1 X74.7071 Y11.2929
G1 X75.0 Y11.0
G1 X83.0
G1 X83.2929 Y11.2929
G1 X83.0 Y11.0
G1 Y-27.0
G1 X83.2929 Y-27.2929
G1 X83.0 Y-27.0
G1 X75.0
G1 X74.7071 Y-27.2929
G1 F300.0 Z-5.0
G1 F800.0 X75.0 Y-27.0
G1 Y-17.0
G0 Z-4.0
G1 Y-13.0
G1 F300.0 Z-5.0
G1 F800.0 Y11.0
G1 X74.7071 Y11.2929
G1 X75.0 Y11.0
G1 X83.0
G1 X83.2929 Y11.2929
G1 X83.0 Y11.0
G1 Y3.0
G0 Z-4.0
G1 Y-1.0
G1 F300.0 Z-5.0
G1 F800.0 Y-27.0
G1 X83.2929 Y-27.2929
G1 X83.0 Y-27.0
G1 X75.0
G1 X74.7071 Y-27.2929
G1 F300.0 Z-6.0
G1 F800.0 X75.0 Y-27.0
G1 Y-17.0
G0 Z-4.0
G1 Y-13.0
G1 F300.0 Z-6.0
G1 F800.0 Y11.0
G1 X74.7071 Y11.2929
G1 X75.0 Y11.0
G1 X83.0
G1 X83.2929 Y11.2929
G1 X83.0 Y11.0
G1 Y3.0
G0 Z-4.0
G1 Y-1.0
G1 F300.0 Z-6.0
G1 F800.0 Y-27.0
G1 X83.2929 Y-27.2929
G1 X83.0 Y-27.0
G1 X75.0
G1 X74.7071 Y-27.2929
( Contour3 )
S1000
G0 Z3.0
G0 X-99.0 Y14.0
G1 F300.0 Z-1.0
G1 F800.0 X-94.0
G3 X-93.0 Y15.0 I0.0 J1.0
G1 Y63.0
G1 X-93.2929 Y63.2929
G1 X-93.0 Y63.0
G1 X-54.0
G3 X-53.0 Y64.0 I0.0 J1.0
G1 Y69.0
G1 X-53.2929 Y69.2929
G1 X-53.0 Y69.0
G1 X-25.0
G1 X-24.7071 Y69.2929
G1 X-25.0 Y69.0
G1 Y64.0
G3 X-24.0 Y63.0 I1.0 J0.0
G1 X24.0
G3 X25.0 Y64.0 I0.0 J1.0
G1 Y69.0
G1 X24.7071 Y69.2929
G1 X25.0 Y69.0
G1 X53.0
G1 X53.2929 Y69.2929
G1 X53.0 Y69.0
G1 Y64.0
G3 X54.0 Y63.0 I1.0 J0.0
G1 X93.0
G1 X93.2929 Y63.2929
G1 X93.0 Y63.0
G1 Y15.0
G3 X94.0 Y14.0 I1.0 J0.0
G1 X99.0
G1 X99.2929 Y14.2929
G1 X99.0 Y14.0
G1 Y-14.0
G1 X99.2929 Y-14.2929
G1 X99.0 Y-14.0
G1 X94.0
G3 X93.0 Y-15.0 I0.0 J-1.0
G1 Y-63.0
G1 X93.2929 Y-63.2929
G1 X93.0 Y-63.0
G1 X60.0
G3 X59.0 Y-64.0 I0.0 J-1.0
G1 Y-69.0
G1 X59.2929 Y-69.2929
G1 X59.0 Y-69.0
G1 X21.0
G1 X20.7071 Y-69.2929
G1 X21.0 Y-69.0
G1 Y-64.0
G3 X20.0 Y-63.0 I-1.0 J0.0
G1 X-20.0
G3 X-21.0 Y-64.0 I0.0 J-1.0
G1 Y-69.0
G1 X-20.7071 Y-69.2929
G1 X-21.0 Y-69.0
G1 X-59.0
G1 X-59.2929 Y-69.2929
G1 X-59.0 Y-69.0
G1 Y-64.0
G3 X-60.0 Y-63.0 I-1.0 J0.0
G1 X-93.0
G1 X-93.2929 Y-63.2929
G1 X-93.0 Y-63.0
G1 Y-15.0
G3 X-94.0 Y-14.0 I-1.0 J0.0
G1 X-99.0
G1 X-99.2929 Y-14.2929
G1 X-99.0 Y-14.0
G1 Y14.0
G1 X-99.2929 Y14.2929
G1 X-99.0 Y14.0
G1 F300.0 Z-2.0
G1 F800.0 X-94.0
G3 X-93.0 Y15.0 I0.0 J1.0
G1 Y63.0
G1 X-93.2929 Y63.2929
G1 X-93.0 Y63.0
G1 X-54.0
G3 X-53.0 Y64.0 I0.0 J1.0
G1 Y69.0
G1 X-53.2929 Y69.2929
G1 X-53.0 Y69.0
G1 X-25.0
G1 X-24.7071 Y69.2929
G1 X-25.0 Y69.0
G1 Y64.0
G3 X-24.0 Y63.0 I1.0 J0.0
G1 X24.0
G3 X25.0 Y64.0 I0.0 J1.0
G1 Y69.0
G1 X24.7071 Y69.2929
G1 X25.0 Y69.0
G1 X53.0
G1 X53.2929 Y69.2929
G1 X53.0 Y69.0
G1 Y64.0
G3 X54.0 Y63.0 I1.0 J0.0
G1 X93.0
G1 X93.2929 Y63.2929
G1 X93.0 Y63.0
G1 Y15.0
G3 X94.0 Y14.0 I1.0 J0.0
G1 X99.0
G1 X99.2929 Y14.2929
G1 X99.0 Y14.0
G1 Y-14.0
G1 X99.2929 Y-14.2929
G1 X99.0 Y-14.0
G1 X94.0
G3 X93.0 Y-15.0 I0.0 J-1.0
G1 Y-63.0
G1 X93.2929 Y-63.2929
G1 X93.0 Y-63.0
G1 X60.0
G3 X59.0 Y-64.0 I0.0 J-1.0
G1 Y-69.0
G1 X59.2929 Y-69.2929
G1 X59.0 Y-69.0
G1 X21.0
G1 X20.7071 Y-69.2929
G1 X21.0 Y-69.0
G1 Y-64.0
G3 X20.0 Y-63.0 I-1.0 J0.0
G1 X-20.0
G3 X-21.0 Y-64.0 I0.0 J-1.0
G1 Y-69.0
G1 X-20.7071 Y-69.2929
G1 X-21.0 Y-69.0
G1 X-59.0
G1 X-59.2929 Y-69.2929
G1 X-59.0 Y-69.0
G1 Y-64.0
G3 X-60.0 Y-63.0 I-1.0 J0.0
G1 X-93.0
G1 X-93.2929 Y-63.2929
G1 X-93.0 Y-63.0
G1 Y-15.0
G3 X-94.0 Y-14.0 I-1.0 J0.0
G1 X-99.0
G1 X-99.2929 Y-14.2929
G1 X-99.0 Y-14.0
G1 Y14.0
G1 X-99.2929 Y14.2929
G1 X-99.0 Y14.0
G1 F300.0 Z-3.0
G1 F800.0 X-94.0
G3 X-93.0 Y15.0 I0.0 J1.0
G1 Y63.0
G1 X-93.2929 Y63.2929
G1 X-93.0 Y63.0
G1 X-54.0
G3 X-53.0 Y64.0 I0.0 J1.0
G1 Y69.0
G1 X-53.2929 Y69.2929
G1 X-53.0 Y69.0
G1 X-25.0
G1 X-24.7071 Y69.2929
G1 X-25.0 Y69.0
G1 Y64.0
G3 X-24.0 Y63.0 I1.0 J0.0
G1 X24.0
G3 X25.0 Y64.0 I0.0 J1.0
G1 Y69.0
G1 X24.7071 Y69.2929
G1 X25.0 Y69.0
G1 X53.0
G1 X53.2929 Y69.2929
G1 X53.0 Y69.0
G1 Y64.0
G3 X54.0 Y63.0 I1.0 J0.0
G1 X93.0
G1 X93.2929 Y63.2929
G1 X93.0 Y63.0
G1 Y15.0
G3 X94.0 Y14.0 I1.0 J0.0
G1 X99.0
G1 X99.2929 Y14.2929
G1 X99.0 Y14.0
G1 Y-14.0
G1 X99.2929 Y-14.2929
G1 X99.0 Y-14.0
G1 X94.0
G3 X93.0 Y-15.0 I0.0 J-1.0
G1 Y-63.0
G1 X93.2929 Y-63.2929
G1 X93.0 Y-63.0
G1 X60.0
G3 X59.0 Y-64.0 I0.0 J-1.0
G1 Y-69.0
G1 X59.2929 Y-69.2929
G1 X59.0 Y-69.0
G1 X21.0
G1 X20.7071 Y-69.2929
G1 X21.0 Y-69.0
G1 Y-64.0
G3 X20.0 Y-63.0 I-1.0 J0.0
G1 X-20.0
G3 X-21.0 Y-64.0 I0.0 J-1.0
G1 Y-69.0
G1 X-20.7071 Y-69.2929
G1 X-21.0 Y-69.0
G1 X-59.0
G1 X-59.2929 Y-69.2929
G1 X-59.0 Y-69.0
G1 Y-64.0
G3 X-60.0 Y-63.0 I-1.0 J0.0
G1 X-93.0
G1 X-93.2929 Y-63.2929
G1 X-93.0 Y-63.0
G1 Y-15.0
G3 X-94.0 Y-14.0 I-1.0 J0.0
G1 X-99.0
G1 X-99.2929 Y-14.2929
G1 X-99.0 Y-14.0
G1 Y14.0
G1 X-99.2929 Y14.2929
G1 X-99.0 Y14.0
G1 F300.0 Z-4.0
G1 F800.0 X-94.0
G3 X-93.0 Y15.0 I0.0 J1.0
G1 Y63.0
G1 X-93.2929 Y63.2929
G1 X-93.0 Y63.0
G1 X-54.0
G3 X-53.0 Y64.0 I0.0 J1.0
G1 Y69.0
G1 X-53.2929 Y69.2929
G1 X-53.0 Y69.0
G1 X-25.0
G1 X-24.7071 Y69.2929
G1 X-25.0 Y69.0
G1 Y64.0
G3 X-24.0 Y63.0 I1.0 J0.0
G1 X24.0
G3 X25.0 Y64.0 I0.0 J1.0
G1 Y69.0
G1 X24.7071 Y69.2929
G1 X25.0 Y69.0
G1 X53.0
G1 X53.2929 Y69.2929
G1 X53.0 Y69.0
G1 Y64.0
G3 X54.0 Y63.0 I1.0 J0.0
G1 X93.0
G1 X93.2929 Y63.2929
G1 X93.0 Y63.0
G1 Y15.0
G3 X94.0 Y14.0 I1.0 J0.0
G1 X99.0
G1 X99.2929 Y14.2929
G1 X99.0 Y14.0
G1 Y-14.0
G1 X99.2929 Y-14.2929
G1 X99.0 Y-14.0
G1 X94.0
G3 X93.0 Y-15.0 I0.0 J-1.0
G1 Y-63.0
G1 X93.2929 Y-63.2929
G1 X93.0 Y-63.0
G1 X60.0
G3 X59.0 Y-64.0 I0.0 J-1.0
G1 Y-69.0
G1 X59.2929 Y-69.2929
G1 X59.0 Y-69.0
G1 X21.0
G1 X20.7071 Y-69.2929
G1 X21.0 Y-69.0
G1 Y-64.0
G3 X20.0 Y-63.0 I-1.0 J0.0
G1 X-20.0
G3 X-21.0 Y-64.0 I0.0 J-1.0
G1 Y-69.0
G1 X-20.7071 Y-69.2929
G1 X-21.0 Y-69.0
G1 X-59.0
G1 X-59.2929 Y-69.2929
G1 X-59.0 Y-69.0
G1 Y-64.0
G3 X-60.0 Y-63.0 I-1.0 J0.0
G1 X-93.0
G1 X-93.2929 Y-63.2929
G1 X-93.0 Y-63.0
G1 Y-15.0
G3 X-94.0 Y-14.0 I-1.0 J0.0
G1 X-99.0
G1 X-99.2929 Y-14.2929
G1 X-99.0 Y-14.0
G1 Y14.0
G1 X-99.2929 Y14.2929
G1 X-99.0 Y14.0
G1 F300.0 Z-5.0
G1 F800.0 X-94.0
G3 X-93.0 Y15.0 I0.0 J1.0
G1 Y63.0
G1 X-93.2929 Y63.2929
G1 X-93.0 Y63.0
G1 X-54.0
G3 X-53.0 Y64.0 I0.0 J1.0
G1 Y69.0
G1 X-53.2929 Y69.2929
G1 X-53.0 Y69.0
G1 X-25.0
G1 X-24.7071 Y69.2929
G1 X-25.0 Y69.0
G1 Y64.0
G3 X-24.0 Y63.0 I1.0 J0.0
G1 X-3.0
G0 Z-4.0
G1 X1.0
G1 F300.0 Z-5.0
G1 F800.0 X24.0
G3 X25.0 Y64.0 I0.0 J1.0
G1 Y69.0
G1 X24.7071 Y69.2929
G1 X25.0 Y69.0
G1 X53.0
G1 X53.2929 Y69.2929
G1 X53.0 Y69.0
G1 Y64.0
G3 X54.0 Y63.0 I1.0 J0.0
G1 X93.0
G1 X93.2929 Y63.2929
G1 X93.0 Y63.0
G1 Y39.0
G0 Z-4.0
G1 Y35.0
G1 F300.0 Z-5.0
G1 F800.0 Y15.0
G3 X94.0 Y14.0 I1.0 J0.0
G1 X99.0
G1 X99.2929 Y14.2929
G1 X99.0 Y14.0
G1 Y-14.0
G1 X99.2929 Y-14.2929
G1 X99.0 Y-14.0
G1 X94.0
G3 X93.0 Y-15.0 I0.0 J-1.0
G1 Y-63.0
G1 X93.2929 Y-63.2929
G1 X93.0 Y-63.0
G1 X60.0
G3 X59.0 Y-64.0 I0.0 J-1.0
G1 Y-69.0
G1 X59.2929 Y-69.2929
G1 X59.0 Y-69.0
G1 X21.0
G1 X20.7071 Y-69.2929
G1 X21.0 Y-69.0
G1 Y-64.0
G3 X20.0 Y-63.0 I-1.0 J0.0
G1 X2.0
G0 Z-4.0
G1 X-2.0
G1 F300.0 Z-5.0
G1 F800.0 X-20.0
G3 X-21.0 Y-64.0 I0.0 J-1.0
G1 Y-69.0
G1 X-20.7071 Y-69.2929
G1 X-21.0 Y-69.0
G1 X-59.0
G1 X-59.2929 Y-69.2929
G1 X-59.0 Y-69.0
G1 Y-64.0
G3 X-60.0 Y-63.0 I-1.0 J0.0
G1 X-93.0
G1 X-93.2929 Y-63.2929
G1 X-93.0 Y-63.0
G1 Y-39.0
G0 Z-4.0
G1 Y-35.0
G1 F300.0 Z-5.0
G1 F800.0 Y-15.0
G3 X-94.0 Y-14.0 I-1.0 J0.0
G1 X-99.0
G1 X-99.2929 Y-14.2929
G1 X-99.0 Y-14.0
G1 Y14.0
G1 X-99.2929 Y14.2929
G1 X-99.0 Y14.0
G1 F300.0 Z-6.0
G1 F800.0 X-94.0
G3 X-93.0 Y15.0 I0.0 J1.0
G1 Y63.0
G1 X-93.2929 Y63.2929
G1 X-93.0 Y63.0
G1 X-54.0
G3 X-53.0 Y64.0 I0.0 J1.0
G1 Y69.0
G1 X-53.2929 Y69.2929
G1 X-53.0 Y69.0
G1 X-25.0
G1 X-24.7071 Y69.2929
G1 X-25.0 Y69.0
G1 Y64.0
G3 X-24.0 Y63.0 I1.0 J0.0
G1 X-3.0
G0 Z-4.0
G1 X1.0
G1 F300.0 Z-6.0
G1 F800.0 X24.0
G3 X25.0 Y64.0 I0.0 J1.0
G1 Y69.0
G1 X24.7071 Y69.2929
G1 X25.0 Y69.0
G1 X53.0
G1 X53.2929 Y69.2929
G1 X53.0 Y69.0
G1 Y64.0
G3 X54.0 Y63.0 I1.0 J0.0
G1 X93.0
G1 X93.2929 Y63.2929
G1 X93.0 Y63.0
G1 Y39.0
G0 Z-4.0
G1 Y35.0
G1 F300.0 Z-6.0
G1 F800.0 Y15.0
G3 X94.0 Y14.0 I1.0 J0.0
G1 X99.0
G1 X99.2929 Y14.2929
G1 X99.0 Y14.0
G1 Y-14.0
G1 X99.2929 Y-14.2929
G1 X99.0 Y-14.0
G1 X94.0
G3 X93.0 Y-15.0 I0.0 J-1.0
G1 Y-63.0
G1 X93.2929 Y-63.2929
G1 X93.0 Y-63.0
G1 X60.0
G3 X59.0 Y-64.0 I0.0 J-1.0
G1 Y-69.0
G1 X59.2929 Y-69.2929
G1 X59.0 Y-69.0
G1 X21.0
G1 X20.7071 Y-69.2929
G1 X21.0 Y-69.0
G1 Y-64.0
G3 X20.0 Y-63.0 I-1.0 J0.0
G1 X2.0
G0 Z-4.0
G1 X-2.0
G1 F300.0 Z-6.0
G1 F800.0 X-20.0
G3 X-21.0 Y-64.0 I0.0 J-1.0
G1 Y-69.0
G1 X-20.7071 Y-69.2929
G1 X-21.0 Y-69.0
G1 X-59.0
G1 X-59.2929 Y-69.2929
G1 X-59.0 Y-69.0
G1 Y-64.0
G3 X-60.0 Y-63.0 I-1.0 J0.0
G1 X-93.0
G1 X-93.2929 Y-63.2929
G1 X-93.0 Y-63.0
G1 Y-39.0
G0 Z-4.0
G1 Y-35.0
G1 F300.0 Z-6.0
G1 F800.0 Y-15.0
G3 X-94.0 Y-14.0 I-1.0 J0.0
G1 X-99.0
G1 X-99.2929 Y-14.2929
G1 X-99.0 Y-14.0
G1 Y14.0
G1 X-99.2929 Y14.2929
G1 X-99.0 Y14.0
G0 Z3.0
M5
M30
