( Made using CamBam - http://www.cambam.co.uk )
( PlaqueBase 3/2/2017 1:13:58 PM )
( T0 : 2.0 )
G21 G90 G64 G40
G0 Z3.0
( T0 : 2.0 )
T0 M6
( Contour1 )
G17
M3 S1000
G0 X4.995 Y23.0
G1 F300.0 Z-1.0
G2 F800.0 X2.0025 Y21.2723 I-1.995 J0.0
G2 Y24.7277 I0.9975 J1.7277
G2 X4.995 Y23.0 I0.9975 J-1.7277
G1 F300.0 Z-2.0
G2 F800.0 X2.0025 Y21.2723 I-1.995 J0.0
G2 Y24.7277 I0.9975 J1.7277
G2 X4.995 Y23.0 I0.9975 J-1.7277
G1 F300.0 Z-3.0
G2 F800.0 X2.0025 Y21.2723 I-1.995 J0.0
G2 Y24.7277 I0.9975 J1.7277
G2 X4.995 Y23.0 I0.9975 J-1.7277
G0 Z3.0
G0 X17.2802 Y19.7276
G1 F300.0 Z-1.0
G2 F800.0 X18.2128 Y20.9449 I1.9326 J-0.5148
G2 X21.2128 Y19.2128 I1.0 J-1.7321
G2 X18.2128 Y17.4808 I-2.0 J0.0
G2 X17.2802 Y19.7276 I1.0 J1.7321
G1 F300.0 Z-2.0
G2 F800.0 X18.2128 Y20.9449 I1.9326 J-0.5148
G2 X21.2128 Y19.2128 I1.0 J-1.7321
G2 X18.2128 Y17.4808 I-2.0 J0.0
G2 X17.2802 Y19.7276 I1.0 J1.7321
G1 F300.0 Z-3.0
G2 F800.0 X18.2128 Y20.9449 I1.9326 J-0.5148
G2 X21.2128 Y19.2128 I1.0 J-1.7321
G2 X18.2128 Y17.4808 I-2.0 J0.0
G2 X17.2802 Y19.7276 I1.0 J1.7321
G0 Z3.0
G0 X28.2614 Y28.5655
G1 F300.0 Z-1.0
G2 F800.0 X28.8194 Y31.5515 I1.5581 J1.254
G2 X31.8194 Y29.8194 I1.0 J-1.7321
G2 X28.8194 Y28.0874 I-2.0 J0.0
G2 X28.2614 Y28.5655 I1.0 J1.7321
G1 F300.0 Z-2.0
G2 F800.0 X28.8194 Y31.5515 I1.5581 J1.254
G2 X31.8194 Y29.8194 I1.0 J-1.7321
G2 X28.8194 Y28.0874 I-2.0 J0.0
G2 X28.2614 Y28.5655 I1.0 J1.7321
G1 F300.0 Z-3.0
G2 F800.0 X28.8194 Y31.5515 I1.5581 J1.254
G2 X31.8194 Y29.8194 I1.0 J-1.7321
G2 X28.8194 Y28.0874 I-2.0 J0.0
G2 X28.2614 Y28.5655 I1.0 J1.7321
G0 Z3.0
G0 X33.1029 Y38.2125
G1 F300.0 Z-1.0
G2 F800.0 X33.0 Y38.2679 I0.8971 J1.7875
G2 Y41.7321 I1.0 J1.7321
G2 X36.0 Y40.0 I1.0 J-1.7321
G2 X33.1029 Y38.2125 I-2.0 J0.0
G1 F300.0 Z-2.0
G2 F800.0 X33.0 Y38.2679 I0.8971 J1.7875
G2 Y41.7321 I1.0 J1.7321
G2 X36.0 Y40.0 I1.0 J-1.7321
G2 X33.1029 Y38.2125 I-2.0 J0.0
G1 F300.0 Z-3.0
G2 F800.0 X33.0 Y38.2679 I0.8971 J1.7875
G2 Y41.7321 I1.0 J1.7321
G2 X36.0 Y40.0 I1.0 J-1.7321
G2 X33.1029 Y38.2125 I-2.0 J0.0
G0 Z3.0
G0 X33.9177 Y58.0017
G1 F300.0 Z-1.0
G2 F800.0 X33.0 Y58.2679 I0.0823 J1.9983
G2 Y61.7321 I1.0 J1.7321
G2 X36.0 Y60.0 I1.0 J-1.7321
G2 X33.9177 Y58.0017 I-2.0 J0.0
G1 F300.0 Z-2.0
G2 F800.0 X33.0 Y58.2679 I0.0823 J1.9983
G2 Y61.7321 I1.0 J1.7321
G2 X36.0 Y60.0 I1.0 J-1.7321
G2 X33.9177 Y58.0017 I-2.0 J0.0
G1 F300.0 Z-3.0
G2 F800.0 X33.0 Y58.2679 I0.0823 J1.9983
G2 Y61.7321 I1.0 J1.7321
G2 X36.0 Y60.0 I1.0 J-1.7321
G2 X33.9177 Y58.0017 I-2.0 J0.0
G0 Z3.0
G0 X27.9424 Y70.9569
G1 F300.0 Z-1.0
G2 F800.0 X25.875 Y71.0514 I-0.9424 J2.0431
G2 Y74.9486 I1.125 J1.9486
G2 X29.25 Y73.0 I1.125 J-1.9486
G2 X27.9424 Y70.9569 I-2.25 J0.0
G1 F300.0 Z-2.0
G2 F800.0 X25.875 Y71.0514 I-0.9424 J2.0431
G2 Y74.9486 I1.125 J1.9486
G2 X29.25 Y73.0 I1.125 J-1.9486
G2 X27.9424 Y70.9569 I-2.25 J0.0
G1 F300.0 Z-3.0
G2 F800.0 X25.875 Y71.0514 I-0.9424 J2.0431
G2 Y74.9486 I1.125 J1.9486
G2 X29.25 Y73.0 I1.125 J-1.9486
G2 X27.9424 Y70.9569 I-2.25 J0.0
G0 Z3.0
G0 X4.8265 Y60.8024
G1 F300.0 Z-1.0
G2 F800.0 X4.995 Y60.0 I-1.8265 J-0.8024
G2 X2.0025 Y58.2723 I-1.995 J0.0
G2 Y61.7277 I0.9975 J1.7277
G2 X4.8265 Y60.8024 I0.9975 J-1.7277
G1 F300.0 Z-2.0
G2 F800.0 X4.995 Y60.0 I-1.8265 J-0.8024
G2 X2.0025 Y58.2723 I-1.995 J0.0
G2 Y61.7277 I0.9975 J1.7277
G2 X4.8265 Y60.8024 I0.9975 J-1.7277
G1 F300.0 Z-3.0
G2 F800.0 X4.995 Y60.0 I-1.8265 J-0.8024
G2 X2.0025 Y58.2723 I-1.995 J0.0
G2 Y61.7277 I0.9975 J1.7277
G2 X4.8265 Y60.8024 I0.9975 J-1.7277
G0 Z3.0
G0 X26.2445 Y120.8806
G1 F300.0 Z-1.0
G2 F800.0 X25.875 Y121.0514 I0.7555 J2.1194
G2 Y124.9486 I1.125 J1.9486
G2 X29.25 Y123.0 I1.125 J-1.9486
G2 X26.2445 Y120.8806 I-2.25 J0.0
G1 F300.0 Z-2.0
G2 F800.0 X25.875 Y121.0514 I0.7555 J2.1194
G2 Y124.9486 I1.125 J1.9486
G2 X29.25 Y123.0 I1.125 J-1.9486
G2 X26.2445 Y120.8806 I-2.25 J0.0
G1 F300.0 Z-3.0
G2 F800.0 X25.875 Y121.0514 I0.7555 J2.1194
G2 Y124.9486 I1.125 J1.9486
G2 X29.25 Y123.0 I1.125 J-1.9486
G2 X26.2445 Y120.8806 I-2.25 J0.0
G0 Z3.0
G0 X6.5747 Y134.1051
G1 F300.0 Z-1.0
G2 F800.0 X3.25 Y133.3349 I-2.0747 J1.3949
G2 Y137.6651 I1.25 J2.1651
G2 X7.0 Y135.5 I1.25 J-2.1651
G2 X6.5747 Y134.1051 I-2.5 J0.0
G1 F300.0 Z-2.0
G2 F800.0 X3.25 Y133.3349 I-2.0747 J1.3949
G2 Y137.6651 I1.25 J2.1651
G2 X7.0 Y135.5 I1.25 J-2.1651
G2 X6.5747 Y134.1051 I-2.5 J0.0
G1 F300.0 Z-3.0
G2 F800.0 X3.25 Y133.3349 I-2.0747 J1.3949
G2 Y137.6651 I1.25 J2.1651
G2 X7.0 Y135.5 I1.25 J-2.1651
G2 X6.5747 Y134.1051 I-2.5 J0.0
G0 Z3.0
G0 X75.0258 Y71.3515
G1 F300.0 Z-1.0
G2 F800.0 X75.5 Y71.7321 I1.4742 J-1.3515
G2 X78.5 Y70.0 I1.0 J-1.7321
G2 X75.5 Y68.2679 I-2.0 J0.0
G2 X75.0258 Y71.3515 I1.0 J1.7321
G1 F300.0 Z-2.0
G2 F800.0 X75.5 Y71.7321 I1.4742 J-1.3515
G2 X78.5 Y70.0 I1.0 J-1.7321
G2 X75.5 Y68.2679 I-2.0 J0.0
G2 X75.0258 Y71.3515 I1.0 J1.7321
G1 F300.0 Z-3.0
G2 F800.0 X75.5 Y71.7321 I1.4742 J-1.3515
G2 X78.5 Y70.0 I1.0 J-1.7321
G2 X75.5 Y68.2679 I-2.0 J0.0
G2 X75.0258 Y71.3515 I1.0 J1.7321
G0 Z3.0
G0 X121.5008 Y70.0557
G1 F300.0 Z-1.0
G2 F800.0 X122.5 Y71.7321 I1.9992 J-0.0557
G2 X125.5 Y70.0 I1.0 J-1.7321
G2 X122.5 Y68.2679 I-2.0 J0.0
G2 X121.5008 Y70.0557 I1.0 J1.7321
G1 F300.0 Z-2.0
G2 F800.0 X122.5 Y71.7321 I1.9992 J-0.0557
G2 X125.5 Y70.0 I1.0 J-1.7321
G2 X122.5 Y68.2679 I-2.0 J0.0
G2 X121.5008 Y70.0557 I1.0 J1.7321
G1 F300.0 Z-3.0
G2 F800.0 X122.5 Y71.7321 I1.9992 J-0.0557
G2 X125.5 Y70.0 I1.0 J-1.7321
G2 X122.5 Y68.2679 I-2.0 J0.0
G2 X121.5008 Y70.0557 I1.0 J1.7321
G0 Z3.0
G0 X164.0492 Y60.4408
G1 F300.0 Z-1.0
G2 F800.0 X165.0 Y61.7321 I1.9508 J-0.4408
G2 X168.0 Y60.0 I1.0 J-1.7321
G2 X165.0 Y58.2679 I-2.0 J0.0
G2 X164.0492 Y60.4408 I1.0 J1.7321
G1 F300.0 Z-2.0
G2 F800.0 X165.0 Y61.7321 I1.9508 J-0.4408
G2 X168.0 Y60.0 I1.0 J-1.7321
G2 X165.0 Y58.2679 I-2.0 J0.0
G2 X164.0492 Y60.4408 I1.0 J1.7321
G1 F300.0 Z-3.0
G2 F800.0 X165.0 Y61.7321 I1.9508 J-0.4408
G2 X168.0 Y60.0 I1.0 J-1.7321
G2 X165.0 Y58.2679 I-2.0 J0.0
G2 X164.0492 Y60.4408 I1.0 J1.7321
G0 Z3.0
G0 X171.6941 Y71.1677
G1 F300.0 Z-1.0
G2 F800.0 X171.875 Y74.9486 I1.3059 J1.8323
G2 X175.25 Y73.0 I1.125 J-1.9486
G2 X171.875 Y71.0514 I-2.25 J0.0
G2 X171.6941 Y71.1677 I1.125 J1.9486
G1 F300.0 Z-2.0
G2 F800.0 X171.875 Y74.9486 I1.3059 J1.8323
G2 X175.25 Y73.0 I1.125 J-1.9486
G2 X171.875 Y71.0514 I-2.25 J0.0
G2 X171.6941 Y71.1677 I1.125 J1.9486
G1 F300.0 Z-3.0
G2 F800.0 X171.875 Y74.9486 I1.3059 J1.8323
G2 X175.25 Y73.0 I1.125 J-1.9486
G2 X171.875 Y71.0514 I-2.25 J0.0
G2 X171.6941 Y71.1677 I1.125 J1.9486
G0 Z3.0
G0 X195.2592 Y57.9746
G1 F300.0 Z-1.0
G2 F800.0 X196.0025 Y58.7277 I1.7408 J-0.9746
G2 X198.995 Y57.0 I0.9975 J-1.7277
G2 X196.0025 Y55.2723 I-1.995 J0.0
G2 X195.2592 Y57.9746 I0.9975 J1.7277
G1 F300.0 Z-2.0
G2 F800.0 X196.0025 Y58.7277 I1.7408 J-0.9746
G2 X198.995 Y57.0 I0.9975 J-1.7277
G2 X196.0025 Y55.2723 I-1.995 J0.0
G2 X195.2592 Y57.9746 I0.9975 J1.7277
G1 F300.0 Z-3.0
G2 F800.0 X196.0025 Y58.7277 I1.7408 J-0.9746
G2 X198.995 Y57.0 I0.9975 J-1.7277
G2 X196.0025 Y55.2723 I-1.995 J0.0
G2 X195.2592 Y57.9746 I0.9975 J1.7277
G0 Z3.0
G0 X167.7041 Y41.0469
G1 F300.0 Z-1.0
G2 F800.0 X168.0 Y40.0 I-1.7041 J-1.0469
G2 X165.0 Y38.2679 I-2.0 J0.0
G2 Y41.7321 I1.0 J1.7321
G2 X167.7041 Y41.0469 I1.0 J-1.7321
G1 F300.0 Z-2.0
G2 F800.0 X168.0 Y40.0 I-1.7041 J-1.0469
G2 X165.0 Y38.2679 I-2.0 J0.0
G2 Y41.7321 I1.0 J1.7321
G2 X167.7041 Y41.0469 I1.0 J-1.7321
G1 F300.0 Z-3.0
G2 F800.0 X168.0 Y40.0 I-1.7041 J-1.0469
G2 X165.0 Y38.2679 I-2.0 J0.0
G2 Y41.7321 I1.0 J1.7321
G2 X167.7041 Y41.0469 I1.0 J-1.7321
G0 Z3.0
G0 X169.7498 Y31.7725
G1 F300.0 Z-1.0
G2 F800.0 X172.1806 Y29.8194 I0.4308 J-1.9531
G2 X169.1806 Y28.0874 I-2.0 J0.0
G2 Y31.5515 I1.0 J1.7321
G2 X169.7498 Y31.7725 I1.0 J-1.7321
G1 F300.0 Z-2.0
G2 F800.0 X172.1806 Y29.8194 I0.4308 J-1.9531
G2 X169.1806 Y28.0874 I-2.0 J0.0
G2 Y31.5515 I1.0 J1.7321
G2 X169.7498 Y31.7725 I1.0 J-1.7321
G1 F300.0 Z-3.0
G2 F800.0 X172.1806 Y29.8194 I0.4308 J-1.9531
G2 X169.1806 Y28.0874 I-2.0 J0.0
G2 Y31.5515 I1.0 J1.7321
G2 X169.7498 Y31.7725 I1.0 J-1.7321
G0 Z3.0
G0 X179.4669 Y20.7152
G1 F300.0 Z-1.0
G2 F800.0 X179.7872 Y20.9449 I1.3202 J-1.5023
G2 X182.7872 Y19.2128 I1.0 J-1.7321
G2 X179.7872 Y17.4808 I-2.0 J0.0
G2 X179.4669 Y20.7152 I1.0 J1.7321
G1 F300.0 Z-2.0
G2 F800.0 X179.7872 Y20.9449 I1.3202 J-1.5023
G2 X182.7872 Y19.2128 I1.0 J-1.7321
G2 X179.7872 Y17.4808 I-2.0 J0.0
G2 X179.4669 Y20.7152 I1.0 J1.7321
G1 F300.0 Z-3.0
G2 F800.0 X179.7872 Y20.9449 I1.3202 J-1.5023
G2 X182.7872 Y19.2128 I1.0 J-1.7321
G2 X179.7872 Y17.4808 I-2.0 J0.0
G2 X179.4669 Y20.7152 I1.0 J1.7321
G0 Z3.0
G0 X195.0217 Y22.7422
G1 F300.0 Z-1.0
G2 F800.0 X196.0025 Y24.7277 I1.9783 J0.2578
G2 X198.995 Y23.0 I0.9975 J-1.7277
G2 X196.0025 Y21.2723 I-1.995 J0.0
G2 X195.0217 Y22.7422 I0.9975 J1.7277
G1 F300.0 Z-2.0
G2 F800.0 X196.0025 Y24.7277 I1.9783 J0.2578
G2 X198.995 Y23.0 I0.9975 J-1.7277
G2 X196.0025 Y21.2723 I-1.995 J0.0
G2 X195.0217 Y22.7422 I0.9975 J1.7277
G1 F300.0 Z-3.0
G2 F800.0 X196.0025 Y24.7277 I1.9783 J0.2578
G2 X198.995 Y23.0 I0.9975 J-1.7277
G2 X196.0025 Y21.2723 I-1.995 J0.0
G2 X195.0217 Y22.7422 I0.9975 J1.7277
G0 Z3.0
G0 X112.0 Y22.9939
G1 F300.0 Z-1.0
G2 F800.0 X109.0 Y21.2679 I-2.0 J0.0061
G2 Y24.7321 I1.0 J1.7321
G2 X112.0 Y23.0 I1.0 J-1.7321
G2 Y22.9939 I-2.0 J0.0
G1 F300.0 Z-2.0
G2 F800.0 X109.0 Y21.2679 I-2.0 J0.0061
G2 Y24.7321 I1.0 J1.7321
G2 X112.0 Y23.0 I1.0 J-1.7321
G2 Y22.9939 I-2.0 J0.0
G1 F300.0 Z-3.0
G2 F800.0 X109.0 Y21.2679 I-2.0 J0.0061
G2 Y24.7321 I1.0 J1.7321
G2 X112.0 Y23.0 I1.0 J-1.7321
G2 Y22.9939 I-2.0 J0.0
G0 Z3.0
G0 X92.0 Y22.9994
G1 F300.0 Z-1.0
G2 F800.0 X89.0 Y21.2679 I-2.0 J0.0006
G2 Y24.7321 I1.0 J1.7321
G2 X92.0 Y23.0 I1.0 J-1.7321
G2 Y22.9994 I-2.0 J0.0
G1 F300.0 Z-2.0
G2 F800.0 X89.0 Y21.2679 I-2.0 J0.0006
G2 Y24.7321 I1.0 J1.7321
G2 X92.0 Y23.0 I1.0 J-1.7321
G2 Y22.9994 I-2.0 J0.0
G1 F300.0 Z-3.0
G2 F800.0 X89.0 Y21.2679 I-2.0 J0.0006
G2 Y24.7321 I1.0 J1.7321
G2 X92.0 Y23.0 I1.0 J-1.7321
G2 Y22.9994 I-2.0 J0.0
G0 Z3.0
G0 X171.5838 Y121.2516
G1 F300.0 Z-1.0
G2 F800.0 X171.875 Y124.9486 I1.4162 J1.7484
G2 X175.25 Y123.0 I1.125 J-1.9486
G2 X171.875 Y121.0514 I-2.25 J0.0
G2 X171.5838 Y121.2516 I1.125 J1.9486
G1 F300.0 Z-2.0
G2 F800.0 X171.875 Y124.9486 I1.4162 J1.7484
G2 X175.25 Y123.0 I1.125 J-1.9486
G2 X171.875 Y121.0514 I-2.25 J0.0
G2 X171.5838 Y121.2516 I1.125 J1.9486
G1 F300.0 Z-3.0
G2 F800.0 X171.875 Y124.9486 I1.4162 J1.7484
G2 X175.25 Y123.0 I1.125 J-1.9486
G2 X171.875 Y121.0514 I-2.25 J0.0
G2 X171.5838 Y121.2516 I1.125 J1.9486
G0 Z3.0
G0 X193.3523 Y134.2205
G1 F300.0 Z-1.0
G2 F800.0 X194.25 Y137.6651 I2.1477 J1.2795
G2 X198.0 Y135.5 I1.25 J-2.1651
G2 X194.25 Y133.3349 I-2.5 J0.0
G2 X193.3523 Y134.2205 I1.25 J2.1651
G1 F300.0 Z-2.0
G2 F800.0 X194.25 Y137.6651 I2.1477 J1.2795
G2 X198.0 Y135.5 I1.25 J-2.1651
G2 X194.25 Y133.3349 I-2.5 J0.0
G2 X193.3523 Y134.2205 I1.25 J2.1651
G1 F300.0 Z-3.0
G2 F800.0 X194.25 Y137.6651 I2.1477 J1.2795
G2 X198.0 Y135.5 I1.25 J-2.1651
G2 X194.25 Y133.3349 I-2.5 J0.0
G2 X193.3523 Y134.2205 I1.25 J2.1651
( Contour2 )
S1000
G0 Z3.0
G0 X196.75 Y135.5
G1 F300.0 Z-1.0
G2 F800.0 X194.875 Y134.4175 I-1.25 J0.0
G2 Y136.5825 I0.625 J1.0825
G2 X196.75 Y135.5 I0.625 J-1.0825
G1 F300.0 Z-2.0
G2 F800.0 X194.875 Y134.4175 I-1.25 J0.0
G2 Y136.5825 I0.625 J1.0825
G2 X196.75 Y135.5 I0.625 J-1.0825
G1 F300.0 Z-3.0
G2 F800.0 X194.875 Y134.4175 I-1.25 J0.0
G2 Y136.5825 I0.625 J1.0825
G2 X196.75 Y135.5 I0.625 J-1.0825
G1 F300.0 Z-4.0
G2 F800.0 X194.875 Y134.4175 I-1.25 J0.0
G2 Y136.5825 I0.625 J1.0825
G2 X196.75 Y135.5 I0.625 J-1.0825
G1 F300.0 Z-5.0
G2 F800.0 X194.875 Y134.4175 I-1.25 J0.0
G2 Y136.5825 I0.625 J1.0825
G2 X196.75 Y135.5 I0.625 J-1.0825
G1 F300.0 Z-6.0
G2 F800.0 X194.875 Y134.4175 I-1.25 J0.0
G2 Y136.5825 I0.625 J1.0825
G2 X196.75 Y135.5 I0.625 J-1.0825
G0 Z3.0
G0 X173.7522 Y123.3959
G1 F300.0 Z-1.0
G2 F800.0 X173.85 Y123.0 I-0.7522 J-0.3959
G2 X172.575 Y122.2639 I-0.85 J0.0
G2 Y123.7361 I0.425 J0.7361
G2 X173.7522 Y123.3959 I0.425 J-0.7361
G1 F300.0 Z-2.0
G2 F800.0 X173.85 Y123.0 I-0.7522 J-0.3959
G2 X172.575 Y122.2639 I-0.85 J0.0
G2 Y123.7361 I0.425 J0.7361
G2 X173.7522 Y123.3959 I0.425 J-0.7361
G1 F300.0 Z-3.0
G2 F800.0 X173.85 Y123.0 I-0.7522 J-0.3959
G2 X172.575 Y122.2639 I-0.85 J0.0
G2 Y123.7361 I0.425 J0.7361
G2 X173.7522 Y123.3959 I0.425 J-0.7361
G1 F300.0 Z-4.0
G2 F800.0 X173.85 Y123.0 I-0.7522 J-0.3959
G2 X172.575 Y122.2639 I-0.85 J0.0
G2 Y123.7361 I0.425 J0.7361
G2 X173.7522 Y123.3959 I0.425 J-0.7361
G1 F300.0 Z-5.0
G2 F800.0 X173.85 Y123.0 I-0.7522 J-0.3959
G2 X172.575 Y122.2639 I-0.85 J0.0
G2 Y123.7361 I0.425 J0.7361
G2 X173.7522 Y123.3959 I0.425 J-0.7361
G1 F300.0 Z-6.0
G2 F800.0 X173.85 Y123.0 I-0.7522 J-0.3959
G2 X172.575 Y122.2639 I-0.85 J0.0
G2 Y123.7361 I0.425 J0.7361
G2 X173.7522 Y123.3959 I0.425 J-0.7361
G0 Z3.0
G0 X173.0127 Y73.8499
G1 F300.0 Z-1.0
G2 F800.0 X173.85 Y73.0 I-0.0127 J-0.8499
G2 X172.575 Y72.2639 I-0.85 J0.0
G2 Y73.7361 I0.425 J0.7361
G2 X173.0127 Y73.8499 I0.425 J-0.7361
G1 F300.0 Z-2.0
G2 F800.0 X173.85 Y73.0 I-0.0127 J-0.8499
G2 X172.575 Y72.2639 I-0.85 J0.0
G2 Y73.7361 I0.425 J0.7361
G2 X173.0127 Y73.8499 I0.425 J-0.7361
G1 F300.0 Z-3.0
G2 F800.0 X173.85 Y73.0 I-0.0127 J-0.8499
G2 X172.575 Y72.2639 I-0.85 J0.0
G2 Y73.7361 I0.425 J0.7361
G2 X173.0127 Y73.8499 I0.425 J-0.7361
G1 F300.0 Z-4.0
G2 F800.0 X173.85 Y73.0 I-0.0127 J-0.8499
G2 X172.575 Y72.2639 I-0.85 J0.0
G2 Y73.7361 I0.425 J0.7361
G2 X173.0127 Y73.8499 I0.425 J-0.7361
G1 F300.0 Z-5.0
G2 F800.0 X173.85 Y73.0 I-0.0127 J-0.8499
G2 X172.575 Y72.2639 I-0.85 J0.0
G2 Y73.7361 I0.425 J0.7361
G2 X173.0127 Y73.8499 I0.425 J-0.7361
G1 F300.0 Z-6.0
G2 F800.0 X173.85 Y73.0 I-0.0127 J-0.8499
G2 X172.575 Y72.2639 I-0.85 J0.0
G2 Y73.7361 I0.425 J0.7361
G2 X173.0127 Y73.8499 I0.425 J-0.7361
G0 Z3.0
G0 X166.2259 Y60.4461
G1 F300.0 Z-1.0
G2 F800.0 X166.5 Y60.0 I-0.2259 J-0.4461
G2 X165.75 Y59.567 I-0.5 J0.0
G2 Y60.433 I0.25 J0.433
G2 X166.2259 Y60.4461 I0.25 J-0.433
G1 F300.0 Z-2.0
G2 F800.0 X166.5 Y60.0 I-0.2259 J-0.4461
G2 X165.75 Y59.567 I-0.5 J0.0
G2 Y60.433 I0.25 J0.433
G2 X166.2259 Y60.4461 I0.25 J-0.433
G1 F300.0 Z-3.0
G2 F800.0 X166.5 Y60.0 I-0.2259 J-0.4461
G2 X165.75 Y59.567 I-0.5 J0.0
G2 Y60.433 I0.25 J0.433
G2 X166.2259 Y60.4461 I0.25 J-0.433
G1 F300.0 Z-4.0
G2 F800.0 X166.5 Y60.0 I-0.2259 J-0.4461
G2 X165.75 Y59.567 I-0.5 J0.0
G2 Y60.433 I0.25 J0.433
G2 X166.2259 Y60.4461 I0.25 J-0.433
G1 F300.0 Z-5.0
G2 F800.0 X166.5 Y60.0 I-0.2259 J-0.4461
G2 X165.75 Y59.567 I-0.5 J0.0
G2 Y60.433 I0.25 J0.433
G2 X166.2259 Y60.4461 I0.25 J-0.433
G1 F300.0 Z-6.0
G2 F800.0 X166.5 Y60.0 I-0.2259 J-0.4461
G2 X165.75 Y59.567 I-0.5 J0.0
G2 Y60.433 I0.25 J0.433
G2 X166.2259 Y60.4461 I0.25 J-0.433
G0 Z3.0
G0 X166.0055 Y40.5
G1 F300.0 Z-1.0
G2 F800.0 X166.5 Y40.0 I-0.0055 J-0.5
G2 X165.75 Y39.567 I-0.5 J0.0
G2 Y40.433 I0.25 J0.433
G2 X166.0055 Y40.5 I0.25 J-0.433
G1 F300.0 Z-2.0
G2 F800.0 X166.5 Y40.0 I-0.0055 J-0.5
G2 X165.75 Y39.567 I-0.5 J0.0
G2 Y40.433 I0.25 J0.433
G2 X166.0055 Y40.5 I0.25 J-0.433
G1 F300.0 Z-3.0
G2 F800.0 X166.5 Y40.0 I-0.0055 J-0.5
G2 X165.75 Y39.567 I-0.5 J0.0
G2 Y40.433 I0.25 J0.433
G2 X166.0055 Y40.5 I0.25 J-0.433
G1 F300.0 Z-4.0
G2 F800.0 X166.5 Y40.0 I-0.0055 J-0.5
G2 X165.75 Y39.567 I-0.5 J0.0
G2 Y40.433 I0.25 J0.433
G2 X166.0055 Y40.5 I0.25 J-0.433
G1 F300.0 Z-5.0
G2 F800.0 X166.5 Y40.0 I-0.0055 J-0.5
G2 X165.75 Y39.567 I-0.5 J0.0
G2 Y40.433 I0.25 J0.433
G2 X166.0055 Y40.5 I0.25 J-0.433
G1 F300.0 Z-6.0
G2 F800.0 X166.5 Y40.0 I-0.0055 J-0.5
G2 X165.75 Y39.567 I-0.5 J0.0
G2 Y40.433 I0.25 J0.433
G2 X166.0055 Y40.5 I0.25 J-0.433
G0 Z3.0
G0 X169.9985 Y30.2851
G1 F300.0 Z-1.0
G2 F800.0 X170.6806 Y29.8194 I0.182 J-0.4657
G2 X169.9306 Y29.3864 I-0.5 J0.0
G2 Y30.2525 I0.25 J0.433
G2 X169.9985 Y30.2851 I0.25 J-0.433
G1 F300.0 Z-2.0
G2 F800.0 X170.6806 Y29.8194 I0.182 J-0.4657
G2 X169.9306 Y29.3864 I-0.5 J0.0
G2 Y30.2525 I0.25 J0.433
G2 X169.9985 Y30.2851 I0.25 J-0.433
G1 F300.0 Z-3.0
G2 F800.0 X170.6806 Y29.8194 I0.182 J-0.4657
G2 X169.9306 Y29.3864 I-0.5 J0.0
G2 Y30.2525 I0.25 J0.433
G2 X169.9985 Y30.2851 I0.25 J-0.433
G1 F300.0 Z-4.0
G2 F800.0 X170.6806 Y29.8194 I0.182 J-0.4657
G2 X169.9306 Y29.3864 I-0.5 J0.0
G2 Y30.2525 I0.25 J0.433
G2 X169.9985 Y30.2851 I0.25 J-0.433
G1 F300.0 Z-5.0
G2 F800.0 X170.6806 Y29.8194 I0.182 J-0.4657
G2 X169.9306 Y29.3864 I-0.5 J0.0
G2 Y30.2525 I0.25 J0.433
G2 X169.9985 Y30.2851 I0.25 J-0.433
G1 F300.0 Z-6.0
G2 F800.0 X170.6806 Y29.8194 I0.182 J-0.4657
G2 X169.9306 Y29.3864 I-0.5 J0.0
G2 Y30.2525 I0.25 J0.433
G2 X169.9985 Y30.2851 I0.25 J-0.433
G0 Z3.0
G0 X180.4382 Y19.571
G1 F300.0 Z-1.0
G2 F800.0 X180.5372 Y19.6459 I0.3489 J-0.3581
G2 X181.2872 Y19.2128 I0.25 J-0.433
G2 X180.5372 Y18.7798 I-0.5 J0.0
G2 X180.4382 Y19.571 I0.25 J0.433
G1 F300.0 Z-2.0
G2 F800.0 X180.5372 Y19.6459 I0.3489 J-0.3581
G2 X181.2872 Y19.2128 I0.25 J-0.433
G2 X180.5372 Y18.7798 I-0.5 J0.0
G2 X180.4382 Y19.571 I0.25 J0.433
G1 F300.0 Z-3.0
G2 F800.0 X180.5372 Y19.6459 I0.3489 J-0.3581
G2 X181.2872 Y19.2128 I0.25 J-0.433
G2 X180.5372 Y18.7798 I-0.5 J0.0
G2 X180.4382 Y19.571 I0.25 J0.433
G1 F300.0 Z-4.0
G2 F800.0 X180.5372 Y19.6459 I0.3489 J-0.3581
G2 X181.2872 Y19.2128 I0.25 J-0.433
G2 X180.5372 Y18.7798 I-0.5 J0.0
G2 X180.4382 Y19.571 I0.25 J0.433
G1 F300.0 Z-5.0
G2 F800.0 X180.5372 Y19.6459 I0.3489 J-0.3581
G2 X181.2872 Y19.2128 I0.25 J-0.433
G2 X180.5372 Y18.7798 I-0.5 J0.0
G2 X180.4382 Y19.571 I0.25 J0.433
G1 F300.0 Z-6.0
G2 F800.0 X180.5372 Y19.6459 I0.3489 J-0.3581
G2 X181.2872 Y19.2128 I0.25 J-0.433
G2 X180.5372 Y18.7798 I-0.5 J0.0
G2 X180.4382 Y19.571 I0.25 J0.433
G0 Z3.0
G0 X196.5104 Y22.8986
G1 F300.0 Z-1.0
G2 F800.0 X196.75 Y23.433 I0.4896 J0.1014
G2 X197.5 Y23.0 I0.25 J-0.433
G2 X196.75 Y22.567 I-0.5 J0.0
G2 X196.5104 Y22.8986 I0.25 J0.433
G1 F300.0 Z-2.0
G2 F800.0 X196.75 Y23.433 I0.4896 J0.1014
G2 X197.5 Y23.0 I0.25 J-0.433
G2 X196.75 Y22.567 I-0.5 J0.0
G2 X196.5104 Y22.8986 I0.25 J0.433
G1 F300.0 Z-3.0
G2 F800.0 X196.75 Y23.433 I0.4896 J0.1014
G2 X197.5 Y23.0 I0.25 J-0.433
G2 X196.75 Y22.567 I-0.5 J0.0
G2 X196.5104 Y22.8986 I0.25 J0.433
G1 F300.0 Z-4.0
G2 F800.0 X196.75 Y23.433 I0.4896 J0.1014
G2 X197.5 Y23.0 I0.25 J-0.433
G2 X196.75 Y22.567 I-0.5 J0.0
G2 X196.5104 Y22.8986 I0.25 J0.433
G1 F300.0 Z-5.0
G2 F800.0 X196.75 Y23.433 I0.4896 J0.1014
G2 X197.5 Y23.0 I0.25 J-0.433
G2 X196.75 Y22.567 I-0.5 J0.0
G2 X196.5104 Y22.8986 I0.25 J0.433
G1 F300.0 Z-6.0
G2 F800.0 X196.75 Y23.433 I0.4896 J0.1014
G2 X197.5 Y23.0 I0.25 J-0.433
G2 X196.75 Y22.567 I-0.5 J0.0
G2 X196.5104 Y22.8986 I0.25 J0.433
G0 Z3.0
G0 X196.9928 Y56.5001
G1 F300.0 Z-1.0
G2 F800.0 X196.75 Y56.567 I0.0072 J0.4999
G2 Y57.433 I0.25 J0.433
G2 X197.5 Y57.0 I0.25 J-0.433
G2 X196.9928 Y56.5001 I-0.5 J0.0
G1 F300.0 Z-2.0
G2 F800.0 X196.75 Y56.567 I0.0072 J0.4999
G2 Y57.433 I0.25 J0.433
G2 X197.5 Y57.0 I0.25 J-0.433
G2 X196.9928 Y56.5001 I-0.5 J0.0
G1 F300.0 Z-3.0
G2 F800.0 X196.75 Y56.567 I0.0072 J0.4999
G2 Y57.433 I0.25 J0.433
G2 X197.5 Y57.0 I0.25 J-0.433
G2 X196.9928 Y56.5001 I-0.5 J0.0
G1 F300.0 Z-4.0
G2 F800.0 X196.75 Y56.567 I0.0072 J0.4999
G2 Y57.433 I0.25 J0.433
G2 X197.5 Y57.0 I0.25 J-0.433
G2 X196.9928 Y56.5001 I-0.5 J0.0
G1 F300.0 Z-5.0
G2 F800.0 X196.75 Y56.567 I0.0072 J0.4999
G2 Y57.433 I0.25 J0.433
G2 X197.5 Y57.0 I0.25 J-0.433
G2 X196.9928 Y56.5001 I-0.5 J0.0
G1 F300.0 Z-6.0
G2 F800.0 X196.75 Y56.567 I0.0072 J0.4999
G2 Y57.433 I0.25 J0.433
G2 X197.5 Y57.0 I0.25 J-0.433
G2 X196.9928 Y56.5001 I-0.5 J0.0
G0 Z3.0
G0 X123.9918 Y69.9097
G1 F300.0 Z-1.0
G2 F800.0 X123.25 Y69.567 I-0.4918 J0.0903
G2 Y70.433 I0.25 J0.433
G2 X124.0 Y70.0 I0.25 J-0.433
G2 X123.9918 Y69.9097 I-0.5 J0.0
G1 F300.0 Z-2.0
G2 F800.0 X123.25 Y69.567 I-0.4918 J0.0903
G2 Y70.433 I0.25 J0.433
G2 X124.0 Y70.0 I0.25 J-0.433
G2 X123.9918 Y69.9097 I-0.5 J0.0
G1 F300.0 Z-3.0
G2 F800.0 X123.25 Y69.567 I-0.4918 J0.0903
G2 Y70.433 I0.25 J0.433
G2 X124.0 Y70.0 I0.25 J-0.433
G2 X123.9918 Y69.9097 I-0.5 J0.0
G1 F300.0 Z-4.0
G2 F800.0 X123.25 Y69.567 I-0.4918 J0.0903
G2 Y70.433 I0.25 J0.433
G2 X124.0 Y70.0 I0.25 J-0.433
G2 X123.9918 Y69.9097 I-0.5 J0.0
G1 F300.0 Z-5.0
G2 F800.0 X123.25 Y69.567 I-0.4918 J0.0903
G2 Y70.433 I0.25 J0.433
G2 X124.0 Y70.0 I0.25 J-0.433
G2 X123.9918 Y69.9097 I-0.5 J0.0
G1 F300.0 Z-6.0
G2 F800.0 X123.25 Y69.567 I-0.4918 J0.0903
G2 Y70.433 I0.25 J0.433
G2 X124.0 Y70.0 I0.25 J-0.433
G2 X123.9918 Y69.9097 I-0.5 J0.0
G0 Z3.0
G0 X77.0 Y69.999
G1 F300.0 Z-1.0
G2 F800.0 X76.25 Y69.567 I-0.5 J0.001
G2 Y70.433 I0.25 J0.433
G2 X77.0 Y70.0 I0.25 J-0.433
G2 Y69.999 I-0.5 J0.0
G1 F300.0 Z-2.0
G2 F800.0 X76.25 Y69.567 I-0.5 J0.001
G2 Y70.433 I0.25 J0.433
G2 X77.0 Y70.0 I0.25 J-0.433
G2 Y69.999 I-0.5 J0.0
G1 F300.0 Z-3.0
G2 F800.0 X76.25 Y69.567 I-0.5 J0.001
G2 Y70.433 I0.25 J0.433
G2 X77.0 Y70.0 I0.25 J-0.433
G2 Y69.999 I-0.5 J0.0
G1 F300.0 Z-4.0
G2 F800.0 X76.25 Y69.567 I-0.5 J0.001
G2 Y70.433 I0.25 J0.433
G2 X77.0 Y70.0 I0.25 J-0.433
G2 Y69.999 I-0.5 J0.0
G1 F300.0 Z-5.0
G2 F800.0 X76.25 Y69.567 I-0.5 J0.001
G2 Y70.433 I0.25 J0.433
G2 X77.0 Y70.0 I0.25 J-0.433
G2 Y69.999 I-0.5 J0.0
G1 F300.0 Z-6.0
G2 F800.0 X76.25 Y69.567 I-0.5 J0.001
G2 Y70.433 I0.25 J0.433
G2 X77.0 Y70.0 I0.25 J-0.433
G2 Y69.999 I-0.5 J0.0
G0 Z3.0
G0 X34.487 Y60.1132
G1 F300.0 Z-1.0
G2 F800.0 X34.5 Y60.0 I-0.487 J-0.1132
G2 X33.75 Y59.567 I-0.5 J0.0
G2 Y60.433 I0.25 J0.433
G2 X34.487 Y60.1132 I0.25 J-0.433
G1 F300.0 Z-2.0
G2 F800.0 X34.5 Y60.0 I-0.487 J-0.1132
G2 X33.75 Y59.567 I-0.5 J0.0
G2 Y60.433 I0.25 J0.433
G2 X34.487 Y60.1132 I0.25 J-0.433
G1 F300.0 Z-3.0
G2 F800.0 X34.5 Y60.0 I-0.487 J-0.1132
G2 X33.75 Y59.567 I-0.5 J0.0
G2 Y60.433 I0.25 J0.433
G2 X34.487 Y60.1132 I0.25 J-0.433
G1 F300.0 Z-4.0
G2 F800.0 X34.5 Y60.0 I-0.487 J-0.1132
G2 X33.75 Y59.567 I-0.5 J0.0
G2 Y60.433 I0.25 J0.433
G2 X34.487 Y60.1132 I0.25 J-0.433
G1 F300.0 Z-5.0
G2 F800.0 X34.5 Y60.0 I-0.487 J-0.1132
G2 X33.75 Y59.567 I-0.5 J0.0
G2 Y60.433 I0.25 J0.433
G2 X34.487 Y60.1132 I0.25 J-0.433
G1 F300.0 Z-6.0
G2 F800.0 X34.5 Y60.0 I-0.487 J-0.1132
G2 X33.75 Y59.567 I-0.5 J0.0
G2 Y60.433 I0.25 J0.433
G2 X34.487 Y60.1132 I0.25 J-0.433
G0 Z3.0
G0 X27.427 Y72.265
G1 F300.0 Z-1.0
G2 F800.0 X26.575 Y72.2639 I-0.427 J0.735
G2 Y73.7361 I0.425 J0.7361
G2 X27.85 Y73.0 I0.425 J-0.7361
G2 X27.427 Y72.265 I-0.85 J0.0
G1 F300.0 Z-2.0
G2 F800.0 X26.575 Y72.2639 I-0.427 J0.735
G2 Y73.7361 I0.425 J0.7361
G2 X27.85 Y73.0 I0.425 J-0.7361
G2 X27.427 Y72.265 I-0.85 J0.0
G1 F300.0 Z-3.0
G2 F800.0 X26.575 Y72.2639 I-0.427 J0.735
G2 Y73.7361 I0.425 J0.7361
G2 X27.85 Y73.0 I0.425 J-0.7361
G2 X27.427 Y72.265 I-0.85 J0.0
G1 F300.0 Z-4.0
G2 F800.0 X26.575 Y72.2639 I-0.427 J0.735
G2 Y73.7361 I0.425 J0.7361
G2 X27.85 Y73.0 I0.425 J-0.7361
G2 X27.427 Y72.265 I-0.85 J0.0
G1 F300.0 Z-5.0
G2 F800.0 X26.575 Y72.2639 I-0.427 J0.735
G2 Y73.7361 I0.425 J0.7361
G2 X27.85 Y73.0 I0.425 J-0.7361
G2 X27.427 Y72.265 I-0.85 J0.0
G1 F300.0 Z-6.0
G2 F800.0 X26.575 Y72.2639 I-0.427 J0.735
G2 Y73.7361 I0.425 J0.7361
G2 X27.85 Y73.0 I0.425 J-0.7361
G2 X27.427 Y72.265 I-0.85 J0.0
G0 Z3.0
G0 X3.4468 Y60.2244
G1 F300.0 Z-1.0
G2 F800.0 X3.5 Y60.0 I-0.4468 J-0.2244
G2 X2.75 Y59.567 I-0.5 J0.0
G2 Y60.433 I0.25 J0.433
G2 X3.4468 Y60.2244 I0.25 J-0.433
G1 F300.0 Z-2.0
G2 F800.0 X3.5 Y60.0 I-0.4468 J-0.2244
G2 X2.75 Y59.567 I-0.5 J0.0
G2 Y60.433 I0.25 J0.433
G2 X3.4468 Y60.2244 I0.25 J-0.433
G1 F300.0 Z-3.0
G2 F800.0 X3.5 Y60.0 I-0.4468 J-0.2244
G2 X2.75 Y59.567 I-0.5 J0.0
G2 Y60.433 I0.25 J0.433
G2 X3.4468 Y60.2244 I0.25 J-0.433
G1 F300.0 Z-4.0
G2 F800.0 X3.5 Y60.0 I-0.4468 J-0.2244
G2 X2.75 Y59.567 I-0.5 J0.0
G2 Y60.433 I0.25 J0.433
G2 X3.4468 Y60.2244 I0.25 J-0.433
G1 F300.0 Z-5.0
G2 F800.0 X3.5 Y60.0 I-0.4468 J-0.2244
G2 X2.75 Y59.567 I-0.5 J0.0
G2 Y60.433 I0.25 J0.433
G2 X3.4468 Y60.2244 I0.25 J-0.433
G1 F300.0 Z-6.0
G2 F800.0 X3.5 Y60.0 I-0.4468 J-0.2244
G2 X2.75 Y59.567 I-0.5 J0.0
G2 Y60.433 I0.25 J0.433
G2 X3.4468 Y60.2244 I0.25 J-0.433
G0 Z3.0
G0 X33.5831 Y40.276
G1 F300.0 Z-1.0
G2 F800.0 X33.75 Y40.433 I0.4169 J-0.276
G2 X34.5 Y40.0 I0.25 J-0.433
G2 X33.75 Y39.567 I-0.5 J0.0
G2 X33.5831 Y40.276 I0.25 J0.433
G1 F300.0 Z-2.0
G2 F800.0 X33.75 Y40.433 I0.4169 J-0.276
G2 X34.5 Y40.0 I0.25 J-0.433
G2 X33.75 Y39.567 I-0.5 J0.0
G2 X33.5831 Y40.276 I0.25 J0.433
G1 F300.0 Z-3.0
G2 F800.0 X33.75 Y40.433 I0.4169 J-0.276
G2 X34.5 Y40.0 I0.25 J-0.433
G2 X33.75 Y39.567 I-0.5 J0.0
G2 X33.5831 Y40.276 I0.25 J0.433
G1 F300.0 Z-4.0
G2 F800.0 X33.75 Y40.433 I0.4169 J-0.276
G2 X34.5 Y40.0 I0.25 J-0.433
G2 X33.75 Y39.567 I-0.5 J0.0
G2 X33.5831 Y40.276 I0.25 J0.433
G1 F300.0 Z-5.0
G2 F800.0 X33.75 Y40.433 I0.4169 J-0.276
G2 X34.5 Y40.0 I0.25 J-0.433
G2 X33.75 Y39.567 I-0.5 J0.0
G2 X33.5831 Y40.276 I0.25 J0.433
G1 F300.0 Z-6.0
G2 F800.0 X33.75 Y40.433 I0.4169 J-0.276
G2 X34.5 Y40.0 I0.25 J-0.433
G2 X33.75 Y39.567 I-0.5 J0.0
G2 X33.5831 Y40.276 I0.25 J0.433
G0 Z3.0
G0 X29.9888 Y30.2899
G1 F300.0 Z-1.0
G2 F800.0 X30.3194 Y29.8194 I-0.1693 J-0.4705
G2 X29.5694 Y29.3864 I-0.5 J0.0
G2 Y30.2525 I0.25 J0.433
G2 X29.9888 Y30.2899 I0.25 J-0.433
G1 F300.0 Z-2.0
G2 F800.0 X30.3194 Y29.8194 I-0.1693 J-0.4705
G2 X29.5694 Y29.3864 I-0.5 J0.0
G2 Y30.2525 I0.25 J0.433
G2 X29.9888 Y30.2899 I0.25 J-0.433
G1 F300.0 Z-3.0
G2 F800.0 X30.3194 Y29.8194 I-0.1693 J-0.4705
G2 X29.5694 Y29.3864 I-0.5 J0.0
G2 Y30.2525 I0.25 J0.433
G2 X29.9888 Y30.2899 I0.25 J-0.433
G1 F300.0 Z-4.0
G2 F800.0 X30.3194 Y29.8194 I-0.1693 J-0.4705
G2 X29.5694 Y29.3864 I-0.5 J0.0
G2 Y30.2525 I0.25 J0.433
G2 X29.9888 Y30.2899 I0.25 J-0.433
G1 F300.0 Z-5.0
G2 F800.0 X30.3194 Y29.8194 I-0.1693 J-0.4705
G2 X29.5694 Y29.3864 I-0.5 J0.0
G2 Y30.2525 I0.25 J0.433
G2 X29.9888 Y30.2899 I0.25 J-0.433
G1 F300.0 Z-6.0
G2 F800.0 X30.3194 Y29.8194 I-0.1693 J-0.4705
G2 X29.5694 Y29.3864 I-0.5 J0.0
G2 Y30.2525 I0.25 J0.433
G2 X29.9888 Y30.2899 I0.25 J-0.433
G0 Z3.0
G0 X19.5615 Y19.5712
G1 F300.0 Z-1.0
G2 F800.0 X19.7128 Y19.2128 I-0.3486 J-0.3584
G2 X18.9628 Y18.7798 I-0.5 J0.0
G2 Y19.6459 I0.25 J0.433
G2 X19.5615 Y19.5712 I0.25 J-0.433
G1 F300.0 Z-2.0
G2 F800.0 X19.7128 Y19.2128 I-0.3486 J-0.3584
G2 X18.9628 Y18.7798 I-0.5 J0.0
G2 Y19.6459 I0.25 J0.433
G2 X19.5615 Y19.5712 I0.25 J-0.433
G1 F300.0 Z-3.0
G2 F800.0 X19.7128 Y19.2128 I-0.3486 J-0.3584
G2 X18.9628 Y18.7798 I-0.5 J0.0
G2 Y19.6459 I0.25 J0.433
G2 X19.5615 Y19.5712 I0.25 J-0.433
G1 F300.0 Z-4.0
G2 F800.0 X19.7128 Y19.2128 I-0.3486 J-0.3584
G2 X18.9628 Y18.7798 I-0.5 J0.0
G2 Y19.6459 I0.25 J0.433
G2 X19.5615 Y19.5712 I0.25 J-0.433
G1 F300.0 Z-5.0
G2 F800.0 X19.7128 Y19.2128 I-0.3486 J-0.3584
G2 X18.9628 Y18.7798 I-0.5 J0.0
G2 Y19.6459 I0.25 J0.433
G2 X19.5615 Y19.5712 I0.25 J-0.433
G1 F300.0 Z-6.0
G2 F800.0 X19.7128 Y19.2128 I-0.3486 J-0.3584
G2 X18.9628 Y18.7798 I-0.5 J0.0
G2 Y19.6459 I0.25 J0.433
G2 X19.5615 Y19.5712 I0.25 J-0.433
G0 Z3.0
G0 X3.4896 Y22.8986
G1 F300.0 Z-1.0
G2 F800.0 X2.75 Y22.567 I-0.4896 J0.1014
G2 Y23.433 I0.25 J0.433
G2 X3.5 Y23.0 I0.25 J-0.433
G2 X3.4896 Y22.8986 I-0.5 J0.0
G1 F300.0 Z-2.0
G2 F800.0 X2.75 Y22.567 I-0.4896 J0.1014
G2 Y23.433 I0.25 J0.433
G2 X3.5 Y23.0 I0.25 J-0.433
G2 X3.4896 Y22.8986 I-0.5 J0.0
G1 F300.0 Z-3.0
G2 F800.0 X2.75 Y22.567 I-0.4896 J0.1014
G2 Y23.433 I0.25 J0.433
G2 X3.5 Y23.0 I0.25 J-0.433
G2 X3.4896 Y22.8986 I-0.5 J0.0
G1 F300.0 Z-4.0
G2 F800.0 X2.75 Y22.567 I-0.4896 J0.1014
G2 Y23.433 I0.25 J0.433
G2 X3.5 Y23.0 I0.25 J-0.433
G2 X3.4896 Y22.8986 I-0.5 J0.0
G1 F300.0 Z-5.0
G2 F800.0 X2.75 Y22.567 I-0.4896 J0.1014
G2 Y23.433 I0.25 J0.433
G2 X3.5 Y23.0 I0.25 J-0.433
G2 X3.4896 Y22.8986 I-0.5 J0.0
G1 F300.0 Z-6.0
G2 F800.0 X2.75 Y22.567 I-0.4896 J0.1014
G2 Y23.433 I0.25 J0.433
G2 X3.5 Y23.0 I0.25 J-0.433
G2 X3.4896 Y22.8986 I-0.5 J0.0
G0 Z3.0
G0 X89.5 Y22.9994
G1 F300.0 Z-1.0
G2 F800.0 X89.75 Y23.433 I0.5 J0.0006
G2 X90.5 Y23.0 I0.25 J-0.433
G2 X89.75 Y22.567 I-0.5 J0.0
G2 X89.5 Y22.9994 I0.25 J0.433
G1 F300.0 Z-2.0
G2 F800.0 X89.75 Y23.433 I0.5 J0.0006
G2 X90.5 Y23.0 I0.25 J-0.433
G2 X89.75 Y22.567 I-0.5 J0.0
G2 X89.5 Y22.9994 I0.25 J0.433
G1 F300.0 Z-3.0
G2 F800.0 X89.75 Y23.433 I0.5 J0.0006
G2 X90.5 Y23.0 I0.25 J-0.433
G2 X89.75 Y22.567 I-0.5 J0.0
G2 X89.5 Y22.9994 I0.25 J0.433
G1 F300.0 Z-4.0
G2 F800.0 X89.75 Y23.433 I0.5 J0.0006
G2 X90.5 Y23.0 I0.25 J-0.433
G2 X89.75 Y22.567 I-0.5 J0.0
G2 X89.5 Y22.9994 I0.25 J0.433
G1 F300.0 Z-5.0
G2 F800.0 X89.75 Y23.433 I0.5 J0.0006
G2 X90.5 Y23.0 I0.25 J-0.433
G2 X89.75 Y22.567 I-0.5 J0.0
G2 X89.5 Y22.9994 I0.25 J0.433
G1 F300.0 Z-6.0
G2 F800.0 X89.75 Y23.433 I0.5 J0.0006
G2 X90.5 Y23.0 I0.25 J-0.433
G2 X89.75 Y22.567 I-0.5 J0.0
G2 X89.5 Y22.9994 I0.25 J0.433
G0 Z3.0
G0 X109.5 Y23.0
G1 F300.0 Z-1.0
G2 F800.0 X109.75 Y23.433 I0.5 J0.0
G2 X110.5 Y23.0 I0.25 J-0.433
G2 X109.75 Y22.567 I-0.5 J0.0
G2 X109.5 Y23.0 I0.25 J0.433
G1 F300.0 Z-2.0
G2 F800.0 X109.75 Y23.433 I0.5 J0.0
G2 X110.5 Y23.0 I0.25 J-0.433
G2 X109.75 Y22.567 I-0.5 J0.0
G2 X109.5 Y23.0 I0.25 J0.433
G1 F300.0 Z-3.0
G2 F800.0 X109.75 Y23.433 I0.5 J0.0
G2 X110.5 Y23.0 I0.25 J-0.433
G2 X109.75 Y22.567 I-0.5 J0.0
G2 X109.5 Y23.0 I0.25 J0.433
G1 F300.0 Z-4.0
G2 F800.0 X109.75 Y23.433 I0.5 J0.0
G2 X110.5 Y23.0 I0.25 J-0.433
G2 X109.75 Y22.567 I-0.5 J0.0
G2 X109.5 Y23.0 I0.25 J0.433
G1 F300.0 Z-5.0
G2 F800.0 X109.75 Y23.433 I0.5 J0.0
G2 X110.5 Y23.0 I0.25 J-0.433
G2 X109.75 Y22.567 I-0.5 J0.0
G2 X109.5 Y23.0 I0.25 J0.433
G1 F300.0 Z-6.0
G2 F800.0 X109.75 Y23.433 I0.5 J0.0
G2 X110.5 Y23.0 I0.25 J-0.433
G2 X109.75 Y22.567 I-0.5 J0.0
G2 X109.5 Y23.0 I0.25 J0.433
G0 Z3.0
G0 X27.5409 Y122.3443
G1 F300.0 Z-1.0
G2 F800.0 X26.575 Y122.2639 I-0.5409 J0.6557
G2 Y123.7361 I0.425 J0.7361
G2 X27.85 Y123.0 I0.425 J-0.7361
G2 X27.5409 Y122.3443 I-0.85 J0.0
G1 F300.0 Z-2.0
G2 F800.0 X26.575 Y122.2639 I-0.5409 J0.6557
G2 Y123.7361 I0.425 J0.7361
G2 X27.85 Y123.0 I0.425 J-0.7361
G2 X27.5409 Y122.3443 I-0.85 J0.0
G1 F300.0 Z-3.0
G2 F800.0 X26.575 Y122.2639 I-0.5409 J0.6557
G2 Y123.7361 I0.425 J0.7361
G2 X27.85 Y123.0 I0.425 J-0.7361
G2 X27.5409 Y122.3443 I-0.85 J0.0
G1 F300.0 Z-4.0
G2 F800.0 X26.575 Y122.2639 I-0.5409 J0.6557
G2 Y123.7361 I0.425 J0.7361
G2 X27.85 Y123.0 I0.425 J-0.7361
G2 X27.5409 Y122.3443 I-0.85 J0.0
G1 F300.0 Z-5.0
G2 F800.0 X26.575 Y122.2639 I-0.5409 J0.6557
G2 Y123.7361 I0.425 J0.7361
G2 X27.85 Y123.0 I0.425 J-0.7361
G2 X27.5409 Y122.3443 I-0.85 J0.0
G1 F300.0 Z-6.0
G2 F800.0 X26.575 Y122.2639 I-0.5409 J0.6557
G2 Y123.7361 I0.425 J0.7361
G2 X27.85 Y123.0 I0.425 J-0.7361
G2 X27.5409 Y122.3443 I-0.85 J0.0
G0 Z3.0
G0 X5.5855 Y134.8802
G1 F300.0 Z-1.0
G2 F800.0 X3.875 Y134.4175 I-1.0855 J0.6198
G2 Y136.5825 I0.625 J1.0825
G2 X5.75 Y135.5 I0.625 J-1.0825
G2 X5.5855 Y134.8802 I-1.25 J0.0
G1 F300.0 Z-2.0
G2 F800.0 X3.875 Y134.4175 I-1.0855 J0.6198
G2 Y136.5825 I0.625 J1.0825
G2 X5.75 Y135.5 I0.625 J-1.0825
G2 X5.5855 Y134.8802 I-1.25 J0.0
G1 F300.0 Z-3.0
G2 F800.0 X3.875 Y134.4175 I-1.0855 J0.6198
G2 Y136.5825 I0.625 J1.0825
G2 X5.75 Y135.5 I0.625 J-1.0825
G2 X5.5855 Y134.8802 I-1.25 J0.0
G1 F300.0 Z-4.0
G2 F800.0 X3.875 Y134.4175 I-1.0855 J0.6198
G2 Y136.5825 I0.625 J1.0825
G2 X5.75 Y135.5 I0.625 J-1.0825
G2 X5.5855 Y134.8802 I-1.25 J0.0
G1 F300.0 Z-5.0
G2 F800.0 X3.875 Y134.4175 I-1.0855 J0.6198
G2 Y136.5825 I0.625 J1.0825
G2 X5.75 Y135.5 I0.625 J-1.0825
G2 X5.5855 Y134.8802 I-1.25 J0.0
G1 F300.0 Z-6.0
G2 F800.0 X3.875 Y134.4175 I-1.0855 J0.6198
G2 Y136.5825 I0.625 J1.0825
G2 X5.75 Y135.5 I0.625 J-1.0825
G2 X5.5855 Y134.8802 I-1.25 J0.0
( Contour3 )
S1000
G0 Z3.0
G0 X67.0 Y127.0
G1 F300.0 Z-1.0
G1 F800.0 Y69.0
G1 X67.2929 Y68.7071
G1 X67.0 Y69.0
G1 X38.0
G1 X37.7071 Y68.7071
G1 X38.0 Y69.0
G1 Y127.0
G1 X37.7071 Y127.2929
G1 X38.0 Y127.0
G1 X67.0
G1 X67.2929 Y127.2929
G1 X67.0 Y127.0
G1 F300.0 Z-2.0
G1 F800.0 Y69.0
G1 X67.2929 Y68.7071
G1 X67.0 Y69.0
G1 X38.0
G1 X37.7071 Y68.7071
G1 X38.0 Y69.0
G1 Y127.0
G1 X37.7071 Y127.2929
G1 X38.0 Y127.0
G1 X67.0
G1 X67.2929 Y127.2929
G1 X67.0 Y127.0
G1 F300.0 Z-3.0
G1 F800.0 Y69.0
G1 X67.2929 Y68.7071
G1 X67.0 Y69.0
G1 X38.0
G1 X37.7071 Y68.7071
G1 X38.0 Y69.0
G1 Y127.0
G1 X37.7071 Y127.2929
G1 X38.0 Y127.0
G1 X67.0
G1 X67.2929 Y127.2929
G1 X67.0 Y127.0
G1 F300.0 Z-4.0
G1 F800.0 Y69.0
G1 X67.2929 Y68.7071
G1 X67.0 Y69.0
G1 X38.0
G1 X37.7071 Y68.7071
G1 X38.0 Y69.0
G1 Y127.0
G1 X37.7071 Y127.2929
G1 X38.0 Y127.0
G1 X67.0
G1 X67.2929 Y127.2929
G1 X67.0 Y127.0
G1 F300.0 Z-5.0
G1 F800.0 Y99.0
G0 Z-4.0
G1 Y95.0
G1 F300.0 Z-5.0
G1 F800.0 Y69.0
G1 X67.2929 Y68.7071
G1 X67.0 Y69.0
G1 X38.0
G1 X37.7071 Y68.7071
G1 X38.0 Y69.0
G1 Y97.0
G0 Z-4.0
G1 Y101.0
G1 F300.0 Z-5.0
G1 F800.0 Y127.0
G1 X37.7071 Y127.2929
G1 X38.0 Y127.0
G1 X67.0
G1 X67.2929 Y127.2929
G1 X67.0 Y127.0
G1 F300.0 Z-6.0
G1 F800.0 Y99.0
G0 Z-4.0
G1 Y95.0
G1 F300.0 Z-6.0
G1 F800.0 Y69.0
G1 X67.2929 Y68.7071
G1 X67.0 Y69.0
G1 X38.0
G1 X37.7071 Y68.7071
G1 X38.0 Y69.0
G1 Y97.0
G0 Z-4.0
G1 Y101.0
G1 F300.0 Z-6.0
G1 F800.0 Y127.0
G1 X37.7071 Y127.2929
G1 X38.0 Y127.0
G1 X67.0
G1 X67.2929 Y127.2929
G1 X67.0 Y127.0
G0 Z3.0
G0 X16.2929 Y127.2929
G1 F300.0 Z-1.0
G1 F800.0 X16.0 Y127.0
G1 Y69.0
G1 X16.2929 Y68.7071
G1 X16.0 Y69.0
G1 X8.0
G1 X7.7071 Y68.7071
G1 X8.0 Y69.0
G1 Y127.0
G1 X7.7071 Y127.2929
G1 X8.0 Y127.0
G1 X16.0
G1 X16.2929 Y127.2929
G1 F300.0 Z-2.0
G1 F800.0 X16.0 Y127.0
G1 Y69.0
G1 X16.2929 Y68.7071
G1 X16.0 Y69.0
G1 X8.0
G1 X7.7071 Y68.7071
G1 X8.0 Y69.0
G1 Y127.0
G1 X7.7071 Y127.2929
G1 X8.0 Y127.0
G1 X16.0
G1 X16.2929 Y127.2929
G1 F300.0 Z-3.0
G1 F800.0 X16.0 Y127.0
G1 Y69.0
G1 X16.2929 Y68.7071
G1 X16.0 Y69.0
G1 X8.0
G1 X7.7071 Y68.7071
G1 X8.0 Y69.0
G1 Y127.0
G1 X7.7071 Y127.2929
G1 X8.0 Y127.0
G1 X16.0
G1 X16.2929 Y127.2929
G1 F300.0 Z-4.0
G1 F800.0 X16.0 Y127.0
G1 Y69.0
G1 X16.2929 Y68.7071
G1 X16.0 Y69.0
G1 X8.0
G1 X7.7071 Y68.7071
G1 X8.0 Y69.0
G1 Y127.0
G1 X7.7071 Y127.2929
G1 X8.0 Y127.0
G1 X16.0
G1 X16.2929 Y127.2929
G1 F300.0 Z-5.0
G1 F800.0 X16.0 Y127.0
G1 Y100.0
G0 Z-4.0
G1 Y96.0
G1 F300.0 Z-5.0
G1 F800.0 Y69.0
G1 X16.2929 Y68.7071
G1 X16.0 Y69.0
G1 X8.0
G1 X7.7071 Y68.7071
G1 X8.0 Y69.0
G1 Y96.0
G0 Z-4.0
G1 Y100.0
G1 F300.0 Z-5.0
G1 F800.0 Y127.0
G1 X7.7071 Y127.2929
G1 X8.0 Y127.0
G1 X16.0
G1 X16.2929 Y127.2929
G1 F300.0 Z-6.0
G1 F800.0 X16.0 Y127.0
G1 Y100.0
G0 Z-4.0
G1 Y96.0
G1 F300.0 Z-6.0
G1 F800.0 Y69.0
G1 X16.2929 Y68.7071
G1 X16.0 Y69.0
G1 X8.0
G1 X7.7071 Y68.7071
G1 X8.0 Y69.0
G1 Y96.0
G0 Z-4.0
G1 Y100.0
G1 F300.0 Z-6.0
G1 F800.0 Y127.0
G1 X7.7071 Y127.2929
G1 X8.0 Y127.0
G1 X16.0
G1 X16.2929 Y127.2929
G0 Z3.0
G0 X85.7071 Y72.2929
G1 F300.0 Z-1.0
G1 F800.0 X86.0 Y72.0
G1 X114.0
G1 X114.2929 Y72.2929
G1 X114.0 Y72.0
G1 Y68.0
G1 X114.2929 Y67.7071
G1 X114.0 Y68.0
G1 X86.0
G1 X85.7071 Y67.7071
G1 X86.0 Y68.0
G1 Y72.0
G1 X85.7071 Y72.2929
G1 F300.0 Z-2.0
G1 F800.0 X86.0 Y72.0
G1 X114.0
G1 X114.2929 Y72.2929
G1 X114.0 Y72.0
G1 Y68.0
G1 X114.2929 Y67.7071
G1 X114.0 Y68.0
G1 X86.0
G1 X85.7071 Y67.7071
G1 X86.0 Y68.0
G1 Y72.0
G1 X85.7071 Y72.2929
G1 F300.0 Z-3.0
G1 F800.0 X86.0 Y72.0
G1 X114.0
G1 X114.2929 Y72.2929
G1 X114.0 Y72.0
G1 Y68.0
G1 X114.2929 Y67.7071
G1 X114.0 Y68.0
G1 X86.0
G1 X85.7071 Y67.7071
G1 X86.0 Y68.0
G1 Y72.0
G1 X85.7071 Y72.2929
G1 F300.0 Z-4.0
G1 F800.0 X86.0 Y72.0
G1 X114.0
G1 X114.2929 Y72.2929
G1 X114.0 Y72.0
G1 Y68.0
G1 X114.2929 Y67.7071
G1 X114.0 Y68.0
G1 X86.0
G1 X85.7071 Y67.7071
G1 X86.0 Y68.0
G1 Y72.0
G1 X85.7071 Y72.2929
G1 F300.0 Z-5.0
G1 F800.0 X86.0 Y72.0
G1 X99.0
G0 Z-4.0
G1 X103.0
G1 F300.0 Z-5.0
G1 F800.0 X114.0
G1 X114.2929 Y72.2929
G1 X114.0 Y72.0
G1 Y68.0
G1 X114.2929 Y67.7071
G1 X114.0 Y68.0
G1 X104.0
G0 Z-4.0
G1 X100.0
G1 F300.0 Z-5.0
G1 F800.0 X86.0
G1 X85.7071 Y67.7071
G1 X86.0 Y68.0
G1 Y72.0
G1 X85.7071 Y72.2929
G1 F300.0 Z-6.0
G1 F800.0 X86.0 Y72.0
G1 X99.0
G0 Z-4.0
G1 X103.0
G1 F300.0 Z-6.0
G1 F800.0 X114.0
G1 X114.2929 Y72.2929
G1 X114.0 Y72.0
G1 Y68.0
G1 X114.2929 Y67.7071
G1 X114.0 Y68.0
G1 X104.0
G0 Z-4.0
G1 X100.0
G1 F300.0 Z-6.0
G1 F800.0 X86.0
G1 X85.7071 Y67.7071
G1 X86.0 Y68.0
G1 Y72.0
G1 X85.7071 Y72.2929
G0 Z3.0
G0 X132.7071 Y68.7071
G1 F300.0 Z-1.0
G1 F800.0 X133.0 Y69.0
G1 Y127.0
G1 X132.7071 Y127.2929
G1 X133.0 Y127.0
G1 X162.0
G1 X162.2929 Y127.2929
G1 X162.0 Y127.0
G1 Y69.0
G1 X162.2929 Y68.7071
G1 X162.0 Y69.0
G1 X133.0
G1 X132.7071 Y68.7071
G1 F300.0 Z-2.0
G1 F800.0 X133.0 Y69.0
G1 Y127.0
G1 X132.7071 Y127.2929
G1 X133.0 Y127.0
G1 X162.0
G1 X162.2929 Y127.2929
G1 X162.0 Y127.0
G1 Y69.0
G1 X162.2929 Y68.7071
G1 X162.0 Y69.0
G1 X133.0
G1 X132.7071 Y68.7071
G1 F300.0 Z-3.0
G1 F800.0 X133.0 Y69.0
G1 Y127.0
G1 X132.7071 Y127.2929
G1 X133.0 Y127.0
G1 X162.0
G1 X162.2929 Y127.2929
G1 X162.0 Y127.0
G1 Y69.0
G1 X162.2929 Y68.7071
G1 X162.0 Y69.0
G1 X133.0
G1 X132.7071 Y68.7071
G1 F300.0 Z-4.0
G1 F800.0 X133.0 Y69.0
G1 Y127.0
G1 X132.7071 Y127.2929
G1 X133.0 Y127.0
G1 X162.0
G1 X162.2929 Y127.2929
G1 X162.0 Y127.0
G1 Y69.0
G1 X162.2929 Y68.7071
G1 X162.0 Y69.0
G1 X133.0
G1 X132.7071 Y68.7071
G1 F300.0 Z-5.0
G1 F800.0 X133.0 Y69.0
G1 Y94.0
G0 Z-4.0
G1 Y98.0
G1 F300.0 Z-5.0
G1 F800.0 Y127.0
G1 X132.7071 Y127.2929
G1 X133.0 Y127.0
G1 X162.0
G1 X162.2929 Y127.2929
G1 X162.0 Y127.0
G1 Y99.0
G0 Z-4.0
G1 Y95.0
G1 F300.0 Z-5.0
G1 F800.0 Y69.0
G1 X162.2929 Y68.7071
G1 X162.0 Y69.0
G1 X133.0
G1 X132.7071 Y68.7071
G1 F300.0 Z-6.0
G1 F800.0 X133.0 Y69.0
G1 Y94.0
G0 Z-4.0
G1 Y98.0
G1 F300.0 Z-6.0
G1 F800.0 Y127.0
G1 X132.7071 Y127.2929
G1 X133.0 Y127.0
G1 X162.0
G1 X162.2929 Y127.2929
G1 X162.0 Y127.0
G1 Y99.0
G0 Z-4.0
G1 Y95.0
G1 F300.0 Z-6.0
G1 F800.0 Y69.0
G1 X162.2929 Y68.7071
G1 X162.0 Y69.0
G1 X133.0
G1 X132.7071 Y68.7071
G0 Z3.0
G0 X183.7071
G1 F300.0 Z-1.0
G1 F800.0 X184.0 Y69.0
G1 Y127.0
G1 X183.7071 Y127.2929
G1 X184.0 Y127.0
G1 X192.0
G1 X192.2929 Y127.2929
G1 X192.0 Y127.0
G1 Y69.0
G1 X192.2929 Y68.7071
G1 X192.0 Y69.0
G1 X184.0
G1 X183.7071 Y68.7071
G1 F300.0 Z-2.0
G1 F800.0 X184.0 Y69.0
G1 Y127.0
G1 X183.7071 Y127.2929
G1 X184.0 Y127.0
G1 X192.0
G1 X192.2929 Y127.2929
G1 X192.0 Y127.0
G1 Y69.0
G1 X192.2929 Y68.7071
G1 X192.0 Y69.0
G1 X184.0
G1 X183.7071 Y68.7071
G1 F300.0 Z-3.0
G1 F800.0 X184.0 Y69.0
G1 Y127.0
G1 X183.7071 Y127.2929
G1 X184.0 Y127.0
G1 X192.0
G1 X192.2929 Y127.2929
G1 X192.0 Y127.0
G1 Y69.0
G1 X192.2929 Y68.7071
G1 X192.0 Y69.0
G1 X184.0
G1 X183.7071 Y68.7071
G1 F300.0 Z-4.0
G1 F800.0 X184.0 Y69.0
G1 Y127.0
G1 X183.7071 Y127.2929
G1 X184.0 Y127.0
G1 X192.0
G1 X192.2929 Y127.2929
G1 X192.0 Y127.0
G1 Y69.0
G1 X192.2929 Y68.7071
G1 X192.0 Y69.0
G1 X184.0
G1 X183.7071 Y68.7071
G1 F300.0 Z-5.0
G1 F800.0 X184.0 Y69.0
G1 Y95.0
G0 Z-4.0
G1 Y99.0
G1 F300.0 Z-5.0
G1 F800.0 Y127.0
G1 X183.7071 Y127.2929
G1 X184.0 Y127.0
G1 X192.0
G1 X192.2929 Y127.2929
G1 X192.0 Y127.0
G1 Y99.0
G0 Z-4.0
G1 Y95.0
G1 F300.0 Z-5.0
G1 F800.0 Y69.0
G1 X192.2929 Y68.7071
G1 X192.0 Y69.0
G1 X184.0
G1 X183.7071 Y68.7071
G1 F300.0 Z-6.0
G1 F800.0 X184.0 Y69.0
G1 Y95.0
G0 Z-4.0
G1 Y99.0
G1 F300.0 Z-6.0
G1 F800.0 Y127.0
G1 X183.7071 Y127.2929
G1 X184.0 Y127.0
G1 X192.0
G1 X192.2929 Y127.2929
G1 X192.0 Y127.0
G1 Y99.0
G0 Z-4.0
G1 Y95.0
G1 F300.0 Z-6.0
G1 F800.0 Y69.0
G1 X192.2929 Y68.7071
G1 X192.0 Y69.0
G1 X184.0
G1 X183.7071 Y68.7071
( Contour5 )
S1000
G0 Z3.0
G0 X32.0 Y54.0
G1 F300.0 Z-1.0
G1 F800.0 X36.0
G1 X36.2929 Y54.2929
G1 X36.0 Y54.0
G1 Y46.0
G1 X36.2929 Y45.7071
G1 X36.0 Y46.0
G1 X32.0
G1 X31.7071 Y45.7071
G1 X32.0 Y46.0
G1 Y54.0
G1 X31.7071 Y54.2929
G1 X32.0 Y54.0
G1 F300.0 Z-2.0
G1 F800.0 X36.0
G1 X36.2929 Y54.2929
G1 X36.0 Y54.0
G1 Y46.0
G1 X36.2929 Y45.7071
G1 X36.0 Y46.0
G1 X32.0
G1 X31.7071 Y45.7071
G1 X32.0 Y46.0
G1 Y54.0
G1 X31.7071 Y54.2929
G1 X32.0 Y54.0
G1 F300.0 Z-3.0
G1 F800.0 X36.0
G1 X36.2929 Y54.2929
G1 X36.0 Y54.0
G1 Y46.0
G1 X36.2929 Y45.7071
G1 X36.0 Y46.0
G1 X32.0
G1 X31.7071 Y45.7071
G1 X32.0 Y46.0
G1 Y54.0
G1 X31.7071 Y54.2929
G1 X32.0 Y54.0
G1 F300.0 Z-4.0
G1 F800.0 X36.0
G1 X36.2929 Y54.2929
G1 X36.0 Y54.0
G1 Y46.0
G1 X36.2929 Y45.7071
G1 X36.0 Y46.0
G1 X32.0
G1 X31.7071 Y45.7071
G1 X32.0 Y46.0
G1 Y54.0
G1 X31.7071 Y54.2929
G1 X32.0 Y54.0
G1 F300.0 Z-5.0
G1 F800.0 X36.0
G1 X36.2929 Y54.2929
G1 X36.0 Y54.0
G1 Y46.0
G1 X36.2929 Y45.7071
G1 X36.0 Y46.0
G1 X32.0
G1 X31.7071 Y45.7071
G1 X32.0 Y46.0
G1 Y54.0
G1 X31.7071 Y54.2929
G1 X32.0 Y54.0
G1 F300.0 Z-6.0
G1 F800.0 X36.0
G1 X36.2929 Y54.2929
G1 X36.0 Y54.0
G1 Y46.0
G1 X36.2929 Y45.7071
G1 X36.0 Y46.0
G1 X32.0
G1 X31.7071 Y45.7071
G1 X32.0 Y46.0
G1 Y54.0
G1 X31.7071 Y54.2929
G1 X32.0 Y54.0
G0 Z3.0
G0 X95.7071 Y25.2929
G1 F300.0 Z-1.0
G1 F800.0 X96.0 Y25.0
G1 X104.0
G1 X104.2929 Y25.2929
G1 X104.0 Y25.0
G1 Y21.0
G1 X104.2929 Y20.7071
G1 X104.0 Y21.0
G1 X96.0
G1 X95.7071 Y20.7071
G1 X96.0 Y21.0
G1 Y25.0
G1 X95.7071 Y25.2929
G1 F300.0 Z-2.0
G1 F800.0 X96.0 Y25.0
G1 X104.0
G1 X104.2929 Y25.2929
G1 X104.0 Y25.0
G1 Y21.0
G1 X104.2929 Y20.7071
G1 X104.0 Y21.0
G1 X96.0
G1 X95.7071 Y20.7071
G1 X96.0 Y21.0
G1 Y25.0
G1 X95.7071 Y25.2929
G1 F300.0 Z-3.0
G1 F800.0 X96.0 Y25.0
G1 X104.0
G1 X104.2929 Y25.2929
G1 X104.0 Y25.0
G1 Y21.0
G1 X104.2929 Y20.7071
G1 X104.0 Y21.0
G1 X96.0
G1 X95.7071 Y20.7071
G1 X96.0 Y21.0
G1 Y25.0
G1 X95.7071 Y25.2929
G1 F300.0 Z-4.0
G1 F800.0 X96.0 Y25.0
G1 X104.0
G1 X104.2929 Y25.2929
G1 X104.0 Y25.0
G1 Y21.0
G1 X104.2929 Y20.7071
G1 X104.0 Y21.0
G1 X96.0
G1 X95.7071 Y20.7071
G1 X96.0 Y21.0
G1 Y25.0
G1 X95.7071 Y25.2929
G1 F300.0 Z-5.0
G1 F800.0 X96.0 Y25.0
G1 X104.0
G1 X104.2929 Y25.2929
G1 X104.0 Y25.0
G1 Y21.0
G1 X104.2929 Y20.7071
G1 X104.0 Y21.0
G1 X96.0
G1 X95.7071 Y20.7071
G1 X96.0 Y21.0
G1 Y25.0
G1 X95.7071 Y25.2929
G1 F300.0 Z-6.0
G1 F800.0 X96.0 Y25.0
G1 X104.0
G1 X104.2929 Y25.2929
G1 X104.0 Y25.0
G1 Y21.0
G1 X104.2929 Y20.7071
G1 X104.0 Y21.0
G1 X96.0
G1 X95.7071 Y20.7071
G1 X96.0 Y21.0
G1 Y25.0
G1 X95.7071 Y25.2929
G0 Z3.0
G0 X163.7071 Y45.7071
G1 F300.0 Z-1.0
G1 F800.0 X164.0 Y46.0
G1 Y54.0
G1 X163.7071 Y54.2929
G1 X164.0 Y54.0
G1 X168.0
G1 X168.2929 Y54.2929
G1 X168.0 Y54.0
G1 Y46.0
G1 X168.2929 Y45.7071
G1 X168.0 Y46.0
G1 X164.0
G1 X163.7071 Y45.7071
G1 F300.0 Z-2.0
G1 F800.0 X164.0 Y46.0
G1 Y54.0
G1 X163.7071 Y54.2929
G1 X164.0 Y54.0
G1 X168.0
G1 X168.2929 Y54.2929
G1 X168.0 Y54.0
G1 Y46.0
G1 X168.2929 Y45.7071
G1 X168.0 Y46.0
G1 X164.0
G1 X163.7071 Y45.7071
G1 F300.0 Z-3.0
G1 F800.0 X164.0 Y46.0
G1 Y54.0
G1 X163.7071 Y54.2929
G1 X164.0 Y54.0
G1 X168.0
G1 X168.2929 Y54.2929
G1 X168.0 Y54.0
G1 Y46.0
G1 X168.2929 Y45.7071
G1 X168.0 Y46.0
G1 X164.0
G1 X163.7071 Y45.7071
G1 F300.0 Z-4.0
G1 F800.0 X164.0 Y46.0
G1 Y54.0
G1 X163.7071 Y54.2929
G1 X164.0 Y54.0
G1 X168.0
G1 X168.2929 Y54.2929
G1 X168.0 Y54.0
G1 Y46.0
G1 X168.2929 Y45.7071
G1 X168.0 Y46.0
G1 X164.0
G1 X163.7071 Y45.7071
G1 F300.0 Z-5.0
G1 F800.0 X164.0 Y46.0
G1 Y54.0
G1 X163.7071 Y54.2929
G1 X164.0 Y54.0
G1 X168.0
G1 X168.2929 Y54.2929
G1 X168.0 Y54.0
G1 Y46.0
G1 X168.2929 Y45.7071
G1 X168.0 Y46.0
G1 X164.0
G1 X163.7071 Y45.7071
G1 F300.0 Z-6.0
G1 F800.0 X164.0 Y46.0
G1 Y54.0
G1 X163.7071 Y54.2929
G1 X164.0 Y54.0
G1 X168.0
G1 X168.2929 Y54.2929
G1 X168.0 Y54.0
G1 Y46.0
G1 X168.2929 Y45.7071
G1 X168.0 Y46.0
G1 X164.0
G1 X163.7071 Y45.7071
( Contour4 )
S1000
G0 Z3.0
G0 X131.0 Y135.0
G1 F300.0 Z-1.0
G1 F800.0 X123.0
G1 X122.7071 Y134.7071
G1 X123.0 Y135.0
G1 Y140.0
G3 X122.0 Y141.0 I-1.0 J0.0
G1 X105.0
G3 X104.0 Y140.0 I0.0 J-1.0
G1 Y135.0
G1 X104.2929 Y134.7071
G1 X104.0 Y135.0
G1 X96.0
G1 X95.7071 Y134.7071
G1 X96.0 Y135.0
G1 Y140.0
G3 X95.0 Y141.0 I-1.0 J0.0
G1 X78.0
G3 X77.0 Y140.0 I0.0 J-1.0
G1 Y135.0
G1 X77.2929 Y134.7071
G1 X77.0 Y135.0
G1 X69.0
G1 X68.7071 Y134.7071
G1 X69.0 Y135.0
G1 Y140.0
G3 X68.0 Y141.0 I-1.0 J0.0
G1 X0.0
G3 X-1.0 Y140.0 I0.0 J-1.0
G1 Y50.0
G3 X0.0 Y49.0 I1.0 J0.0
G1 X5.0
G1 X5.2929 Y49.2929
G1 X5.0 Y49.0
G1 Y31.0
G1 X5.2929 Y30.7071
G1 X5.0 Y31.0
G1 X0.0
G3 X-1.0 Y30.0 I0.0 J-1.0
G1 Y13.7755
G3 X0.495 Y12.9067 I1.0 J0.0
G2 X12.9067 Y0.495 I4.505 J-7.9067
G3 X13.7755 Y-1.0 I0.8689 J-0.495
G1 X186.2245
G3 X187.0933 Y0.495 I0.0 J1.0
G2 X199.505 Y12.9067 I7.9067 J4.505
G3 X201.0 Y13.7755 I0.495 J0.8689
G1 Y30.0
G3 X200.0 Y31.0 I-1.0 J0.0
G1 X195.0
G1 X194.7071 Y30.7071
G1 X195.0 Y31.0
G1 Y49.0
G1 X194.7071 Y49.2929
G1 X195.0 Y49.0
G1 X200.0
G3 X201.0 Y50.0 I0.0 J1.0
G1 Y140.0
G3 X200.0 Y141.0 I-1.0 J0.0
G1 X132.0
G3 X131.0 Y140.0 I0.0 J-1.0
G1 Y135.0
G1 X131.2929 Y134.7071
G1 X131.0 Y135.0
G1 F300.0 Z-2.0
G1 F800.0 X123.0
G1 X122.7071 Y134.7071
G1 X123.0 Y135.0
G1 Y140.0
G3 X122.0 Y141.0 I-1.0 J0.0
G1 X105.0
G3 X104.0 Y140.0 I0.0 J-1.0
G1 Y135.0
G1 X104.2929 Y134.7071
G1 X104.0 Y135.0
G1 X96.0
G1 X95.7071 Y134.7071
G1 X96.0 Y135.0
G1 Y140.0
G3 X95.0 Y141.0 I-1.0 J0.0
G1 X78.0
G3 X77.0 Y140.0 I0.0 J-1.0
G1 Y135.0
G1 X77.2929 Y134.7071
G1 X77.0 Y135.0
G1 X69.0
G1 X68.7071 Y134.7071
G1 X69.0 Y135.0
G1 Y140.0
G3 X68.0 Y141.0 I-1.0 J0.0
G1 X0.0
G3 X-1.0 Y140.0 I0.0 J-1.0
G1 Y50.0
G3 X0.0 Y49.0 I1.0 J0.0
G1 X5.0
G1 X5.2929 Y49.2929
G1 X5.0 Y49.0
G1 Y31.0
G1 X5.2929 Y30.7071
G1 X5.0 Y31.0
G1 X0.0
G3 X-1.0 Y30.0 I0.0 J-1.0
G1 Y13.7755
G3 X0.495 Y12.9067 I1.0 J0.0
G2 X12.9067 Y0.495 I4.505 J-7.9067
G3 X13.7755 Y-1.0 I0.8689 J-0.495
G1 X186.2245
G3 X187.0933 Y0.495 I0.0 J1.0
G2 X199.505 Y12.9067 I7.9067 J4.505
G3 X201.0 Y13.7755 I0.495 J0.8689
G1 Y30.0
G3 X200.0 Y31.0 I-1.0 J0.0
G1 X195.0
G1 X194.7071 Y30.7071
G1 X195.0 Y31.0
G1 Y49.0
G1 X194.7071 Y49.2929
G1 X195.0 Y49.0
G1 X200.0
G3 X201.0 Y50.0 I0.0 J1.0
G1 Y140.0
G3 X200.0 Y141.0 I-1.0 J0.0
G1 X132.0
G3 X131.0 Y140.0 I0.0 J-1.0
G1 Y135.0
G1 X131.2929 Y134.7071
G1 X131.0 Y135.0
G1 F300.0 Z-3.0
G1 F800.0 X123.0
G1 X122.7071 Y134.7071
G1 X123.0 Y135.0
G1 Y140.0
G3 X122.0 Y141.0 I-1.0 J0.0
G1 X105.0
G3 X104.0 Y140.0 I0.0 J-1.0
G1 Y135.0
G1 X104.2929 Y134.7071
G1 X104.0 Y135.0
G1 X96.0
G1 X95.7071 Y134.7071
G1 X96.0 Y135.0
G1 Y140.0
G3 X95.0 Y141.0 I-1.0 J0.0
G1 X78.0
G3 X77.0 Y140.0 I0.0 J-1.0
G1 Y135.0
G1 X77.2929 Y134.7071
G1 X77.0 Y135.0
G1 X69.0
G1 X68.7071 Y134.7071
G1 X69.0 Y135.0
G1 Y140.0
G3 X68.0 Y141.0 I-1.0 J0.0
G1 X0.0
G3 X-1.0 Y140.0 I0.0 J-1.0
G1 Y50.0
G3 X0.0 Y49.0 I1.0 J0.0
G1 X5.0
G1 X5.2929 Y49.2929
G1 X5.0 Y49.0
G1 Y31.0
G1 X5.2929 Y30.7071
G1 X5.0 Y31.0
G1 X0.0
G3 X-1.0 Y30.0 I0.0 J-1.0
G1 Y13.7755
G3 X0.495 Y12.9067 I1.0 J0.0
G2 X12.9067 Y0.495 I4.505 J-7.9067
G3 X13.7755 Y-1.0 I0.8689 J-0.495
G1 X186.2245
G3 X187.0933 Y0.495 I0.0 J1.0
G2 X199.505 Y12.9067 I7.9067 J4.505
G3 X201.0 Y13.7755 I0.495 J0.8689
G1 Y30.0
G3 X200.0 Y31.0 I-1.0 J0.0
G1 X195.0
G1 X194.7071 Y30.7071
G1 X195.0 Y31.0
G1 Y49.0
G1 X194.7071 Y49.2929
G1 X195.0 Y49.0
G1 X200.0
G3 X201.0 Y50.0 I0.0 J1.0
G1 Y140.0
G3 X200.0 Y141.0 I-1.0 J0.0
G1 X132.0
G3 X131.0 Y140.0 I0.0 J-1.0
G1 Y135.0
G1 X131.2929 Y134.7071
G1 X131.0 Y135.0
G1 F300.0 Z-4.0
G1 F800.0 X123.0
G1 X122.7071 Y134.7071
G1 X123.0 Y135.0
G1 Y140.0
G3 X122.0 Y141.0 I-1.0 J0.0
G1 X105.0
G3 X104.0 Y140.0 I0.0 J-1.0
G1 Y135.0
G1 X104.2929 Y134.7071
G1 X104.0 Y135.0
G1 X96.0
G1 X95.7071 Y134.7071
G1 X96.0 Y135.0
G1 Y140.0
G3 X95.0 Y141.0 I-1.0 J0.0
G1 X78.0
G3 X77.0 Y140.0 I0.0 J-1.0
G1 Y135.0
G1 X77.2929 Y134.7071
G1 X77.0 Y135.0
G1 X69.0
G1 X68.7071 Y134.7071
G1 X69.0 Y135.0
G1 Y140.0
G3 X68.0 Y141.0 I-1.0 J0.0
G1 X0.0
G3 X-1.0 Y140.0 I0.0 J-1.0
G1 Y50.0
G3 X0.0 Y49.0 I1.0 J0.0
G1 X5.0
G1 X5.2929 Y49.2929
G1 X5.0 Y49.0
G1 Y31.0
G1 X5.2929 Y30.7071
G1 X5.0 Y31.0
G1 X0.0
G3 X-1.0 Y30.0 I0.0 J-1.0
G1 Y13.7755
G3 X0.495 Y12.9067 I1.0 J0.0
G2 X12.9067 Y0.495 I4.505 J-7.9067
G3 X13.7755 Y-1.0 I0.8689 J-0.495
G1 X186.2245
G3 X187.0933 Y0.495 I0.0 J1.0
G2 X199.505 Y12.9067 I7.9067 J4.505
G3 X201.0 Y13.7755 I0.495 J0.8689
G1 Y30.0
G3 X200.0 Y31.0 I-1.0 J0.0
G1 X195.0
G1 X194.7071 Y30.7071
G1 X195.0 Y31.0
G1 Y49.0
G1 X194.7071 Y49.2929
G1 X195.0 Y49.0
G1 X200.0
G3 X201.0 Y50.0 I0.0 J1.0
G1 Y140.0
G3 X200.0 Y141.0 I-1.0 J0.0
G1 X132.0
G3 X131.0 Y140.0 I0.0 J-1.0
G1 Y135.0
G1 X131.2929 Y134.7071
G1 X131.0 Y135.0
G1 F300.0 Z-5.0
G1 F800.0 X123.0
G1 X122.7071 Y134.7071
G1 X123.0 Y135.0
G1 Y140.0
G3 X122.0 Y141.0 I-1.0 J0.0
G1 X105.0
G3 X104.0 Y140.0 I0.0 J-1.0
G1 Y135.0
G1 X104.2929 Y134.7071
G1 X104.0 Y135.0
G1 X96.0
G1 X95.7071 Y134.7071
G1 X96.0 Y135.0
G1 Y140.0
G3 X95.0 Y141.0 I-1.0 J0.0
G1 X89.0
G0 Z-4.0
G1 X85.0
G1 F300.0 Z-5.0
G1 F800.0 X78.0
G3 X77.0 Y140.0 I0.0 J-1.0
G1 Y135.0
G1 X77.2929 Y134.7071
G1 X77.0 Y135.0
G1 X69.0
G1 X68.7071 Y134.7071
G1 X69.0 Y135.0
G1 Y140.0
G3 X68.0 Y141.0 I-1.0 J0.0
G1 X0.0
G3 X-1.0 Y140.0 I0.0 J-1.0
G1 Y84.0
G0 Z-4.0
G1 Y80.0
G1 F300.0 Z-5.0
G1 F800.0 Y50.0
G3 X0.0 Y49.0 I1.0 J0.0
G1 X5.0
G1 X5.2929 Y49.2929
G1 X5.0 Y49.0
G1 Y31.0
G1 X5.2929 Y30.7071
G1 X5.0 Y31.0
G1 X0.0
G3 X-1.0 Y30.0 I0.0 J-1.0
G1 Y13.7755
G3 X0.495 Y12.9067 I1.0 J0.0
G2 X12.9067 Y0.495 I4.505 J-7.9067
G3 X13.7755 Y-1.0 I0.8689 J-0.495
G1 X94.0
G0 Z-4.0
G1 X98.0
G1 F300.0 Z-5.0
G1 F800.0 X186.2245
G3 X187.0933 Y0.495 I0.0 J1.0
G2 X199.505 Y12.9067 I7.9067 J4.505
G3 X201.0 Y13.7755 I0.495 J0.8689
G1 Y30.0
G3 X200.0 Y31.0 I-1.0 J0.0
G1 X195.0
G1 X194.7071 Y30.7071
G1 X195.0 Y31.0
G1 Y49.0
G1 X194.7071 Y49.2929
G1 X195.0 Y49.0
G1 X200.0
G3 X201.0 Y50.0 I0.0 J1.0
G1 Y81.0
G0 Z-4.0
G1 Y85.0
G1 F300.0 Z-5.0
G1 F800.0 Y140.0
G3 X200.0 Y141.0 I-1.0 J0.0
G1 X132.0
G3 X131.0 Y140.0 I0.0 J-1.0
G1 Y135.0
G1 X131.2929 Y134.7071
G1 X131.0 Y135.0
G1 F300.0 Z-6.0
G1 F800.0 X123.0
G1 X122.7071 Y134.7071
G1 X123.0 Y135.0
G1 Y140.0
G3 X122.0 Y141.0 I-1.0 J0.0
G1 X105.0
G3 X104.0 Y140.0 I0.0 J-1.0
G1 Y135.0
G1 X104.2929 Y134.7071
G1 X104.0 Y135.0
G1 X96.0
G1 X95.7071 Y134.7071
G1 X96.0 Y135.0
G1 Y140.0
G3 X95.0 Y141.0 I-1.0 J0.0
G1 X89.0
G0 Z-4.0
G1 X85.0
G1 F300.0 Z-6.0
G1 F800.0 X78.0
G3 X77.0 Y140.0 I0.0 J-1.0
G1 Y135.0
G1 X77.2929 Y134.7071
G1 X77.0 Y135.0
G1 X69.0
G1 X68.7071 Y134.7071
G1 X69.0 Y135.0
G1 Y140.0
G3 X68.0 Y141.0 I-1.0 J0.0
G1 X0.0
G3 X-1.0 Y140.0 I0.0 J-1.0
G1 Y84.0
G0 Z-4.0
G1 Y80.0
G1 F300.0 Z-6.0
G1 F800.0 Y50.0
G3 X0.0 Y49.0 I1.0 J0.0
G1 X5.0
G1 X5.2929 Y49.2929
G1 X5.0 Y49.0
G1 Y31.0
G1 X5.2929 Y30.7071
G1 X5.0 Y31.0
G1 X0.0
G3 X-1.0 Y30.0 I0.0 J-1.0
G1 Y13.7755
G3 X0.495 Y12.9067 I1.0 J0.0
G2 X12.9067 Y0.495 I4.505 J-7.9067
G3 X13.7755 Y-1.0 I0.8689 J-0.495
G1 X94.0
G0 Z-4.0
G1 X98.0
G1 F300.0 Z-6.0
G1 F800.0 X186.2245
G3 X187.0933 Y0.495 I0.0 J1.0
G2 X199.505 Y12.9067 I7.9067 J4.505
G3 X201.0 Y13.7755 I0.495 J0.8689
G1 Y30.0
G3 X200.0 Y31.0 I-1.0 J0.0
G1 X195.0
G1 X194.7071 Y30.7071
G1 X195.0 Y31.0
G1 Y49.0
G1 X194.7071 Y49.2929
G1 X195.0 Y49.0
G1 X200.0
G3 X201.0 Y50.0 I0.0 J1.0
G1 Y81.0
G0 Z-4.0
G1 Y85.0
G1 F300.0 Z-6.0
G1 F800.0 Y140.0
G3 X200.0 Y141.0 I-1.0 J0.0
G1 X132.0
G3 X131.0 Y140.0 I0.0 J-1.0
G1 Y135.0
G1 X131.2929 Y134.7071
G1 X131.0 Y135.0
G0 Z3.0
M5
M30
