( Made using CamBam - http://www.cambam.co.uk )
( TêteBras 2/24/2017 4:46:12 PM )
( T0 : 2.0 )
G21 G90 G64 G40
G0 Z3.0
( T0 : 2.0 )
T0 M6
( Contour1 )
G17
M3 S1000
G0 X9.3024 Y45.3796
G1 F300.0 Z-1.0
G2 F800.0 X7.0524 Y44.0806 I-1.5 J0.0
G2 Y46.6787 I0.75 J1.299
G2 X9.3024 Y45.3796 I0.75 J-1.299
G1 F300.0 Z-2.0
G2 F800.0 X7.0524 Y44.0806 I-1.5 J0.0
G2 Y46.6787 I0.75 J1.299
G2 X9.3024 Y45.3796 I0.75 J-1.299
G1 F300.0 Z-3.0
G2 F800.0 X7.0524 Y44.0806 I-1.5 J0.0
G2 Y46.6787 I0.75 J1.299
G2 X9.3024 Y45.3796 I0.75 J-1.299
G1 F300.0 Z-4.0
G2 F800.0 X7.0524 Y44.0806 I-1.5 J0.0
G2 Y46.6787 I0.75 J1.299
G2 X9.3024 Y45.3796 I0.75 J-1.299
G1 F300.0 Z-5.0
G2 F800.0 X7.0524 Y44.0806 I-1.5 J0.0
G2 Y46.6787 I0.75 J1.299
G2 X9.3024 Y45.3796 I0.75 J-1.299
G1 F300.0 Z-6.0
G2 F800.0 X7.0524 Y44.0806 I-1.5 J0.0
G2 Y46.6787 I0.75 J1.299
G2 X9.3024 Y45.3796 I0.75 J-1.299
G0 Z3.0
G0 X13.532 Y38.8002
G1 F300.0 Z-1.0
G2 F800.0 X13.5524 Y38.8126 I0.2704 J-0.4206
G2 X14.3024 Y38.3796 I0.25 J-0.433
G2 X13.5524 Y37.9466 I-0.5 J0.0
G2 X13.532 Y38.8002 I0.25 J0.433
G1 F300.0 Z-2.0
G2 F800.0 X13.5524 Y38.8126 I0.2704 J-0.4206
G2 X14.3024 Y38.3796 I0.25 J-0.433
G2 X13.5524 Y37.9466 I-0.5 J0.0
G2 X13.532 Y38.8002 I0.25 J0.433
G1 F300.0 Z-3.0
G2 F800.0 X13.5524 Y38.8126 I0.2704 J-0.4206
G2 X14.3024 Y38.3796 I0.25 J-0.433
G2 X13.5524 Y37.9466 I-0.5 J0.0
G2 X13.532 Y38.8002 I0.25 J0.433
G1 F300.0 Z-4.0
G2 F800.0 X13.5524 Y38.8126 I0.2704 J-0.4206
G2 X14.3024 Y38.3796 I0.25 J-0.433
G2 X13.5524 Y37.9466 I-0.5 J0.0
G2 X13.532 Y38.8002 I0.25 J0.433
G1 F300.0 Z-5.0
G2 F800.0 X13.5524 Y38.8126 I0.2704 J-0.4206
G2 X14.3024 Y38.3796 I0.25 J-0.433
G2 X13.5524 Y37.9466 I-0.5 J0.0
G2 X13.532 Y38.8002 I0.25 J0.433
G1 F300.0 Z-6.0
G2 F800.0 X13.5524 Y38.8126 I0.2704 J-0.4206
G2 X14.3024 Y38.3796 I0.25 J-0.433
G2 X13.5524 Y37.9466 I-0.5 J0.0
G2 X13.532 Y38.8002 I0.25 J0.433
G0 Z3.0
G0 X13.7964 Y16.8796
G1 F300.0 Z-1.0
G2 F800.0 X14.3024 Y16.3796 I0.006 J-0.5
G2 X13.5524 Y15.9466 I-0.5 J0.0
G2 Y16.8126 I0.25 J0.433
G2 X13.7964 Y16.8796 I0.25 J-0.433
G1 F300.0 Z-2.0
G2 F800.0 X14.3024 Y16.3796 I0.006 J-0.5
G2 X13.5524 Y15.9466 I-0.5 J0.0
G2 Y16.8126 I0.25 J0.433
G2 X13.7964 Y16.8796 I0.25 J-0.433
G1 F300.0 Z-3.0
G2 F800.0 X14.3024 Y16.3796 I0.006 J-0.5
G2 X13.5524 Y15.9466 I-0.5 J0.0
G2 Y16.8126 I0.25 J0.433
G2 X13.7964 Y16.8796 I0.25 J-0.433
G1 F300.0 Z-4.0
G2 F800.0 X14.3024 Y16.3796 I0.006 J-0.5
G2 X13.5524 Y15.9466 I-0.5 J0.0
G2 Y16.8126 I0.25 J0.433
G2 X13.7964 Y16.8796 I0.25 J-0.433
G1 F300.0 Z-5.0
G2 F800.0 X14.3024 Y16.3796 I0.006 J-0.5
G2 X13.5524 Y15.9466 I-0.5 J0.0
G2 Y16.8126 I0.25 J0.433
G2 X13.7964 Y16.8796 I0.25 J-0.433
G1 F300.0 Z-6.0
G2 F800.0 X14.3024 Y16.3796 I0.006 J-0.5
G2 X13.5524 Y15.9466 I-0.5 J0.0
G2 Y16.8126 I0.25 J0.433
G2 X13.7964 Y16.8796 I0.25 J-0.433
G0 Z3.0
G0 X8.7389 Y10.5514
G1 F300.0 Z-1.0
G2 F800.0 X9.3024 Y9.3796 I-0.9365 J-1.1718
G2 X7.0524 Y8.0806 I-1.5 J0.0
G2 Y10.6787 I0.75 J1.299
G2 X8.7389 Y10.5514 I0.75 J-1.299
G1 F300.0 Z-2.0
G2 F800.0 X9.3024 Y9.3796 I-0.9365 J-1.1718
G2 X7.0524 Y8.0806 I-1.5 J0.0
G2 Y10.6787 I0.75 J1.299
G2 X8.7389 Y10.5514 I0.75 J-1.299
G1 F300.0 Z-3.0
G2 F800.0 X9.3024 Y9.3796 I-0.9365 J-1.1718
G2 X7.0524 Y8.0806 I-1.5 J0.0
G2 Y10.6787 I0.75 J1.299
G2 X8.7389 Y10.5514 I0.75 J-1.299
G1 F300.0 Z-4.0
G2 F800.0 X9.3024 Y9.3796 I-0.9365 J-1.1718
G2 X7.0524 Y8.0806 I-1.5 J0.0
G2 Y10.6787 I0.75 J1.299
G2 X8.7389 Y10.5514 I0.75 J-1.299
G1 F300.0 Z-5.0
G2 F800.0 X9.3024 Y9.3796 I-0.9365 J-1.1718
G2 X7.0524 Y8.0806 I-1.5 J0.0
G2 Y10.6787 I0.75 J1.299
G2 X8.7389 Y10.5514 I0.75 J-1.299
G1 F300.0 Z-6.0
G2 F800.0 X9.3024 Y9.3796 I-0.9365 J-1.1718
G2 X7.0524 Y8.0806 I-1.5 J0.0
G2 Y10.6787 I0.75 J1.299
G2 X8.7389 Y10.5514 I0.75 J-1.299
( Poche1 )
S1000
G0 Z3.0
G0 X14.1974 Y38.3796
G1 F300.0 Z-1.0
G2 F800.0 X13.6049 Y38.0375 I-0.395 J0.0
G2 Y38.7217 I0.1975 J0.3421
G2 X14.1974 Y38.3796 I0.1975 J-0.3421
G1 F300.0 X14.9974
G2 F800.0 X13.2049 Y37.3447 I-1.195 J0.0
G2 Y39.4145 I0.5975 J1.0349
G2 X14.9974 Y38.3796 I0.5975 J-1.0349
G1 F300.0 X15.7974
G2 F800.0 X12.8049 Y36.6519 I-1.995 J0.0
G2 Y40.1074 I0.9975 J1.7277
G2 X15.7974 Y38.3796 I0.9975 J-1.7277
G0 Z3.0
G0 X14.1974
G1 F300.0 Z-2.0
G2 F800.0 X13.6049 Y38.0375 I-0.395 J0.0
G2 Y38.7217 I0.1975 J0.3421
G2 X14.1974 Y38.3796 I0.1975 J-0.3421
G1 F300.0 X14.9974
G2 F800.0 X13.2049 Y37.3447 I-1.195 J0.0
G2 Y39.4145 I0.5975 J1.0349
G2 X14.9974 Y38.3796 I0.5975 J-1.0349
G1 F300.0 X15.7974
G2 F800.0 X12.8049 Y36.6519 I-1.995 J0.0
G2 Y40.1074 I0.9975 J1.7277
G2 X15.7974 Y38.3796 I0.9975 J-1.7277
G0 Z3.0
G0 X14.1974
G1 F300.0 Z-3.0
G2 F800.0 X13.6049 Y38.0375 I-0.395 J0.0
G2 Y38.7217 I0.1975 J0.3421
G2 X14.1974 Y38.3796 I0.1975 J-0.3421
G1 F300.0 X14.9974
G2 F800.0 X13.2049 Y37.3447 I-1.195 J0.0
G2 Y39.4145 I0.5975 J1.0349
G2 X14.9974 Y38.3796 I0.5975 J-1.0349
G1 F300.0 X15.7974
G2 F800.0 X12.8049 Y36.6519 I-1.995 J0.0
G2 Y40.1074 I0.9975 J1.7277
G2 X15.7974 Y38.3796 I0.9975 J-1.7277
G0 Z3.0
G0 X13.8381 Y16.773
G1 F300.0 Z-1.0
G2 F800.0 X14.1974 Y16.3796 I-0.0357 J-0.3934
G2 X13.6049 Y16.0375 I-0.395 J0.0
G2 Y16.7217 I0.1975 J0.3421
G2 X13.8381 Y16.773 I0.1975 J-0.3421
G1 F300.0 X13.9103 Y17.5697
G2 F800.0 X14.9974 Y16.3796 I-0.1079 J-1.1901
G2 X13.2049 Y15.3447 I-1.195 J0.0
G2 Y17.4145 I0.5975 J1.0349
G2 X13.9103 Y17.5697 I0.5975 J-1.0349
G1 F300.0 X13.9826 Y18.3665
G2 F800.0 X15.7974 Y16.3796 I-0.1802 J-1.9868
G2 X12.8049 Y14.6519 I-1.995 J0.0
G2 Y18.1074 I0.9975 J1.7277
G2 X13.9826 Y18.3665 I0.9975 J-1.7277
G0 Z3.0
G0 X13.8381 Y16.773
G1 F300.0 Z-2.0
G2 F800.0 X14.1974 Y16.3796 I-0.0357 J-0.3934
G2 X13.6049 Y16.0375 I-0.395 J0.0
G2 Y16.7217 I0.1975 J0.3421
G2 X13.8381 Y16.773 I0.1975 J-0.3421
G1 F300.0 X13.9103 Y17.5697
G2 F800.0 X14.9974 Y16.3796 I-0.1079 J-1.1901
G2 X13.2049 Y15.3447 I-1.195 J0.0
G2 Y17.4145 I0.5975 J1.0349
G2 X13.9103 Y17.5697 I0.5975 J-1.0349
G1 F300.0 X13.9826 Y18.3665
G2 F800.0 X15.7974 Y16.3796 I-0.1802 J-1.9868
G2 X12.8049 Y14.6519 I-1.995 J0.0
G2 Y18.1074 I0.9975 J1.7277
G2 X13.9826 Y18.3665 I0.9975 J-1.7277
G0 Z3.0
G0 X13.8381 Y16.773
G1 F300.0 Z-3.0
G2 F800.0 X14.1974 Y16.3796 I-0.0357 J-0.3934
G2 X13.6049 Y16.0375 I-0.395 J0.0
G2 Y16.7217 I0.1975 J0.3421
G2 X13.8381 Y16.773 I0.1975 J-0.3421
G1 F300.0 X13.9103 Y17.5697
G2 F800.0 X14.9974 Y16.3796 I-0.1079 J-1.1901
G2 X13.2049 Y15.3447 I-1.195 J0.0
G2 Y17.4145 I0.5975 J1.0349
G2 X13.9103 Y17.5697 I0.5975 J-1.0349
G1 F300.0 X13.9826 Y18.3665
G2 F800.0 X15.7974 Y16.3796 I-0.1802 J-1.9868
G2 X12.8049 Y14.6519 I-1.995 J0.0
G2 Y18.1074 I0.9975 J1.7277
G2 X13.9826 Y18.3665 I0.9975 J-1.7277
( Contour2 )
S1000
G0 Z3.0
G0 X4.8024 Y3.3796
G1 F300.0 Z-1.0
G1 F800.0 X16.8024
G3 X17.8024 Y4.3796 I0.0 J1.0
G1 Y23.3796
G3 X16.8024 Y24.3796 I-1.0 J0.0
G1 X11.8024
G1 X11.5095 Y24.0867
G1 X11.8024 Y24.3796
G1 Y30.3796
G1 X11.5095 Y30.6725
G1 X11.8024 Y30.3796
G1 X16.8024
G3 X17.8024 Y31.3796 I0.0 J1.0
G1 Y50.3796
G3 X16.8024 Y51.3796 I-1.0 J0.0
G1 X4.8024
G3 X3.8024 Y50.3796 I0.0 J-1.0
G1 Y4.3796
G3 X4.8024 Y3.3796 I1.0 J0.0
G1 F300.0 Z-2.0
G1 F800.0 X16.8024
G3 X17.8024 Y4.3796 I0.0 J1.0
G1 Y23.3796
G3 X16.8024 Y24.3796 I-1.0 J0.0
G1 X11.8024
G1 X11.5095 Y24.0867
G1 X11.8024 Y24.3796
G1 Y30.3796
G1 X11.5095 Y30.6725
G1 X11.8024 Y30.3796
G1 X16.8024
G3 X17.8024 Y31.3796 I0.0 J1.0
G1 Y50.3796
G3 X16.8024 Y51.3796 I-1.0 J0.0
G1 X4.8024
G3 X3.8024 Y50.3796 I0.0 J-1.0
G1 Y4.3796
G3 X4.8024 Y3.3796 I1.0 J0.0
G1 F300.0 Z-3.0
G1 F800.0 X16.8024
G3 X17.8024 Y4.3796 I0.0 J1.0
G1 Y23.3796
G3 X16.8024 Y24.3796 I-1.0 J0.0
G1 X11.8024
G1 X11.5095 Y24.0867
G1 X11.8024 Y24.3796
G1 Y30.3796
G1 X11.5095 Y30.6725
G1 X11.8024 Y30.3796
G1 X16.8024
G3 X17.8024 Y31.3796 I0.0 J1.0
G1 Y50.3796
G3 X16.8024 Y51.3796 I-1.0 J0.0
G1 X4.8024
G3 X3.8024 Y50.3796 I0.0 J-1.0
G1 Y4.3796
G3 X4.8024 Y3.3796 I1.0 J0.0
G1 F300.0 Z-4.0
G1 F800.0 X16.8024
G3 X17.8024 Y4.3796 I0.0 J1.0
G1 Y23.3796
G3 X16.8024 Y24.3796 I-1.0 J0.0
G1 X11.8024
G1 X11.5095 Y24.0867
G1 X11.8024 Y24.3796
G1 Y30.3796
G1 X11.5095 Y30.6725
G1 X11.8024 Y30.3796
G1 X16.8024
G3 X17.8024 Y31.3796 I0.0 J1.0
G1 Y50.3796
G3 X16.8024 Y51.3796 I-1.0 J0.0
G1 X4.8024
G3 X3.8024 Y50.3796 I0.0 J-1.0
G1 Y4.3796
G3 X4.8024 Y3.3796 I1.0 J0.0
G1 F300.0 Z-5.0
G1 F800.0 X9.0
G0 Z-4.0
G1 X13.0
G1 F300.0 Z-5.0
G1 F800.0 X16.8024
G3 X17.8024 Y4.3796 I0.0 J1.0
G1 Y23.3796
G3 X16.8024 Y24.3796 I-1.0 J0.0
G1 X11.8024
G1 X11.5095 Y24.0867
G1 X11.8024 Y24.3796
G1 Y30.3796
G1 X11.5095 Y30.6725
G1 X11.8024 Y30.3796
G1 X16.8024
G3 X17.8024 Y31.3796 I0.0 J1.0
G1 Y50.3796
G3 X16.8024 Y51.3796 I-1.0 J0.0
G1 X13.0
G0 Z-4.0
G1 X9.0
G1 F300.0 Z-5.0
G1 F800.0 X4.8024
G3 X3.8024 Y50.3796 I0.0 J-1.0
G1 Y4.3796
G3 X4.8024 Y3.3796 I1.0 J0.0
G1 F300.0 Z-6.0
G1 F800.0 X9.0
G0 Z-4.0
G1 X13.0
G1 F300.0 Z-6.0
G1 F800.0 X16.8024
G3 X17.8024 Y4.3796 I0.0 J1.0
G1 Y23.3796
G3 X16.8024 Y24.3796 I-1.0 J0.0
G1 X11.8024
G1 X11.5095 Y24.0867
G1 X11.8024 Y24.3796
G1 Y30.3796
G1 X11.5095 Y30.6725
G1 X11.8024 Y30.3796
G1 X16.8024
G3 X17.8024 Y31.3796 I0.0 J1.0
G1 Y50.3796
G3 X16.8024 Y51.3796 I-1.0 J0.0
G1 X13.0
G0 Z-4.0
G1 X9.0
G1 F300.0 Z-6.0
G1 F800.0 X4.8024
G3 X3.8024 Y50.3796 I0.0 J-1.0
G1 Y4.3796
G3 X4.8024 Y3.3796 I1.0 J0.0
G0 Z3.0
M5
M30
